CHROMATIC.cube
TITLE "Generate by Resolve"
LUT_3D_SIZE 9
0.0049897 0 0
0.0425116 0.0163729 0.0127871
0.0887312 0.0316777 0.0276646
0.146761 0.043946 0.0395056
0.216571 0.0533608 0.0484779
0.298314 0.0600595 0.0547494
0.3897 0.0648814 0.0591287
0.487892 0.0688334 0.0626383
0.594522 0.0716716 0.0650645
0.0554971 0.0820478 0.0408942
0.0990005 0.0991836 0.0526894
0.154665 0.113664 0.0614633
0.226688 0.124544 0.0663767
0.313664 0.132448 0.0681773
0.413809 0.137987 0.067689
0.521065 0.142763 0.0668498
0.629419 0.148425 0.0674601
0.73994 0.15462 0.069337
0.085008 0.179034 0.0631876
0.136736 0.197452 0.0695506
0.204227 0.212772 0.073167
0.291051 0.224002 0.0735943
0.392248 0.232441 0.0725567
0.50312 0.239246 0.0714122
0.615534 0.246326 0.0721294
0.722957 0.255192 0.0761425
0.828229 0.264836 0.0823224
0.0906691 0.298451 0.0612192
0.153246 0.318196 0.0668498
0.232471 0.334234 0.0712291
0.330236 0.345769 0.0736095
0.439033 0.354589 0.0756237
0.553292 0.361959 0.078233
0.664881 0.369863 0.0831159
0.768704 0.379492 0.0907759
0.869627 0.389975 0.100069
0.0940414 0.432227 0.0594644
0.167041 0.450996 0.069749
0.25452 0.465736 0.0786908
0.35787 0.475822 0.0852369
0.469154 0.483452 0.0904402
0.584039 0.490272 0.0961166
0.695125 0.498207 0.103883
0.79855 0.508324 0.113191
0.900359 0.518883 0.121599
0.109514 0.565713 0.0727398
0.187732 0.582406 0.0866712
0.27895 0.595712 0.0989242
0.384588 0.605173 0.108019
0.496986 0.612924 0.114092
0.612558 0.61976 0.117723
0.72517 0.627176 0.120684
0.831281 0.636072 0.122713
0.936889 0.644633 0.122332
0.139498 0.693706 0.101976
0.218387 0.710582 0.115923
0.308415 0.724346 0.125185
0.41265 0.73402 0.128649
0.524392 0.741405 0.126589
0.64094 0.746838 0.121828
0.755169 0.751736 0.119448
0.861463 0.757748 0.119829
0.965316 0.763516 0.119707
0.166781 0.821851 0.127855
0.240604 0.83949 0.133471
0.328466 0.852415 0.135714
0.433875 0.859388 0.135348
0.547799 0.863066 0.13254
0.665431 0.864866 0.127565
0.779629 0.866651 0.123186
0.885237 0.869673 0.122362
0.98735 0.872679 0.123873
0.179568 0.948241 0.138476
0.256123 0.961807 0.144427
0.345541 0.971008 0.145953
0.45156 0.97467 0.14345
0.566629 0.974777 0.140352
0.685222 0.973053 0.137621
0.799222 0.971969 0.136584
0.903563 0.970687 0.161807
0.993988 0.967956 0.239872
0.010956 0.00476081 0.025864
0.0491493 0.0217899 0.0461891
0.0962387 0.0365301 0.0645762
0.155566 0.048127 0.0802167
0.227054 0.0567941 0.0932937
0.31075 0.0626993 0.10399
0.404135 0.0667735 0.113146
0.504051 0.0701152 0.121767
0.611887 0.0725261 0.129473
0.0595407 0.0875868 0.0825208
0.103868 0.104204 0.0991379
0.160647 0.118151 0.112612
0.234257 0.12842 0.122454
0.323003 0.135714 0.129366
0.424628 0.140734 0.134081
0.532891 0.145174 0.138277
0.641489 0.150729 0.143664
0.751659 0.156985 0.149828
0.0868849 0.184588 0.120928
0.139635 0.202609 0.132647
0.208438 0.217472 0.141543
0.296635 0.228244 0.14696
0.398947 0.236332 0.150469
0.510445 0.242893 0.153292
0.62295 0.249851 0.157366
0.730007 0.258701 0.164096
0.834638 0.268391 0.172335
0.0914626 0.304143 0.136004
0.155306 0.323461 0.146166
0.235645 0.339086 0.154391
0.334279 0.350271 0.159899
0.443549 0.358816 0.164355
0.557931 0.365988 0.168795
0.669352 0.373724 0.174899
0.773022 0.383291 0.183368
0.873686 0.393881 0.1935
0.0958267 0.437369 0.146578
0.169665 0.455726 0.159182
0.257725 0.4701 0.169787
0.361303 0.479912 0.177279
0.472816 0.487449 0.183352
0.587777 0.49427 0.189715
0.69894 0.50222 0.197604
0.802655 0.51223 0.206699
0.904814 0.522591 0.215183
0.112306 0.569955 0.165057
0.191028 0.586526 0.179858
0.282551 0.599756 0.19266
0.388144 0.609262 0.201663
0.500481 0.616983 0.207599
0.616129 0.623682 0.211398
0.728939 0.630869 0.21445
0.835492 0.639399 0.216587
0.941054 0.647517 0.217746
0.14258 0.697932 0.195529
0.221073 0.714855 0.209445
0.310887 0.728527 0.218952
0.414801 0.738109 0.222431
0.526467 0.74522 0.220844
0.643305 0.750072 0.217899
0.75758 0.754467 0.216968
0.863828 0.760098 0.217823
0.967636 0.765499 0.218235
0.167208 0.826368 0.221683
0.240818 0.843687 0.228336
0.329397 0.855879 0.232441
0.435096 0.862318 0.233143
0.548943 0.865644 0.230762
0.66659 0.867033 0.226398
0.780804 0.868376 0.223026
0.886275 0.871031 0.223224
0.98819 0.873823 0.225223
0.179751 0.951354 0.236408
0.256092 0.964584 0.242863
0.345571 0.973358 0.245136
0.451987 0.976471 0.243732
0.567315 0.97615 0.241459
0.685908 0.974166 0.239063
0.800137 0.972625 0.240314
0.904372 0.970001 0.278096
0.991714 0.967437 0.363027
0.0166171 0.0104982 0.0583505
0.0556191 0.0269932 0.0822614
0.103578 0.0411536 0.104433
0.164248 0.0520638 0.124117
0.237461 0.059968 0.141573
0.32314 0.065095 0.156954
0.418479 0.0684367 0.171084
0.519997 0.0712139 0.184924
0.628672 0.0732891 0.197833
0.061265 0.0936904 0.126131
0.107897 0.109209 0.148928
0.166445 0.122408 0.167544
0.241642 0.132097 0.182483
0.332097 0.138811 0.194568
0.435142 0.143359 0.204334
0.544228 0.147509 0.213306
0.652995 0.153033 0.223087
0.762722 0.15938 0.233051
0.0877852 0.190433 0.18027
0.142031 0.207797 0.198505
0.212467 0.221988 0.213718
0.301991 0.232334 0.223789
0.405341 0.240131 0.231418
0.517403 0.246479 0.237751
0.629938 0.253361 0.244678
0.736614 0.262226 0.253651
0.84062 0.271946 0.263539
0.0923171 0.309636 0.213962
0.157382 0.328542 0.228367
0.238788 0.343801 0.239948
0.338216 0.35465 0.248112
0.447913 0.362951 0.254566
0.562341 0.36994 0.260456
0.673655 0.377508 0.267414
0.777203 0.387106 0.276661
0.877577 0.397818 0.287373
0.097734 0.442313 0.235447
0.172381 0.460304 0.249928
0.260945 0.474342 0.26183
0.364706 0.483909 0.270054
0.476463 0.491447 0.27689
0.59147 0.498268 0.283711
0.702785 0.506188 0.291569
0.806821 0.516075 0.300649
0.909255 0.526207 0.309392
0.115221 0.574151 0.258091
0.19443 0.5906 0.27361
0.286137 0.6038 0.286671
0.391577 0.613352 0.295583
0.503883 0.621012 0.301595
0.619608 0.627512 0.305684
0.732662 0.634424 0.308904
0.839567 0.642542 0.311635
0.944869 0.650263 0.314488
0.145434 0.702174 0.289433
0.22359 0.719081 0.303532
0.313115 0.732677 0.313329
0.416632 0.742138 0.317037
0.52842 0.748837 0.316472
0.645548 0.753094 0.315206
0.759823 0.757061 0.315267
0.866041 0.76231 0.316594
0.969802 0.76733 0.317601
0.167178 0.830839 0.316472
0.241169 0.847593 0.324712
0.330343 0.859129 0.330266
0.436118 0.865125 0.33164
0.549935 0.86807 0.329763
0.667628 0.869062 0.326085
0.781857 0.869963 0.32372
0.88719 0.872312 0.324651
0.988937 0.874907 0.32694
0.179751 0.954314 0.335088
0.25594 0.967208 0.342123
0.345632 0.975494 0.345235
0.452461 0.978073 0.344778
0.567956 0.977386 0.343038
0.686564 0.975219 0.340841
0.80177 0.97261 0.348119
0.905638 0.969177 0.394202
0.989654 0.967315 0.481758
0.0217136 0.0159152 0.0966354
0.0616312 0.0317388 0.12488
0.110475 0.0452583 0.151614
0.172488 0.0554208 0.176196
0.247395 0.062501 0.198886
0.335012 0.0667887 0.219821
0.432212 0.0693828 0.239765
0.535134 0.0716106 0.25951
0.64448 0.0733654 0.278111
0.0630198 0.098909 0.179614
0.111086 0.11368 0.208011
0.171557 0.126024 0.232685
0.248325 0.135073 0.253529
0.340368 0.141176 0.271412
0.444648 0.145266 0.286625
0.554437 0.149157 0.300633
0.663203 0.15465 0.314839
0.772396 0.161105 0.328542
0.0845197 0.19675 0.249073
0.139803 0.213611 0.273838
0.213733 0.226383 0.297124
0.306462 0.235676 0.312932
0.410727 0.243153 0.324697
0.523247 0.249302 0.334401
0.635767 0.256107 0.34403
0.742031 0.264973 0.355032
0.845365 0.274723 0.366323
0.0904555 0.31545 0.298695
0.157275 0.333639 0.318471
0.240421 0.348074 0.335363
0.341268 0.358175 0.348257
0.451316 0.366232 0.356512
0.565759 0.373053 0.363592
0.676997 0.380468 0.371298
0.780423 0.390143 0.381262
0.880552 0.400977 0.39237
0.0988174 0.446555 0.334646
0.174304 0.464042 0.351766
0.263294 0.477699 0.36524
0.3673 0.487114 0.374212
0.479271 0.494621 0.381674
0.594354 0.501457 0.388739
0.705837 0.509316 0.396612
0.810147 0.51902 0.405936
0.912856 0.528908 0.415152
0.117418 0.577493 0.362325
0.197101 0.593835 0.378531
0.288808 0.60705 0.391699
0.394064 0.616617 0.400687
0.50634 0.62417 0.407034
0.622156 0.630457 0.411582
0.735454 0.637034 0.415351
0.842542 0.644694 0.419364
0.947478 0.652018 0.423926
0.147234 0.705623 0.394598
0.225086 0.722469 0.409155
0.314168 0.735958 0.419425
0.417304 0.745251 0.42385
0.529412 0.7514 0.424903
0.646754 0.755093 0.425086
0.761044 0.758648 0.425925
0.867201 0.7635 0.427863
0.970855 0.768154 0.429679
0.166049 0.834348 0.423758
0.240726 0.850385 0.433768
0.330388 0.861295 0.440574
0.436057 0.866926 0.442573
0.549844 0.86949 0.441337
0.667613 0.870024 0.438544
0.781872 0.870512 0.437095
0.887083 0.872602 0.438514
0.988678 0.875029 0.440986
0.178653 0.956298 0.44625
0.254765 0.968795 0.454032
0.344808 0.976547 0.458106
0.452033 0.978622 0.458412
0.567651 0.977646 0.456992
0.686229 0.975296 0.454887
0.803494 0.971222 0.46949
0.906737 0.967636 0.518273
0.987305 0.967132 0.602396
0.0264591 0.021088 0.138491
0.0672007 0.0362402 0.171481
0.117128 0.0490425 0.203174
0.180499 0.0584268 0.233066
0.25713 0.064683 0.261372
0.346654 0.0681468 0.288167
0.445655 0.0700236 0.314153
0.549798 0.0717327 0.339818
0.659571 0.0732586 0.363912
0.0648356 0.10367 0.238148
0.113863 0.117845 0.272358
0.176242 0.129351 0.30341
0.254658 0.137743 0.330297
0.348165 0.143297 0.353887
0.453635 0.146929 0.374334
0.564004 0.150652 0.393027
0.672663 0.156146 0.411231
0.781292 0.162722 0.428168
0.081529 0.202304 0.326345
0.138567 0.218433 0.357565
0.215427 0.230243 0.386374
0.310582 0.238773 0.407004
0.415702 0.245975 0.4224
0.528618 0.251957 0.435019
0.641077 0.258701 0.44686
0.746914 0.267582 0.459464
0.849592 0.277378 0.471824
0.0848096 0.322133 0.38732
0.152651 0.339925 0.411048
0.236912 0.353857 0.431815
0.341238 0.362463 0.450263
0.454444 0.369314 0.461372
0.568887 0.375967 0.469322
0.680079 0.383307 0.477668
0.783352 0.393088 0.488136
0.883391 0.403983 0.499458
0.0967269 0.452125 0.430335
0.173404 0.469017 0.449516
0.263493 0.481987 0.465476
0.368872 0.4907 0.478019
0.481941 0.497658 0.488655
0.597086 0.504494 0.495857
0.708766 0.512245 0.503944
0.813321 0.521752 0.51371
0.916365 0.531334 0.523537
0.118883 0.581262 0.465171
0.199283 0.597284 0.48304
0.291127 0.6103 0.497871
0.396292 0.61973 0.508141
0.508553 0.627115 0.515007
0.62443 0.633158 0.520195
0.737987 0.639323 0.524895
0.84506 0.64654 0.530495
0.94966 0.653483 0.53637
0.148608 0.709056 0.500832
0.2262 0.725719 0.516777
0.314717 0.739071 0.528298
0.417609 0.748043 0.533944
0.530144 0.753597 0.536599
0.647684 0.756786 0.537896
0.761929 0.75993 0.539361
0.868055 0.764401 0.542016
0.971542 0.768673 0.544671
0.164752 0.837491 0.534066
0.240208 0.852781 0.545892
0.330129 0.863188 0.553674
0.435691 0.868452 0.556298
0.549477 0.870588 0.555825
0.667384 0.870665 0.553872
0.781643 0.870787 0.553063
0.886732 0.872648 0.554772
0.988174 0.874937 0.557305
0.177218 0.957977 0.56022
0.253376 0.970047 0.568856
0.343893 0.977249 0.573739
0.451484 0.978897 0.574548
0.567163 0.977676 0.573297
0.686641 0.974731 0.572671
0.806226 0.969467 0.591409
0.908614 0.966293 0.63798
0.98558 0.967727 0.713619
0.0309606 0.0260777 0.183032
0.0724346 0.040589 0.220951
0.123613 0.0525978 0.257893
0.188403 0.0612039 0.293278
0.266758 0.0666361 0.327352
0.35819 0.0692912 0.360082
0.458885 0.0705119 0.391989
0.563943 0.0718395 0.423209
0.674113 0.0731823 0.452415
0.0665293 0.108217 0.300053
0.116381 0.121843 0.34023
0.180392 0.132616 0.377615
0.260807 0.140261 0.410437
0.355749 0.145312 0.439353
0.462287 0.148608 0.464546
0.573144 0.152209 0.487327
0.681651 0.157763 0.508904
0.789654 0.164508 0.52845
0.0791638 0.207416 0.407553
0.138186 0.222827 0.444511
0.216999 0.234058 0.477867
0.314458 0.241886 0.502724
0.420508 0.248814 0.521172
0.533776 0.254673 0.536095
0.646143 0.261387 0.549661
0.751553 0.270298 0.563409
0.853727 0.280095 0.57644
0.079942 0.328161 0.481178
0.149126 0.34548 0.508492
0.235157 0.35874 0.532418
0.342672 0.366247 0.553155
0.457542 0.372442 0.565576
0.572015 0.378912 0.574105
0.683207 0.386267 0.582986
0.786297 0.396185 0.593729
0.886442 0.40705 0.605203
0.0918593 0.458503 0.525994
0.169085 0.475059 0.546365
0.259449 0.487724 0.563622
0.365515 0.496162 0.578149
0.481941 0.501778 0.592905
0.599939 0.507607 0.601694
0.711818 0.515221 0.610162
0.816587 0.524498 0.620554
0.920058 0.5337 0.631144
0.11725 0.586633 0.56141
0.198184 0.602487 0.579843
0.290364 0.61529 0.595789
0.396368 0.62414 0.608469
0.509804 0.630671 0.619196
0.626688 0.635843 0.628122
0.740475 0.641566 0.634089
0.84744 0.648356 0.641123
0.95172 0.654963 0.64799
0.148363 0.713512 0.601404
0.22594 0.729854 0.619013
0.314366 0.742763 0.633097
0.417792 0.750957 0.642313
0.530953 0.755703 0.647593
0.6486 0.75845 0.649744
0.762814 0.761212 0.65185
0.868879 0.765286 0.655222
0.972152 0.769207 0.658625
0.16321 0.840955 0.640742
0.239582 0.855421 0.654719
0.329747 0.865217 0.66453
0.435294 0.869963 0.668925
0.549142 0.871656 0.669337
0.667216 0.87129 0.66807
0.781476 0.871107 0.667659
0.886458 0.87277 0.669474
0.987289 0.874983 0.672953
0.175662 0.959869 0.671305
0.252171 0.971344 0.68159
0.343252 0.977905 0.687861
0.451087 0.979187 0.689204
0.566796 0.977752 0.687999
0.688991 0.973648 0.68954
0.810498 0.967788 0.707591
0.911757 0.965621 0.747463
0.984909 0.969497 0.81033
0.0354009 0.0310063 0.228229
0.0775616 0.0449073 0.270954
0.130053 0.0561532 0.3131
0.196384 0.0639811 0.353811
0.276539 0.0686198 0.393408
0.369863 0.0705425 0.431678
0.472175 0.0711986 0.46894
0.578073 0.0722362 0.504982
0.688441 0.0735485 0.538384
0.0682383 0.112779 0.362173
0.118975 0.125917 0.408026
0.184497 0.13608 0.451255
0.267079 0.142977 0.489448
0.363409 0.147616 0.522866
0.470985 0.150668 0.551934
0.582269 0.154238 0.57792
0.690562 0.15993 0.602014
0.797971 0.166873 0.623438
0.0777752 0.212482 0.487526
0.138582 0.227329 0.529229
0.218982 0.238193 0.566201
0.318227 0.245533 0.594354
0.425589 0.252125 0.615091
0.539162 0.257908 0.631647
0.651423 0.264607 0.646296
0.75639 0.273579 0.6607
0.858213 0.28333 0.674159
0.0766461 0.334112 0.571954
0.147372 0.350927 0.601907
0.235386 0.363531 0.628
0.344701 0.370459 0.649683
0.461021 0.376089 0.663005
0.575616 0.382376 0.671946
0.686809 0.389822 0.681163
0.789761 0.399832 0.691997
0.890181 0.410605 0.703716
0.0884565 0.464668 0.619257
0.166323 0.480827 0.640711
0.257343 0.493141 0.659236
0.364736 0.501167 0.675166
0.483955 0.505913 0.690852
0.603372 0.511238 0.700343
0.715434 0.518669 0.709361
0.820432 0.527687 0.720409
0.924437 0.536446 0.731975
0.114427 0.59295 0.651682
0.195315 0.60882 0.670512
0.28716 0.621607 0.687236
0.393057 0.630274 0.701259
0.506752 0.636332 0.71426
0.627283 0.639689 0.72842
0.743389 0.644221 0.736645
0.850172 0.650629 0.74464
0.954253 0.656886 0.752163
0.145739 0.719631 0.691768
0.222889 0.735836 0.710338
0.310994 0.748455 0.725902
0.415442 0.75584 0.737072
0.530068 0.759533 0.745129
0.649058 0.76112 0.751339
0.764187 0.762936 0.756832
0.870192 0.766644 0.76083
0.973205 0.77026 0.764767
0.160449 0.845747 0.736461
0.237736 0.859464 0.751766
0.328283 0.868635 0.763195
0.434516 0.872618 0.76994
0.549203 0.873411 0.77351
0.667659 0.872404 0.774289
0.781903 0.871946 0.774075
0.886763 0.873457 0.775876
0.986297 0.875822 0.780301
0.173526 0.962905 0.771374
0.250828 0.973663 0.783032
0.342824 0.979507 0.790784
0.451209 0.980209 0.793957
0.567147 0.978393 0.794171
0.693919 0.972747 0.796399
0.816892 0.966842 0.809934
0.91664 0.96611 0.839857
0.985672 0.972793 0.887404
0.0398871 0.0359655 0.272694
0.0827802 0.0492866 0.319982
0.136553 0.0598154 0.366979
0.204623 0.0668803 0.412665
0.286595 0.0708171 0.457237
0.381826 0.0720989 0.500374
0.485664 0.0722972 0.542123
0.592279 0.0731975 0.581979
0.702754 0.0746166 0.618585
0.0701762 0.11754 0.4224
0.121859 0.13022 0.473411
0.188891 0.139879 0.521691
0.273579 0.146181 0.564202
0.371389 0.150454 0.601221
0.479942 0.153384 0.633188
0.591608 0.157 0.661402
0.699687 0.16286 0.687144
0.8065 0.170047 0.709728
0.0773175 0.217823 0.563149
0.139849 0.232258 0.608454
0.221668 0.242863 0.648066
0.322408 0.249882 0.678447
0.431205 0.256123 0.70074
0.545083 0.261875 0.718242
0.657221 0.26862 0.733425
0.761761 0.277623 0.748058
0.86331 0.287327 0.761761
0.0751202 0.340291 0.655589
0.147448 0.35668 0.687282
0.237201 0.36875 0.714595
0.347631 0.375326 0.736538
0.464836 0.38056 0.750408
0.579965 0.386633 0.75964
0.691127 0.394202 0.768902
0.794064 0.404257 0.779782
0.894865 0.414878 0.791913
0.0871748 0.470939 0.704387
0.165576 0.486748 0.726513
0.257435 0.498833 0.7458
0.366323 0.506432 0.762493
0.486931 0.510765 0.778378
0.607599 0.515602 0.788724
0.71986 0.52282 0.798352
0.825116 0.531548 0.810132
0.929717 0.539803 0.822843
0.113237 0.599451 0.734997
0.193957 0.615305 0.754574
0.285664 0.627955 0.772503
0.391821 0.636286 0.788067
0.506294 0.641733 0.803143
0.62945 0.64387 0.819318
0.746944 0.647562 0.828885
0.853574 0.65362 0.837446
0.957565 0.659525 0.845426
0.142733 0.726604 0.773724
0.219059 0.742748 0.793332
0.30663 0.755138 0.810239
0.411627 0.761944 0.822507
0.526589 0.765072 0.831769
0.645884 0.766018 0.840131
0.765194 0.765774 0.850416
0.872251 0.76875 0.855238
0.97499 0.772091 0.859403
0.156817 0.851835 0.82031
0.234424 0.865064 0.836072
0.324956 0.873854 0.848066
0.431556 0.877302 0.855604
0.547127 0.877394 0.860258
0.666911 0.875486 0.863188
0.782406 0.874067 0.866438
0.887953 0.874983 0.870481
0.985656 0.877867 0.873884
0.170611 0.967376 0.857847
0.248737 0.977493 0.87013
0.341573 0.982757 0.878584
0.450721 0.98291 0.882811
0.569406 0.97995 0.884718
0.701625 0.972595 0.886839
0.825711 0.966918 0.894362
0.923476 0.967971 0.91249
0.988006 0.977707 0.943816
0.0443122 0.0408789 0.3178
0.0879835 0.0536355 0.369589
0.143023 0.063508 0.421332
0.212955 0.06981 0.471794
0.296788 0.0730755 0.521035
0.393896 0.0738079 0.568597
0.499001 0.0737011 0.614023
0.606332 0.0745098 0.657099
0.716823 0.0761425 0.696178
0.0721599 0.122347 0.482811
0.12488 0.134646 0.538643
0.193393 0.143847 0.591394
0.280049 0.14963 0.637583
0.379461 0.153597 0.67744
0.488945 0.156497 0.711543
0.6009 0.160204 0.741283
0.708736 0.166278 0.768078
0.814969 0.173739 0.791287
0.0773785 0.223285 0.63714
0.141543 0.237415 0.685252
0.22475 0.247822 0.726787
0.326833 0.254597 0.758679
0.437064 0.260533 0.78201
0.551186 0.266285 0.799954
0.663188 0.27306 0.815305
0.767407 0.282078 0.829953
0.868711 0.291798 0.843778
0.0747539 0.346563 0.735485
0.148623 0.362554 0.768307
0.239857 0.374197 0.796185
0.351049 0.38056 0.818006
0.468833 0.385458 0.832227
0.584741 0.391363 0.841657
0.695857 0.399039 0.850813
0.798901 0.409079 0.86186
0.90013 0.419486 0.874571
0.0870832 0.477287 0.784726
0.166033 0.49279 0.80734
0.258885 0.504662 0.8271
0.3691 0.511894 0.844175
0.490425 0.515999 0.860273
0.611994 0.520439 0.87158
0.724697 0.527337 0.881849
0.830289 0.535698 0.89456
0.935515 0.54342 0.908583
0.113237 0.605997 0.814282
0.193713 0.62182 0.834684
0.285344 0.634318 0.853681
0.391791 0.642298 0.870527
0.507301 0.647059 0.887495
0.632013 0.648356 0.905013
0.75079 0.651255 0.915511
0.857282 0.656977 0.924361
0.961257 0.662501 0.932784
0.140139 0.733669 0.85275
0.215549 0.749722 0.873854
0.303212 0.761669 0.892241
0.408957 0.767788 0.905669
0.524498 0.770275 0.916365
0.644739 0.770413 0.926543
0.766476 0.768994 0.937942
0.874662 0.771221 0.943435
0.977157 0.77435 0.947616
0.153002 0.858289 0.899641
0.230549 0.871153 0.915877
0.320867 0.879606 0.928435
0.427512 0.882658 0.936538
0.543374 0.882277 0.941756
0.663325 0.879942 0.945541
0.779232 0.878019 0.950545
0.88925 0.877104 0.957977
0.985107 0.880858 0.957198
0.166857 0.972641 0.937514
0.24567 0.982238 0.949859
0.338933 0.987121 0.958282
0.448356 0.987015 0.962509
0.572168 0.982513 0.963195
0.709468 0.974014 0.960769
0.835279 0.968536 0.960967
0.931624 0.97116 0.967956
0.991699 0.983948 0.982986
