CHROMATIC.cube
TITLE "Generate by Resolve"
LUT_3D_SIZE 33
0.0049897 0 0
0.0136263 0.0034638 0.000198367
0.022797 0.0078584 0.00450141
0.0324254 0.0121767 0.00869764
0.0425116 0.0163729 0.0127871
0.0531319 0.0204471 0.0167544
0.064332 0.0243687 0.0205692
0.0761883 0.0281071 0.0242008
0.0887312 0.0316777 0.0276646
0.102052 0.03505 0.03093
0.116167 0.0382086 0.0339818
0.131075 0.0411688 0.0368353
0.146761 0.043946 0.0395056
0.163195 0.04654 0.0419776
0.180301 0.0489662 0.0443122
0.198047 0.0512551 0.046479
0.216571 0.0533608 0.0484779
0.235889 0.0552834 0.0502937
0.25597 0.057023 0.0519265
0.276799 0.0586099 0.0534066
0.298314 0.0600595 0.0547494
0.320424 0.061387 0.0559548
0.343069 0.0626078 0.057084
0.366171 0.0637827 0.0581369
0.3897 0.0648814 0.0591287
0.413642 0.065919 0.0600595
0.437949 0.0669413 0.0609751
0.462684 0.0679179 0.0618296
0.487892 0.0688334 0.0626383
0.513619 0.0696727 0.0633707
0.539925 0.0704509 0.0640269
0.566903 0.071107 0.0645914
0.594522 0.0716716 0.0650645
0.0188144 0.0189517 0.00848402
0.0278172 0.0234684 0.0126345
0.0373083 0.027863 0.0166781
0.0472725 0.0321508 0.0205692
0.0577554 0.0363012 0.0243381
0.0688029 0.0402991 0.0279545
0.0804761 0.0441444 0.0314183
0.0928664 0.0478218 0.0346685
0.10602 0.0512856 0.0377356
0.120012 0.054551 0.040589
0.134874 0.0576028 0.0432288
0.150622 0.060441 0.0456397
0.167193 0.0630808 0.0478523
0.184558 0.0655375 0.0498665
0.20267 0.0678264 0.0517128
0.221454 0.0699779 0.0534066
0.241032 0.0719463 0.0549172
0.261479 0.0737163 0.0562295
0.28275 0.0753338 0.0573892
0.304753 0.0767834 0.0583658
0.327474 0.0780957 0.059205
0.35079 0.0793164 0.0599374
0.37464 0.0804456 0.0605936
0.398901 0.081529 0.0611887
0.42356 0.0825818 0.0617533
0.4486 0.0836042 0.0622873
0.47393 0.0846113 0.0628061
0.499626 0.0856184 0.0633249
0.525689 0.0865797 0.0638132
0.552193 0.0875105 0.0642557
0.579187 0.0883803 0.0646525
0.60676 0.0891737 0.0649882
0.634699 0.0899367 0.0653086
0.0320897 0.0394141 0.0204471
0.0413672 0.0439155 0.0242924
0.0511788 0.0482795 0.0280156
0.0615244 0.0525216 0.0315862
0.0724193 0.056611 0.0350042
0.0839246 0.0605631 0.0382696
0.0961318 0.0643473 0.0413519
0.109117 0.0679484 0.0442359
0.122942 0.0713359 0.0469062
0.137682 0.0745251 0.0493477
0.153368 0.0774701 0.051545
0.170001 0.0802014 0.0535134
0.187533 0.0827344 0.0552682
0.205921 0.085069 0.0568246
0.225086 0.0872358 0.0581979
0.244953 0.0892653 0.0594339
0.265675 0.0911269 0.0604715
0.287297 0.0927901 0.061326
0.309743 0.0943008 0.0619974
0.332967 0.0956436 0.0625162
0.356878 0.0968795 0.0629282
0.381399 0.098024 0.0632334
0.406394 0.0991226 0.0634775
0.431769 0.100191 0.0637064
0.457465 0.101244 0.0639353
0.483421 0.102296 0.0641489
0.50959 0.103365 0.0644083
0.536004 0.104448 0.0646677
0.56257 0.105562 0.0650034
0.589548 0.106645 0.0653086
0.616907 0.107698 0.0656138
0.644694 0.108705 0.0658732
0.672953 0.109667 0.0661173
0.0443885 0.0603952 0.0313115
0.0539559 0.0648814 0.0348516
0.0641337 0.0692302 0.0382239
0.074876 0.0734417 0.0414588
0.0862287 0.0775158 0.0445258
0.0982528 0.0814374 0.0474098
0.111025 0.0851759 0.0501259
0.124666 0.0887312 0.0526131
0.139223 0.0920729 0.0548714
0.154757 0.0951705 0.0568856
0.171328 0.0980545 0.0586557
0.188891 0.10071 0.0601968
0.207462 0.103136 0.0614786
0.226902 0.105394 0.0625925
0.247166 0.107469 0.063508
0.268147 0.109422 0.0643015
0.289998 0.111208 0.0648966
0.312779 0.112795 0.0653239
0.336416 0.114244 0.0655833
0.360815 0.115557 0.0657054
0.385885 0.116762 0.0657359
0.41149 0.117891 0.0656901
0.437507 0.11899 0.0656291
0.463798 0.120089 0.065568
0.490318 0.121202 0.0655375
0.516869 0.122377 0.0656291
0.543587 0.123583 0.0657359
0.570413 0.124834 0.065919
0.597406 0.126116 0.0661479
0.624613 0.127413 0.0664378
0.652125 0.128695 0.0667582
0.679988 0.129961 0.0670787
0.708217 0.131197 0.0674144
0.0554971 0.0820478 0.0408942
0.0654154 0.0865339 0.0440986
0.0759747 0.0908827 0.0471199
0.0871595 0.0951095 0.0499886
0.0990005 0.0991836 0.0526894
0.111589 0.10309 0.0552071
0.125002 0.106828 0.0575265
0.13933 0.110353 0.059617
0.154665 0.113664 0.0614633
0.171054 0.116732 0.0630655
0.18854 0.11957 0.0644083
0.207095 0.122164 0.065507
0.226688 0.124544 0.0663767
0.247211 0.126741 0.0670634
0.268574 0.128786 0.0675669
0.290669 0.130694 0.0679637
0.313664 0.132448 0.0681773
0.33756 0.13402 0.0682383
0.362295 0.135454 0.0681468
0.387747 0.136767 0.0679637
0.413809 0.137987 0.067689
0.440299 0.139147 0.0673991
0.467033 0.140337 0.0671702
0.493996 0.141527 0.0669718
0.521065 0.142763 0.0668498
0.54815 0.144076 0.0668345
0.575219 0.145464 0.0669261
0.602289 0.146914 0.0671397
0.629419 0.148425 0.0674601
0.656687 0.149981 0.0678569
0.684153 0.151537 0.0683146
0.71191 0.153094 0.0688029
0.73994 0.15462 0.069337
0.0652781 0.104524 0.0490272
0.0755627 0.109071 0.0518807
0.0865492 0.113466 0.054551
0.0982071 0.117708 0.0570535
0.110597 0.121813 0.0593729
0.123781 0.12575 0.0615244
0.13785 0.129503 0.063447
0.152926 0.133028 0.065156
0.16907 0.136339 0.0666056
0.186328 0.139406 0.0678111
0.204761 0.142229 0.0687419
0.224338 0.144808 0.0694438
0.244984 0.147173 0.0699474
0.266575 0.149371 0.0702525
0.289006 0.1514 0.0704051
0.312169 0.153323 0.0704662
0.336172 0.155077 0.0703746
0.361074 0.156664 0.0701457
0.386679 0.158129 0.0698558
0.412985 0.159487 0.0694743
0.439811 0.160769 0.0690471
0.467018 0.16202 0.0686503
0.494408 0.163302 0.0683146
0.521859 0.16463 0.0680858
0.54931 0.166033 0.0679789
0.576684 0.167544 0.0680247
0.603922 0.169146 0.0682383
0.631067 0.17084 0.0685893
0.658183 0.17261 0.0690776
0.685328 0.174426 0.0696727
0.712596 0.176257 0.0703593
0.740078 0.178073 0.0710918
0.767773 0.179873 0.07187
0.0735332 0.128069 0.0555276
0.0842298 0.132677 0.0580301
0.0956588 0.137133 0.0603342
0.107851 0.141451 0.0624704
0.120821 0.145602 0.0644236
0.13463 0.149599 0.0662089
0.149416 0.153399 0.0677653
0.165255 0.15697 0.0691081
0.182239 0.160327 0.0702068
0.200397 0.163424 0.0710613
0.219806 0.166262 0.0716564
0.24036 0.168872 0.0720226
0.262013 0.171252 0.0721904
0.284611 0.173449 0.0722057
0.308019 0.175494 0.0720836
0.332052 0.177447 0.0719615
0.356939 0.179248 0.0716869
0.38265 0.18088 0.0713054
0.409094 0.182406 0.0708782
0.436103 0.183841 0.0704051
0.463554 0.185214 0.0699474
0.491295 0.186603 0.0695506
0.519127 0.188022 0.0692607
0.546914 0.189532 0.0691234
0.574594 0.191135 0.0691539
0.60209 0.192828 0.0693675
0.629343 0.194659 0.0697642
0.656397 0.196582 0.0703441
0.683345 0.198581 0.0710613
0.710246 0.200641 0.0719158
0.737224 0.202701 0.0728771
0.76434 0.204761 0.0738842
0.791638 0.206806 0.0749523
0.0801251 0.15285 0.0602579
0.091249 0.157565 0.0623941
0.103197 0.162112 0.0643626
0.115938 0.166522 0.0661631
0.129534 0.170779 0.0677806
0.14403 0.174853 0.0692302
0.159548 0.178729 0.0704967
0.176181 0.182391 0.071519
0.193988 0.185794 0.0723278
0.213046 0.188937 0.0728771
0.233356 0.191806 0.0732128
0.254856 0.194446 0.0733501
0.277409 0.196857 0.0733196
0.300893 0.199084 0.0731518
0.32517 0.201175 0.0729076
0.350027 0.203174 0.0726329
0.375677 0.205035 0.0722972
0.40209 0.206744 0.0718853
0.42916 0.208362 0.0714427
0.456748 0.209903 0.0710155
0.484688 0.211414 0.0706493
0.51281 0.21294 0.0703746
0.540932 0.214511 0.0702373
0.568902 0.216175 0.0702678
0.596658 0.21796 0.0705119
0.62414 0.219852 0.0709392
0.651286 0.221866 0.0715801
0.678172 0.223987 0.0724193
0.704875 0.226184 0.0734264
0.731472 0.228443 0.0745556
0.758083 0.230716 0.0757763
0.784817 0.232975 0.0770886
0.811688 0.235218 0.0784466
0.085008 0.179034 0.0631876
0.0966201 0.183886 0.0650187
0.109117 0.188571 0.0666819
0.122484 0.193088 0.0681926
0.136736 0.197452 0.0695506
0.151919 0.201633 0.0707256
0.16817 0.2056 0.0717327
0.185595 0.209323 0.0725414
0.204227 0.212772 0.073167
0.224125 0.215976 0.0735485
0.245289 0.218891 0.0737316
0.267643 0.221546 0.0737316
0.291051 0.224002 0.0735943
0.315358 0.226276 0.0733806
0.340383 0.228428 0.073106
0.365957 0.230503 0.0728466
0.392248 0.232441 0.0725567
0.419257 0.234257 0.0722362
0.446845 0.235966 0.0719005
0.474845 0.237613 0.0716106
0.50312 0.239246 0.0714122
0.531487 0.240879 0.0713054
0.559762 0.242588 0.0713817
0.587793 0.244404 0.0716411
0.615534 0.246326 0.0721294
0.642908 0.248371 0.0728313
0.669902 0.250538 0.0737469
0.696544 0.252827 0.0748608
0.722957 0.255192 0.0761425
0.749233 0.257603 0.0775769
0.775479 0.260044 0.0790875
0.801801 0.262455 0.0806897
0.828229 0.264836 0.0823224
0.0882277 0.206775 0.0644083
0.100374 0.211765 0.0659953
0.113481 0.216571 0.0674144
0.127474 0.22121 0.0687114
0.142397 0.225666 0.0698558
0.158328 0.229923 0.0709239
0.175326 0.233967 0.071809
0.193515 0.237736 0.0724956
0.21294 0.24126 0.0730144
0.233631 0.244495 0.0733501
0.255619 0.247456 0.0734874
0.278767 0.250172 0.0734874
0.302937 0.252674 0.0733806
0.327977 0.255009 0.0732128
0.353674 0.257221 0.0730297
0.379843 0.259358 0.0728923
0.406653 0.261372 0.072755
0.434104 0.263264 0.0725872
0.462074 0.265049 0.0724346
0.490379 0.266773 0.072343
0.518883 0.268498 0.0723583
0.547402 0.270237 0.0724956
0.575738 0.272038 0.0728161
0.603754 0.27396 0.0733349
0.631403 0.27599 0.0740978
0.658625 0.278157 0.0750591
0.685405 0.280446 0.0762646
0.711803 0.282856 0.0776684
0.737896 0.285328 0.0792401
0.763821 0.287861 0.0809491
0.789685 0.29041 0.0827344
0.81561 0.292927 0.084596
0.841611 0.295399 0.0865034
0.0899367 0.236057 0.0641337
0.102708 0.241138 0.0655985
0.116472 0.246052 0.0669108
0.131167 0.250767 0.0681163
0.146792 0.255299 0.0692149
0.163439 0.259632 0.0701915
0.18117 0.263737 0.0710613
0.200122 0.267567 0.0717632
0.220325 0.271138 0.0723125
0.241779 0.274434 0.0727092
0.264515 0.27744 0.0729381
0.288396 0.280186 0.0730449
0.313252 0.282719 0.0730755
0.338903 0.2851 0.0730449
0.365164 0.287343 0.0730297
0.391806 0.289525 0.0730907
0.419028 0.291585 0.0731365
0.44683 0.293507 0.0731823
0.475074 0.295354 0.0732738
0.503594 0.297139 0.0734264
0.532235 0.298909 0.0736706
0.5608 0.30071 0.0740673
0.589151 0.302586 0.0746624
0.617105 0.30457 0.0754559
0.644617 0.306691 0.0764782
0.671656 0.308919 0.0777295
0.698207 0.311299 0.0792096
0.724315 0.313771 0.0808881
0.750118 0.31632 0.0827192
0.775677 0.318929 0.0846876
0.80116 0.321523 0.0867475
0.826688 0.324102 0.088838
0.852338 0.326604 0.0909285
0.0906081 0.266667 0.0629129
0.104036 0.271855 0.0643168
0.118486 0.276829 0.0656291
0.133883 0.281621 0.0668498
0.150256 0.286213 0.0680095
0.16762 0.290608 0.0690776
0.186114 0.294759 0.0700389
0.205798 0.298634 0.0708782
0.226719 0.302235 0.0715801
0.24889 0.305547 0.0721294
0.272297 0.308553 0.0725261
0.296803 0.311315 0.0728161
0.32224 0.313863 0.0730449
0.348424 0.316228 0.073228
0.375128 0.318486 0.0734417
0.402152 0.320684 0.0737163
0.429694 0.322759 0.0740215
0.457755 0.324697 0.0743114
0.486198 0.326558 0.0746471
0.514855 0.328374 0.0750591
0.543572 0.330159 0.0755932
0.572152 0.332006 0.0762493
0.600443 0.333913 0.0771038
0.628275 0.335927 0.0781567
0.655634 0.338079 0.079469
0.682475 0.340352 0.0809644
0.708751 0.342763 0.0827039
0.734569 0.345266 0.0846418
0.760067 0.347845 0.0867018
0.785397 0.350439 0.0888075
0.810681 0.353002 0.0909438
0.836027 0.35555 0.0930648
0.861524 0.358053 0.0952163
0.0906691 0.298451 0.0612192
0.104799 0.303716 0.0627146
0.119997 0.308736 0.0641489
0.136141 0.313573 0.0655222
0.153246 0.318196 0.0668498
0.171344 0.322606 0.068101
0.190524 0.326772 0.069276
0.210895 0.330648 0.0703136
0.232471 0.334234 0.0712291
0.255268 0.33753 0.0720073
0.279255 0.34052 0.0726329
0.304311 0.343252 0.0731518
0.330236 0.345769 0.0736095
0.356847 0.348119 0.074052
0.383917 0.350347 0.0745251
0.411246 0.352529 0.0750591
0.439033 0.354589 0.0756237
0.467277 0.356527 0.0761883
0.495842 0.358373 0.0767834
0.524575 0.360174 0.0774548
0.553292 0.361959 0.078233
0.581842 0.36379 0.0791485
0.61004 0.365698 0.0802625
0.637736 0.367712 0.08159
0.664881 0.369863 0.0831159
0.691539 0.372122 0.0848402
0.717647 0.374487 0.0866865
0.743328 0.376959 0.0886702
0.768704 0.379492 0.0907759
0.793896 0.382101 0.0929885
0.819059 0.384741 0.0952926
0.844297 0.387366 0.0976577
0.869627 0.389975 0.100069
0.0906844 0.331197 0.0596475
0.105577 0.336477 0.0613718
0.121508 0.341512 0.0630198
0.138369 0.346334 0.0646372
0.156176 0.350942 0.0661936
0.174945 0.355322 0.0677043
0.194766 0.359457 0.0691386
0.215763 0.363302 0.0704356
0.237919 0.366842 0.0716106
0.26125 0.370077 0.0726482
0.285756 0.373022 0.0735485
0.311269 0.375692 0.074342
0.337591 0.378164 0.0750591
0.364553 0.380468 0.075761
0.391897 0.38265 0.0764935
0.419455 0.384771 0.0773022
0.44741 0.386801 0.0781262
0.475776 0.388693 0.0789502
0.504402 0.390494 0.0798047
0.533135 0.392248 0.0807355
0.561822 0.394003 0.0817578
0.59028 0.395789 0.0829175
0.618372 0.39765 0.084184
0.645991 0.399619 0.0855879
0.673075 0.401694 0.0871595
0.699641 0.403922 0.0889296
0.725689 0.406302 0.0909133
0.751293 0.408835 0.0931106
0.776577 0.41146 0.0954604
0.801648 0.414145 0.0979477
0.826642 0.416861 0.100542
0.851682 0.419577 0.103197
0.876844 0.422263 0.105867
0.0911574 0.364569 0.0587472
0.106767 0.369802 0.0607462
0.123415 0.374792 0.0626841
0.140963 0.379568 0.0645762
0.159396 0.384131 0.066453
0.17879 0.388449 0.0682536
0.199191 0.392508 0.0699626
0.220722 0.396277 0.0715648
0.243381 0.399741 0.0730297
0.267185 0.402899 0.074342
0.292103 0.405768 0.0755169
0.317983 0.408362 0.076585
0.34464 0.410742 0.0775769
0.371847 0.41297 0.0785382
0.399405 0.415076 0.07953
0.427115 0.417136 0.0805982
0.455161 0.419089 0.0816815
0.483574 0.420905 0.0827497
0.512215 0.422629 0.0838178
0.540948 0.424323 0.0848707
0.569604 0.425986 0.0859541
0.598032 0.42771 0.0871443
0.626123 0.429526 0.0885023
0.653712 0.43151 0.0900587
0.680797 0.433646 0.0918593
0.707317 0.435935 0.0938888
0.733288 0.438392 0.0961624
0.75877 0.440986 0.0986343
0.783917 0.443671 0.101259
0.808865 0.446418 0.10399
0.833768 0.449195 0.106737
0.858793 0.451926 0.109453
0.884016 0.454627 0.112047
0.0922866 0.398291 0.0586862
0.108583 0.403464 0.0610056
0.125872 0.408362 0.0632792
0.14403 0.413062 0.0654917
0.163058 0.417517 0.0676738
0.182971 0.421744 0.0697795
0.203876 0.425711 0.071809
0.225864 0.429374 0.0737011
0.248951 0.432746 0.0754559
0.273136 0.435798 0.0770581
0.298375 0.43856 0.0785077
0.324544 0.441062 0.0798199
0.351431 0.443336 0.0810864
0.378836 0.445457 0.0823072
0.406531 0.447456 0.0835431
0.434318 0.449424 0.0847944
0.462394 0.45127 0.0859541
0.490837 0.452995 0.0870832
0.519509 0.454658 0.0881819
0.548272 0.456306 0.0893568
0.576974 0.458 0.0906233
0.605463 0.459754 0.0920424
0.633555 0.461616 0.0936751
0.661128 0.463645 0.0955215
0.688136 0.465827 0.0975967
0.71458 0.468177 0.0999008
0.740475 0.47068 0.102373
0.765911 0.473289 0.104982
0.791074 0.476005 0.107622
0.816129 0.478752 0.110246
0.841184 0.481483 0.112795
0.866453 0.484184 0.115206
0.891951 0.486809 0.117479
0.0940414 0.432227 0.0594644
0.110933 0.437278 0.0621195
0.128817 0.442084 0.0647135
0.147509 0.446647 0.0672618
0.167041 0.450996 0.069749
0.187411 0.4551 0.0721752
0.208743 0.458946 0.0744945
0.231113 0.462486 0.0766766
0.25452 0.465736 0.0786908
0.278996 0.468666 0.0805676
0.304479 0.47129 0.0822766
0.330846 0.473655 0.0838331
0.35787 0.475822 0.0852369
0.385367 0.477836 0.0865339
0.413108 0.479744 0.0878004
0.44097 0.481621 0.0891127
0.469154 0.483452 0.0904402
0.497704 0.485176 0.0917525
0.526467 0.48687 0.0931106
0.555291 0.488548 0.0945449
0.584039 0.490272 0.0961166
0.612512 0.492058 0.0978103
0.640574 0.49395 0.0996719
0.668116 0.49601 0.101717
0.695125 0.498207 0.103883
0.721614 0.500557 0.106157
0.747585 0.503059 0.108492
0.77319 0.505653 0.110842
0.79855 0.508324 0.113191
0.823819 0.511025 0.115465
0.849119 0.51371 0.117632
0.874632 0.51632 0.119692
0.900359 0.518883 0.121599
0.0965744 0.466133 0.0612192
0.114015 0.471046 0.06421
0.132387 0.475715 0.0671244
0.151537 0.48014 0.0699779
0.171481 0.484337 0.0727703
0.192233 0.488304 0.0754711
0.213886 0.491997 0.0780804
0.236545 0.495399 0.0805219
0.260197 0.498497 0.0827497
0.284825 0.501305 0.0847486
0.31043 0.503807 0.0865187
0.336889 0.506065 0.0881056
0.364034 0.508171 0.0896162
0.391669 0.51014 0.0910811
0.419577 0.512062 0.0925765
0.447578 0.513954 0.0941482
0.475883 0.515785 0.0957504
0.504509 0.51754 0.0973373
0.533318 0.519234 0.09897
0.562173 0.520928 0.100649
0.590921 0.522652 0.102358
0.619425 0.524453 0.104097
0.647532 0.52636 0.105898
0.675166 0.52842 0.107759
0.702296 0.530617 0.109651
0.728939 0.532937 0.111589
0.755093 0.535393 0.113558
0.78088 0.537957 0.115557
0.806439 0.540551 0.117525
0.831876 0.543191 0.119432
0.857374 0.5458 0.121263
0.883055 0.548333 0.122988
0.908949 0.55079 0.124559
0.100023 0.499794 0.0640574
0.117891 0.504555 0.0673381
0.13669 0.509041 0.0705577
0.156222 0.513313 0.0737163
0.176486 0.517342 0.0767681
0.197498 0.521157 0.0796674
0.219318 0.524712 0.0823682
0.242084 0.527993 0.0848707
0.265858 0.530999 0.0871595
0.290654 0.53373 0.0892958
0.316457 0.536217 0.091249
0.343114 0.538476 0.09308
0.370459 0.540566 0.0948501
0.39826 0.542535 0.0966049
0.426307 0.544442 0.0983749
0.454383 0.546334 0.100206
0.48275 0.548165 0.102022
0.511421 0.54992 0.103731
0.540276 0.551629 0.105379
0.569146 0.553338 0.10692
0.597955 0.555077 0.108415
0.626551 0.556863 0.109865
0.654765 0.55877 0.11133
0.682521 0.5608 0.11281
0.709789 0.562951 0.114336
0.736584 0.565225 0.115908
0.762875 0.56762 0.11751
0.7888 0.570108 0.119158
0.814496 0.572641 0.120806
0.840085 0.575189 0.122377
0.865736 0.577691 0.123812
0.89163 0.580118 0.125032
0.917845 0.582437 0.12604
0.104417 0.533013 0.0680095
0.122652 0.537591 0.0715648
0.141695 0.541924 0.0749523
0.161395 0.546059 0.0781872
0.181796 0.549966 0.0813001
0.202945 0.553689 0.0842908
0.224979 0.557183 0.0871595
0.24799 0.560433 0.0898604
0.272007 0.563424 0.0924239
0.297032 0.56614 0.0948196
0.323033 0.568597 0.0970779
0.349874 0.570825 0.0991836
0.37734 0.5729 0.101198
0.405234 0.574868 0.103136
0.433341 0.576776 0.104982
0.461448 0.578683 0.106783
0.48983 0.58053 0.108431
0.518517 0.5823 0.109895
0.547387 0.584024 0.111223
0.576333 0.585733 0.112413
0.605203 0.587457 0.113527
0.633875 0.589242 0.114611
0.662211 0.591089 0.115694
0.690074 0.593072 0.116823
0.717449 0.595163 0.118013
0.744335 0.59736 0.119249
0.770764 0.59968 0.120516
0.796826 0.602075 0.121721
0.822705 0.604517 0.122835
0.848539 0.606928 0.123781
0.874479 0.609308 0.124498
0.900725 0.611566 0.124956
0.927337 0.613718 0.125078
0.109514 0.565713 0.0727398
0.127901 0.570184 0.0763867
0.147127 0.574441 0.079881
0.167071 0.578515 0.0833143
0.187732 0.582406 0.0866712
0.209171 0.586099 0.0899367
0.231464 0.589563 0.0930953
0.254719 0.592767 0.0960861
0.27895 0.595712 0.0989242
0.304128 0.598398 0.101549
0.330251 0.600839 0.103944
0.357137 0.603082 0.106096
0.384588 0.605173 0.108019
0.412451 0.607172 0.109758
0.440528 0.60911 0.111345
0.46862 0.611048 0.11281
0.496986 0.612924 0.114092
0.525689 0.614694 0.115175
0.554604 0.616403 0.116136
0.583597 0.618082 0.11696
0.612558 0.61976 0.117723
0.641306 0.621469 0.118471
0.669718 0.62327 0.119219
0.697673 0.625162 0.119966
0.72517 0.627176 0.120684
0.752209 0.629282 0.121355
0.77882 0.631495 0.12195
0.805142 0.633768 0.122408
0.831281 0.636072 0.122713
0.85742 0.638346 0.122789
0.883696 0.640558 0.122713
0.910185 0.642649 0.122545
0.936889 0.644633 0.122332
0.115343 0.598108 0.0783093
0.134035 0.602548 0.0822003
0.153582 0.606744 0.0859846
0.173831 0.610773 0.0897231
0.194766 0.614603 0.0933547
0.216434 0.61825 0.0968948
0.238895 0.621683 0.100252
0.262242 0.624872 0.103365
0.286488 0.627832 0.106188
0.31165 0.630564 0.108705
0.337682 0.633051 0.110872
0.364477 0.63534 0.112718
0.391867 0.637476 0.114305
0.419654 0.639506 0.115679
0.447684 0.641459 0.116884
0.475761 0.643397 0.117983
0.504143 0.645243 0.118898
0.53286 0.646983 0.119646
0.561822 0.648646 0.120272
0.590875 0.650263 0.12076
0.619898 0.651881 0.121111
0.648737 0.653513 0.12134
0.677256 0.655238 0.121492
0.705348 0.657038 0.121538
0.733028 0.658946 0.121492
0.760281 0.660945 0.121279
0.787137 0.66302 0.121019
0.813672 0.665156 0.120745
0.839979 0.667292 0.120516
0.866178 0.669398 0.120378
0.892363 0.671443 0.120394
0.918669 0.673365 0.12047
0.945113 0.675181 0.120592
0.122515 0.630213 0.0852827
0.141512 0.634577 0.0894636
0.161288 0.638727 0.0935073
0.181704 0.642725 0.0974136
0.202731 0.646555 0.101137
0.224384 0.650217 0.104616
0.246754 0.653696 0.10782
0.269978 0.656962 0.110674
0.294072 0.659983 0.113191
0.319081 0.662776 0.115343
0.344991 0.665309 0.117144
0.371695 0.667628 0.118624
0.399023 0.669779 0.119844
0.42678 0.671794 0.120851
0.454795 0.673716 0.121736
0.482872 0.675608 0.122499
0.511269 0.677409 0.123079
0.540017 0.679103 0.123369
0.568994 0.680705 0.123445
0.598093 0.682246 0.123293
0.627176 0.683803 0.122911
0.656138 0.685359 0.122347
0.684794 0.686976 0.121614
0.713069 0.68867 0.120821
0.740917 0.69044 0.120089
0.768307 0.692271 0.119478
0.795193 0.694179 0.119127
0.821683 0.696101 0.11899
0.847868 0.698054 0.119051
0.873884 0.699977 0.119265
0.899855 0.701839 0.11957
0.925963 0.703593 0.119905
0.952178 0.705242 0.120272
0.130907 0.661982 0.0935531
0.14995 0.666346 0.0977646
0.169665 0.670542 0.101717
0.189944 0.674601 0.105425
0.210773 0.678508 0.108873
0.232227 0.682261 0.112016
0.254398 0.685817 0.114855
0.27744 0.689128 0.117342
0.301396 0.692195 0.119493
0.326284 0.694987 0.121294
0.352117 0.697536 0.122744
0.378759 0.699825 0.123903
0.406058 0.701946 0.124804
0.433768 0.703914 0.125429
0.461753 0.705806 0.125826
0.489784 0.707668 0.126024
0.518135 0.709438 0.125917
0.546868 0.71107 0.12546
0.575875 0.712627 0.124712
0.605035 0.714107 0.123674
0.634226 0.715541 0.122515
0.663325 0.71696 0.12134
0.692119 0.71841 0.120287
0.72047 0.71989 0.119509
0.748348 0.721431 0.118975
0.775692 0.723049 0.118685
0.802487 0.724727 0.118654
0.828855 0.726467 0.118807
0.854887 0.728206 0.119142
0.880766 0.729946 0.119554
0.906615 0.731624 0.119905
0.932616 0.733211 0.120119
0.958816 0.734691 0.120211
0.139498 0.693706 0.101976
0.158282 0.698161 0.105898
0.177752 0.702449 0.109499
0.197772 0.7066 0.11284
0.218387 0.710582 0.115923
0.239643 0.714366 0.1187
0.261662 0.717952 0.121202
0.284566 0.721279 0.123354
0.308415 0.724346 0.125185
0.333227 0.727123 0.12665
0.358953 0.729641 0.127703
0.385489 0.731929 0.128359
0.41265 0.73402 0.128649
0.440253 0.735988 0.128573
0.468116 0.737865 0.128222
0.496071 0.739696 0.127535
0.524392 0.741405 0.126589
0.553155 0.742947 0.125414
0.582269 0.744366 0.124147
0.611582 0.745647 0.122896
0.64094 0.746838 0.121828
0.67013 0.747997 0.120897
0.698985 0.749187 0.120195
0.727352 0.750423 0.119722
0.755169 0.751736 0.119448
0.782467 0.75314 0.119417
0.809186 0.75462 0.119524
0.835477 0.756161 0.119677
0.861463 0.757748 0.119829
0.887297 0.759304 0.119936
0.913146 0.7608 0.119966
0.939116 0.762219 0.11989
0.965316 0.763516 0.119707
0.147509 0.725612 0.109758
0.166033 0.730144 0.113298
0.185275 0.734493 0.116564
0.205097 0.738659 0.119554
0.225544 0.742657 0.122316
0.246662 0.746456 0.124804
0.268528 0.750042 0.12694
0.291264 0.753368 0.128664
0.3149 0.756436 0.129961
0.339483 0.759228 0.1308
0.364996 0.761761 0.131121
0.391318 0.764065 0.130999
0.41828 0.766171 0.130419
0.445777 0.768093 0.129564
0.473625 0.769879 0.128511
0.501671 0.771572 0.127459
0.53019 0.773053 0.126421
0.559167 0.774319 0.125399
0.588479 0.775433 0.124407
0.617945 0.776425 0.123507
0.647395 0.777356 0.122728
0.676646 0.778271 0.122057
0.705531 0.779202 0.121569
0.733867 0.78024 0.121172
0.761685 0.781353 0.120821
0.788937 0.782574 0.120562
0.815641 0.783886 0.120363
0.841901 0.78526 0.120211
0.867872 0.786664 0.120058
0.89369 0.788052 0.11989
0.919493 0.78938 0.119661
0.945434 0.790616 0.119387
0.971572 0.791745 0.119036
0.15491 0.757595 0.116838
0.173236 0.762158 0.120089
0.192309 0.766506 0.123033
0.211917 0.770687 0.125658
0.23212 0.774716 0.127947
0.252918 0.778546 0.12987
0.274464 0.782177 0.13135
0.296864 0.78555 0.132357
0.32018 0.788678 0.13283
0.344457 0.791501 0.132815
0.369772 0.794003 0.132403
0.396048 0.796216 0.131701
