CHROMATIC.cube
TITLE "Generate by Resolve"
LUT_3D_SIZE 5
0.0049897 0 0
0.0887312 0.0316777 0.0276646
0.216571 0.0533608 0.0484779
0.3897 0.0648814 0.0591287
0.594522 0.0716716 0.0650645
0.085008 0.179034 0.0631876
0.204227 0.212772 0.073167
0.392248 0.232441 0.0725567
0.615534 0.246326 0.0721294
0.828229 0.264836 0.0823224
0.0940414 0.432227 0.0594644
0.25452 0.465736 0.0786908
0.469154 0.483452 0.0904402
0.695125 0.498207 0.103883
0.900359 0.518883 0.121599
0.139498 0.693706 0.101976
0.308415 0.724346 0.125185
0.524392 0.741405 0.126589
0.755169 0.751736 0.119448
0.965316 0.763516 0.119707
0.179568 0.948241 0.138476
0.345541 0.971008 0.145953
0.566629 0.974777 0.140352
0.799222 0.971969 0.136584
0.993988 0.967956 0.239872
0.0166171 0.0104982 0.0583505
0.103578 0.0411536 0.104433
0.237461 0.059968 0.141573
0.418479 0.0684367 0.171084
0.628672 0.0732891 0.197833
0.0877852 0.190433 0.18027
0.212467 0.221988 0.213718
0.405341 0.240131 0.231418
0.629938 0.253361 0.244678
0.84062 0.271946 0.263539
0.097734 0.442313 0.235447
0.260945 0.474342 0.26183
0.476463 0.491447 0.27689
0.702785 0.506188 0.291569
0.909255 0.526207 0.309392
0.145434 0.702174 0.289433
0.313115 0.732677 0.313329
0.52842 0.748837 0.316472
0.759823 0.757061 0.315267
0.969802 0.76733 0.317601
0.179751 0.954314 0.335088
0.345632 0.975494 0.345235
0.567956 0.977386 0.343038
0.80177 0.97261 0.348119
0.989654 0.967315 0.481758
0.0264591 0.021088 0.138491
0.117128 0.0490425 0.203174
0.25713 0.064683 0.261372
0.445655 0.0700236 0.314153
0.659571 0.0732586 0.363912
0.081529 0.202304 0.326345
0.215427 0.230243 0.386374
0.415702 0.245975 0.4224
0.641077 0.258701 0.44686
0.849592 0.277378 0.471824
0.0967269 0.452125 0.430335
0.263493 0.481987 0.465476
0.481941 0.497658 0.488655
0.708766 0.512245 0.503944
0.916365 0.531334 0.523537
0.148608 0.709056 0.500832
0.314717 0.739071 0.528298
0.530144 0.753597 0.536599
0.761929 0.75993 0.539361
0.971542 0.768673 0.544671
0.177218 0.957977 0.56022
0.343893 0.977249 0.573739
0.567163 0.977676 0.573297
0.806226 0.969467 0.591409
0.98558 0.967727 0.713619
0.0354009 0.0310063 0.228229
0.130053 0.0561532 0.3131
0.276539 0.0686198 0.393408
0.472175 0.0711986 0.46894
0.688441 0.0735485 0.538384
0.0777752 0.212482 0.487526
0.218982 0.238193 0.566201
0.425589 0.252125 0.615091
0.651423 0.264607 0.646296
0.858213 0.28333 0.674159
0.0884565 0.464668 0.619257
0.257343 0.493141 0.659236
0.483955 0.505913 0.690852
0.715434 0.518669 0.709361
0.924437 0.536446 0.731975
0.145739 0.719631 0.691768
0.310994 0.748455 0.725902
0.530068 0.759533 0.745129
0.764187 0.762936 0.756832
0.973205 0.77026 0.764767
0.173526 0.962905 0.771374
0.342824 0.979507 0.790784
0.567147 0.978393 0.794171
0.816892 0.966842 0.809934
0.985672 0.972793 0.887404
0.0443122 0.0408789 0.3178
0.143023 0.063508 0.421332
0.296788 0.0730755 0.521035
0.499001 0.0737011 0.614023
0.716823 0.0761425 0.696178
0.0773785 0.223285 0.63714
0.22475 0.247822 0.726787
0.437064 0.260533 0.78201
0.663188 0.27306 0.815305
0.868711 0.291798 0.843778
0.0870832 0.477287 0.784726
0.258885 0.504662 0.8271
0.490425 0.515999 0.860273
0.724697 0.527337 0.881849
0.935515 0.54342 0.908583
0.140139 0.733669 0.85275
0.303212 0.761669 0.892241
0.524498 0.770275 0.916365
0.766476 0.768994 0.937942
0.977157 0.77435 0.947616
0.166857 0.972641 0.937514
0.338933 0.987121 0.958282
0.572168 0.982513 0.963195
0.835279 0.968536 0.960967
0.991699 0.983948 0.982986
