CINECOLOR_CROSS_PROCESS_02.cube
TITLE "Generated by Resolve"
LUT_3D_SIZE 33
0 0.0137331 0.197711
0 0.012314 0.196292
0 0.0107576 0.194736
0 0.00920119 0.193179
0.0343328 0.00761425 0.191577
0.0714275 0.00602731 0.190005
0.108446 0.00447089 0.188449
0.145464 0.00291447 0.186892
0.182467 0.00135805 0.185336
0.219486 0 0.18378
0.256489 0 0.182223
0.293507 0 0.180667
0.330739 0 0.179049
0.367773 0 0.177493
0.404791 0 0.175937
0.441794 0 0.17438
0.478813 0 0.172824
0.515831 0 0.171267
0.552834 0 0.169711
0.589868 0 0.168154
0.627115 0 0.166537
0.664118 0 0.164981
0.701137 0 0.163424
0.73814 0 0.161868
0.775158 0 0.160311
0.812161 0 0.158755
0.84918 0 0.157198
0.886275 0 0.155627
0.923445 0 0.154025
0.960464 0 0.152468
0.997467 0 0.150912
1 0 0.149355
1 0 0.147799
0 0.045182 0.197177
0 0.0437629 0.195758
0 0.0422065 0.194202
0 0.04065 0.192645
0.0337987 0.0390631 0.191043
0.0708934 0.0374762 0.189471
0.107912 0.0359197 0.187915
0.144915 0.0343633 0.186358
0.181933 0.0328069 0.184802
0.218952 0.0312505 0.183246
0.255955 0.0296941 0.181689
0.292973 0.0281376 0.180133
0.330205 0.0265202 0.178515
0.367239 0.0249638 0.176959
0.404257 0.0234073 0.175402
0.44126 0.0218509 0.173846
0.478279 0.0202945 0.17229
0.515282 0.0187381 0.170733
0.5523 0.0171817 0.169177
0.589334 0.0156252 0.16762
0.626566 0.0140078 0.166003
0.663584 0.0124514 0.164446
0.700603 0.0108949 0.16289
0.737606 0.00933852 0.161334
0.774624 0.0077821 0.159777
0.811627 0.00622568 0.158221
0.848646 0.00466926 0.156664
0.88574 0.00309758 0.155093
0.922911 0.00149538 0.15349
0.95993 0 0.151934
0.996933 0 0.150378
1 0 0.148821
1 0 0.147265
0 0.0768292 0.196185
0 0.0754101 0.194766
0 0.0738537 0.19321
0 0.0722972 0.191653
0.0328069 0.0706951 0.190051
0.0699016 0.0691234 0.188479
0.10692 0.0675669 0.186923
0.143938 0.0660105 0.185367
0.180941 0.0644541 0.18381
0.21796 0.0628977 0.182254
0.254963 0.0613413 0.180697
0.291981 0.0597848 0.179141
0.329213 0.0581674 0.177523
0.366247 0.056611 0.175967
0.403265 0.0550546 0.174411
0.440269 0.0534981 0.172854
0.477287 0.0519417 0.171298
0.51429 0.0503853 0.169741
0.551308 0.0488289 0.168185
0.588342 0.0472725 0.166629
0.625589 0.045655 0.165011
0.662593 0.0440986 0.163455
0.699611 0.0425422 0.161898
0.736614 0.0409857 0.160342
0.773632 0.0394293 0.158785
0.810636 0.0378729 0.157229
0.847654 0.0363165 0.155673
0.884749 0.0347448 0.154101
0.92192 0.0331426 0.152499
0.958938 0.0315862 0.150942
0.995941 0.0300298 0.149386
1 0.0284733 0.147829
1 0.0269169 0.146273
0 0.108507 0.195132
0 0.107088 0.193713
0 0.105531 0.192157
0 0.103975 0.1906
0.031754 0.102373 0.188998
0.0688487 0.100786 0.187411
0.105867 0.0992447 0.18587
0.14287 0.0976883 0.184314
0.179889 0.0961318 0.182757
0.216892 0.0945754 0.181201
0.25391 0.093019 0.179644
0.290913 0.0914626 0.178088
0.328145 0.0898451 0.176471
0.365194 0.0882887 0.174914
0.402197 0.0867323 0.173358
0.439216 0.0851759 0.171801
0.476234 0.0836194 0.170245
0.513237 0.082063 0.168688
0.550256 0.0805066 0.167132
0.587289 0.0789349 0.16556
0.624521 0.0773327 0.163958
0.66154 0.0757763 0.162402
0.698543 0.0742199 0.160845
0.735561 0.0726635 0.159289
0.772564 0.071107 0.157733
0.809583 0.0695506 0.156176
0.846586 0.0679942 0.15462
0.883696 0.0664073 0.153033
0.920867 0.0648203 0.151446
0.95787 0.0632639 0.149889
0.994888 0.0617075 0.148333
1 0.0601511 0.146777
1 0.0585946 0.14522
0 0.140246 0.193896
0 0.138827 0.192477
0 0.13727 0.190921
0 0.135714 0.189364
0.030518 0.134112 0.187762
0.0676127 0.13254 0.186191
0.104631 0.130983 0.184634
0.141634 0.129427 0.183078
0.178653 0.127871 0.181521
0.215671 0.126314 0.179965
0.252674 0.124758 0.178408
0.289693 0.123201 0.176852
0.326925 0.121584 0.175235
0.363958 0.120027 0.173678
0.400977 0.118471 0.172122
0.43798 0.116915 0.170565
0.474998 0.115358 0.169009
0.512001 0.113802 0.167452
0.54902 0.112245 0.165896
0.586053 0.110689 0.16434
0.623285 0.109071 0.162722
0.660304 0.107515 0.161166
0.697307 0.105959 0.159609
0.734325 0.104402 0.158053
0.771344 0.102846 0.156497
0.808347 0.101289 0.15494
0.845365 0.099733 0.153384
0.88246 0.0981613 0.151812
0.919631 0.0965591 0.15021
0.956649 0.0950027 0.148653
0.993652 0.0934462 0.147097
1 0.0918898 0.145541
1 0.0903334 0.143984
0 0.171984 0.192691
0 0.17055 0.191272
0 0.168994 0.189715
0 0.167452 0.188159
0.0293126 0.16585 0.186557
0.0664073 0.164263 0.18497
0.103426 0.162707 0.183413
0.140429 0.161151 0.181857
0.177447 0.159594 0.180316
0.21445 0.158038 0.178759
0.251469 0.156497 0.177203
0.288472 0.15494 0.175647
0.325704 0.153323 0.174029
0.362753 0.151751 0.172457
0.399756 0.150195 0.170901
0.436774 0.148638 0.16936
0.473777 0.147082 0.167803
0.510796 0.145525 0.166247
0.547814 0.143984 0.164691
0.584848 0.142412 0.163119
0.62208 0.140795 0.161501
0.659098 0.139239 0.159945
0.696101 0.137682 0.158404
0.73312 0.136126 0.156847
0.770123 0.134569 0.155291
0.807141 0.133028 0.153735
0.844144 0.131472 0.152178
0.881254 0.129885 0.150591
0.918425 0.128283 0.148989
0.955428 0.126726 0.147448
0.992447 0.12517 0.145892
1 0.123613 0.144335
1 0.122072 0.142779
0 0.203693 0.191531
0 0.202274 0.190112
0 0.200717 0.188556
0 0.199161 0.186999
0.0281529 0.197559 0.185397
0.0652476 0.195972 0.183825
0.102266 0.194415 0.182269
0.139269 0.192859 0.180713
0.176287 0.191318 0.179156
0.213306 0.189761 0.1776
0.250309 0.188205 0.176043
0.287327 0.186648 0.174487
0.324559 0.185031 0.172869
0.361593 0.183459 0.171313
0.398611 0.181903 0.169757
0.435615 0.180362 0.1682
0.472633 0.178805 0.166644
0.509636 0.177249 0.165087
0.546654 0.175692 0.163531
0.583688 0.174121 0.161975
0.62092 0.172503 0.160357
0.657938 0.170947 0.158801
0.694942 0.169406 0.157244
0.73196 0.167849 0.155688
0.768978 0.166293 0.154131
0.805982 0.164736 0.152575
0.843 0.16318 0.151019
0.880095 0.161593 0.149447
0.917266 0.159991 0.147845
0.954284 0.15845 0.146288
0.991287 0.156893 0.144732
1 0.155337 0.143175
1 0.15378 0.141619
0 0.235401 0.190387
0 0.233982 0.188952
0 0.232425 0.187411
0 0.230869 0.185855
0.0270085 0.229267 0.184253
0.0641031 0.22768 0.182666
0.101106 0.226123 0.181109
0.138125 0.224567 0.179553
0.175143 0.223026 0.177996
0.212146 0.221469 0.176455
0.249165 0.219913 0.174899
0.286168 0.218357 0.173342
0.3234 0.216739 0.171725
0.360449 0.215167 0.170153
0.397452 0.213611 0.168597
0.43447 0.21207 0.167041
0.471473 0.210513 0.165499
0.508492 0.208957 0.163943
0.54551 0.207401 0.162387
0.582544 0.205829 0.160815
0.619776 0.204211 0.159197
0.656794 0.202655 0.157641
0.693797 0.201114 0.156085
0.730816 0.199557 0.154543
0.767819 0.198001 0.152987
0.804837 0.196445 0.151431
0.84184 0.194888 0.149874
0.878935 0.193301 0.148287
0.916121 0.191699 0.146685
0.953124 0.190158 0.145129
0.990143 0.188602 0.143587
1 0.187045 0.142031
1 0.185489 0.140475
0 0.267094 0.189258
0 0.265675 0.187839
0 0.264118 0.186282
0 0.262562 0.184726
0.0258793 0.26096 0.183124
0.062974 0.259388 0.181552
0.0999924 0.257832 0.179995
0.136995 0.256275 0.178439
0.174014 0.254719 0.176883
0.211017 0.253162 0.175326
0.248035 0.251606 0.17377
0.285039 0.25005 0.172213
0.322271 0.248432 0.170596
0.359319 0.246876 0.169039
0.396323 0.245319 0.167483
0.433341 0.243763 0.165927
0.470359 0.242206 0.16437
0.507362 0.24065 0.162814
0.544381 0.239094 0.161257
0.581415 0.237537 0.159686
0.618647 0.23592 0.158083
0.655665 0.234363 0.156527
0.692668 0.232807 0.154971
0.729686 0.23125 0.153414
0.76669 0.229694 0.151858
0.803708 0.228138 0.150301
0.840726 0.226581 0.148745
0.877821 0.22501 0.147158
0.914992 0.223407 0.145571
0.95201 0.221851 0.144015
0.989013 0.220295 0.142458
1 0.218738 0.140902
1 0.217182 0.139345
0 0.298772 0.188174
0 0.297353 0.186755
0 0.295796 0.185199
0 0.29424 0.183642
0.0247959 0.292653 0.18204
0.0618906 0.291066 0.180453
0.098909 0.289509 0.178912
0.135912 0.287953 0.177356
0.17293 0.286397 0.175799
0.209934 0.28484 0.174243
0.246952 0.283284 0.172686
0.283955 0.281727 0.17113
0.321187 0.280125 0.169512
0.358236 0.278553 0.167956
0.395239 0.276997 0.1664
0.432258 0.275441 0.164843
0.469276 0.273884 0.163287
0.506279 0.272328 0.16173
0.543297 0.270771 0.160174
0.580331 0.269215 0.158602
0.617563 0.267597 0.157
0.654582 0.266041 0.155444
0.691585 0.264485 0.153887
0.728603 0.262928 0.152331
0.765606 0.261372 0.150774
0.802625 0.259815 0.149218
0.839628 0.258259 0.147662
0.876738 0.256687 0.146075
0.913909 0.255085 0.144488
0.950912 0.253529 0.142931
0.98793 0.251972 0.141375
1 0.250416 0.139818
1 0.248859 0.138262
0 0.330434 0.187152
0 0.329015 0.185733
0 0.327459 0.184176
0 0.325902 0.18262
0.0237736 0.3243 0.181018
0.0608682 0.322728 0.179431
0.0978866 0.321172 0.177874
0.13489 0.319615 0.176318
0.171908 0.318059 0.174777
0.208911 0.316503 0.17322
0.24593 0.314946 0.171664
0.282933 0.31339 0.170108
0.320165 0.311772 0.16849
0.357214 0.310216 0.166918
0.394217 0.308659 0.165362
0.431235 0.307103 0.163821
0.468238 0.305547 0.162264
0.505257 0.30399 0.160708
0.542275 0.302434 0.159152
0.579309 0.300877 0.15758
0.616541 0.29926 0.155962
0.653559 0.297704 0.154406
0.690562 0.296147 0.152865
0.727581 0.294591 0.151308
0.764584 0.293034 0.149752
0.801602 0.291478 0.148196
0.838605 0.289921 0.146639
0.875715 0.28835 0.145052
0.912886 0.286748 0.14345
0.949889 0.285191 0.141909
0.986908 0.283635 0.140352
1 0.282078 0.138796
1 0.280522 0.13724
0 0.362066 0.186206
0 0.360647 0.184787
0 0.359091 0.18323
0 0.357534 0.181674
0.0228275 0.355932 0.180072
0.0599222 0.354345 0.178485
0.0969406 0.352789 0.176928
0.133944 0.351247 0.175387
0.170962 0.349691 0.173831
0.207965 0.348135 0.172274
0.244984 0.346578 0.170718
0.281987 0.345022 0.169162
0.319219 0.343404 0.167544
0.356268 0.341833 0.165972
0.393271 0.340291 0.164431
0.430289 0.338735 0.162875
0.467308 0.337179 0.161318
0.504311 0.335622 0.159762
0.541329 0.334066 0.158206
0.578363 0.332494 0.156634
0.615595 0.330877 0.155016
0.652613 0.329335 0.153475
0.689616 0.327779 0.151919
0.726635 0.326223 0.150362
0.763638 0.324666 0.148806
0.800656 0.32311 0.14725
0.837659 0.321553 0.145693
0.874769 0.319966 0.144106
0.91194 0.318379 0.142519
0.948943 0.316823 0.140963
0.985962 0.315267 0.139406
1 0.31371 0.13785
1 0.312154 0.136294
0 0.393713 0.185183
0 0.392294 0.183764
0 0.390738 0.182208
0 0.389181 0.180652
0.0218051 0.387579 0.179049
0.0588998 0.386007 0.177478
0.0959182 0.384451 0.175921
0.132921 0.382895 0.174365
0.16994 0.381338 0.172808
0.206958 0.379782 0.171252
0.243961 0.378225 0.169696
0.28098 0.376669 0.168139
0.318212 0.375051 0.166522
0.355245 0.373495 0.164965
0.392264 0.371939 0.163409
0.429267 0.370382 0.161852
0.466285 0.368826 0.160296
0.503288 0.367269 0.15874
0.540307 0.365713 0.157183
0.57734 0.364157 0.155627
0.614572 0.362539 0.154009
0.651591 0.360983 0.152453
0.688609 0.359426 0.150896
0.725612 0.35787 0.14934
0.762631 0.356313 0.147784
0.799634 0.354757 0.146227
0.836652 0.353201 0.144671
0.873747 0.351629 0.143099
0.910918 0.350027 0.141497
0.947936 0.34847 0.13994
0.984939 0.346914 0.138384
1 0.345357 0.136828
1 0.343801 0.135271
0 0.425269 0.184436
0 0.42385 0.183001
0 0.422293 0.181445
0 0.420737 0.179889
0.0210422 0.419135 0.178302
0.0581521 0.417563 0.176715
0.0951553 0.416007 0.175158
0.132174 0.41445 0.173602
0.169177 0.412894 0.172045
0.206195 0.411337 0.170489
0.243214 0.409781 0.168933
0.280217 0.408225 0.167391
0.317449 0.406607 0.165774
0.354498 0.405051 0.164202
0.391501 0.403494 0.162646
0.428519 0.401938 0.161089
0.465522 0.400381 0.159533
0.502541 0.398825 0.157977
0.539544 0.397269 0.156435
0.576593 0.395712 0.154864
0.613825 0.394095 0.153246
0.650828 0.392538 0.15169
0.687846 0.390982 0.150134
0.724865 0.389425 0.148577
0.761868 0.387869 0.147021
0.798886 0.386313 0.14548
0.835889 0.384756 0.143923
0.872984 0.383185 0.142336
0.91017 0.381582 0.140734
0.947173 0.380026 0.139178
0.984192 0.37847 0.137621
1 0.376913 0.136065
1 0.375357 0.134524
0 0.456764 0.183825
0 0.455344 0.182406
0 0.453788 0.18085
0 0.452232 0.179294
0.0204471 0.450629 0.177691
0.0575418 0.449058 0.17612
0.0945602 0.447501 0.174563
0.131563 0.445945 0.173007
0.168582 0.444389 0.17145
0.205585 0.442832 0.169894
0.242603 0.441276 0.168338
0.279622 0.439719 0.166781
0.316854 0.438102 0.165164
0.353887 0.436545 0.163607
0.390906 0.434989 0.162051
0.427909 0.433433 0.160494
0.464927 0.431876 0.158938
0.50193 0.43032 0.157382
0.538949 0.428763 0.155825
0.575982 0.427192 0.154269
0.613214 0.425589 0.152651
0.650233 0.424033 0.151095
0.687236 0.422477 0.149538
0.724254 0.42092 0.147982
0.761257 0.419364 0.146426
0.798276 0.417807 0.144869
0.835294 0.416251 0.143313
0.872389 0.414664 0.141726
0.90956 0.413077 0.140139
0.946578 0.411521 0.138582
0.983581 0.409964 0.137026
1 0.408408 0.13547
1 0.406851 0.133913
0 0.488197 0.183368
0 0.486778 0.181949
0 0.485222 0.180392
0 0.483665 0.178836
0.0199893 0.482063 0.177234
0.057084 0.480476 0.175662
0.0941024 0.478935 0.174105
0.131106 0.477378 0.172549
0.168124 0.475822 0.170993
0.205127 0.474266 0.169436
0.242145 0.472709 0.16788
0.279164 0.471153 0.166323
0.316396 0.469535 0.164706
0.353429 0.467979 0.163149
0.390448 0.466423 0.161593
0.427451 0.464866 0.160037
0.464469 0.46331 0.15848
0.501472 0.461753 0.156924
0.538491 0.460197 0.155367
0.575525 0.458625 0.153796
0.612757 0.457023 0.152193
0.649775 0.455467 0.150637
0.686778 0.45391 0.149081
0.723796 0.452354 0.147524
0.7608 0.450797 0.145968
0.797818 0.449241 0.144411
0.834836 0.447684 0.142855
0.871931 0.446097 0.141268
0.909102 0.444511 0.139681
0.94612 0.442954 0.138125
0.983124 0.441398 0.136568
1 0.439841 0.135012
1 0.438285 0.133455
0 0.51957 0.183078
0 0.518135 0.181643
0 0.516579 0.180087
0 0.515023 0.178531
0.0196841 0.513436 0.176944
0.0567941 0.511849 0.175357
0.0937972 0.510292 0.1738
0.130816 0.508736 0.172244
0.167819 0.507179 0.170687
0.204837 0.505623 0.169131
0.241856 0.504067 0.167575
0.278859 0.502525 0.166018
0.316091 0.500908 0.164416
0.35314 0.499336 0.162844
0.390143 0.49778 0.161288
0.427161 0.496223 0.159731
0.464164 0.494667 0.158175
0.501183 0.493111 0.156619
0.538186 0.491569 0.155062
0.575235 0.489998 0.153506
0.612467 0.48838 0.151888
0.64947 0.486824 0.150332
0.686488 0.485267 0.148775
0.723507 0.483711 0.147219
0.76051 0.482155 0.145663
0.797528 0.480613 0.144106
0.834531 0.479057 0.142565
0.871626 0.47747 0.140978
0.908812 0.475868 0.139376
0.945815 0.474311 0.137819
0.982834 0.472755 0.136263
1 0.471199 0.134707
1 0.469657 0.13315
0 0.550866 0.182956
0 0.549432 0.181537
0 0.547875 0.17998
0 0.546334 0.178424
0.0195773 0.544732 0.176822
0.056672 0.543145 0.175235
0.0936904 0.541588 0.173693
0.130694 0.540032 0.172137
0.167712 0.538476 0.170581
0.204715 0.536919 0.169024
0.241733 0.535378 0.167468
0.278737 0.533822 0.165911
0.315969 0.532204 0.164294
0.353017 0.530632 0.162737
0.390021 0.529076 0.161181
0.427039 0.52752 0.159625
0.464057 0.525963 0.158068
0.50106 0.524422 0.156512
0.538079 0.522866 0.154955
0.575113 0.521294 0.153384
0.612345 0.519677 0.151781
0.649363 0.51812 0.150225
0.686366 0.516564 0.148669
0.723384 0.515007 0.147112
0.760388 0.513466 0.145556
0.797406 0.51191 0.143999
0.834424 0.510353 0.142443
0.871519 0.508766 0.140856
0.90869 0.507164 0.139269
0.945708 0.505608 0.137713
0.982712 0.504051 0.136156
1 0.50251 0.1346
1 0.500954 0.133043
0 0.582071 0.183047
0 0.580652 0.181613
0 0.579095 0.180072
0 0.577539 0.178515
0.0196536 0.575936 0.176913
0.0567636 0.574365 0.175326
0.0937667 0.572808 0.17377
0.130785 0.571252 0.172213
0.167803 0.569696 0.170657
0.204807 0.568139 0.169116
0.241825 0.566583 0.167559
0.278828 0.565026 0.166003
0.31606 0.563409 0.164385
0.353109 0.561852 0.162814
0.390112 0.560296 0.161257
0.427131 0.55874 0.159701
0.464134 0.557183 0.15816
0.501152 0.555627 0.156603
0.53817 0.55407 0.155047
0.575204 0.552514 0.153475
0.612436 0.550896 0.151858
0.649454 0.54934 0.150301
0.686458 0.547784 0.148745
0.723476 0.546227 0.147204
0.760479 0.544671 0.145647
0.797498 0.543114 0.144091
0.834501 0.541558 0.142535
0.871595 0.539986 0.140948
0.908782 0.538384 0.139345
0.945785 0.536828 0.137789
0.982803 0.535271 0.136248
1 0.533715 0.134691
1 0.532158 0.133135
0 0.613214 0.183337
0 0.61178 0.181918
0 0.610224 0.180362
0 0.608682 0.178805
0.0199588 0.60708 0.177203
0.0570535 0.605493 0.175631
0.0940719 0.603937 0.174075
0.131075 0.60238 0.172519
0.168093 0.600824 0.170962
0.205097 0.599268 0.169406
0.242115 0.597726 0.167849
0.279133 0.59617 0.166293
0.316365 0.594553 0.164675
0.353399 0.592981 0.163119
0.390417 0.591424 0.161563
0.42742 0.589868 0.160006
0.464439 0.588312 0.15845
0.501442 0.58677 0.156893
0.53846 0.585214 0.155337
0.575494 0.583642 0.153765
0.612726 0.582025 0.152163
0.649744 0.580468 0.150607
0.686748 0.578912 0.14905
0.723766 0.577356 0.147494
0.760769 0.575814 0.145937
0.797787 0.574258 0.144381
0.834806 0.572702 0.142824
0.8719 0.571115 0.141238
0.909072 0.569512 0.139651
0.94609 0.567956 0.138094
0.983093 0.5664 0.136538
1 0.564858 0.134981
1 0.563302 0.133425
0 0.644312 0.183688
0 0.642893 0.182269
0 0.641337 0.180713
0 0.63978 0.179156
0.0203098 0.638178 0.177554
0.0574197 0.636606 0.175982
0.0944228 0.63505 0.174426
0.131441 0.633494 0.172869
0.168444 0.631937 0.171313
0.205463 0.630381 0.169757
0.242466 0.628824 0.1682
0.279484 0.627268 0.166644
0.316716 0.62565 0.165026
0.35375 0.624094 0.16347
0.390768 0.622538 0.161913
0.427771 0.620981 0.160357
0.46479 0.619425 0.158801
0.501808 0.617868 0.157244
0.538811 0.616312 0.155688
0.575845 0.614755 0.154131
0.613092 0.613138 0.152514
0.650095 0.611582 0.150958
0.687114 0.610025 0.149401
0.724117 0.608469 0.147845
0.761135 0.606912 0.146288
0.798138 0.605356 0.144732
0.835157 0.6038 0.143175
0.872251 0.602228 0.141604
0.909422 0.600626 0.140002
0.946441 0.599069 0.138445
0.983459 0.597513 0.136889
1 0.595956 0.135332
1 0.5944 0.133776
0 0.675288 0.18439
0 0.673869 0.182971
0 0.672312 0.181415
0 0.670756 0.179858
0.0210117 0.669154 0.178256
0.0581064 0.667582 0.176684
0.0951247 0.666026 0.175128
0.132128 0.664469 0.173571
0.169146 0.662913 0.172015
0.206165 0.661357 0.170459
0.243168 0.6598 0.168902
0.280186 0.658244 0.167346
0.317418 0.656626 0.165728
0.354452 0.65507 0.164172
0.39147 0.653513 0.162615
0.428473 0.651957 0.161059
0.465492 0.650401 0.159503
0.502495 0.648844 0.157946
0.539513 0.647288 0.15639
0.576547 0.645731 0.154833
0.613779 0.644114 0.153216
0.650797 0.642557 0.151659
0.687816 0.641001 0.150103
0.724819 0.639445 0.148547
0.761837 0.637888 0.14699
0.79884 0.636332 0.145434
0.835859 0.634775 0.143877
0.872953 0.633204 0.142306
0.910124 0.631601 0.140703
0.947143 0.630045 0.139147
0.984146 0.628489 0.137591
1 0.626932 0.136034
1 0.625376 0.134478
0 0.706203 0.185245
0 0.704784 0.183825
0 0.703227 0.182269
0 0.701671 0.180713
0.0218662 0.700069 0.17911
0.0589609 0.698482 0.177539
0.0959793 0.696941 0.175982
0.132982 0.695384 0.174426
0.170001 0.693828 0.172869
0.207004 0.692271 0.171313
0.244022 0.690715 0.169757
0.281041 0.689158 0.1682
0.318273 0.687541 0.166583
0.355306 0.685969 0.165026
0.392325 0.684428 0.16347
0.429328 0.682872 0.161913
0.466346 0.681315 0.160357
0.503349 0.679759 0.158801
0.540368 0.678203 0.157244
0.577401 0.676631 0.155688
0.614633 0.675013 0.15407
0.651652 0.673472 0.152514
0.688655 0.671916 0.150958
0.725673 0.670359 0.149401
0.762692 0.668803 0.147845
0.799695 0.667247 0.146288
0.836713 0.66569 0.144732
0.873808 0.664103 0.14316
0.910979 0.662516 0.141558
0.947997 0.66096 0.140002
0.985 0.659403 0.138445
1 0.657847 0.136889
1 0.656291 0.135332
0 0.737057 0.186221
0 0.735637 0.184802
0 0.734081 0.183246
0 0.732525 0.181689
0.0228428 0.730922 0.180102
0.0599527 0.729351 0.178515
0.0969558 0.727794 0.176959
0.133974 0.726238 0.175402
0.170977 0.724681 0.173846
0.207996 0.723125 0.17229
0.244999 0.721569 0.170733
0.282017 0.720012 0.169177
0.319249 0.718395 0.167575
0.356283 0.716838 0.166003
0.393301 0.715282 0.164446
0.43032 0.713726 0.16289
0.467323 0.712169 0.161334
0.504341 0.710613 0.159777
0.541344 0.709056 0.158221
0.578378 0.7075 0.156664
0.615625 0.705882 0.155047
0.652628 0.704326 0.15349
0.689647 0.70277 0.151934
0.72665 0.701213 0.150378
0.763668 0.699657 0.148821
0.800671 0.6981 0.147265
0.83769 0.696544 0.145708
0.874784 0.694972 0.144137
0.911955 0.69337 0.142535
0.948974 0.691814 0.140978
0.985992 0.690257 0.139422
1 0.688701 0.137865
1 0.687144 0.136309
0 0.76788 0.18732
0 0.766461 0.185901
0 0.764904 0.184344
0 0.763348 0.182788
0.0239414 0.761746 0.181186
0.0610361 0.760159 0.179599
0.0980545 0.758602 0.178042
0.135058 0.757046 0.176501
0.172076 0.755505 0.174945
0.209079 0.753948 0.173388
0.246098 0.752392 0.171832
0.283101 0.750835 0.170275
0.320333 0.749218 0.168658
0.357382 0.747646 0.167086
0.394385 0.74609 0.165545
0.431403 0.744549 0.163989
0.468406 0.742992 0.162432
0.505425 0.741436 0.160876
0.542443 0.739879 0.159319
0.579477 0.738308 0.157748
0.616709 0.73669 0.15613
0.653727 0.735134 0.154589
0.69073 0.733593 0.153033
0.727749 0.732036 0.151476
0.764752 0.73048 0.14992
0.80177 0.728923 0.148363
0.838773 0.727367 0.146807
0.875883 0.72578 0.14522
0.913054 0.724178 0.143633
0.950057 0.722637 0.142077
0.987076 0.72108 0.14052
1 0.719524 0.138964
1 0.717968 0.137407
0 0.798657 0.188495
0 0.797238 0.18706
0 0.795682 0.185519
0 0.794125 0.183963
0.0251011 0.792523 0.182361
0.062211 0.790951 0.180774
0.0992142 0.789395 0.179217
0.136233 0.787839 0.177661
0.173251 0.786282 0.176104
0.210254 0.784726 0.174563
0.247272 0.783169 0.173007
0.284276 0.781613 0.17145
0.321508 0.779995 0.169833
0.358557 0.778439 0.168261
0.39556 0.776883 0.166705
0.432578 0.775326 0.165148
0.469581 0.77377 0.163592
0.5066 0.772213 0.162051
0.543603 0.770657 0.160494
0.580652 0.7691 0.158923
0.617884 0.767483 0.157305
0.654887 0.765927 0.155749
0.691905 0.76437 0.154192
0.728923 0.762814 0.152636
0.765927 0.761257 0.151095
0.802945 0.759701 0.149538
0.839948 0.758144 0.147982
0.877043 0.756573 0.146395
0.914229 0.754971 0.144793
0.951232 0.753414 0.143236
0.988251 0.751858 0.14168
1 0.750301 0.140139
1 0.748745 0.138582
0 0.829419 0.189731
0 0.828 0.188296
0 0.826444 0.18674
0 0.824887 0.185183
0.0263371 0.823285 0.183597
0.063447 0.821714 0.18201
0.10045 0.820157 0.180453
0.137469 0.818601 0.178897
0.174472 0.817044 0.17734
0.21149 0.815488 0.175784
0.248508 0.813931 0.174228
0.285512 0.812375 0.172671
0.322744 0.810758 0.171069
0.359792 0.809201 0.169497
0.396796 0.807645 0.167941
0.433814 0.806088 0.166384
0.470817 0.804532 0.164828
0.507836 0.802976 0.163272
0.544839 0.801419 0.161715
0.581888 0.799863 0.160159
0.61912 0.798245 0.158541
0.656123 0.796689 0.156985
0.693141 0.795132 0.155428
0.730144 0.793576 0.153872
0.767163 0.79202 0.152316
0.804181 0.790463 0.150759
0.841184 0.788907 0.149218
0.878279 0.78732 0.147631
0.915465 0.785733 0.146029
0.952468 0.784176 0.144472
0.989487 0.78262 0.142916
1 0.781064 0.14136
1 0.779507 0.139803
0 0.860182 0.190936
0 0.858763 0.189517
0 0.857206 0.187961
0 0.85565 0.186404
0.0275578 0.854047 0.184802
0.0646525 0.852476 0.18323
0.101671 0.850919 0.181674
0.138674 0.849363 0.180117
0.175692 0.847807 0.178561
