CINECOLOR_CROSS_PROCESS_02.cube
TITLE "Generated by Resolve"
LUT_3D_SIZE 5
0 0.0137331 0.197711
0.182467 0.00135805 0.185336
0.478813 0 0.172824
0.775158 0 0.160311
1 0 0.147799
0 0.267094 0.189258
0.174014 0.254719 0.176883
0.470359 0.242206 0.16437
0.76669 0.229694 0.151858
1 0.217182 0.139345
0 0.51957 0.183078
0.167819 0.507179 0.170687
0.464164 0.494667 0.158175
0.76051 0.482155 0.145663
1 0.469657 0.13315
0 0.76788 0.18732
0.172076 0.755505 0.174945
0.468406 0.742992 0.162432
0.764752 0.73048 0.14992
1 0.717968 0.137407
0 1 0.197009
0.181765 1 0.184634
0.478096 0.989136 0.172122
0.774441 0.976623 0.159609
1 0.964111 0.147097
0 0.0201419 0.365393
0.188876 0.00776684 0.353017
0.485222 0 0.340505
0.781567 0 0.327993
1 0 0.31548
0 0.273503 0.356939
0.180423 0.261128 0.344549
0.476753 0.248615 0.332036
0.773098 0.236103 0.319539
1 0.22359 0.307027
0 0.525963 0.350744
0.174228 0.513588 0.338369
0.470573 0.501076 0.325856
0.766918 0.488563 0.313344
1 0.476051 0.300832
0 0.774289 0.355001
0.17847 0.761898 0.342611
0.474815 0.749386 0.330098
0.77116 0.736873 0.317586
1 0.724361 0.305074
0 1 0.364675
0.188159 1 0.3523
0.484504 0.995544 0.339788
0.78085 0.983032 0.327276
1 0.97052 0.314763
0 0.0265202 0.533379
0.195254 0.0141451 0.521004
0.4916 0.00163272 0.508492
0.787945 0 0.495979
1 0 0.483467
0 0.279881 0.524926
0.186801 0.267506 0.512551
0.483146 0.254994 0.500038
0.779477 0.242481 0.487526
1 0.229969 0.475013
0 0.532357 0.51873
0.180606 0.519966 0.506355
0.476951 0.507454 0.493843
0.773297 0.494942 0.481331
1 0.482444 0.468818
0 0.780667 0.522988
0.184863 0.768292 0.510613
0.481209 0.755779 0.4981
0.777539 0.743267 0.485588
1 0.730755 0.473075
0 1 0.532677
0.194553 1 0.520287
0.490883 1 0.50779
0.787228 0.98941 0.495277
1 0.976898 0.482765
0 0.0329137 0.701366
0.201633 0.0205234 0.688991
0.497978 0.00802625 0.676478
0.794324 0 0.663966
1 0 0.651453
0 0.286259 0.692912
0.193179 0.273884 0.680537
0.489525 0.261372 0.668025
0.78587 0.248859 0.655512
1 0.236347 0.643
0 0.538735 0.686732
0.186999 0.52636 0.674342
0.483345 0.513848 0.661845
0.779675 0.501335 0.649332
1 0.488823 0.63682
0 0.787045 0.690974
0.191241 0.77467 0.678599
0.487587 0.762158 0.666087
0.783932 0.749645 0.653574
1 0.737133 0.641062
0 1 0.700664
0.200931 1 0.688289
0.497276 1 0.675776
0.793622 0.995789 0.663264
1 0.983276 0.650752
0 0.039292 0.869368
0.208026 0.0269169 0.856977
0.504372 0.0144045 0.844465
0.800702 0.00189212 0.831968
1 0 0.819455
0 0.292653 0.860899
0.199557 0.280262 0.848524
0.495903 0.267765 0.836011
0.792248 0.255253 0.823499
1 0.242741 0.810987
0 0.545113 0.854719
0.193378 0.532738 0.842344
0.489723 0.520226 0.829831
0.786068 0.507713 0.817319
1 0.495201 0.804807
0 0.793423 0.858961
0.19762 0.781048 0.846586
0.493965 0.768536 0.834073
0.790311 0.756024 0.821561
1 0.743511 0.809049
0 1 0.86865
0.207309 1 0.856275
0.503655 1 0.843763
0.8 1 0.83125
1 0.989654 0.818738
