CINECOLOR_CROSS_PROCESS_02.cube
TITLE "Generated by Resolve"
LUT_3D_SIZE 9
0 0.0137331 0.197711
0.0343328 0.00761425 0.191577
0.182467 0.00135805 0.185336
0.330739 0 0.179049
0.478813 0 0.172824
0.627115 0 0.166537
0.775158 0 0.160311
0.923445 0 0.154025
1 0 0.147799
0 0.140246 0.193896
0.030518 0.134112 0.187762
0.178653 0.127871 0.181521
0.326925 0.121584 0.175235
0.474998 0.115358 0.169009
0.623285 0.109071 0.162722
0.771344 0.102846 0.156497
0.919631 0.0965591 0.15021
1 0.0903334 0.143984
0 0.267094 0.189258
0.0258793 0.26096 0.183124
0.174014 0.254719 0.176883
0.322271 0.248432 0.170596
0.470359 0.242206 0.16437
0.618647 0.23592 0.158083
0.76669 0.229694 0.151858
0.914992 0.223407 0.145571
1 0.217182 0.139345
0 0.393713 0.185183
0.0218051 0.387579 0.179049
0.16994 0.381338 0.172808
0.318212 0.375051 0.166522
0.466285 0.368826 0.160296
0.614572 0.362539 0.154009
0.762631 0.356313 0.147784
0.910918 0.350027 0.141497
1 0.343801 0.135271
0 0.51957 0.183078
0.0196841 0.513436 0.176944
0.167819 0.507179 0.170687
0.316091 0.500908 0.164416
0.464164 0.494667 0.158175
0.612467 0.48838 0.151888
0.76051 0.482155 0.145663
0.908812 0.475868 0.139376
1 0.469657 0.13315
0 0.644312 0.183688
0.0203098 0.638178 0.177554
0.168444 0.631937 0.171313
0.316716 0.62565 0.165026
0.46479 0.619425 0.158801
0.613092 0.613138 0.152514
0.761135 0.606912 0.146288
0.909422 0.600626 0.140002
1 0.5944 0.133776
0 0.76788 0.18732
0.0239414 0.761746 0.181186
0.172076 0.755505 0.174945
0.320333 0.749218 0.168658
0.468406 0.742992 0.162432
0.616709 0.73669 0.15613
0.764752 0.73048 0.14992
0.913054 0.724178 0.143633
1 0.717968 0.137407
0 0.890974 0.192111
0.0287327 0.88484 0.185977
0.176867 0.878584 0.179736
0.325139 0.872312 0.173449
0.473213 0.866072 0.167224
0.6215 0.859785 0.160937
0.769558 0.853559 0.154711
0.917845 0.847272 0.148425
1 0.841062 0.142199
0 1 0.197009
0.0336309 1 0.190875
0.181765 1 0.184634
0.330022 0.995361 0.178347
0.478096 0.989136 0.172122
0.626398 0.982849 0.16582
0.774441 0.976623 0.159609
0.922744 0.970336 0.153307
1 0.964111 0.147097
0 0.0169528 0.281422
0.0375525 0.0108186 0.275288
0.185687 0.00457771 0.269047
0.333944 0 0.26276
0.482033 0 0.256535
0.63032 0 0.250233
0.778363 0 0.244022
0.926665 0 0.237736
1 0 0.23151
0 0.143465 0.277607
0.0337224 0.137331 0.271473
0.181857 0.131075 0.265217
0.330129 0.124804 0.258946
0.478202 0.118563 0.252705
0.626505 0.112276 0.246418
0.774548 0.10605 0.240208
0.92285 0.0997635 0.233906
1 0.0935378 0.227695
0 0.270314 0.272953
0.0290837 0.264179 0.266835
0.177218 0.257923 0.260578
0.32549 0.251652 0.254307
0.473564 0.245426 0.248066
0.621866 0.239124 0.241779
0.769909 0.232914 0.235554
0.918212 0.226612 0.229267
1 0.220401 0.223041
0 0.396933 0.268894
0.0250248 0.390799 0.26276
0.173159 0.384558 0.256504
0.321416 0.378271 0.250233
0.46949 0.372045 0.244007
0.617792 0.365759 0.237705
0.765835 0.359533 0.231495
0.914137 0.353246 0.225193
1 0.347021 0.218982
0 0.522774 0.266773
0.0229038 0.51664 0.260639
0.171038 0.510399 0.254398
0.31931 0.504112 0.248112
0.467384 0.497887 0.241886
0.615671 0.4916 0.235599
0.763729 0.485374 0.229374
0.912016 0.479088 0.223087
1 0.472862 0.216861
0 0.647532 0.267399
0.0235294 0.641398 0.261265
0.171664 0.635157 0.255024
0.319921 0.62887 0.248737
0.468009 0.622644 0.242512
0.616297 0.616358 0.236225
0.76434 0.610132 0.229999
0.912642 0.603845 0.223713
1 0.59762 0.217487
0 0.771084 0.271015
0.0271458 0.76495 0.264881
0.17528 0.758709 0.25864
0.323552 0.752422 0.252354
0.471626 0.746197 0.246128
0.619928 0.73991 0.239841
0.767971 0.733684 0.233616
0.916259 0.727398 0.227329
1 0.721172 0.221103
0 0.894179 0.275822
0.0319524 0.888045 0.269688
0.180087 0.881804 0.263432
0.328344 0.875517 0.25716
0.476417 0.869291 0.250935
0.62472 0.863005 0.244633
0.772763 0.856779 0.238422
0.921065 0.850492 0.23212
1 0.844266 0.22591
0 1 0.280705
0.0368353 1 0.274571
0.18497 1 0.26833
0.333242 0.998581 0.262043
0.481315 0.99234 0.255818
0.629618 0.986053 0.249531
0.777661 0.979828 0.243305
0.925948 0.973541 0.237018
1 0.967315 0.230793
0 0.0201419 0.365393
0.0407416 0.0140078 0.359258
0.188876 0.00776684 0.353017
0.337148 0.00148013 0.346731
0.485222 0 0.340505
0.633509 0 0.334218
0.781567 0 0.327993
0.929854 0 0.321706
1 0 0.31548
0 0.146654 0.361578
0.0369268 0.14052 0.355444
0.185061 0.134279 0.349203
0.333318 0.127993 0.342916
0.481407 0.121767 0.33669
0.629694 0.115465 0.330388
0.777737 0.109255 0.324178
0.92604 0.102968 0.317891
1 0.0967422 0.311666
0 0.273503 0.356939
0.0322728 0.267369 0.350805
0.180423 0.261128 0.344549
0.328679 0.254841 0.338277
0.476753 0.248615 0.332036
0.625055 0.242329 0.32575
0.773098 0.236103 0.319539
0.921401 0.229816 0.313237
1 0.22359 0.307027
0 0.400122 0.352865
0.0282139 0.393988 0.346731
0.176349 0.387747 0.34049
0.32462 0.38146 0.334203
0.472694 0.375235 0.327977
0.620981 0.368948 0.321691
0.769024 0.362722 0.315465
0.917327 0.356435 0.309178
1 0.35021 0.302953
0 0.525963 0.350744
0.0260929 0.519829 0.34461
0.174228 0.513588 0.338369
0.322499 0.507301 0.332082
0.470573 0.501076 0.325856
0.618875 0.494789 0.31957
0.766918 0.488563 0.313344
0.915206 0.482277 0.307057
1 0.476051 0.300832
0 0.650721 0.35137
0.0267185 0.644587 0.345235
0.174853 0.638346 0.338994
0.323125 0.632059 0.332708
0.471199 0.625834 0.326482
0.619486 0.619547 0.320195
0.767544 0.613321 0.31397
0.915831 0.607034 0.307683
1 0.600809 0.301457
0 0.774289 0.355001
0.0303349 0.768154 0.348867
0.17847 0.761898 0.342611
0.326741 0.755627 0.336339
0.474815 0.749386 0.330098
0.623117 0.743099 0.323812
0.77116 0.736873 0.317586
0.919463 0.730587 0.311299
1 0.724361 0.305074
0 0.897368 0.359792
0.0351415 0.891234 0.353658
0.183276 0.884993 0.347417
0.331548 0.878706 0.341131
0.479622 0.87248 0.334905
0.627909 0.866194 0.328618
0.775952 0.859968 0.322393
0.924254 0.853681 0.316106
1 0.847456 0.30988
0 1 0.364675
0.0400244 1 0.358557
0.188159 1 0.3523
0.336431 1 0.346029
0.484504 0.995544 0.339788
0.632807 0.989242 0.333501
0.78085 0.983032 0.327276
0.929152 0.97673 0.320989
1 0.97052 0.314763
0 0.023331 0.449439
0.0439307 0.0171969 0.44332
0.192065 0.010956 0.437064
0.340322 0.00466926 0.430793
0.488411 0 0.424552
0.636698 0 0.418265
0.784741 0 0.412039
0.933043 0 0.405753
1 0 0.399527
0 0.149844 0.445624
0.0401007 0.143709 0.43949
0.188251 0.137453 0.433249
0.336507 0.131182 0.426963
0.484581 0.124941 0.420737
0.632883 0.118654 0.41445
0.780926 0.112444 0.408225
0.929229 0.106142 0.401938
1 0.0999313 0.395712
0 0.276692 0.440986
0.035462 0.270558 0.434852
0.183597 0.264317 0.428611
0.331868 0.25803 0.422324
0.479942 0.251804 0.416098
0.628244 0.245502 0.409812
0.776287 0.239292 0.403586
0.92459 0.23299 0.397299
1 0.22678 0.391073
0 0.403311 0.436912
0.0314031 0.397177 0.430777
0.179538 0.390936 0.424536
0.327794 0.384649 0.41825
0.475868 0.378424 0.412024
0.62417 0.372137 0.405737
0.772213 0.365911 0.399512
0.920516 0.359625 0.393225
1 0.353399 0.386999
0 0.529152 0.434806
0.0292821 0.523018 0.428672
0.177417 0.516777 0.422431
0.325689 0.510491 0.416144
0.473762 0.504265 0.409918
0.622049 0.497978 0.403616
0.770108 0.491753 0.397406
0.918395 0.485466 0.391104
1 0.47924 0.384894
0 0.65391 0.435431
0.0299077 0.647776 0.429297
0.178042 0.641535 0.423041
0.326314 0.635248 0.41677
0.474388 0.629023 0.410529
0.622675 0.622736 0.404242
0.770718 0.61651 0.398016
0.91902 0.610224 0.39173
1 0.603998 0.385504
0 0.777462 0.439048
0.0335241 0.771328 0.432914
0.181659 0.765087 0.426673
0.329931 0.758801 0.420386
0.478004 0.752575 0.41416
0.626307 0.746288 0.407874
0.77435 0.740063 0.401648
0.922637 0.733776 0.395361
1 0.72755 0.389136
0 0.900557 0.443839
0.0383307 0.894423 0.437705
0.186465 0.888182 0.431464
0.334722 0.881895 0.425177
0.482795 0.875669 0.418952
0.631098 0.869383 0.412665
0.779141 0.863157 0.406439
0.927443 0.85687 0.400153
1 0.850645 0.393927
0 1 0.448737
0.0432136 1 0.442603
0.191348 1 0.436362
0.33962 1 0.430076
0.487694 0.998718 0.42385
0.635996 0.992432 0.417563
0.784039 0.986206 0.411337
0.932326 0.979919 0.405051
1 0.973693 0.398825
0 0.0265202 0.533379
0.0471199 0.0204013 0.527245
0.195254 0.0141451 0.521004
0.343526 0.00787366 0.514717
0.4916 0.00163272 0.508492
0.639902 0 0.502205
0.787945 0 0.495979
0.936233 0 0.489693
1 0 0.483467
0 0.153033 0.529564
0.0433051 0.146899 0.52343
0.19144 0.140658 0.517189
0.339712 0.134371 0.510903
0.487785 0.128145 0.504677
0.636072 0.121859 0.49839
0.784131 0.115633 0.492164
0.932418 0.109346 0.485878
1 0.10312 0.479652
0 0.279881 0.524926
0.0386664 0.273747 0.518791
0.186801 0.267506 0.512551
0.335073 0.261219 0.506264
0.483146 0.254994 0.500038
0.631434 0.248707 0.493736
0.779477 0.242481 0.487526
0.927779 0.236194 0.481239
1 0.229969 0.475013
0 0.4065 0.520851
0.0345922 0.400381 0.514717
0.182727 0.394125 0.508476
0.330999 0.387854 0.50219
0.479072 0.381613 0.495964
0.627359 0.375326 0.489677
0.775418 0.3691 0.483452
0.923705 0.362814 0.477165
1 0.356588 0.470939
0 0.532357 0.51873
0.0324712 0.526223 0.512612
0.180606 0.519966 0.506355
0.328878 0.513695 0.500084
0.476951 0.507454 0.493843
0.625254 0.501167 0.487556
0.773297 0.494942 0.481331
0.921599 0.488655 0.475044
1 0.482444 0.468818
0 0.657099 0.519356
0.0330968 0.650965 0.513222
0.181231 0.644724 0.506981
0.329503 0.638437 0.500694
0.477577 0.632212 0.494469
0.625879 0.625925 0.488182
0.773922 0.619699 0.481956
0.92221 0.613413 0.47567
1 0.607187 0.469444
0 0.780667 0.522988
0.0367285 0.774533 0.516854
0.184863 0.768292 0.510613
0.33312 0.762005 0.504326
0.481209 0.755779 0.4981
0.629496 0.749477 0.491798
0.777539 0.743267 0.485588
0.925841 0.73698 0.479286
1 0.730755 0.473075
0 0.903761 0.527779
0.0415198 0.897627 0.521645
0.189654 0.891371 0.515404
0.337926 0.8851 0.509117
0.486 0.878859 0.502892
0.634287 0.872572 0.496605
0.782345 0.866346 0.490379
0.930632 0.860059 0.484092
1 0.853849 0.477867
0 1 0.532677
0.0464179 1 0.526543
0.194553 1 0.520287
0.342809 1 0.514015
0.490883 1 0.50779
0.639185 0.995636 0.501488
0.787228 0.98941 0.495277
0.935531 0.983124 0.488975
1 0.976898 0.482765
0 0.0297093 0.617456
0.050309 0.0235752 0.611322
0.198444 0.0173342 0.605081
0.346716 0.0110475 0.598795
0.494789 0.00482185 0.592569
0.643076 0 0.586282
0.791135 0 0.580056
0.939422 0 0.57377
1 0 0.567544
0 0.156222 0.613642
0.0464942 0.150088 0.607507
0.194629 0.143847 0.601251
0.342885 0.13756 0.59498
0.490974 0.131334 0.588739
0.639261 0.125032 0.582452
0.787305 0.118822 0.576242
0.935607 0.112535 0.56994
1 0.10631 0.563729
0 0.28307 0.608988
0.0418402 0.276936 0.602869
0.18999 0.270695 0.596613
0.338247 0.264408 0.590341
0.48632 0.258183 0.5841
0.634623 0.251896 0.577813
0.782666 0.24567 0.571588
0.930968 0.239384 0.565301
1 0.233158 0.559075
0 0.409689 0.604929
0.0377813 0.403555 0.598795
0.185916 0.397314 0.592554
0.334188 0.391028 0.586267
0.482261 0.384802 0.580041
0.630549 0.378515 0.573739
0.778592 0.37229 0.567529
0.926894 0.366003 0.561227
1 0.359777 0.555016
0 0.535531 0.602808
0.0356603 0.529397 0.596674
0.183795 0.523156 0.590433
0.332067 0.516869 0.584146
0.48014 0.510643 0.57792
0.628443 0.504356 0.571633
0.776486 0.498131 0.565408
0.924773 0.491844 0.559121
1 0.485618 0.552895
0 0.660288 0.603433
0.036286 0.654154 0.597299
0.184421 0.647913 0.591058
0.332692 0.641627 0.584772
0.480766 0.635401 0.578546
0.629053 0.629114 0.572259
0.777111 0.622889 0.566033
0.925399 0.616602 0.559747
1 0.610376 0.553521
0 0.783856 0.60705
0.0399023 0.777722 0.600931
0.188037 0.771466 0.594675
0.336309 0.765194 0.588388
0.484382 0.758953 0.582162
0.632685 0.752667 0.575875
0.780728 0.746441 0.56965
0.92903 0.740154 0.563363
1 0.733928 0.557137
0 0.906935 0.611856
0.0447089 0.900801 0.605722
0.192844 0.89456 0.599481
0.341115 0.888273 0.593194
0.489189 0.882048 0.586969
0.637476 0.875761 0.580667
0.785519 0.869535 0.574456
0.933822 0.863249 0.568154
1 0.857023 0.561944
0 1 0.616739
0.0495918 1 0.610605
0.197726 1 0.604364
0.345998 1 0.598077
0.494072 1 0.591852
0.642374 0.99881 0.585565
0.790417 0.992599 0.579339
0.93872 0.986297 0.573053
1 0.980087 0.566827
0 0.0329137 0.701366
0.0534981 0.0267796 0.695247
0.201633 0.0205234 0.688991
0.349905 0.0142519 0.682719
0.497978 0.00802625 0.676478
0.646281 0.00172427 0.670192
0.794324 0 0.663966
0.942626 0 0.657679
1 0 0.651453
0 0.159411 0.697551
0.0496834 0.153277 0.691417
0.197818 0.147036 0.685176
0.34609 0.140749 0.678889
0.494163 0.134524 0.672663
0.642466 0.128237 0.666377
0.790509 0.122011 0.660151
0.938796 0.115724 0.653864
1 0.109499 0.647639
0 0.286259 0.692912
0.0450446 0.28014 0.686778
0.193179 0.273884 0.680537
0.341451 0.267613 0.67425
0.489525 0.261372 0.668025
0.637812 0.255085 0.661738
0.78587 0.248859 0.655512
0.934157 0.242573 0.649226
1 0.236347 0.643
0 0.412894 0.688838
0.0409705 0.40676 0.682704
0.189105 0.400504 0.676463
0.337377 0.394232 0.670176
0.485451 0.387991 0.663951
0.633753 0.381704 0.657664
0.781796 0.375494 0.651438
0.930098 0.369192 0.645151
1 0.362982 0.638926
0 0.538735 0.686732
0.0388647 0.532601 0.680598
0.186999 0.52636 0.674342
0.335256 0.520073 0.66807
0.483345 0.513848 0.661845
0.631632 0.507561 0.655543
0.779675 0.501335 0.649332
0.927977 0.495048 0.64303
1 0.488823 0.63682
0 0.663493 0.687358
0.0394751 0.657359 0.681224
0.187625 0.651102 0.674968
0.335882 0.644831 0.668696
0.483955 0.63859 0.662455
0.632258 0.632303 0.656168
0.780301 0.626078 0.649943
0.928603 0.619791 0.643656
1 0.613581 0.63743
0 0.787045 0.690974
0.0431067 0.780911 0.68484
0.191241 0.77467 0.678599
0.339513 0.768383 0.672312
0.487587 0.762158 0.666087
0.635874 0.755871 0.6598
0.783932 0.749645 0.653574
0.932219 0.743358 0.647288
1 0.737133 0.641062
0 0.91014 0.695766
0.0478981 0.904005 0.689632
0.196033 0.897765 0.683391
0.344305 0.891478 0.677104
0.492378 0.885252 0.670878
0.640681 0.878965 0.664591
0.788724 0.87274 0.658366
0.937026 0.866453 0.652079
1 0.860227 0.645853
0 1 0.700664
0.0527962 1 0.69453
0.200931 1 0.688289
0.349203 1 0.682002
0.497276 1 0.675776
0.645563 1 0.66949
0.793622 0.995789 0.663264
0.941909 0.989502 0.656977
1 0.983276 0.650752
0 0.0360876 0.785443
0.0566873 0.0299687 0.779309
0.204822 0.0237125 0.773068
0.353094 0.0174411 0.766781
0.501167 0.0112001 0.760555
0.64947 0.00491341 0.754269
0.797513 0 0.748043
0.9458 0 0.741756
1 0 0.735531
0 0.1626 0.781628
0.0528725 0.156466 0.775494
0.201007 0.150225 0.769253
0.349279 0.143938 0.762966
0.497353 0.137713 0.756741
0.64564 0.131426 0.750454
0.793698 0.1252 0.744228
0.941985 0.118914 0.737942
1 0.112688 0.731716
0 0.289448 0.776989
0.0482338 0.283314 0.770855
0.196368 0.277073 0.764599
0.34464 0.270787 0.758328
0.492714 0.264561 0.752102
0.641001 0.258274 0.7458
0.789044 0.252049 0.73959
0.937346 0.245762 0.733288
1 0.239536 0.727077
0 0.416068 0.772915
0.0441596 0.409949 0.766781
0.192294 0.403693 0.76054
0.340566 0.397421 0.754253
0.48864 0.39118 0.748028
0.636927 0.384894 0.741741
0.784985 0.378668 0.735515
0.933272 0.372381 0.729229
1 0.366155 0.723003
0 0.541924 0.770794
0.0420386 0.53579 0.76466
0.190173 0.529534 0.758419
0.338445 0.523262 0.752132
0.486519 0.517021 0.745907
0.634821 0.510735 0.73962
0.782864 0.504509 0.733394
0.931167 0.498222 0.727108
1 0.492012 0.720882
0 0.666667 0.77142
0.0426642 0.660533 0.765286
0.190799 0.654292 0.759045
0.339071 0.648005 0.752758
0.487144 0.641779 0.746532
0.635447 0.635493 0.740246
0.78349 0.629267 0.73402
0.931777 0.62298 0.727733
1 0.616754 0.721508
0 0.790234 0.775051
0.0462959 0.7841 0.768917
0.19443 0.777859 0.762661
0.342687 0.771572 0.75639
0.490776 0.765347 0.750149
0.639063 0.759045 0.743862
0.787106 0.752834 0.737636
0.935409 0.746548 0.73135
1 0.740322 0.725139
0 0.913329 0.779843
0.0510872 0.907195 0.773709
0.199222 0.900938 0.767468
0.347494 0.894667 0.761181
0.495567 0.888426 0.754955
0.643854 0.882139 0.748669
0.791913 0.875914 0.742443
0.9402 0.869627 0.736156
1 0.863416 0.729931
0 1 0.784741
0.0559854 1 0.778607
0.20412 1 0.772351
0.352377 1 0.766079
0.50045 1 0.759838
0.648753 1 0.753552
0.796796 0.998978 0.747326
0.945098 0.992691 0.741039
1 0.986465 0.734813
0 0.039292 0.869368
0.0598917 0.0331579 0.863233
0.208026 0.0269169 0.856977
0.356283 0.0206302 0.850706
0.504372 0.0144045 0.844465
0.652659 0.0081178 0.838178
0.800702 0.00189212 0.831968
0.949004 0 0.825666
1 0 0.819455
0 0.165805 0.865538
0.0560616 0.15967 0.859419
0.204211 0.153414 0.853162
0.352468 0.147143 0.846891
0.500542 0.140902 0.84065
0.648844 0.134615 0.834363
0.796887 0.128389 0.828138
0.94519 0.122103 0.821851
1 0.115892 0.815625
0 0.292653 0.860899
0.0514229 0.286519 0.854765
0.199557 0.280262 0.848524
0.347829 0.273991 0.842237
0.495903 0.267765 0.836011
0.644205 0.261463 0.829725
0.792248 0.255253 0.823499
0.940551 0.248951 0.817212
1 0.242741 0.810987
0 0.419272 0.85684
0.047364 0.413138 0.850706
0.195499 0.406897 0.84445
0.343755 0.40061 0.838178
0.491829 0.394385 0.831937
0.640131 0.388098 0.82565
0.788174 0.381872 0.819425
0.936477 0.375586 0.813138
1 0.36936 0.806912
0 0.545113 0.854719
0.045243 0.538979 0.848585
0.193378 0.532738 0.842344
0.34165 0.526452 0.836057
0.489723 0.520226 0.829831
0.63801 0.513939 0.823545
0.786068 0.507713 0.817319
0.934356 0.501427 0.811032
1 0.495201 0.804807
0 0.669871 0.855344
0.0458686 0.663737 0.84921
0.194003 0.657496 0.842969
0.34226 0.651209 0.836683
0.490349 0.644984 0.830457
0.638636 0.638697 0.824155
0.786679 0.632471 0.817945
0.934981 0.626184 0.811643
1 0.619959 0.805432
0 0.793423 0.858961
0.049485 0.787289 0.852827
0.19762 0.781048 0.846586
0.345892 0.774762 0.840299
0.493965 0.768536 0.834073
0.642267 0.762249 0.827787
0.790311 0.756024 0.821561
0.938598 0.749737 0.815274
1 0.743511 0.809049
0 0.916518 0.863767
0.0542916 0.910384 0.857633
0.202426 0.904143 0.851377
0.350683 0.897856 0.845106
0.498756 0.89163 0.838865
0.647059 0.885344 0.832578
0.795102 0.879118 0.826352
0.943404 0.872831 0.820066
1 0.866606 0.81384
0 1 0.86865
0.0591745 1 0.862516
0.207309 1 0.856275
0.355581 1 0.849989
0.503655 1 0.843763
0.651957 1 0.837476
0.8 1 0.83125
0.948287 0.99588 0.824964
1 0.989654 0.818738
