CROSS_PROCESS_01.cube
TITLE "Generated by Resolve"
LUT_3D_SIZE 9
0 0.0195926 0.155688
0.0392157 0.0108797 0.146975
0.196796 0.00204471 0.13814
0.354513 0 0.129274
0.512016 0 0.120455
0.669764 0 0.111589
0.827237 0 0.10277
0.984985 0 0.093904
1 0 0.0850843
0 0.143603 0.157702
0.0412451 0.13489 0.149004
0.19881 0.126055 0.140169
0.356527 0.117189 0.131289
0.514031 0.10837 0.122484
0.671778 0.0994888 0.113603
0.829252 0.0906844 0.104799
0.986999 0.0818036 0.0959182
1 0.0729992 0.0871138
0 0.267918 0.158953
0.0424964 0.259205 0.15024
0.200061 0.250385 0.141421
0.357778 0.241505 0.13254
0.515282 0.2327 0.123735
0.67303 0.223819 0.114855
0.830503 0.215015 0.10605
0.988251 0.206134 0.0971695
1 0.19733 0.088365
0 0.392035 0.160739
0.0442817 0.383322 0.152026
0.201846 0.374487 0.143206
0.359564 0.365621 0.134325
0.517067 0.356802 0.125521
0.674815 0.347936 0.11664
0.832288 0.339117 0.107836
0.990036 0.330236 0.0989548
1 0.321431 0.0901503
0 0.515419 0.164355
0.0478981 0.506706 0.155642
0.205463 0.497887 0.146822
0.36318 0.489006 0.137942
0.520684 0.480201 0.129137
0.678431 0.471321 0.120256
0.835904 0.462516 0.111452
0.993652 0.453635 0.102571
1 0.444831 0.0937667
0 0.637797 0.170535
0.054078 0.629084 0.161837
0.211658 0.620249 0.153002
0.36936 0.611383 0.144137
0.526879 0.602564 0.135317
0.684611 0.593683 0.126436
0.8421 0.584878 0.117632
0.999832 0.575998 0.108751
1 0.567193 0.0999466
0 0.759045 0.179538
0.0630808 0.750347 0.170825
0.220645 0.741512 0.16199
0.378363 0.732631 0.153124
0.535866 0.723827 0.144305
0.693614 0.714946 0.135439
0.851087 0.706142 0.126635
1 0.697261 0.117754
1 0.688457 0.108949
0 0.879866 0.189639
0.073167 0.871168 0.180926
0.230747 0.862333 0.172091
0.388464 0.853452 0.163226
0.545968 0.844648 0.154406
0.703716 0.835767 0.145525
0.861189 0.826963 0.136721
1 0.818082 0.12784
1 0.809277 0.119036
0 1 0.199817
0.08336 0.991943 0.191104
0.240925 0.983108 0.182284
0.398642 0.974243 0.173404
0.556146 0.965423 0.164599
0.713893 0.956542 0.155718
0.871366 0.947738 0.146914
1 0.938857 0.138033
1 0.930053 0.129229
0 0.0229648 0.238743
0.0425879 0.0142519 0.230045
0.200168 0.00541695 0.22121
0.35787 0 0.212345
0.515389 0 0.203525
0.673121 0 0.194644
0.83061 0 0.18584
0.988342 0 0.176959
1 0 0.168154
0 0.14696 0.240772
0.0446174 0.138247 0.232059
0.202182 0.129427 0.223224
0.359899 0.120546 0.214359
0.517403 0.111742 0.205539
0.675151 0.102861 0.196658
0.832624 0.0940566 0.187854
0.990372 0.0851759 0.178988
1 0.0763714 0.170169
0 0.27129 0.242023
0.0458534 0.262577 0.23331
0.203433 0.253742 0.224475
0.361151 0.244877 0.21561
0.518654 0.236057 0.20679
0.676402 0.227176 0.19791
0.833875 0.218372 0.189105
0.991623 0.209491 0.180224
1 0.200687 0.17142
0 0.395407 0.243809
0.0476387 0.386694 0.235096
0.205219 0.377859 0.226261
0.362936 0.368994 0.217395
0.520439 0.360174 0.208576
0.678187 0.351293 0.199695
0.83566 0.342489 0.19089
0.993408 0.333608 0.18201
1 0.324804 0.173205
0 0.518791 0.247425
0.0512551 0.510079 0.238712
0.208835 0.501244 0.229877
0.366552 0.492378 0.221012
0.524056 0.483558 0.212192
0.681804 0.474678 0.203311
0.839277 0.465873 0.194507
0.997024 0.456992 0.185626
1 0.448188 0.176822
0 0.641154 0.253605
0.0574502 0.632456 0.244892
0.215015 0.623621 0.236057
0.372732 0.614755 0.227192
0.530236 0.605936 0.218372
0.687984 0.597055 0.209506
0.845457 0.588251 0.200687
1 0.57937 0.191821
1 0.570565 0.183017
0 0.762417 0.262592
0.0664378 0.753704 0.253895
0.224018 0.744869 0.24506
0.381735 0.736004 0.236194
0.539239 0.727184 0.227375
0.696986 0.718303 0.218494
0.854459 0.709499 0.209689
1 0.700618 0.200809
1 0.691814 0.192004
0 0.883238 0.272694
0.0765393 0.874525 0.263981
0.234104 0.86569 0.255161
0.391821 0.856825 0.246281
0.549325 0.848005 0.237476
0.707073 0.839124 0.228595
0.864561 0.83032 0.219791
1 0.821439 0.21091
1 0.812634 0.202106
0 1 0.282887
0.086717 0.995315 0.274174
0.244297 0.986481 0.265339
0.402014 0.977615 0.256474
0.559518 0.968795 0.247654
0.717266 0.959915 0.238773
0.874739 0.95111 0.229969
1 0.942229 0.221088
1 0.933425 0.212284
0 0.0263066 0.322072
0.0459297 0.0175937 0.313375
0.20351 0.00875868 0.30454
0.361227 0 0.295674
0.51873 0 0.286854
0.676478 0 0.277974
0.833951 0 0.269169
0.991699 0 0.260288
1 0 0.251484
0 0.150317 0.324102
0.0479591 0.141604 0.315389
0.205524 0.132769 0.306554
0.363241 0.123903 0.297688
0.520745 0.115084 0.288869
0.678492 0.106203 0.279988
0.835981 0.0973983 0.271183
0.993713 0.0885176 0.262318
1 0.0797131 0.253498
0 0.274632 0.325353
0.0492103 0.265934 0.31664
0.206775 0.257099 0.307805
0.364492 0.248219 0.298939
0.521996 0.239414 0.29012
0.679744 0.230533 0.281239
0.837217 0.221729 0.272435
0.994965 0.212848 0.263554
1 0.204044 0.254749
0 0.398749 0.327138
0.0509957 0.390036 0.318425
0.20856 0.381216 0.30959
0.366278 0.372335 0.300725
0.523781 0.363516 0.291905
0.681529 0.35465 0.283024
0.839002 0.34583 0.27422
0.99675 0.336965 0.265339
1 0.328145 0.256535
0 0.522133 0.330755
0.054612 0.513436 0.322042
0.212177 0.504601 0.313207
0.369894 0.49572 0.304341
0.527398 0.486915 0.295521
0.685145 0.478035 0.286641
0.842618 0.46923 0.277836
1 0.460349 0.268956
1 0.451545 0.260151
0 0.644511 0.336934
0.0607919 0.635798 0.328222
0.218372 0.626963 0.319387
0.376074 0.618097 0.310521
0.533593 0.609277 0.301701
0.691325 0.600397 0.292836
0.848814 0.591592 0.284016
1 0.582712 0.275151
1 0.573907 0.266346
0 0.765759 0.345922
0.0697948 0.757061 0.337224
0.227359 0.748226 0.328389
0.385077 0.739345 0.319524
0.54258 0.730541 0.310704
0.700328 0.72166 0.301823
0.857801 0.712856 0.293019
1 0.703975 0.284138
1 0.695171 0.275334
0 0.88658 0.356023
0.079881 0.877882 0.347311
0.237461 0.869047 0.338491
0.395178 0.860166 0.32961
0.552682 0.851362 0.320806
0.71043 0.842481 0.311925
0.867903 0.833677 0.30312
1 0.824796 0.29424
1 0.815991 0.285435
0 1 0.366217
0.090074 0.998657 0.357504
0.247639 0.989822 0.348669
0.405356 0.980957 0.339803
0.56286 0.972137 0.330983
0.720607 0.963272 0.322103
0.87808 0.954452 0.313298
1 0.945586 0.304417
1 0.936767 0.295613
0 0.0296483 0.405493
0.0492714 0.0209354 0.39678
0.206851 0.0121004 0.387945
0.364569 0.00323491 0.37908
0.522072 0 0.37026
0.67982 0 0.361379
0.837293 0 0.352575
0.995041 0 0.343694
1 0 0.33489
0 0.153658 0.407507
0.0513008 0.144945 0.398795
0.208865 0.13611 0.389975
0.366583 0.127245 0.381094
0.524086 0.118425 0.37229
0.681834 0.109545 0.363409
0.839323 0.10074 0.354604
0.997055 0.0918593 0.345724
1 0.0830549 0.336919
0 0.277974 0.408759
0.0525521 0.269276 0.400046
0.210117 0.260441 0.391211
0.367834 0.25156 0.382345
0.525338 0.242756 0.373526
0.683085 0.233875 0.36466
0.840558 0.225071 0.35584
0.998306 0.21619 0.346975
1 0.207385 0.33817
0 0.40209 0.410544
0.0543374 0.393378 0.401831
0.211902 0.384558 0.392996
0.369619 0.375677 0.384131
0.527123 0.366873 0.375311
0.684871 0.357992 0.366445
0.842344 0.349172 0.357626
1 0.340307 0.34876
1 0.331487 0.33994
0 0.525475 0.41416
0.0579538 0.516777 0.405447
0.215518 0.507942 0.396612
0.373236 0.499062 0.387747
0.530739 0.490257 0.378927
0.688487 0.481376 0.370062
0.84596 0.472572 0.361242
1 0.463691 0.352377
1 0.454887 0.343572
0 0.647852 0.42034
0.0641337 0.639139 0.411627
0.221714 0.630304 0.402808
0.379416 0.621439 0.393927
0.536934 0.612619 0.385122
0.694667 0.603738 0.376242
0.852155 0.594934 0.367437
1 0.586053 0.358557
1 0.577249 0.349752
0 0.7691 0.429343
0.0731365 0.760403 0.42063
0.230701 0.751568 0.411795
0.388418 0.742687 0.40293
0.545922 0.733883 0.39411
0.70367 0.725002 0.385229
0.861143 0.716197 0.376425
1 0.707317 0.367544
1 0.698512 0.35874
0 0.889921 0.439429
0.0832227 0.881224 0.430732
0.240803 0.872389 0.421897
0.39852 0.863508 0.413031
0.556023 0.854704 0.404211
0.713771 0.845823 0.395331
0.871244 0.837018 0.386526
1 0.828138 0.377646
1 0.819333 0.368841
0 1 0.449622
0.0934157 1 0.440909
0.25098 0.993164 0.432074
0.408698 0.984298 0.423209
0.566201 0.975479 0.414389
0.723949 0.966613 0.405524
0.881422 0.957794 0.396704
1 0.948928 0.387839
1 0.940108 0.379019
0 0.0330053 0.488777
0.0526284 0.0242924 0.480064
0.210208 0.0154574 0.471244
0.36791 0.0065919 0.462364
0.525429 0 0.453559
0.683162 0 0.444678
0.84065 0 0.435874
0.998383 0 0.426993
1 0 0.418189
0 0.157 0.490806
0.0546426 0.148302 0.482094
0.212222 0.139467 0.473259
0.36994 0.130587 0.464393
0.527443 0.121782 0.455573
0.685191 0.112902 0.446693
0.842664 0.104097 0.437888
1 0.0952163 0.429007
1 0.0864118 0.420203
0 0.281331 0.492042
0.0558938 0.272618 0.483345
0.213474 0.263783 0.47451
0.371191 0.254917 0.465644
0.528695 0.246098 0.456825
0.686442 0.237217 0.447944
0.843915 0.228412 0.439139
1 0.219532 0.430259
1 0.210727 0.421454
0 0.405447 0.493828
0.0576791 0.396735 0.48513
0.215259 0.3879 0.476295
0.372976 0.379034 0.46743
0.53048 0.370214 0.45861
0.688228 0.361334 0.449729
0.845701 0.352529 0.440925
1 0.343648 0.432044
1 0.334844 0.423239
0 0.528832 0.497444
0.0612955 0.520119 0.488746
0.218875 0.511284 0.479912
0.376593 0.502419 0.471046
0.534096 0.493599 0.462226
0.691844 0.484718 0.453346
0.849317 0.475914 0.444541
1 0.467033 0.43566
1 0.458228 0.426856
0 0.651194 0.503639
0.0674907 0.642496 0.494926
0.225055 0.633661 0.486091
0.382773 0.624796 0.477226
0.540276 0.615976 0.468406
0.698024 0.607095 0.459525
0.855497 0.598291 0.450721
1 0.58941 0.44184
1 0.580606 0.433036
0 0.772457 0.512627
0.0764782 0.763745 0.503929
0.234058 0.75491 0.495094
0.391775 0.746044 0.486213
0.549279 0.737224 0.477409
0.707027 0.728359 0.468528
0.8645 0.719539 0.459724
1 0.710674 0.450843
1 0.701854 0.442039
0 0.893278 0.522728
0.0865797 0.884565 0.514015
0.244144 0.875731 0.50518
0.401862 0.866865 0.496315
0.559365 0.858045 0.487495
0.717113 0.84918 0.47863
0.874601 0.84036 0.469825
1 0.831479 0.460945
1 0.822675 0.45214
0 1 0.532906
0.0967575 1 0.524208
0.254337 0.996521 0.515373
0.412055 0.987655 0.506508
0.569558 0.978836 0.497688
0.727306 0.969955 0.488807
0.884779 0.961151 0.480003
1 0.95227 0.471122
1 0.943465 0.462318
0 0.036347 0.572213
0.0559701 0.0276341 0.5635
0.213535 0.0187991 0.554665
0.371252 0.00993362 0.5458
0.528771 0.00111391 0.53698
0.686503 0 0.528099
0.843992 0 0.519295
1 0 0.510414
1 0 0.50161
0 0.160342 0.574228
0.0579843 0.151629 0.565515
0.215564 0.142809 0.55668
0.373281 0.133928 0.547814
0.530785 0.125124 0.53901
0.688533 0.116243 0.530129
0.846006 0.107439 0.521324
1 0.098558 0.512444
1 0.0897536 0.503639
0 0.284672 0.575479
0.0592355 0.275959 0.566766
0.216815 0.267124 0.557931
0.374533 0.258259 0.549065
0.532036 0.249439 0.540246
0.689784 0.240558 0.53138
0.847257 0.231754 0.52256
1 0.222873 0.513695
1 0.214069 0.504891
0 0.408789 0.577264
0.0610208 0.400076 0.568551
0.218601 0.391241 0.559716
0.376318 0.382376 0.550851
0.533822 0.373556 0.542031
0.691569 0.364675 0.533165
0.849042 0.355871 0.524346
1 0.34699 0.51548
1 0.338186 0.506661
0 0.532174 0.58088
0.0646372 0.523461 0.572168
0.222217 0.514626 0.563333
0.379934 0.50576 0.554467
0.537438 0.496941 0.545647
0.695186 0.48806 0.536782
0.852659 0.479255 0.527962
1 0.470375 0.519097
1 0.46157 0.510292
0 0.654536 0.58706
0.0708324 0.645838 0.578347
0.228397 0.637003 0.569528
0.386114 0.628122 0.560647
0.543618 0.619318 0.551843
0.701366 0.610437 0.542962
0.858839 0.601633 0.534157
1 0.592752 0.525277
1 0.583947 0.516472
0 0.775799 0.596063
0.0798199 0.767086 0.58735
0.2374 0.758251 0.578515
0.395102 0.749386 0.56965
0.552621 0.740566 0.56083
0.710369 0.731685 0.551949
0.867842 0.722881 0.543145
1 0.714 0.534264
1 0.705196 0.52546
0 0.89662 0.606149
0.0899214 0.887907 0.597452
0.247486 0.879072 0.588617
0.405203 0.870207 0.579751
0.562707 0.861387 0.570932
0.720455 0.852506 0.562051
0.877928 0.843702 0.553246
1 0.834821 0.544366
1 0.826017 0.535561
0 1 0.616342
0.100099 1 0.60763
0.257679 0.999863 0.598795
0.415396 0.990997 0.589929
0.5729 0.982177 0.581109
0.730648 0.973297 0.572244
0.888121 0.964492 0.563424
1 0.955612 0.554559
1 0.946807 0.545739
0 0.0396887 0.655482
0.0593271 0.0309758 0.646769
0.216892 0.0221561 0.637949
0.374609 0.0132753 0.629068
0.532113 0.00447089 0.620264
0.68986 0 0.611383
0.847333 0 0.602579
1 0 0.593698
1 0 0.584894
0 0.163699 0.657496
0.0613413 0.154986 0.648798
0.218921 0.146151 0.639963
0.376623 0.137285 0.631098
0.534142 0.128466 0.622278
0.691875 0.119585 0.613397
0.849363 0.11078 0.604593
1 0.1019 0.595712
1 0.0930953 0.586908
0 0.288029 0.658747
0.0625925 0.279316 0.65005
0.220157 0.270481 0.641215
0.377874 0.261616 0.632349
0.535393 0.252796 0.623529
0.693126 0.243915 0.614649
0.850614 0.235111 0.605844
1 0.22623 0.596963
1 0.217426 0.588159
0 0.412131 0.660533
0.0643778 0.403433 0.651835
0.221942 0.394598 0.643
0.37966 0.385718 0.634119
0.537163 0.376913 0.625315
0.694911 0.368032 0.616434
0.852399 0.359228 0.60763
1 0.350347 0.598749
1 0.341543 0.589944
0 0.535531 0.664149
0.0679942 0.526818 0.655451
0.225574 0.517983 0.646616
0.383276 0.509117 0.637751
0.540795 0.500298 0.628931
0.698528 0.491417 0.62005
0.856016 0.482612 0.611246
1 0.473732 0.602365
1 0.464927 0.593561
0 0.657893 0.670344
0.0741741 0.64918 0.661631
0.231754 0.64036 0.652796
0.389471 0.631479 0.643931
0.546975 0.62266 0.635111
0.704723 0.613794 0.62623
0.862196 0.604974 0.617426
1 0.596109 0.608545
1 0.587289 0.599741
0 0.779156 0.679332
0.0831769 0.770443 0.670619
0.240742 0.761608 0.661799
0.398459 0.752743 0.652918
0.555962 0.743923 0.644114
0.71371 0.735042 0.635233
0.871183 0.726238 0.626429
1 0.717357 0.617548
1 0.708553 0.608743
0 0.899977 0.689433
0.0932631 0.891264 0.68072
0.250843 0.882429 0.671885
0.40856 0.873564 0.66302
0.566064 0.864744 0.6542
0.723812 0.855863 0.645319
0.881285 0.847059 0.636515
1 0.838178 0.627649
1 0.829374 0.61883
0 1 0.699611
0.103456 1 0.690913
0.261036 1 0.682078
0.418738 0.994339 0.673198
0.576257 0.985534 0.664393
0.733989 0.976654 0.655512
0.891478 0.967849 0.646708
1 0.958968 0.637827
1 0.950164 0.629023
0 0.0430304 0.738903
0.0626688 0.0343175 0.730205
0.220233 0.0254978 0.72137
0.377951 0.0166171 0.712505
0.535454 0.00781262 0.703685
0.693202 0 0.694804
0.850675 0 0.686
1 0 0.677119
1 0 0.668315
0 0.167041 0.740932
0.064683 0.158328 0.732219
0.222248 0.149493 0.723384
0.379965 0.140627 0.714519
0.537484 0.131807 0.705699
0.695216 0.122927 0.696834
0.852705 0.114122 0.688014
1 0.105241 0.679149
1 0.096437 0.670344
0 0.291356 0.742184
0.0659342 0.282658 0.733471
0.223499 0.273823 0.724636
0.381216 0.264958 0.71577
0.53872 0.256138 0.70695
0.696468 0.247257 0.69807
0.853941 0.238453 0.689265
1 0.229572 0.680385
1 0.220768 0.67158
0 0.415473 0.743969
0.0677195 0.406775 0.735256
0.225284 0.39794 0.726421
0.383001 0.389059 0.717556
0.540505 0.380255 0.708736
0.698253 0.371374 0.699855
0.855726 0.36257 0.691051
1 0.353689 0.68217
1 0.344884 0.673365
0 0.538857 0.747585
0.0713359 0.530159 0.738872
0.228901 0.521324 0.730037
0.386618 0.512459 0.721172
0.544121 0.503639 0.712352
0.701869 0.494759 0.703471
0.859358 0.485954 0.694667
1 0.477073 0.685786
1 0.468269 0.676982
0 0.661234 0.753765
0.0775158 0.652522 0.745052
0.235096 0.643687 0.736217
0.392798 0.634821 0.727352
0.550317 0.626001 0.718547
0.708064 0.617136 0.709667
0.865538 0.608316 0.700862
1 0.599451 0.691981
1 0.590631 0.683177
0 0.782498 0.762768
0.0865187 0.773785 0.754055
0.244083 0.76495 0.74522
0.401801 0.756085 0.736355
0.559304 0.747265 0.727535
0.717052 0.738384 0.718654
0.874525 0.72958 0.70985
1 0.720699 0.700969
1 0.711894 0.692164
0 0.903319 0.772854
0.0966049 0.894606 0.764141
0.254185 0.885771 0.755322
0.411902 0.876905 0.746441
0.569406 0.868086 0.737636
0.727153 0.859205 0.728756
0.884627 0.850401 0.719951
1 0.84152 0.71107
1 0.832715 0.702266
0 1 0.783047
0.106798 1 0.774334
0.264363 1 0.765499
0.42208 0.997681 0.756634
0.579583 0.988876 0.747814
0.737331 0.979995 0.738933
0.89482 0.971191 0.730129
1 0.96231 0.721248
1 0.953506 0.712444
0 0.0463874 0.822187
0.0660105 0.0376745 0.813474
0.22359 0.0288396 0.804639
0.381308 0.0199741 0.795773
0.538811 0.0111543 0.786954
0.696559 0.00227359 0.778088
0.854032 0 0.769268
1 0 0.760403
1 0 0.751598
0 0.170397 0.824201
0.06804 0.161685 0.815503
0.225605 0.15285 0.806668
0.383322 0.143984 0.797787
0.540825 0.135164 0.788983
0.698573 0.126284 0.780102
0.856046 0.117479 0.771298
1 0.108598 0.762417
1 0.099794 0.753613
0 0.294713 0.825452
0.0692912 0.286 0.816739
0.226856 0.27718 0.807919
0.384573 0.268299 0.799039
0.542077 0.259495 0.790234
0.699825 0.250614 0.781353
0.857298 0.24181 0.772549
1 0.232929 0.763668
1 0.224125 0.754864
0 0.41883 0.827237
0.0710613 0.410117 0.818524
0.228641 0.401282 0.809705
0.386358 0.392416 0.800824
0.543862 0.383597 0.79202
0.70161 0.374716 0.783139
0.859083 0.365911 0.774334
1 0.357031 0.765454
1 0.348226 0.756649
0 0.542214 0.830854
0.0746929 0.533501 0.822141
0.232258 0.524681 0.813321
0.389975 0.515801 0.80444
0.547478 0.506996 0.795636
0.705226 0.498116 0.786755
0.862699 0.489311 0.777951
1 0.48043 0.76907
1 0.471626 0.760266
0 0.664591 0.837034
0.0808728 0.655879 0.828336
0.238437 0.647044 0.819501
0.396155 0.638178 0.810636
0.553658 0.629358 0.801816
0.711406 0.620478 0.792935
0.868879 0.611673 0.784131
1 0.602792 0.77525
1 0.593988 0.766445
0 0.78584 0.846036
0.0898604 0.777142 0.837324
0.24744 0.768307 0.828489
0.405158 0.759426 0.819623
0.562661 0.750622 0.810819
0.720409 0.741741 0.801938
0.877882 0.732937 0.793133
1 0.724056 0.784253
1 0.715251 0.775448
0 0.906661 0.856138
0.0999619 0.897948 0.847425
0.257542 0.889128 0.83859
0.415244 0.880247 0.829725
0.572763 0.871443 0.820905
0.730495 0.862562 0.812024
0.887984 0.853758 0.80322
1 0.844877 0.794339
1 0.836072 0.785534
0 1 0.866316
0.110155 1 0.857603
0.26772 1 0.848783
0.425437 1 0.839902
0.58294 0.992218 0.831098
0.740688 0.983337 0.822217
0.898161 0.974533 0.813413
1 0.965652 0.804532
1 0.956847 0.795727
