CROSS_PROCESS_03.cube
TITLE "Generated by Resolve"
LUT_3D_SIZE 33
0 0.0137331 0.197711
0 0.012314 0.196292
0 0.0107576 0.194736
0 0.00920119 0.193179
0.0343328 0.00761425 0.191577
0.0714275 0.00602731 0.190005
0.108446 0.00447089 0.188449
0.145464 0.00291447 0.186892
0.182467 0.00135805 0.185336
0.219486 0 0.18378
0.256489 0 0.182223
0.293507 0 0.180667
0.330739 0 0.179049
0.367773 0 0.177493
0.404791 0 0.175937
0.441794 0 0.17438
0.478813 0 0.172824
0.515831 0 0.171267
0.552834 0 0.169711
0.589868 0 0.168154
0.627115 0 0.166537
0.664118 0 0.164981
0.701137 0 0.163424
0.73814 0 0.161868
0.775158 0 0.160311
0.812161 0 0.158755
0.84918 0 0.157198
0.886275 0 0.155627
0.923445 0 0.154025
0.960464 0 0.152468
0.997467 0 0.150912
1 0 0.149355
1 0 0.147799
0 0.0460365 0.195056
0 0.0446021 0.193637
0 0.043061 0.192081
0 0.0415045 0.190524
0.0316777 0.0399023 0.188922
0.0687877 0.0383154 0.18735
0.105791 0.036759 0.185794
0.142809 0.0352026 0.184237
0.179812 0.0336461 0.182681
0.216831 0.032105 0.181125
0.253834 0.0305486 0.179568
0.290852 0.0289921 0.178012
0.328084 0.0273747 0.176394
0.365118 0.025803 0.174838
0.402136 0.0242466 0.173281
0.439139 0.0226902 0.171725
0.476158 0.0211337 0.170169
0.513176 0.0195926 0.168612
0.550179 0.0180362 0.167056
0.587213 0.0164645 0.165499
0.62446 0.014847 0.163882
0.661463 0.0132906 0.162325
0.698482 0.0117342 0.160769
0.735485 0.0101778 0.159213
0.772503 0.00863661 0.157656
0.809506 0.00708019 0.1561
0.846525 0.00552377 0.154543
0.883619 0.00393683 0.152972
0.92079 0.00233463 0.151369
0.957809 0.00077821 0.149813
0.994827 0 0.148257
1 0 0.1467
1 0 0.145144
0 0.0785992 0.19176
0 0.0771801 0.190341
0 0.0756237 0.188785
0 0.0740673 0.187228
0.0283818 0.0724651 0.185626
0.0654765 0.0708782 0.184054
0.102495 0.0693217 0.182498
0.139513 0.0677653 0.180941
0.176516 0.0662242 0.179385
0.213535 0.0646677 0.177829
0.250538 0.0631113 0.176272
0.287556 0.0615549 0.174716
0.324788 0.0599374 0.173098
0.361822 0.0583658 0.171542
0.39884 0.0568093 0.169986
0.435843 0.0552682 0.168429
0.472862 0.0537118 0.166873
0.509865 0.0521553 0.165316
0.546883 0.0505989 0.16376
0.583917 0.0490272 0.162203
0.621149 0.0474098 0.160586
0.658167 0.0458534 0.15903
0.695186 0.0443122 0.157473
0.732189 0.0427558 0.155917
0.769207 0.0411994 0.15436
0.80621 0.0396429 0.152804
0.843229 0.0380865 0.151247
0.880323 0.0364996 0.149676
0.917494 0.0348974 0.148074
0.954513 0.033341 0.146517
0.991516 0.0317998 0.144961
1 0.0302434 0.143404
1 0.028687 0.141848
0 0.111238 0.188266
0 0.109819 0.186831
0 0.108263 0.185275
0 0.106706 0.183734
0.0248722 0.105104 0.182132
0.0619821 0.103532 0.180545
0.0989853 0.101976 0.178988
0.136004 0.10042 0.177432
0.173022 0.0988632 0.175875
0.210025 0.0973068 0.174319
0.247044 0.0957504 0.172778
0.284047 0.0941939 0.171221
0.321279 0.0925765 0.169604
0.358328 0.0910201 0.168032
0.395331 0.0894636 0.166476
0.432349 0.0879072 0.16492
0.469352 0.0863508 0.163363
0.506371 0.0847944 0.161822
0.543374 0.083238 0.160266
0.580423 0.0816815 0.158694
0.617655 0.0800641 0.157076
0.654658 0.0785077 0.15552
0.691676 0.0769513 0.153964
0.728695 0.0753948 0.152407
0.765698 0.0738384 0.150866
0.802716 0.072282 0.14931
0.839719 0.0707256 0.147753
0.876814 0.0691539 0.146166
0.914 0.0675517 0.144564
0.951003 0.0659953 0.143008
0.988022 0.0644388 0.141451
1 0.0628824 0.13991
1 0.061326 0.138354
0 0.144015 0.184451
0 0.14258 0.183032
0 0.141024 0.181476
0 0.139483 0.179919
0.0210727 0.137881 0.178317
0.0581674 0.136294 0.17673
0.0951858 0.134737 0.175174
0.132189 0.133181 0.173617
0.169207 0.131624 0.172076
0.20621 0.130068 0.17052
0.243229 0.128527 0.168963
0.280232 0.12697 0.167407
0.317464 0.125353 0.165789
0.354513 0.123781 0.164218
0.391516 0.122225 0.162661
0.428534 0.120668 0.16112
0.465537 0.119112 0.159564
0.502556 0.117571 0.158007
0.539574 0.116014 0.156451
0.576608 0.114443 0.154879
0.61384 0.112825 0.153262
0.650858 0.111269 0.151705
0.687861 0.109712 0.150164
0.72488 0.108156 0.148608
0.761883 0.106615 0.147051
0.798901 0.105058 0.145495
0.835904 0.103502 0.143938
0.873014 0.101915 0.142351
0.910185 0.100313 0.140749
0.947188 0.0987564 0.139208
0.984207 0.0972 0.137652
1 0.0956588 0.136095
1 0.0941024 0.134539
0 0.176806 0.18056
0 0.175387 0.179141
0 0.173831 0.177584
0 0.172274 0.176028
0.0171817 0.170672 0.174426
0.0542763 0.1691 0.172839
0.0912947 0.167544 0.171283
0.128298 0.165988 0.169741
0.165316 0.164431 0.168185
0.202319 0.162875 0.166629
0.239338 0.161318 0.165072
0.276341 0.159762 0.163516
0.313573 0.158145 0.161898
0.350622 0.156588 0.160327
0.387625 0.155032 0.158785
0.424643 0.153475 0.157229
0.461646 0.151919 0.155673
0.498665 0.150362 0.154116
0.535683 0.148806 0.15256
0.572717 0.14725 0.150988
0.609949 0.145632 0.149371
0.646967 0.144076 0.147829
0.68397 0.142519 0.146273
0.720989 0.140963 0.144717
0.757992 0.139406 0.14316
0.79501 0.13785 0.141604
0.832013 0.136294 0.140047
0.869123 0.134722 0.13846
0.906294 0.13312 0.136873
0.943297 0.131563 0.135317
0.980316 0.130007 0.133761
1 0.12845 0.132204
1 0.126894 0.130648
0 0.209613 0.176638
0 0.208194 0.175219
0 0.206638 0.173663
0 0.205081 0.172107
0.0132601 0.203479 0.170504
0.05037 0.201907 0.168933
0.0873732 0.200351 0.167376
0.124392 0.198795 0.16582
0.161395 0.197238 0.164263
0.198413 0.195682 0.162707
0.235416 0.194125 0.161151
0.272435 0.192569 0.159594
0.309667 0.190951 0.157977
0.3467 0.189395 0.15642
0.383719 0.187839 0.154864
0.420722 0.186282 0.153307
0.45774 0.184726 0.151751
0.494759 0.183169 0.150195
0.531762 0.181613 0.148638
0.568795 0.180056 0.147082
0.606043 0.178439 0.145464
0.643046 0.176883 0.143908
0.680064 0.175326 0.142351
0.717067 0.17377 0.140795
0.754086 0.172213 0.139239
0.791089 0.170657 0.137682
0.828107 0.1691 0.136126
0.865202 0.167529 0.134554
0.902373 0.165927 0.132952
0.939391 0.16437 0.131395
0.97641 0.162814 0.129839
1 0.161257 0.128283
1 0.159701 0.126726
0 0.242451 0.172671
0 0.241032 0.171252
0 0.239475 0.169696
0 0.237919 0.168139
0.00929274 0.236316 0.166537
0.0463874 0.234745 0.16495
0.0834058 0.233188 0.163409
0.120409 0.231632 0.161852
0.157427 0.230076 0.160296
0.19443 0.228519 0.15874
0.231449 0.226963 0.157183
0.268452 0.225406 0.155627
0.305684 0.223789 0.154009
0.342733 0.222232 0.152453
0.379736 0.220676 0.150896
0.416754 0.21912 0.14934
0.453773 0.217563 0.147784
0.490776 0.216007 0.146227
0.527794 0.21445 0.144671
0.564828 0.212894 0.143099
0.60206 0.211276 0.141497
0.639078 0.20972 0.13994
0.676081 0.208164 0.138384
0.7131 0.206607 0.136828
0.750103 0.205051 0.135271
0.787121 0.203494 0.133715
0.82414 0.201938 0.132158
0.861234 0.200366 0.130571
0.898405 0.198764 0.128985
0.935424 0.197208 0.127428
0.972427 0.195651 0.125872
1 0.194095 0.124315
1 0.192538 0.122759
0 0.275288 0.168673
0 0.273869 0.167254
0 0.272312 0.165698
0 0.270756 0.164141
0.00529488 0.269154 0.162539
0.0423896 0.267582 0.160967
0.079408 0.266026 0.159411
0.116411 0.264469 0.157855
0.153429 0.262913 0.156298
0.190433 0.261357 0.154742
0.227451 0.2598 0.153185
0.264469 0.258244 0.151629
0.301701 0.256626 0.150011
0.338735 0.25507 0.148455
0.375753 0.253513 0.146899
0.412757 0.251957 0.145342
0.449775 0.250401 0.143786
0.486778 0.248844 0.142229
0.523796 0.247288 0.140673
0.56083 0.245731 0.139116
0.598062 0.244114 0.137499
0.635081 0.242557 0.135943
0.672084 0.241001 0.134386
0.709102 0.239445 0.13283
0.74612 0.237888 0.131273
0.783123 0.236332 0.129717
0.820142 0.234775 0.128161
0.857237 0.233204 0.126589
0.894408 0.231601 0.124987
0.931426 0.230045 0.12343
0.968429 0.228489 0.121874
1 0.226932 0.120317
1 0.225376 0.118761
0 0.308125 0.164691
0 0.306706 0.163272
0 0.30515 0.161715
0 0.303593 0.160159
0.00131228 0.301991 0.158572
0.0384222 0.30042 0.156985
0.0754253 0.298863 0.155428
0.112444 0.297307 0.153872
0.149447 0.29575 0.152316
0.186465 0.294194 0.150759
0.223468 0.292638 0.149203
0.260487 0.291081 0.147646
0.297719 0.289464 0.146044
0.334752 0.287907 0.144472
0.371771 0.286351 0.142916
0.408789 0.284794 0.14136
0.445792 0.283238 0.139803
0.482811 0.281682 0.138247
0.519814 0.280125 0.13669
0.556848 0.278569 0.135134
0.594095 0.276951 0.133516
0.631098 0.275395 0.13196
0.668116 0.273838 0.130404
0.705119 0.272282 0.128847
0.742138 0.270726 0.127291
0.779141 0.269169 0.125734
0.816159 0.267613 0.124178
0.853254 0.266041 0.122606
0.890425 0.264439 0.121004
0.927443 0.262882 0.119448
0.964462 0.261326 0.117891
1 0.25977 0.116335
1 0.258213 0.114778
0 0.340932 0.160784
0 0.339513 0.15935
0 0.337957 0.157794
0 0.3364 0.156237
0 0.334798 0.15465
0.0345006 0.333227 0.153063
0.0715038 0.33167 0.151507
0.108522 0.330114 0.14995
0.145525 0.328557 0.148394
0.182544 0.327001 0.146838
0.219562 0.325444 0.145281
0.256565 0.323888 0.143725
0.293797 0.322271 0.142123
0.330846 0.320714 0.140551
0.367849 0.319158 0.138994
0.404868 0.317601 0.137438
0.441871 0.316045 0.135882
0.478889 0.314488 0.134325
0.515892 0.312932 0.132769
0.552941 0.311376 0.131212
0.590173 0.309758 0.129595
0.627176 0.308202 0.128038
0.664195 0.306645 0.126482
0.701198 0.305089 0.124926
0.738216 0.303532 0.123369
0.775235 0.301976 0.121813
0.812238 0.30042 0.120272
0.849332 0.298848 0.118685
0.886519 0.297246 0.117082
0.923522 0.295689 0.115526
0.96054 0.294133 0.11397
0.997543 0.292576 0.112413
1 0.29102 0.110857
0 0.373709 0.156954
0 0.37229 0.155535
0 0.370733 0.153979
0 0.369177 0.152422
0 0.367575 0.15082
0.0306706 0.366003 0.149248
0.067689 0.364446 0.147692
0.104692 0.36289 0.146136
0.141711 0.361334 0.144579
0.178714 0.359777 0.143023
0.215732 0.358221 0.141466
0.25275 0.356664 0.13991
0.289982 0.355047 0.138293
0.327016 0.353491 0.136736
0.364034 0.351934 0.13518
0.401038 0.350378 0.133623
0.438056 0.348821 0.132067
0.475059 0.347265 0.13051
0.512078 0.345708 0.128954
0.549111 0.344152 0.127398
0.586343 0.342535 0.12578
0.623362 0.340978 0.124224
0.660365 0.339422 0.122667
0.697383 0.337865 0.121111
0.734386 0.336309 0.119554
0.771405 0.334752 0.117998
0.808423 0.333196 0.116442
0.845518 0.331624 0.11487
0.882689 0.330022 0.113268
0.919707 0.328466 0.111711
0.95671 0.326909 0.110155
0.993729 0.325353 0.108598
1 0.323796 0.107042
0 0.4065 0.153079
0 0.405081 0.151659
0 0.403525 0.150103
0 0.401968 0.148547
0 0.400366 0.146944
0.0267948 0.398795 0.145357
0.0638132 0.397238 0.143816
0.100816 0.395682 0.14226
0.137835 0.394125 0.140703
0.174838 0.392569 0.139147
0.211856 0.391012 0.137591
0.248859 0.389456 0.136034
0.286091 0.387839 0.134417
0.32314 0.386282 0.13286
0.360143 0.384726 0.131304
0.397162 0.383169 0.129747
0.43418 0.381613 0.128191
0.471183 0.380056 0.126635
0.508202 0.3785 0.125078
0.545235 0.376944 0.123507
0.582467 0.375326 0.121904
0.619486 0.37377 0.120348
0.656489 0.372213 0.118791
0.693507 0.370657 0.117235
0.73051 0.3691 0.115679
0.767529 0.367544 0.114122
0.804547 0.365988 0.112566
0.841642 0.364416 0.110979
0.878813 0.362814 0.109392
0.915831 0.361257 0.107836
0.952834 0.359701 0.106279
0.989853 0.358144 0.104723
1 0.356588 0.103166
0 0.43917 0.149538
0 0.437751 0.148119
0 0.436194 0.146563
0 0.434638 0.145006
0 0.433036 0.143404
0.0232547 0.431449 0.141817
0.0602731 0.429892 0.140261
0.0972763 0.428336 0.13872
0.134295 0.42678 0.137163
0.171298 0.425238 0.135607
0.208316 0.423682 0.134051
0.245319 0.422126 0.132494
0.282551 0.420508 0.130877
0.3196 0.418936 0.129305
0.356603 0.41738 0.127764
0.393622 0.415824 0.126207
0.43064 0.414282 0.124651
0.467643 0.412726 0.123095
0.504662 0.41117 0.121538
0.541695 0.409598 0.119966
0.578927 0.40798 0.118349
0.615946 0.406424 0.116808
0.652949 0.404868 0.115251
0.689967 0.403326 0.113695
0.72697 0.40177 0.112139
0.763989 0.400214 0.110582
0.800992 0.398657 0.109026
0.838102 0.39707 0.107439
0.875273 0.395468 0.105852
0.912276 0.393912 0.104295
0.949294 0.39237 0.102739
0.986313 0.390814 0.101183
1 0.389258 0.0996262
0 0.471733 0.146227
0 0.470314 0.144808
0 0.468757 0.143252
0 0.467201 0.141695
0 0.465599 0.140093
0.0199435 0.464027 0.138521
0.0569619 0.46247 0.136965
0.0939651 0.460914 0.135409
0.130983 0.459358 0.133852
0.167987 0.457801 0.132296
0.205005 0.456245 0.130739
0.242023 0.454688 0.129183
0.279255 0.453071 0.127565
0.316289 0.451514 0.126009
0.353307 0.449958 0.124453
0.390311 0.448402 0.122896
0.427329 0.446845 0.12134
0.464332 0.445289 0.119783
0.50135 0.443732 0.118227
0.538384 0.442176 0.11667
0.575616 0.440558 0.115053
0.612634 0.439002 0.113497
0.649638 0.437446 0.11194
0.686656 0.435889 0.110384
0.723659 0.434333 0.108827
0.760678 0.432776 0.107271
0.797696 0.43122 0.105714
0.834791 0.429648 0.104128
0.871962 0.428046 0.102541
0.90898 0.42649 0.100984
0.945983 0.424933 0.0994278
0.983001 0.423377 0.0978714
1 0.42182 0.0963149
0 0.504204 0.14316
0 0.502785 0.141741
0 0.501228 0.140185
0 0.499672 0.138628
0 0.49807 0.137026
0.0168765 0.496498 0.135439
0.0538949 0.494942 0.133883
0.090898 0.493385 0.132342
0.127916 0.491829 0.130785
0.16492 0.490272 0.129229
0.201938 0.488716 0.127672
0.238941 0.48716 0.126116
0.276173 0.485542 0.124498
0.313222 0.483986 0.122927
0.350225 0.482429 0.121386
0.387243 0.480873 0.119829
0.424262 0.479316 0.118273
0.461265 0.47776 0.116716
0.498283 0.476204 0.11516
0.535317 0.474647 0.113588
0.572549 0.47303 0.111971
0.609567 0.471473 0.11043
0.646571 0.469917 0.108873
0.683589 0.46836 0.107317
0.720592 0.466804 0.10576
0.75761 0.465248 0.104204
0.794614 0.463691 0.102647
0.831724 0.462119 0.101061
0.868894 0.460517 0.0994736
0.905898 0.458961 0.0979171
0.942916 0.457404 0.0963607
0.979934 0.455848 0.0948043
1 0.454292 0.0932479
0 0.536568 0.140368
0 0.535149 0.138933
0 0.533593 0.137377
0 0.532036 0.135821
0 0.530434 0.134234
0.0140841 0.528862 0.132647
0.0510872 0.527306 0.13109
0.0881056 0.52575 0.129534
0.125109 0.524193 0.127977
0.162127 0.522637 0.126421
0.199145 0.52108 0.124865
0.236149 0.519524 0.123308
0.273381 0.517906 0.121706
0.31043 0.51635 0.120134
0.347433 0.514794 0.118578
0.384451 0.513237 0.117021
0.421454 0.511681 0.115465
0.458473 0.510124 0.113909
0.495476 0.508568 0.112352
0.532525 0.507012 0.110796
0.569757 0.505394 0.109178
0.60676 0.503838 0.107622
0.643778 0.502281 0.106065
0.680781 0.500725 0.104509
0.7178 0.499168 0.102953
0.754818 0.497612 0.101396
0.791821 0.496056 0.099855
0.828916 0.494484 0.0982681
0.866102 0.492882 0.0966659
0.903105 0.491325 0.0951095
0.940124 0.489769 0.0935531
0.977127 0.488212 0.0919966
1 0.486656 0.0904402
0 0.568811 0.137865
0 0.567391 0.136446
0 0.565835 0.13489
0 0.564279 0.133333
0 0.562676 0.131731
0.0115816 0.561105 0.130159
0.0486 0.559548 0.128603
0.0856031 0.557992 0.127047
0.122621 0.556435 0.12549
0.15964 0.554879 0.123934
0.196643 0.553323 0.122377
0.233661 0.551766 0.120821
0.270893 0.550149 0.119203
0.307927 0.548592 0.117647
0.344945 0.547036 0.116091
0.381949 0.54548 0.114534
0.418967 0.543923 0.112978
0.45597 0.542367 0.111421
0.492988 0.54081 0.109865
0.530022 0.539254 0.108309
0.567254 0.537636 0.106691
0.604273 0.53608 0.105135
0.641276 0.534524 0.103578
0.678294 0.532967 0.102022
0.715312 0.531411 0.100465
0.752316 0.529854 0.098909
0.789334 0.528298 0.0973526
0.826429 0.526726 0.0957809
0.8636 0.525124 0.0941787
0.900618 0.523568 0.0926223
0.937621 0.522011 0.0910658
0.97464 0.520455 0.0895094
1 0.518898 0.087953
0 0.600931 0.135698
0 0.599512 0.134279
0 0.597955 0.132723
0 0.596399 0.131167
0 0.594797 0.129564
0.00941482 0.59321 0.127993
0.0464332 0.591653 0.126436
0.0834516 0.590097 0.12488
0.120455 0.588556 0.123323
0.157473 0.586999 0.121767
0.194476 0.585443 0.120211
0.231495 0.583886 0.118654
0.268727 0.582269 0.117037
0.30576 0.580697 0.11548
0.342779 0.579141 0.113924
0.379782 0.5776 0.112367
0.4168 0.576043 0.110811
0.453803 0.574487 0.109255
0.490822 0.572931 0.107698
0.527855 0.571359 0.106142
0.565087 0.569741 0.104524
0.602106 0.568185 0.102968
0.639124 0.566644 0.101411
0.676127 0.565087 0.099855
0.713146 0.563531 0.0982986
0.750149 0.561975 0.0967422
0.787167 0.560418 0.0951858
0.824262 0.558831 0.0936141
0.861433 0.557229 0.0920119
0.898451 0.555688 0.0904555
0.935454 0.554131 0.0888991
0.972473 0.552575 0.0873426
1 0.551019 0.0857862
0 0.632898 0.133867
0 0.631479 0.132448
0 0.629923 0.130892
0 0.628367 0.129335
0 0.62678 0.127749
0.00759899 0.625193 0.126162
0.0446021 0.623636 0.124605
0.0816205 0.62208 0.123049
0.118624 0.620523 0.121492
0.155642 0.618967 0.119936
0.192645 0.617411 0.118379
0.229664 0.615854 0.116823
0.266896 0.614252 0.115221
0.303929 0.61268 0.113649
0.340948 0.611124 0.112093
0.377966 0.609567 0.110536
0.414969 0.608011 0.10898
0.451987 0.606455 0.107424
0.488991 0.604898 0.105867
0.526024 0.603342 0.104311
0.563272 0.601724 0.102693
0.600275 0.600168 0.101137
0.637293 0.598611 0.0995804
0.674296 0.597055 0.098024
0.711315 0.595499 0.0964675
0.748318 0.593942 0.0949111
0.785336 0.592386 0.0933547
0.822431 0.590814 0.091783
0.859602 0.589212 0.0901808
0.89662 0.587655 0.0886244
0.933639 0.586099 0.087068
0.970642 0.584543 0.0855116
1 0.582986 0.0839551
0 0.66479 0.132265
0 0.663371 0.130846
0 0.661814 0.12929
0 0.660258 0.127733
0 0.658656 0.126131
0.0059968 0.657084 0.124559
0.0429999 0.655528 0.123003
0.0800183 0.653971 0.121447
0.117021 0.652415 0.11989
0.15404 0.650858 0.118334
0.191043 0.649302 0.116777
0.228061 0.647745 0.115221
0.265293 0.646128 0.113603
0.302327 0.644572 0.112047
0.339345 0.643015 0.110491
0.376349 0.641459 0.108934
0.413367 0.639902 0.107378
0.450385 0.638346 0.105821
0.487388 0.63679 0.104265
0.524422 0.635233 0.102708
0.561669 0.633616 0.101091
0.598672 0.632059 0.0995346
0.635691 0.630503 0.0979782
0.672694 0.628946 0.0964218
0.709712 0.62739 0.0948653
0.746715 0.625834 0.0933089
0.783734 0.624277 0.0917525
0.820829 0.622705 0.0901808
0.858 0.621103 0.0885786
0.895018 0.619547 0.0870222
0.932036 0.61799 0.0854658
0.969039 0.616434 0.0839094
1 0.614878 0.0823529
0 0.696452 0.131243
0 0.695033 0.129824
0 0.693477 0.128267
0 0.69192 0.126711
0 0.690318 0.125109
0.00495918 0.688746 0.123537
0.0419776 0.68719 0.121981
0.0789807 0.685634 0.120424
0.115999 0.684077 0.118868
0.153002 0.682521 0.117311
0.190021 0.680964 0.115755
0.227039 0.679408 0.114199
0.264271 0.677791 0.112581
0.301305 0.676234 0.111025
0.338323 0.674678 0.109468
0.375326 0.673121 0.107912
0.412345 0.671565 0.106355
0.449348 0.670008 0.104799
0.486366 0.668452 0.103243
0.5234 0.666896 0.101686
0.560632 0.665278 0.100069
0.59765 0.663722 0.0985122
0.634653 0.662165 0.0969558
0.671672 0.660609 0.0953994
0.70869 0.659052 0.093843
0.745693 0.657496 0.0922866
0.782712 0.65594 0.0907301
0.819806 0.654368 0.0891585
0.856977 0.652766 0.0875563
0.893996 0.651209 0.0859998
0.930999 0.649653 0.0844434
0.968017 0.648096 0.082887
1 0.64654 0.0813306
0 0.727947 0.130632
0 0.726528 0.129213
0 0.724971 0.127657
0 0.723415 0.126101
0 0.721813 0.124498
0.00434882 0.720241 0.122927
0.0413672 0.718685 0.12137
0.0783703 0.717128 0.119814
0.115389 0.715572 0.118257
0.152407 0.714015 0.116701
0.18941 0.712459 0.115145
0.226429 0.710903 0.113588
0.263661 0.709285 0.111971
0.300694 0.707729 0.110414
0.337713 0.706172 0.108858
0.374716 0.704616 0.107301
0.411734 0.703059 0.105745
0.448737 0.701503 0.104189
0.485756 0.699947 0.102632
0.522789 0.69839 0.101076
0.560021 0.696773 0.0994583
0.59704 0.695216 0.0979019
0.634058 0.69366 0.0963455
0.671061 0.692103 0.094789
0.70808 0.690547 0.0932326
0.745083 0.688991 0.0916762
0.782101 0.687434 0.0901198
0.819196 0.685863 0.0885481
0.856367 0.68426 0.0869459
0.893385 0.682704 0.0853895
0.930388 0.681147 0.0838331
0.967407 0.679591 0.0822766
1 0.678035 0.0807202
0 0.759167 0.130709
0 0.757748 0.129274
0 0.756191 0.127718
0 0.754635 0.126177
0 0.753033 0.124575
0.00442512 0.751461 0.122988
0.0414282 0.749905 0.121431
0.0784466 0.748348 0.119875
0.115465 0.746792 0.118318
0.152468 0.745235 0.116762
0.189487 0.743679 0.115221
0.22649 0.742123 0.113664
0.263722 0.740505 0.112047
0.300771 0.738949 0.110475
0.337774 0.737392 0.108919
0.374792 0.735836 0.107362
0.411795 0.734279 0.105806
0.448814 0.732723 0.104265
0.485817 0.731167 0.102708
0.522866 0.72961 0.101137
0.560098 0.727993 0.0995193
0.597101 0.726436 0.0979629
0.634119 0.72488 0.0964065
0.671138 0.723323 0.0948501
0.708141 0.721767 0.0933089
0.745159 0.720211 0.0917525
0.782162 0.718654 0.0901961
0.819257 0.717083 0.0886091
0.856443 0.71548 0.0870069
0.893446 0.713924 0.0854505
0.930465 0.712367 0.0838941
0.967468 0.710811 0.0823529
1 0.709255 0.0807965
0 0.789746 0.132387
0 0.788327 0.130968
0 0.78677 0.129412
0 0.785214 0.127855
0 0.783612 0.126253
0.00610361 0.78204 0.124681
0.043122 0.780484 0.123125
0.0801404 0.778927 0.121569
0.117144 0.777371 0.120012
0.154162 0.775814 0.118456
0.191165 0.774258 0.116899
0.228183 0.772702 0.115343
0.265415 0.771084 0.113725
0.302449 0.769528 0.112169
0.339467 0.767971 0.110613
0.376471 0.766415 0.109056
0.413489 0.764858 0.1075
0.450492 0.763302 0.105943
0.487511 0.761746 0.104387
0.524544 0.760189 0.102831
0.561776 0.758572 0.101213
0.598795 0.757015 0.0996567
0.635813 0.755459 0.0981003
0.672816 0.753902 0.0965438
0.709834 0.752346 0.0949874
0.746838 0.75079 0.093431
0.783856 0.749233 0.0918746
0.820951 0.747662 0.0903029
0.858122 0.746059 0.0887007
0.89514 0.744503 0.0871443
0.932143 0.742947 0.0855879
0.969162 0.74139 0.0840314
1 0.739834 0.082475
0 0.819364 0.136492
0 0.817945 0.135073
0 0.816388 0.133516
0 0.814832 0.13196
0 0.81323 0.130373
0.0102235 0.811658 0.128786
0.0472267 0.810101 0.12723
0.0842451 0.808545 0.125673
0.121248 0.806989 0.124117
0.158267 0.805432 0.12256
0.19527 0.803876 0.121004
0.232288 0.802319 0.119448
0.26952 0.800702 0.117845
0.306554 0.799146 0.116274
0.343572 0.797589 0.114717
0.380591 0.796033 0.113161
0.417594 0.794476 0.111604
0.454612 0.79292 0.110048
0.491615 0.791363 0.108492
0.528649 0.789807 0.106935
0.565896 0.78819 0.105318
0.602899 0.786633 0.103761
0.639918 0.785077 0.102205
0.676921 0.78352 0.100649
0.713939 0.781964 0.0990921
0.750942 0.780407 0.0975357
0.787961 0.778851 0.0959793
0.825055 0.777279 0.0944076
0.862226 0.775677 0.0928054
0.899245 0.774121 0.091249
0.936263 0.772564 0.0896925
0.973266 0.771008 0.0881361
1 0.769451 0.0865797
0 0.84828 0.142351
0 0.84686 0.140932
0 0.845304 0.139376
0 0.843748 0.137819
0 0.842145 0.136217
0.0160678 0.840574 0.134646
0.0530861 0.839017 0.133089
0.0900893 0.837461 0.131533
0.127108 0.835904 0.129976
0.164126 0.834348 0.12842
0.201129 0.832792 0.126864
0.238148 0.831235 0.125307
0.27538 0.829618 0.12369
0.312413 0.828061 0.122133
0.349432 0.826505 0.120577
0.386435 0.824948 0.11902
0.423453 0.823392 0.117464
0.460456 0.821836 0.115908
0.497475 0.820279 0.114351
0.534508 0.818723 0.112795
0.57174 0.817105 0.111177
0.608759 0.815549 0.109621
0.645777 0.813993 0.108064
0.68278 0.812436 0.106508
0.719799 0.81088 0.104952
0.756802 0.809323 0.103395
0.79382 0.807767 0.101839
0.830915 0.806195 0.100267
0.868086 0.804593 0.0986648
0.905104 0.803037 0.0971084
0.942107 0.80148 0.095552
0.979126 0.799924 0.0939956
1 0.798367 0.0924392
0 0.876738 0.149386
0 0.875319 0.147951
0 0.873762 0.14641
0 0.872206 0.144854
0 0.870604 0.143252
0.0231022 0.869017 0.141665
0.0601053 0.86746 0.140108
0.0971237 0.865904 0.138552
0.134142 0.864363 0.136995
