CROSS_PROCESS_01.cube
TITLE "Generated by Resolve"
LUT_3D_SIZE 33
0 0.0195926 0.155688
0 0.0175326 0.153628
0 0.0153353 0.151431
0 0.0131228 0.149218
0.0392157 0.0108797 0.146975
0.0786908 0.00865187 0.144747
0.118059 0.00645457 0.14255
0.157427 0.00425727 0.140352
0.196796 0.00204471 0.13814
0.236164 0 0.135943
0.275532 0 0.133745
0.3149 0 0.131548
0.354513 0 0.129274
0.393912 0 0.127062
0.43328 0 0.124865
0.472648 0 0.122667
0.512016 0 0.120455
0.551385 0 0.118257
0.590753 0 0.11606
0.630152 0 0.113848
0.669764 0 0.111589
0.709133 0 0.109377
0.748501 0 0.107179
0.787869 0 0.104982
0.827237 0 0.10277
0.866606 0 0.100572
0.905974 0 0.0983749
0.945434 0 0.0961471
0.984985 0 0.093904
1 0 0.0916915
1 0 0.0894942
1 0 0.0872969
1 0 0.0850843
0 0.0504311 0.156588
0 0.0483711 0.154528
0 0.0461738 0.152316
0.000579843 0.0439612 0.150118
0.040116 0.0417182 0.147875
0.0795911 0.0394903 0.145647
0.118959 0.0372931 0.14345
0.158328 0.0350805 0.141238
0.197696 0.0328832 0.13904
0.237064 0.0306859 0.136843
0.276432 0.0284733 0.134646
0.315801 0.026276 0.132433
0.355398 0.0240177 0.130175
0.394812 0.0218051 0.127962
0.43418 0.0196078 0.125765
0.473548 0.0173953 0.123552
0.512917 0.015198 0.121355
0.552285 0.0130007 0.119158
0.591653 0.0107881 0.11696
0.631052 0.00859083 0.114748
0.670665 0.00631724 0.112474
0.710033 0.00411994 0.110277
0.749401 0.00192264 0.10808
0.788769 0 0.105867
0.828138 0 0.10367
0.867506 0 0.101472
0.906874 0 0.0992752
0.946334 0 0.0970474
0.985885 0 0.094789
1 0 0.0925917
1 0 0.0903944
1 0 0.0881971
1 0 0.0859846
0 0.0814374 0.157061
0 0.0793927 0.155001
0 0.0771801 0.152789
0.00105287 0.0749828 0.150591
0.040589 0.0727398 0.148348
0.0800488 0.0705119 0.14612
0.119432 0.0682994 0.143923
0.158801 0.0661021 0.141711
0.198169 0.0639048 0.139513
0.237537 0.0617075 0.137316
0.276905 0.0594949 0.135103
0.316274 0.0572976 0.132906
0.355871 0.0550393 0.130648
0.39527 0.0528267 0.128435
0.434653 0.0506142 0.126238
0.474022 0.0484169 0.124025
0.51339 0.0462196 0.121828
0.552758 0.0440223 0.119631
0.592126 0.0418097 0.117433
0.631525 0.0395972 0.115221
0.671122 0.0373388 0.112947
0.710506 0.0351415 0.11075
0.749874 0.032929 0.108553
0.789242 0.0307317 0.10634
0.828611 0.0285344 0.104143
0.867979 0.0263371 0.101946
0.907347 0.0241245 0.0997482
0.946807 0.0218967 0.0975204
0.986358 0.0196536 0.0952621
1 0.0174563 0.0930648
1 0.0152438 0.0908675
1 0.0130465 0.0886549
1 0.0108492 0.0864576
0 0.11249 0.157458
0 0.11043 0.155398
0 0.108232 0.153201
0.00144961 0.10602 0.151003
0.041001 0.103777 0.14876
0.0804608 0.101549 0.146532
0.119829 0.0993515 0.14432
0.159197 0.0971542 0.142123
0.198566 0.0949416 0.139925
0.237934 0.0927443 0.137713
0.277302 0.090547 0.135515
0.316686 0.0883345 0.133318
0.356283 0.0860761 0.131044
0.395682 0.0838636 0.128847
0.43505 0.0816663 0.126635
0.474418 0.079469 0.124437
0.513787 0.0772564 0.12224
0.553155 0.0750591 0.120043
0.592523 0.0728618 0.11783
0.631922 0.0706493 0.115618
0.671534 0.0683757 0.113359
0.710903 0.0661784 0.111162
0.750271 0.0639811 0.108949
0.789639 0.0617838 0.106752
0.829007 0.0595712 0.104555
0.868376 0.0573739 0.102358
0.907759 0.0551766 0.100145
0.947219 0.0529488 0.0979171
0.986755 0.0506905 0.0956741
1 0.0484932 0.0934768
1 0.0462959 0.0912642
1 0.0440986 0.0890669
1 0.041886 0.0868696
0 0.143603 0.157702
0 0.141543 0.155642
0 0.13933 0.153445
0.00169375 0.137133 0.151247
0.0412451 0.13489 0.149004
0.080705 0.132662 0.146777
0.120073 0.130465 0.144564
0.159442 0.128252 0.142367
0.19881 0.126055 0.140169
0.238178 0.123857 0.137957
0.277546 0.121645 0.13576
0.31693 0.119448 0.133562
0.356527 0.117189 0.131289
0.395926 0.114977 0.129091
0.435294 0.112779 0.126879
0.474662 0.110567 0.124681
0.514031 0.10837 0.122484
0.553399 0.106172 0.120287
0.592782 0.10396 0.118074
0.632166 0.101762 0.115877
0.671778 0.0994888 0.113603
0.711147 0.0972915 0.111406
0.750515 0.095079 0.109194
0.789883 0.0928817 0.106996
0.829252 0.0906844 0.104799
0.868635 0.0884871 0.102602
0.908003 0.0862745 0.100389
0.947463 0.0840467 0.0981613
0.986999 0.0818036 0.0959182
1 0.0796063 0.0937209
1 0.0773938 0.0915084
1 0.0751965 0.0893111
1 0.0729992 0.0871138
0 0.174701 0.157977
0 0.172641 0.155917
0 0.170443 0.153719
0.00196841 0.168231 0.151507
0.0415045 0.165988 0.149264
0.0809796 0.16376 0.147036
0.120348 0.161563 0.144839
0.159716 0.15935 0.142626
0.199084 0.157153 0.140429
0.238453 0.154955 0.138231
0.277821 0.152758 0.136034
0.317189 0.150546 0.133822
0.356802 0.148287 0.131563
0.396201 0.146075 0.129351
0.435569 0.143877 0.127153
0.474937 0.141665 0.124941
0.514305 0.139467 0.122744
0.553674 0.13727 0.120546
0.593042 0.135073 0.118349
0.632441 0.13286 0.116136
0.672053 0.130587 0.113863
0.711421 0.128389 0.111666
0.75079 0.126192 0.109468
0.790158 0.12398 0.107271
0.829526 0.121782 0.105058
0.868894 0.119585 0.102861
0.908263 0.117372 0.100664
0.947723 0.11516 0.098436
0.987274 0.112902 0.0961776
1 0.110704 0.0939803
1 0.108507 0.091783
1 0.106294 0.0895857
1 0.104097 0.0873732
0 0.205768 0.158282
0 0.203723 0.156237
0 0.201511 0.154025
0.00228885 0.199313 0.151827
0.041825 0.19707 0.149584
0.0812848 0.194842 0.147356
0.120653 0.19263 0.145144
0.160037 0.190433 0.142947
0.199405 0.188235 0.140749
0.238773 0.186038 0.138552
0.278141 0.183825 0.136339
0.31751 0.181628 0.134142
0.357107 0.17937 0.131884
0.396506 0.177157 0.129671
0.435874 0.174945 0.127474
0.475257 0.172747 0.125261
0.514626 0.17055 0.123064
0.553994 0.168353 0.120867
0.593362 0.16614 0.118654
0.632761 0.163943 0.116457
0.672358 0.161669 0.114183
0.711727 0.159472 0.111986
0.75111 0.157259 0.109789
0.790478 0.155062 0.107576
0.829847 0.152865 0.105379
0.869215 0.150668 0.103182
0.908583 0.148455 0.100969
0.948043 0.146227 0.0987564
0.987579 0.143984 0.0964981
1 0.141787 0.0943008
1 0.139574 0.0921035
1 0.137377 0.0898909
1 0.13518 0.0876936
0 0.236851 0.158618
0 0.234791 0.156558
0 0.232593 0.154345
0.00260929 0.230396 0.152148
0.0421454 0.228138 0.149905
0.0816052 0.22591 0.147677
0.120989 0.223713 0.14548
0.160357 0.221515 0.143267
0.199725 0.219318 0.14107
0.239094 0.217105 0.138872
0.278462 0.214908 0.13666
0.31783 0.212711 0.134463
0.357427 0.210437 0.132204
0.396841 0.208225 0.129992
0.43621 0.206027 0.127794
0.475578 0.20383 0.125582
0.514946 0.201633 0.123384
0.554314 0.19942 0.121187
0.593683 0.197223 0.11899
0.633082 0.19501 0.116777
0.672694 0.192752 0.114504
0.712062 0.190539 0.112306
0.751431 0.188342 0.110109
0.790799 0.186145 0.107897
0.830167 0.183948 0.105699
0.869535 0.181735 0.103502
0.908904 0.179538 0.101305
0.948363 0.17731 0.0990768
0.987915 0.175067 0.0968185
1 0.172854 0.0946212
1 0.170657 0.0924239
1 0.16846 0.0902113
1 0.166247 0.088014
0 0.267918 0.158953
0 0.265858 0.156893
0 0.263661 0.154696
0.00294499 0.261463 0.152499
0.0424964 0.259205 0.15024
0.0819562 0.256977 0.148013
0.121324 0.25478 0.145815
0.160693 0.252583 0.143618
0.200061 0.250385 0.141421
0.239429 0.248173 0.139208
0.278798 0.245975 0.137011
0.318166 0.243778 0.134813
0.357778 0.241505 0.13254
0.397177 0.239292 0.130327
0.436545 0.237095 0.12813
0.475914 0.234897 0.125933
0.515282 0.2327 0.123735
0.55465 0.230488 0.121523
0.594018 0.22829 0.119326
0.633417 0.226078 0.117113
0.67303 0.223819 0.114855
0.712398 0.221607 0.112657
0.751766 0.219409 0.110445
0.791135 0.217212 0.108248
0.830503 0.215015 0.10605
0.869871 0.212802 0.103838
0.909239 0.210605 0.10164
0.948714 0.208377 0.0994125
0.988251 0.206134 0.0971695
1 0.203922 0.0949721
1 0.201724 0.0927596
1 0.199527 0.0905623
1 0.19733 0.088365
0 0.29897 0.159335
0 0.29691 0.157275
0 0.294713 0.155077
0.00334173 0.292515 0.15288
0.0428779 0.290272 0.150637
0.0823377 0.288045 0.148409
0.121706 0.285832 0.146197
0.161074 0.283635 0.143999
0.200443 0.281437 0.141802
0.239811 0.279225 0.13959
0.279194 0.277028 0.137392
0.318563 0.27483 0.135195
0.35816 0.272557 0.132921
0.397559 0.270359 0.130724
0.436927 0.268147 0.128511
0.476295 0.265949 0.126314
0.515663 0.263752 0.124117
0.555047 0.26154 0.12192
0.594415 0.259342 0.119707
0.633799 0.25713 0.11751
0.673411 0.254871 0.115236
0.712779 0.252674 0.113039
0.752148 0.250462 0.110826
0.791516 0.248264 0.108629
0.830884 0.246067 0.106432
0.870268 0.243854 0.104234
0.909636 0.241657 0.102022
0.949096 0.239429 0.099794
0.988632 0.237186 0.0975509
1 0.234974 0.0953536
1 0.232776 0.0931411
1 0.230579 0.0909438
1 0.228382 0.0887465
0 0.330007 0.159777
0 0.327947 0.157717
0 0.32575 0.15552
0.00376898 0.323537 0.153323
0.0433204 0.321294 0.151064
0.0827802 0.319066 0.148836
0.122148 0.316869 0.146639
0.161517 0.314672 0.144442
0.200885 0.312459 0.142245
0.240253 0.310262 0.140032
0.279622 0.308064 0.137835
0.31899 0.305852 0.135637
0.358602 0.303593 0.133364
0.398001 0.301381 0.131151
0.437369 0.299184 0.128954
0.476738 0.296986 0.126757
0.516106 0.294774 0.124559
0.555474 0.292576 0.122347
0.594842 0.290379 0.12015
0.634241 0.288167 0.117937
0.673854 0.285893 0.115679
0.713222 0.283696 0.113481
0.75259 0.281498 0.111269
0.791959 0.279301 0.109071
0.831327 0.277089 0.106874
0.870695 0.274891 0.104662
0.910063 0.272694 0.102464
0.949538 0.270466 0.100237
0.989075 0.268208 0.0979934
1 0.266011 0.0957961
1 0.263813 0.0935836
1 0.261616 0.0913863
1 0.259403 0.089189
0 0.361013 0.160296
0 0.358953 0.158236
0 0.356741 0.156039
0.00428778 0.354543 0.153826
0.0438239 0.3523 0.151583
0.083299 0.350072 0.149355
0.122667 0.347875 0.147158
0.162036 0.345663 0.144961
0.201404 0.343465 0.142748
0.240772 0.341268 0.140551
0.28014 0.339055 0.138354
0.319509 0.336858 0.136141
0.359121 0.3346 0.133883
0.39852 0.332387 0.13167
0.437888 0.33019 0.129473
0.477256 0.327977 0.127275
0.516625 0.32578 0.125063
0.555993 0.323583 0.122866
0.595361 0.32137 0.120668
0.63476 0.319173 0.118456
0.674372 0.316899 0.116197
0.713741 0.314702 0.113985
0.753109 0.312505 0.111788
0.792477 0.310292 0.10959
0.831846 0.308095 0.107378
0.871214 0.305898 0.10518
0.910582 0.303685 0.102983
0.950042 0.301457 0.100755
0.989593 0.299214 0.0985122
1 0.297017 0.0962997
1 0.294804 0.0941024
1 0.292607 0.0919051
1 0.29041 0.0896925
0 0.392035 0.160739
0 0.389975 0.158679
0 0.387778 0.156481
0.0047303 0.38558 0.154284
0.0442817 0.383322 0.152026
0.0837415 0.381094 0.149798
0.12311 0.378897 0.147601
0.162478 0.376699 0.145403
0.201846 0.374487 0.143206
0.241215 0.37229 0.140993
0.280583 0.370092 0.138796
0.319951 0.367895 0.136599
0.359564 0.365621 0.134325
0.398962 0.363409 0.132113
0.438331 0.361212 0.129915
0.477699 0.359014 0.127718
0.517067 0.356802 0.125521
0.556435 0.354604 0.123308
0.595804 0.352407 0.121111
0.635203 0.350195 0.118898
0.674815 0.347936 0.11664
0.714183 0.345724 0.114427
0.753552 0.343526 0.11223
0.79292 0.341329 0.110033
0.832288 0.339117 0.107836
0.871656 0.336919 0.105623
0.911025 0.334722 0.103426
0.950484 0.332494 0.101198
0.990036 0.330236 0.0989548
1 0.328038 0.0967575
1 0.325841 0.0945449
1 0.323644 0.0923476
1 0.321431 0.0901503
0 0.422965 0.161425
0 0.420905 0.159365
0 0.418708 0.157168
0.00543221 0.41651 0.154971
0.0449683 0.414252 0.152728
0.0844282 0.412024 0.1505
0.123796 0.409827 0.148287
0.163165 0.40763 0.14609
0.202533 0.405432 0.143893
0.241917 0.40322 0.141695
0.281285 0.401022 0.139483
0.320653 0.398825 0.137285
0.36025 0.396551 0.135027
0.399649 0.394339 0.132815
0.439017 0.392142 0.130602
0.478386 0.389944 0.128405
0.517769 0.387732 0.126207
0.557137 0.385534 0.12401
0.596506 0.383337 0.121798
0.635889 0.381125 0.1196
0.675502 0.378866 0.117327
0.71487 0.376654 0.115129
0.754238 0.374456 0.112917
0.793622 0.372259 0.110719
0.83299 0.370047 0.108522
0.872358 0.367849 0.106325
0.911727 0.365652 0.104112
0.951186 0.363424 0.101884
0.990723 0.361181 0.0996414
1 0.358968 0.0974441
1 0.356771 0.0952468
1 0.354574 0.0930343
1 0.352361 0.090837
0 0.453834 0.162264
0 0.451789 0.160204
0 0.449577 0.158007
0.0062562 0.447379 0.15581
0.0458076 0.445136 0.153552
0.0852674 0.442908 0.151324
0.124636 0.440696 0.149126
0.164004 0.438499 0.146929
0.203372 0.436301 0.144717
0.242741 0.434104 0.142519
0.282109 0.431891 0.140322
0.321477 0.429694 0.138125
0.361089 0.427436 0.135851
0.400488 0.425223 0.133639
0.439857 0.423011 0.131441
0.479225 0.420813 0.129244
0.518593 0.418616 0.127031
0.557961 0.416419 0.124834
0.59733 0.414206 0.122637
0.636728 0.412009 0.120424
0.676341 0.409735 0.118166
0.715709 0.407538 0.115953
0.755077 0.405325 0.113756
0.794446 0.403128 0.111559
0.833814 0.400931 0.109361
0.873182 0.398733 0.107149
0.912551 0.396521 0.104952
0.95201 0.394293 0.102724
0.991562 0.39205 0.100481
1 0.389853 0.0982681
1 0.38764 0.0960708
1 0.385443 0.0938735
1 0.383246 0.0916762
0 0.484657 0.163241
0 0.482597 0.161181
0 0.4804 0.158968
0.00723278 0.478202 0.156771
0.0467689 0.475959 0.154528
0.086244 0.473732 0.1523
0.125612 0.471519 0.150103
0.164981 0.469322 0.14789
0.204349 0.467124 0.145693
0.243717 0.464912 0.143496
0.283085 0.462715 0.141283
0.322454 0.460517 0.139086
0.362051 0.458244 0.136828
0.401465 0.456046 0.134615
0.440833 0.453834 0.132418
0.480201 0.451637 0.130205
0.51957 0.449439 0.128008
0.558938 0.447227 0.125811
0.598306 0.445029 0.123613
0.637705 0.442817 0.121401
0.677317 0.440558 0.119127
0.716686 0.438361 0.11693
0.756054 0.436149 0.114733
0.795422 0.433951 0.11252
0.834791 0.431754 0.110323
0.874159 0.429541 0.108125
0.913527 0.427344 0.105928
0.952987 0.425116 0.1037
0.992538 0.422873 0.101442
1 0.420676 0.0992447
1 0.418463 0.0970474
1 0.416266 0.0948348
1 0.414069 0.0926375
0 0.515419 0.164355
0 0.513359 0.162295
0 0.511162 0.160098
0.00834669 0.508965 0.1579
0.0478981 0.506706 0.155642
0.0873579 0.504479 0.153414
0.126726 0.502281 0.151217
0.166094 0.500084 0.14902
0.205463 0.497887 0.146822
0.244831 0.495674 0.14461
0.284199 0.493477 0.142412
0.323568 0.491279 0.140215
0.36318 0.489006 0.137942
0.402579 0.486793 0.135729
0.441947 0.484596 0.133532
0.481315 0.482399 0.131334
0.520684 0.480201 0.129137
0.560052 0.477989 0.126925
0.59942 0.475792 0.124727
0.638819 0.473579 0.122515
0.678431 0.471321 0.120256
0.7178 0.469108 0.118059
0.757168 0.466911 0.115846
0.796536 0.464714 0.113649
0.835904 0.462516 0.111452
0.875273 0.460304 0.109239
0.914641 0.458106 0.107042
0.954116 0.455879 0.104814
0.993652 0.453635 0.102571
1 0.451423 0.100374
1 0.449226 0.0981613
1 0.447028 0.095964
1 0.444831 0.0937667
0 0.54612 0.165652
0 0.54406 0.163592
0 0.541863 0.161395
0.0096437 0.539651 0.159182
0.0491798 0.537408 0.156939
0.0886549 0.53518 0.154711
0.128023 0.532982 0.152514
0.167391 0.53077 0.150301
0.20676 0.528572 0.148104
0.246128 0.526375 0.145907
0.285496 0.524178 0.143709
0.324865 0.521965 0.141497
0.364477 0.519707 0.139239
0.403876 0.517494 0.137026
0.443244 0.515297 0.134829
0.482612 0.513085 0.132616
0.521981 0.510887 0.130419
0.561349 0.50869 0.128222
0.600717 0.506493 0.126024
0.640116 0.50428 0.123812
0.679728 0.502007 0.121538
0.719097 0.499809 0.119341
0.758465 0.497612 0.117144
0.797833 0.495399 0.114946
0.837201 0.493202 0.112734
0.87657 0.491005 0.110536
0.915938 0.488807 0.108339
0.955398 0.48658 0.106111
0.994949 0.484321 0.103853
1 0.482124 0.101656
1 0.479927 0.0994583
1 0.477714 0.097261
1 0.475517 0.0950484
0 0.57673 0.167132
0 0.57467 0.165072
0 0.572473 0.162875
0.0111238 0.570275 0.160662
0.0506752 0.568017 0.158419
0.090135 0.565805 0.156191
0.129503 0.563592 0.153994
0.168872 0.561395 0.151797
0.20824 0.559197 0.149584
0.247608 0.556985 0.147387
0.286976 0.554788 0.14519
0.326345 0.55259 0.142992
0.365957 0.550317 0.140719
0.405356 0.548104 0.138506
0.444724 0.545907 0.136309
0.484092 0.543709 0.134112
0.523461 0.541512 0.131899
0.562829 0.5393 0.129702
0.602197 0.537102 0.127504
0.641596 0.53489 0.125292
0.681208 0.532631 0.123033
0.720577 0.530419 0.120821
0.759945 0.528222 0.118624
0.799313 0.526024 0.116426
0.838682 0.523827 0.114214
0.87805 0.521614 0.112016
0.917418 0.519417 0.109819
0.956878 0.517189 0.107591
0.996429 0.514946 0.105348
1 0.512734 0.103136
1 0.510536 0.100938
1 0.508339 0.0987411
1 0.506142 0.0965438
0 0.607279 0.168811
0 0.605219 0.166751
0 0.603021 0.164553
0.0128023 0.600809 0.162341
0.0523384 0.598566 0.160098
0.0918135 0.596338 0.15787
0.131182 0.594141 0.155673
0.17055 0.591928 0.15346
0.209918 0.589731 0.151263
0.249287 0.587533 0.149065
0.288655 0.585336 0.146868
0.328023 0.583124 0.144656
0.367636 0.580865 0.142397
0.407034 0.578653 0.140185
0.446403 0.576455 0.137987
0.485771 0.574243 0.135775
0.525139 0.572045 0.133577
0.564508 0.569848 0.13138
0.603876 0.567651 0.129183
0.643275 0.565438 0.12697
0.682887 0.563165 0.124697
0.722255 0.560967 0.122499
0.761624 0.55877 0.120302
0.800992 0.556558 0.118105
0.84036 0.55436 0.115892
0.879728 0.552163 0.113695
0.919097 0.549966 0.111498
0.958556 0.547738 0.10927
0.998108 0.54548 0.107012
1 0.543282 0.104814
1 0.541085 0.102617
1 0.538872 0.10042
1 0.536675 0.0982071
0 0.637797 0.170535
0 0.635737 0.16849
0 0.633539 0.166278
0.0145418 0.631327 0.16408
0.054078 0.629084 0.161837
0.0935378 0.626856 0.159609
0.132906 0.624659 0.157397
0.172274 0.622446 0.1552
0.211658 0.620249 0.153002
0.251026 0.618051 0.150805
0.290394 0.615854 0.148592
0.329763 0.613642 0.146395
0.36936 0.611383 0.144137
0.408759 0.609171 0.141924
0.448127 0.606973 0.139712
0.487511 0.604761 0.137514
0.526879 0.602564 0.135317
0.566247 0.600366 0.13312
0.605615 0.598169 0.130907
0.645014 0.595956 0.12871
0.684611 0.593683 0.126436
0.72398 0.591485 0.124239
0.763363 0.589288 0.122042
0.802731 0.587076 0.119829
0.8421 0.584878 0.117632
0.881468 0.582681 0.115434
0.920836 0.580484 0.113222
0.960296 0.578256 0.111009
0.999832 0.575998 0.108751
1 0.5738 0.106554
1 0.571603 0.104356
1 0.56939 0.102144
1 0.567193 0.0999466
0 0.668177 0.172595
0 0.666133 0.170535
0 0.66392 0.168338
0.0165866 0.661723 0.16614
0.0561379 0.65948 0.163882
0.0955978 0.657252 0.161654
0.134966 0.655039 0.159457
0.174334 0.652842 0.157259
0.213703 0.650645 0.155047
0.253071 0.648447 0.15285
0.292439 0.646235 0.150652
0.331807 0.644038 0.148455
0.37142 0.641779 0.146181
0.410819 0.639567 0.143969
0.450187 0.637354 0.141772
0.489555 0.635157 0.139574
0.528923 0.632959 0.137377
0.568292 0.630762 0.135164
0.60766 0.62855 0.132967
0.647059 0.626352 0.130755
0.686671 0.624079 0.128496
0.72604 0.621881 0.126284
0.765408 0.619669 0.124086
0.804776 0.617472 0.121889
0.844144 0.615274 0.119692
0.883513 0.613077 0.117479
0.922881 0.610864 0.115282
0.962341 0.608637 0.113054
1 0.606394 0.110811
1 0.604196 0.108598
1 0.601984 0.106401
1 0.599786 0.104204
1 0.597589 0.102007
0 0.698512 0.174792
0 0.696468 0.172732
0 0.694255 0.170535
0.0187839 0.692058 0.168338
0.0583352 0.689815 0.166079
0.0977951 0.687587 0.163851
0.137163 0.685374 0.161654
0.176532 0.683177 0.159457
0.2159 0.68098 0.157259
0.255268 0.678782 0.155047
0.294636 0.67657 0.15285
0.334005 0.674372 0.150652
0.373617 0.672099 0.148379
0.413016 0.669902 0.146166
0.452384 0.667689 0.143969
0.491753 0.665492 0.141772
0.531121 0.663294 0.139574
0.570489 0.661082 0.137362
0.609857 0.658885 0.135164
0.649256 0.656672 0.132952
0.688869 0.654414 0.130694
0.728237 0.652216 0.128496
0.767605 0.650004 0.126284
0.806973 0.647807 0.124086
0.846342 0.645609 0.121889
0.88571 0.643397 0.119677
0.925093 0.641199 0.117479
0.964553 0.638972 0.115251
1 0.636728 0.113008
1 0.634531 0.110811
1 0.632319 0.108598
1 0.630121 0.106401
1 0.627924 0.104204
0 0.728801 0.177111
0 0.726741 0.175051
0 0.724544 0.172854
0.0211185 0.722347 0.170657
0.0606546 0.720088 0.168414
0.100114 0.717861 0.166186
0.139483 0.715663 0.163973
0.178851 0.713466 0.161776
0.218219 0.711269 0.159579
0.257603 0.709056 0.157366
0.296971 0.706859 0.155169
0.336339 0.704662 0.152972
0.375937 0.702388 0.150698
0.415335 0.700175 0.148501
0.454704 0.697978 0.146288
0.494072 0.695781 0.144091
0.53344 0.693584 0.141894
0.572824 0.691371 0.139696
0.612192 0.689174 0.137484
0.651576 0.686961 0.135271
0.691188 0.684703 0.133013
0.730556 0.68249 0.130816
0.769924 0.680293 0.128603
0.809293 0.678096 0.126406
0.848676 0.675898 0.124208
0.888045 0.673686 0.122011
0.927413 0.671489 0.119799
0.966873 0.669261 0.117571
1 0.667018 0.115328
1 0.664805 0.11313
1 0.662608 0.110918
1 0.66041 0.108721
1 0.658198 0.106523
0 0.759045 0.179538
0 0.756985 0.177478
0 0.754788 0.17528
0.0235294 0.75259 0.173083
0.0630808 0.750347 0.170825
0.102541 0.748119 0.168597
0.141909 0.745907 0.1664
0.181277 0.743709 0.164202
0.220645 0.741512 0.16199
0.260014 0.7393 0.159792
0.299382 0.737102 0.157595
0.33875 0.734905 0.155398
0.378363 0.732631 0.153124
0.417762 0.730434 0.150912
0.45713 0.728222 0.148714
0.496498 0.726024 0.146517
0.535866 0.723827 0.144305
0.575235 0.721614 0.142107
0.614603 0.719417 0.13991
0.654002 0.717205 0.137697
0.693614 0.714946 0.135439
0.732982 0.712749 0.133227
0.772351 0.710536 0.131029
0.811719 0.708339 0.128832
0.851087 0.706142 0.126635
0.890455 0.703929 0.124422
0.929824 0.701732 0.122225
0.969284 0.699504 0.119997
1 0.697261 0.117754
1 0.695064 0.115541
1 0.692851 0.113344
1 0.690654 0.111147
1 0.688457 0.108949
0 0.789258 0.18204
0 0.787213 0.17998
0 0.785 0.177783
0.0260319 0.782803 0.17557
0.065568 0.78056 0.173327
0.105043 0.778332 0.171099
0.144411 0.77612 0.168902
0.18378 0.773922 0.16669
0.223148 0.771725 0.164492
0.262516 0.769528 0.162295
0.301885 0.767315 0.160098
0.341253 0.765118 0.157885
0.380865 0.76286 0.155627
0.420264 0.760647 0.153414
0.459632 0.758434 0.151217
0.499001 0.756237 0.14902
0.538369 0.75404 0.146807
0.577737 0.751842 0.14461
0.617105 0.74963 0.142412
0.656504 0.747433 0.1402
0.696117 0.745159 0.137926
0.735485 0.742962 0.135729
0.774853 0.740749 0.133532
0.814221 0.738552 0.131334
0.85359 0.736355 0.129122
0.892958 0.734157 0.126925
0.932326 0.731945 0.124727
0.971786 0.729717 0.122499
1 0.727474 0.120241
1 0.725277 0.118044
1 0.723064 0.115846
1 0.720867 0.113649
1 0.718669 0.111437
0 0.819455 0.184588
0 0.817395 0.182528
0 0.815198 0.180331
0.0285954 0.813001 0.178134
0.0681315 0.810742 0.175891
0.107591 0.808515 0.173663
0.14696 0.806317 0.17145
0.186328 0.80412 0.169253
0.225696 0.801907 0.167056
0.26508 0.79971 0.164843
0.304448 0.797513 0.162646
0.343816 0.795316 0.160449
0.383413 0.793042 0.158175
0.422812 0.790829 0.155978
0.462181 0.788632 0.153765
0.501549 0.786435 0.151568
0.540932 0.784222 0.149371
0.580301 0.782025 0.147173
0.619669 0.779828 0.144961
0.659052 0.777615 0.142763
0.698665 0.775357 0.14049
0.738033 0.773144 0.138293
0.777401 0.770947 0.13608
0.81677 0.76875 0.133883
0.856153 0.766537 0.131685
0.895521 0.76434 0.129488
0.93489 0.762142 0.127275
0.97435 0.759915 0.125048
1 0.757671 0.122805
1 0.755459 0.120607
1 0.753262 0.118395
1 0.751064 0.116197
1 0.748852 0.114
0 0.849653 0.187137
0 0.847593 0.185077
0 0.845396 0.182864
0.0311284 0.843198 0.180667
0.0706645 0.84094 0.178424
0.11014 0.838712 0.176196
0.149508 0.836515 0.173999
0.188876 0.834318 0.171786
0.228244 0.83212 0.169589
