CROSS_PROCESS_03.cube
TITLE "Generated by Resolve"
LUT_3D_SIZE 5
0 0.0137331 0.197711
0.182467 0.00135805 0.185336
0.478813 0 0.172824
0.775158 0 0.160311
1 0 0.147799
0 0.275288 0.168673
0.153429 0.262913 0.156298
0.449775 0.250401 0.143786
0.74612 0.237888 0.131273
1 0.225376 0.118761
0 0.536568 0.140368
0.125109 0.524193 0.127977
0.421454 0.511681 0.115465
0.7178 0.499168 0.102953
1 0.486656 0.0904402
0 0.789746 0.132387
0.117144 0.777371 0.120012
0.413489 0.764858 0.1075
0.709834 0.752346 0.0949874
1 0.739834 0.082475
0 1 0.190494
0.17525 1 0.178103
0.47158 0.99173 0.165606
0.767926 0.979217 0.153094
1 0.966705 0.140581
0 0.0201419 0.365393
0.188876 0.00776684 0.353017
0.485222 0 0.340505
0.781567 0 0.327993
1 0 0.31548
0 0.281697 0.336355
0.159838 0.269322 0.32398
0.456184 0.256809 0.311467
0.752514 0.244297 0.298955
1 0.231785 0.286442
0 0.542977 0.308034
0.131518 0.530602 0.295659
0.427863 0.51809 0.283146
0.724208 0.505577 0.270634
1 0.493065 0.258122
0 0.796155 0.300069
0.123552 0.78378 0.287694
0.419898 0.771267 0.275181
0.716243 0.758755 0.262669
1 0.746242 0.250156
0 1 0.35816
0.181643 1 0.345785
0.477989 0.998138 0.333272
0.774334 0.985626 0.32076
1 0.973114 0.308248
0 0.0265202 0.533379
0.195254 0.0141451 0.521004
0.4916 0.00163272 0.508492
0.787945 0 0.495979
1 0 0.483467
0 0.288075 0.504341
0.166217 0.2757 0.491966
0.462562 0.263188 0.479454
0.758907 0.250675 0.466941
1 0.238163 0.454429
0 0.549355 0.47602
0.137896 0.53698 0.463645
0.434241 0.524468 0.451133
0.730587 0.511955 0.438621
1 0.499443 0.426108
0 0.802533 0.468055
0.129931 0.790158 0.45568
0.426276 0.777646 0.443168
0.722622 0.765133 0.430655
1 0.752621 0.418143
0 1 0.526162
0.188037 1 0.513771
0.484367 1 0.501259
0.780713 0.992004 0.488762
1 0.979492 0.476249
0 0.0329137 0.701366
0.201633 0.0205234 0.688991
0.497978 0.00802625 0.676478
0.794324 0 0.663966
1 0 0.651453
0 0.294469 0.672328
0.172595 0.282078 0.659953
0.46894 0.269566 0.64744
0.765286 0.257053 0.634928
1 0.244556 0.622415
0 0.555734 0.644022
0.144289 0.543359 0.631632
0.440635 0.530846 0.619135
0.736965 0.518334 0.606622
1 0.505821 0.59411
0 0.808911 0.636042
0.136309 0.796536 0.623667
0.432654 0.784024 0.611154
0.729 0.771511 0.598642
1 0.758999 0.58613
0 1 0.694148
0.194415 1 0.681773
0.490761 1 0.669261
0.787091 0.998383 0.656748
1 0.98587 0.644236
0 0.039292 0.869368
0.208026 0.0269169 0.856977
0.504372 0.0144045 0.844465
0.800702 0.00189212 0.831968
1 0 0.819455
0 0.300847 0.840314
0.178973 0.288472 0.827939
0.475319 0.275959 0.815427
0.771664 0.263447 0.802915
1 0.250935 0.790402
0 0.562127 0.812009
0.150668 0.549737 0.799634
0.447013 0.53724 0.787121
0.743358 0.524727 0.774609
1 0.512215 0.762097
0 0.815305 0.804044
0.142702 0.802915 0.791653
0.439033 0.790417 0.779141
0.735378 0.777905 0.766629
1 0.765393 0.754131
0 1 0.862135
0.200793 1 0.84976
0.497139 1 0.837247
0.793484 1 0.824735
1 0.992248 0.812222
