CROSS_PROCESS_03.cube
TITLE "Generated by Resolve"
LUT_3D_SIZE 9
0 0.0137331 0.197711
0.0343328 0.00761425 0.191577
0.182467 0.00135805 0.185336
0.330739 0 0.179049
0.478813 0 0.172824
0.627115 0 0.166537
0.775158 0 0.160311
0.923445 0 0.154025
1 0 0.147799
0 0.144015 0.184451
0.0210727 0.137881 0.178317
0.169207 0.131624 0.172076
0.317464 0.125353 0.165789
0.465537 0.119112 0.159564
0.61384 0.112825 0.153262
0.761883 0.106615 0.147051
0.910185 0.100313 0.140749
1 0.0941024 0.134539
0 0.275288 0.168673
0.00529488 0.269154 0.162539
0.153429 0.262913 0.156298
0.301701 0.256626 0.150011
0.449775 0.250401 0.143786
0.598062 0.244114 0.137499
0.74612 0.237888 0.131273
0.894408 0.231601 0.124987
1 0.225376 0.118761
0 0.4065 0.153079
0 0.400366 0.146944
0.137835 0.394125 0.140703
0.286091 0.387839 0.134417
0.43418 0.381613 0.128191
0.582467 0.375326 0.121904
0.73051 0.3691 0.115679
0.878813 0.362814 0.109392
1 0.356588 0.103166
0 0.536568 0.140368
0 0.530434 0.134234
0.125109 0.524193 0.127977
0.273381 0.517906 0.121706
0.421454 0.511681 0.115465
0.569757 0.505394 0.109178
0.7178 0.499168 0.102953
0.866102 0.492882 0.0966659
1 0.486656 0.0904402
0 0.66479 0.132265
0 0.658656 0.126131
0.117021 0.652415 0.11989
0.265293 0.646128 0.113603
0.413367 0.639902 0.107378
0.561669 0.633616 0.101091
0.709712 0.62739 0.0948653
0.858 0.621103 0.0885786
1 0.614878 0.0823529
0 0.789746 0.132387
0 0.783612 0.126253
0.117144 0.777371 0.120012
0.265415 0.771084 0.113725
0.413489 0.764858 0.1075
0.561776 0.758572 0.101213
0.709834 0.752346 0.0949874
0.858122 0.746059 0.0887007
1 0.739834 0.082475
0 0.904875 0.157183
0 0.898741 0.151049
0.141939 0.8925 0.144808
0.290211 0.886213 0.138521
0.438285 0.879988 0.132296
0.586572 0.873701 0.126009
0.734615 0.867475 0.119783
0.882918 0.861189 0.113497
1 0.854963 0.107271
0 1 0.190494
0.0271153 1 0.18436
0.17525 1 0.178103
0.323507 0.997955 0.171832
0.47158 0.99173 0.165606
0.619883 0.985443 0.159304
0.767926 0.979217 0.153094
0.916228 0.97293 0.146792
1 0.966705 0.140581
0 0.0169528 0.281422
0.0375525 0.0108186 0.275288
0.185687 0.00457771 0.269047
0.333944 0 0.26276
0.482033 0 0.256535
0.63032 0 0.250233
0.778363 0 0.244022
0.926665 0 0.237736
1 0 0.23151
0 0.147219 0.268147
0.0242771 0.141085 0.262013
0.172412 0.134844 0.255772
0.320684 0.128557 0.249485
0.468757 0.122332 0.243259
0.61706 0.116045 0.236973
0.765103 0.109819 0.230747
0.91339 0.103532 0.22446
1 0.0973068 0.218235
0 0.278508 0.252384
0.00849927 0.272374 0.24625
0.156634 0.266133 0.239994
0.304906 0.259846 0.233722
0.452979 0.25362 0.227481
0.601282 0.247318 0.221195
0.749325 0.241108 0.214969
0.897627 0.234821 0.208682
1 0.228595 0.202472
0 0.40972 0.236774
0 0.403586 0.230655
0.141039 0.397345 0.224399
0.289311 0.391058 0.218128
0.437385 0.384833 0.211887
0.585687 0.378546 0.2056
0.73373 0.37232 0.199374
0.882017 0.366033 0.193088
1 0.359808 0.186862
0 0.539788 0.224063
0 0.533654 0.217929
0.128328 0.527398 0.211688
0.2766 0.521126 0.205402
0.424674 0.5149 0.199176
0.572961 0.508598 0.192889
0.721019 0.502388 0.186664
0.869307 0.496086 0.180377
1 0.489876 0.174151
0 0.668009 0.215976
0 0.661875 0.209842
0.120241 0.655634 0.203601
0.268498 0.649348 0.197314
0.416587 0.643122 0.191089
0.564874 0.63682 0.184802
0.712917 0.63061 0.178576
0.861219 0.624323 0.17229
1 0.618097 0.166064
0 0.792966 0.216098
0 0.786831 0.209964
0.120363 0.780575 0.203723
0.26862 0.774304 0.197436
0.416693 0.768078 0.191211
0.564996 0.761776 0.184909
0.713039 0.755566 0.178698
0.861341 0.749264 0.172396
1 0.743053 0.166186
0 0.908095 0.240894
0 0.901961 0.23476
0.145144 0.895705 0.228504
0.293416 0.889433 0.222232
0.441489 0.883207 0.215991
0.589792 0.876905 0.209705
0.737835 0.870695 0.203479
0.886137 0.864393 0.197192
1 0.858183 0.190967
0 1 0.274189
0.0303197 1 0.268055
0.178454 1 0.261814
0.326726 1 0.255528
0.4748 0.994934 0.249302
0.623087 0.988647 0.243015
0.771145 0.982422 0.236789
0.919432 0.976135 0.230503
1 0.969909 0.224277
0 0.0201419 0.365393
0.0407416 0.0140078 0.359258
0.188876 0.00776684 0.353017
0.337148 0.00148013 0.346731
0.485222 0 0.340505
0.633509 0 0.334218
0.781567 0 0.327993
0.929854 0 0.321706
1 0 0.31548
0 0.150408 0.352117
0.0274662 0.144289 0.345998
0.175601 0.138033 0.339742
0.323873 0.131762 0.333471
0.471946 0.125521 0.32723
0.620249 0.119234 0.320943
0.768292 0.113008 0.314717
0.916594 0.106722 0.308431
1 0.100496 0.302205
0 0.281697 0.336355
0.0117037 0.275563 0.33022
0.159838 0.269322 0.32398
0.308095 0.263035 0.317693
0.456184 0.256809 0.311467
0.604471 0.250523 0.305165
0.752514 0.244297 0.298955
0.900816 0.23801 0.292653
1 0.231785 0.286442
0 0.412909 0.32076
0 0.406775 0.314626
0.144244 0.400534 0.30837
0.2925 0.394247 0.302098
0.440574 0.388022 0.295857
0.588876 0.381735 0.28957
0.736919 0.375509 0.283345
0.885222 0.369223 0.277058
1 0.362997 0.270848
0 0.542977 0.308034
0 0.536843 0.3019
0.131518 0.530602 0.295659
0.279789 0.524315 0.289372
0.427863 0.51809 0.283146
0.576165 0.511803 0.27686
0.724208 0.505577 0.270634
0.872496 0.49929 0.264347
1 0.493065 0.258122
0 0.671199 0.299947
0 0.665064 0.293812
0.12343 0.658824 0.287572
0.271702 0.652537 0.281285
0.419776 0.646311 0.275059
0.568063 0.640024 0.268772
0.716121 0.633799 0.262547
0.864408 0.627512 0.25626
1 0.621286 0.250034
0 0.796155 0.300069
0 0.790021 0.293935
0.123552 0.78378 0.287694
0.271824 0.777493 0.281407
0.419898 0.771267 0.275181
0.568185 0.764981 0.268894
0.716243 0.758755 0.262669
0.86453 0.752468 0.256382
1 0.746242 0.250156
0 0.911284 0.324865
0.000213626 0.90515 0.31873
0.148348 0.898909 0.312474
0.296605 0.892622 0.306203
0.444678 0.886397 0.299977
0.592981 0.88011 0.293675
0.741024 0.873884 0.287465
0.889326 0.867597 0.281163
1 0.861372 0.274952
0 1 0.35816
0.0335088 1 0.352041
0.181643 1 0.345785
0.329915 1 0.339513
0.477989 0.998138 0.333272
0.626291 0.991836 0.326986
0.774334 0.985626 0.32076
0.922637 0.979324 0.314473
1 0.973114 0.308248
0 0.023331 0.449439
0.0439307 0.0171969 0.44332
0.192065 0.010956 0.437064
0.340322 0.00466926 0.430793
0.488411 0 0.424552
0.636698 0 0.418265
0.784741 0 0.412039
0.933043 0 0.405753
1 0 0.399527
0 0.153597 0.436179
0.0306554 0.147463 0.430045
0.17879 0.141222 0.423804
0.327062 0.134936 0.417517
0.475135 0.12871 0.411292
0.623438 0.122423 0.405005
0.771481 0.116197 0.398779
0.919768 0.109911 0.392493
1 0.103685 0.386267
0 0.284886 0.420401
0.0148775 0.278752 0.414267
0.163027 0.272511 0.408026
0.311284 0.266224 0.40174
0.459358 0.259998 0.395514
0.60766 0.253712 0.389227
0.755703 0.247486 0.383001
0.904005 0.241199 0.376715
1 0.234974 0.370489
0 0.416098 0.404807
0 0.409964 0.398672
0.147417 0.403723 0.392432
0.295689 0.397436 0.386145
0.443763 0.391211 0.379919
0.592065 0.384924 0.373632
0.740108 0.378698 0.367407
0.888411 0.372412 0.36112
1 0.366186 0.354894
0 0.546166 0.392096
0 0.540032 0.385962
0.134707 0.533791 0.379721
0.282979 0.527504 0.373434
0.431052 0.521279 0.367208
0.579339 0.514977 0.360906
0.727398 0.508766 0.354696
0.875685 0.502464 0.348394
1 0.496254 0.342184
0 0.674388 0.384009
0 0.668254 0.377874
0.126619 0.662013 0.371618
0.274876 0.655726 0.365347
0.422965 0.6495 0.359106
0.571252 0.643214 0.352819
0.719295 0.636988 0.346593
0.867597 0.630701 0.340307
1 0.624475 0.334081
0 0.799344 0.384115
0 0.79321 0.377997
0.126741 0.786969 0.37174
0.274998 0.780682 0.365469
0.423087 0.774456 0.359228
0.571374 0.768154 0.352941
0.719417 0.761944 0.346716
0.86772 0.755642 0.340429
1 0.749432 0.334203
0 0.914473 0.408911
0.0033875 0.908339 0.402777
0.151522 0.902098 0.396536
0.299794 0.895811 0.390249
0.447868 0.889586 0.384024
0.59617 0.883284 0.377737
0.744213 0.877073 0.371511
0.892515 0.870771 0.365225
1 0.864561 0.358999
0 1 0.442222
0.0366979 1 0.436088
0.184833 1 0.429847
0.333104 1 0.42356
0.481178 1 0.417334
0.62948 0.995026 0.411048
0.777523 0.9888 0.404822
0.925811 0.982513 0.398535
1 0.976303 0.392309
0 0.0265202 0.533379
0.0471199 0.0204013 0.527245
0.195254 0.0141451 0.521004
0.343526 0.00787366 0.514717
0.4916 0.00163272 0.508492
0.639902 0 0.502205
0.787945 0 0.495979
0.936233 0 0.489693
1 0 0.483467
0 0.156802 0.520119
0.0338598 0.150668 0.513985
0.181994 0.144411 0.507729
0.330251 0.13814 0.501457
0.47834 0.131914 0.495232
0.626627 0.125612 0.48893
0.77467 0.119402 0.482719
0.922972 0.1131 0.476417
1 0.106889 0.470207
0 0.288075 0.504341
0.0180819 0.281941 0.498207
0.166217 0.2757 0.491966
0.314488 0.269413 0.485679
0.462562 0.263188 0.479454
0.610849 0.256901 0.473167
0.758907 0.250675 0.466941
0.907195 0.244388 0.460655
1 0.238163 0.454429
0 0.419287 0.488746
0.00248722 0.413153 0.482612
0.150622 0.406912 0.476371
0.298878 0.400626 0.470085
0.446967 0.3944 0.463859
0.595254 0.388113 0.457557
0.743297 0.381888 0.451347
0.8916 0.375601 0.44506
1 0.369375 0.438834
0 0.549355 0.47602
0 0.543221 0.469902
0.137896 0.53698 0.463645
0.286168 0.530694 0.457374
0.434241 0.524468 0.451133
0.582544 0.518181 0.444846
0.730587 0.511955 0.438621
0.878889 0.505669 0.432334
1 0.499443 0.426108
0 0.677577 0.467933
0 0.671443 0.461799
0.129809 0.665202 0.455558
0.27808 0.658915 0.449271
0.426154 0.652689 0.443046
0.574456 0.646403 0.436759
0.722499 0.640177 0.430533
0.870787 0.63389 0.424247
1 0.627665 0.418021
0 0.802533 0.468055
0 0.796399 0.461921
0.129931 0.790158 0.45568
0.278202 0.783871 0.449393
0.426276 0.777646 0.443168
0.574578 0.771359 0.436881
0.722622 0.765133 0.430655
0.870909 0.758846 0.424369
1 0.752621 0.418143
0 0.917662 0.492851
0.0065919 0.911528 0.486717
0.154726 0.905287 0.480476
0.302998 0.899001 0.474189
0.451072 0.892775 0.467964
0.599359 0.886488 0.461677
0.747417 0.880262 0.455451
0.895705 0.873976 0.449165
1 0.86775 0.442939
0 1 0.526162
0.0399023 1 0.520027
0.188037 1 0.513771
0.336294 1 0.5075
0.484367 1 0.501259
0.63267 0.99823 0.494972
0.780713 0.992004 0.488762
0.929015 0.985718 0.48246
1 0.979492 0.476249
0 0.0297093 0.617456
0.050309 0.0235752 0.611322
0.198444 0.0173342 0.605081
0.346716 0.0110475 0.598795
0.494789 0.00482185 0.592569
0.643076 0 0.586282
0.791135 0 0.580056
0.939422 0 0.57377
1 0 0.567544
0 0.159976 0.604181
0.0370336 0.153857 0.598047
0.185168 0.147601 0.591806
0.33344 0.141329 0.585519
0.481514 0.135088 0.579293
0.629816 0.128801 0.573007
0.777859 0.122576 0.566781
0.926162 0.116289 0.560494
1 0.110063 0.554269
0 0.291264 0.588418
0.0212711 0.28513 0.582284
0.169406 0.278889 0.576028
0.317662 0.272602 0.569757
0.465751 0.266377 0.563516
0.614038 0.26009 0.557229
0.762081 0.253864 0.551019
0.910384 0.247578 0.544717
1 0.241352 0.538506
0 0.422477 0.572808
0.0056611 0.416342 0.56669
0.153811 0.410101 0.560433
0.302068 0.403815 0.554162
0.450141 0.397589 0.547921
0.598444 0.391302 0.541634
0.746487 0.385077 0.535409
0.894789 0.37879 0.529122
1 0.372564 0.522896
0 0.552544 0.560098
0 0.54641 0.553964
0.141085 0.540169 0.547723
0.289357 0.533883 0.541436
0.43743 0.527657 0.53521
0.585733 0.52137 0.528923
0.733776 0.515145 0.522698
0.882063 0.508858 0.516411
1 0.502632 0.510185
0 0.680766 0.55201
0 0.674632 0.545876
0.132998 0.668391 0.539635
0.28127 0.662104 0.533349
0.429343 0.655879 0.527123
0.57763 0.649592 0.520836
0.725689 0.643366 0.514611
0.873976 0.637079 0.508324
1 0.630854 0.502098
0 0.805722 0.552132
0 0.799588 0.545998
0.13312 0.793347 0.539757
0.281392 0.78706 0.533471
0.429465 0.780835 0.527245
0.577752 0.774548 0.520943
0.725811 0.768322 0.514733
0.874098 0.762036 0.508446
1 0.75581 0.50222
0 0.920851 0.576928
0.00978103 0.914717 0.570794
0.157916 0.908476 0.564538
0.306172 0.90219 0.558267
0.454246 0.895964 0.552026
0.602548 0.889677 0.545739
0.750591 0.883452 0.539513
0.898894 0.877165 0.533227
1 0.870939 0.527001
0 1 0.610224
0.0430762 1 0.604089
0.191211 1 0.597848
0.339483 1 0.591562
0.487556 1 0.585336
0.635859 1 0.579049
0.783902 0.995193 0.572824
0.932204 0.988891 0.566537
1 0.982681 0.560311
0 0.0329137 0.701366
0.0534981 0.0267796 0.695247
0.201633 0.0205234 0.688991
0.349905 0.0142519 0.682719
0.497978 0.00802625 0.676478
0.646281 0.00172427 0.670192
0.794324 0 0.663966
0.942626 0 0.657679
1 0 0.651453
0 0.16318 0.688106
0.040238 0.157046 0.681971
0.188373 0.150805 0.675731
0.336645 0.144518 0.669444
0.484718 0.138293 0.663218
0.633005 0.132006 0.656931
0.781064 0.12578 0.650706
0.929351 0.119493 0.644419
1 0.113268 0.638193
0 0.294469 0.672328
0.0244602 0.288334 0.666194
0.172595 0.282078 0.659953
0.320867 0.275807 0.653666
0.46894 0.269566 0.64744
0.617243 0.263279 0.641154
0.765286 0.257053 0.634928
0.913573 0.250767 0.628641
1 0.244556 0.622415
0 0.425681 0.656733
0.00886549 0.419547 0.650599
0.157 0.413291 0.644358
0.305272 0.407019 0.638071
0.453346 0.400778 0.631846
0.601633 0.394491 0.625559
0.749691 0.388266 0.619333
0.897978 0.381979 0.613046
1 0.375769 0.606821
0 0.555734 0.644022
0 0.549615 0.637888
0.144289 0.543359 0.631632
0.292546 0.537087 0.62536
0.440635 0.530846 0.619135
0.588922 0.524559 0.612833
0.736965 0.518334 0.606622
0.885267 0.512047 0.60032
1 0.505821 0.59411
0 0.68397 0.63592
0 0.677836 0.629801
0.136202 0.67158 0.623545
0.284459 0.665309 0.617273
0.432532 0.659068 0.611032
0.580835 0.652781 0.604746
0.728878 0.646555 0.59852
0.87718 0.640269 0.592233
1 0.634058 0.586007
0 0.808911 0.636042
0 0.802792 0.629923
0.136309 0.796536 0.623667
0.284581 0.790265 0.61738
0.432654 0.784024 0.611154
0.580957 0.777737 0.604868
0.729 0.771511 0.598642
0.877302 0.765225 0.592355
1 0.758999 0.58613
0 0.924041 0.660838
0.0129702 0.917922 0.654704
0.161105 0.911665 0.648463
0.309377 0.905394 0.642176
0.45745 0.899153 0.63595
0.605753 0.892866 0.629664
0.753796 0.886641 0.623438
0.902083 0.880354 0.617151
1 0.874128 0.610925
0 1 0.694148
0.0462806 1 0.688014
0.194415 1 0.681773
0.342687 1 0.675486
0.490761 1 0.669261
0.639048 1 0.662959
0.787091 0.998383 0.656748
0.935393 0.992096 0.650462
1 0.98587 0.644236
0 0.0360876 0.785443
0.0566873 0.0299687 0.779309
0.204822 0.0237125 0.773068
0.353094 0.0174411 0.766781
0.501167 0.0112001 0.760555
0.64947 0.00491341 0.754269
0.797513 0 0.748043
0.9458 0 0.741756
1 0 0.735531
0 0.166369 0.772183
0.0434272 0.160235 0.766049
0.191562 0.153979 0.759793
0.339818 0.147707 0.753521
0.487892 0.141466 0.74728
0.636194 0.13518 0.740993
0.784237 0.128969 0.734768
0.93254 0.122667 0.728481
1 0.116457 0.722271
0 0.297642 0.756405
0.0276493 0.291508 0.750271
0.175784 0.285267 0.74403
0.324056 0.278981 0.737743
0.472129 0.272755 0.731517
0.620417 0.266468 0.725216
0.768475 0.260243 0.719005
0.916762 0.253956 0.712718
1 0.24773 0.706493
0 0.428855 0.74081
0.0120546 0.422721 0.734676
0.160189 0.41648 0.72842
0.308446 0.410193 0.722148
0.456535 0.403967 0.715923
0.604822 0.397681 0.709621
0.752865 0.391455 0.70341
0.901167 0.385168 0.697108
1 0.378943 0.690898
0 0.558923 0.728084
0 0.552789 0.72195
0.147463 0.546548 0.715709
0.295735 0.540261 0.709422
0.443809 0.534035 0.703197
0.592111 0.527749 0.69691
0.740154 0.521523 0.690684
0.888457 0.515236 0.684398
1 0.50901 0.678172
0 0.687144 0.719997
0 0.68101 0.713863
0.139376 0.674769 0.707622
0.287648 0.668482 0.701335
0.435721 0.662257 0.695109
0.584024 0.65597 0.688823
0.732067 0.649744 0.682597
0.880354 0.643458 0.67631
1 0.637232 0.670085
0 0.8121 0.720119
0 0.805966 0.713985
0.139498 0.799725 0.707744
0.28777 0.793439 0.701457
0.435843 0.787213 0.695232
0.584146 0.780926 0.688945
0.732189 0.774701 0.682719
0.880476 0.768414 0.676432
1 0.762188 0.670207
0 0.92723 0.744915
0.0161593 0.921096 0.738781
0.164294 0.914855 0.73254
0.312566 0.908568 0.726253
0.460639 0.902342 0.720027
0.608927 0.896056 0.713726
0.756985 0.88983 0.707515
0.905272 0.883543 0.701213
1 0.877317 0.695003
0 1 0.77821
0.0494698 1 0.772091
0.197604 1 0.765835
0.345861 1 0.759564
0.493935 1 0.753323
0.642237 1 0.747036
0.79028 1 0.74081
0.938582 0.995285 0.734524
1 0.989059 0.728298
0 0.039292 0.869368
0.0598917 0.0331579 0.863233
0.208026 0.0269169 0.856977
0.356283 0.0206302 0.850706
0.504372 0.0144045 0.844465
0.652659 0.0081178 0.838178
0.800702 0.00189212 0.831968
0.949004 0 0.825666
1 0 0.819455
0 0.169558 0.856092
0.0466163 0.163424 0.849958
0.194751 0.157183 0.843717
0.343023 0.150896 0.83743
0.491096 0.144671 0.831205
0.639399 0.138384 0.824918
0.787442 0.132158 0.818692
0.935729 0.125872 0.812406
1 0.119646 0.80618
0 0.300847 0.840314
0.0308385 0.294713 0.834195
0.178973 0.288472 0.827939
0.327245 0.282185 0.821668
0.475319 0.275959 0.815427
0.623621 0.269657 0.80914
0.771664 0.263447 0.802915
0.919966 0.25716 0.796628
1 0.250935 0.790402
0 0.432059 0.82472
0.0152438 0.425925 0.818586
0.163378 0.419684 0.812345
0.31165 0.413397 0.806058
0.459724 0.407172 0.799832
0.608026 0.400885 0.793545
0.756069 0.394659 0.78732
0.904372 0.388373 0.781033
1 0.382147 0.774807
0 0.562127 0.812009
0.002533 0.555993 0.805875
0.150668 0.549737 0.799634
0.298939 0.543465 0.793347
0.447013 0.53724 0.787121
0.5953 0.530938 0.780835
0.743358 0.524727 0.774609
0.891646 0.518425 0.768322
1 0.512215 0.762097
0 0.690349 0.803922
0 0.684215 0.797787
0.14258 0.677974 0.791531
0.290837 0.671687 0.78526
0.438926 0.665461 0.779034
0.587213 0.659175 0.772732
0.735256 0.652949 0.766522
0.883558 0.646662 0.76022
1 0.640436 0.754009
0 0.815305 0.804044
0 0.809171 0.797909
0.142702 0.802915 0.791653
0.290959 0.796643 0.785382
0.439033 0.790417 0.779141
0.587335 0.784115 0.772854
0.735378 0.777905 0.766629
0.88368 0.771603 0.760342
1 0.765393 0.754131
0 0.930434 0.828824
0.0193484 0.9243 0.82269
0.167483 0.918044 0.816449
0.315755 0.911772 0.810162
0.463828 0.905547 0.803937
0.612131 0.899245 0.79765
0.760174 0.893034 0.791424
0.908476 0.886732 0.785138
1 0.880522 0.778912
0 1 0.862135
0.0526589 1 0.856001
0.200793 1 0.84976
0.349065 1 0.843473
0.497139 1 0.837247
0.645441 1 0.830961
0.793484 1 0.824735
0.941772 0.998474 0.818448
1 0.992248 0.812222
