CROSS_PROCESS_01.cube
TITLE "Generated by Resolve"
LUT_3D_SIZE 5
0 0.0195926 0.155688
0.196796 0.00204471 0.13814
0.512016 0 0.120455
0.827237 0 0.10277
1 0 0.0850843
0 0.267918 0.158953
0.200061 0.250385 0.141421
0.515282 0.2327 0.123735
0.830503 0.215015 0.10605
1 0.19733 0.088365
0 0.515419 0.164355
0.205463 0.497887 0.146822
0.520684 0.480201 0.129137
0.835904 0.462516 0.111452
1 0.444831 0.0937667
0 0.759045 0.179538
0.220645 0.741512 0.16199
0.535866 0.723827 0.144305
0.851087 0.706142 0.126635
1 0.688457 0.108949
0 1 0.199817
0.240925 0.983108 0.182284
0.556146 0.965423 0.164599
0.871366 0.947738 0.146914
1 0.930053 0.129229
0 0.0263066 0.322072
0.20351 0.00875868 0.30454
0.51873 0 0.286854
0.833951 0 0.269169
1 0 0.251484
0 0.274632 0.325353
0.206775 0.257099 0.307805
0.521996 0.239414 0.29012
0.837217 0.221729 0.272435
1 0.204044 0.254749
0 0.522133 0.330755
0.212177 0.504601 0.313207
0.527398 0.486915 0.295521
0.842618 0.46923 0.277836
1 0.451545 0.260151
0 0.765759 0.345922
0.227359 0.748226 0.328389
0.54258 0.730541 0.310704
0.857801 0.712856 0.293019
1 0.695171 0.275334
0 1 0.366217
0.247639 0.989822 0.348669
0.56286 0.972137 0.330983
0.87808 0.954452 0.313298
1 0.936767 0.295613
0 0.0330053 0.488777
0.210208 0.0154574 0.471244
0.525429 0 0.453559
0.84065 0 0.435874
1 0 0.418189
0 0.281331 0.492042
0.213474 0.263783 0.47451
0.528695 0.246098 0.456825
0.843915 0.228412 0.439139
1 0.210727 0.421454
0 0.528832 0.497444
0.218875 0.511284 0.479912
0.534096 0.493599 0.462226
0.849317 0.475914 0.444541
1 0.458228 0.426856
0 0.772457 0.512627
0.234058 0.75491 0.495094
0.549279 0.737224 0.477409
0.8645 0.719539 0.459724
1 0.701854 0.442039
0 1 0.532906
0.254337 0.996521 0.515373
0.569558 0.978836 0.497688
0.884779 0.961151 0.480003
1 0.943465 0.462318
0 0.0396887 0.655482
0.216892 0.0221561 0.637949
0.532113 0.00447089 0.620264
0.847333 0 0.602579
1 0 0.584894
0 0.288029 0.658747
0.220157 0.270481 0.641215
0.535393 0.252796 0.623529
0.850614 0.235111 0.605844
1 0.217426 0.588159
0 0.535531 0.664149
0.225574 0.517983 0.646616
0.540795 0.500298 0.628931
0.856016 0.482612 0.611246
1 0.464927 0.593561
0 0.779156 0.679332
0.240742 0.761608 0.661799
0.555962 0.743923 0.644114
0.871183 0.726238 0.626429
1 0.708553 0.608743
0 1 0.699611
0.261036 1 0.682078
0.576257 0.985534 0.664393
0.891478 0.967849 0.646708
1 0.950164 0.629023
0 0.0463874 0.822187
0.22359 0.0288396 0.804639
0.538811 0.0111543 0.786954
0.854032 0 0.769268
1 0 0.751598
0 0.294713 0.825452
0.226856 0.27718 0.807919
0.542077 0.259495 0.790234
0.857298 0.24181 0.772549
1 0.224125 0.754864
0 0.542214 0.830854
0.232258 0.524681 0.813321
0.547478 0.506996 0.795636
0.862699 0.489311 0.777951
1 0.471626 0.760266
0 0.78584 0.846036
0.24744 0.768307 0.828489
0.562661 0.750622 0.810819
0.877882 0.732937 0.793133
1 0.715251 0.775448
0 1 0.866316
0.26772 1 0.848783
0.58294 0.992218 0.831098
0.898161 0.974533 0.813413
1 0.956847 0.795727
