SKINTONE_02.cube
TITLE "Generated by Resolve"
LUT_3D_SIZE 9
0.0112306 0.0112306 0.0112306
0.0970932 0.0171664 0.0171664
0.195071 0.0233921 0.0233921
0.301915 0.0292973 0.0292973
0.416876 0.0338598 0.0338598
0.541314 0.0373236 0.0373236
0.674281 0.0386511 0.0386511
0.816556 0.0383917 0.0383917
0.966171 0.0357519 0.0357519
0.0387884 0.12076 0.0387884
0.135424 0.131136 0.046128
0.244419 0.139101 0.0507515
0.36257 0.144945 0.0530556
0.490013 0.149096 0.0535439
0.624613 0.150851 0.0518502
0.765484 0.151095 0.0489967
0.909255 0.149722 0.0450446
1 0.146883 0.0402075
0.0563058 0.250828 0.0563058
0.16112 0.261448 0.0593881
0.278676 0.268132 0.0590982
0.404654 0.272526 0.0573892
0.53608 0.274418 0.0543679
0.671321 0.274495 0.0506294
0.808911 0.273213 0.0464942
0.946746 0.27042 0.0417182
1 0.266239 0.0361639
0.0572213 0.390799 0.0572213
0.168933 0.397864 0.0573739
0.291707 0.401144 0.055375
0.419852 0.402228 0.0525826
0.550484 0.400916 0.0485847
0.682795 0.398032 0.0439307
0.815717 0.393683 0.038529
0.948211 0.388067 0.0324254
1 0.380957 0.0252232
0.0503395 0.52604 0.0503395
0.165423 0.528603 0.0497444
0.288975 0.527489 0.0466316
0.415915 0.52462 0.0426184
0.543862 0.51957 0.0371252
0.672267 0.512932 0.0305333
0.80087 0.505089 0.0230106
0.928985 0.496284 0.0147555
1 0.486152 0.00546273
0.038407 0.649165 0.038407
0.15288 0.647379 0.036347
0.274357 0.64213 0.031281
0.39794 0.635065 0.0247044
0.52282 0.626856 0.0173342
0.647837 0.617197 0.00885023
0.7729 0.606622 0
0.897429 0.595514 0
1 0.583581 0
0.0187076 0.758694 0.0187076
0.130816 0.75346 0.0146334
0.249775 0.745159 0.00790417
0.370764 0.735348 7.62951e-05
0.492775 0.724544 0
0.61529 0.713115 0
0.737652 0.701076 0
0.859113 0.68864 0
0.980575 0.675822 0
0 0.857511 0
0.103105 0.849577 0
0.22034 0.83917 0
0.339727 0.827802 0
0.459724 0.815549 0
0.579843 0.802823 0
0.699641 0.789883 0
0.818326 0.776944 0
0.936843 0.764019 0
0 0.947784 0
0.0759747 0.938201 0
0.192004 0.926375 0
0.309743 0.913771 0
0.428031 0.900755 0
0.546227 0.887678 0
0.663691 0.874601 0
0.779797 0.861769 0
0.895247 0.848875 0
0.0126192 0.0126192 0.0875257
0.10071 0.0200351 0.0970016
0.199817 0.0262913 0.105638
0.307973 0.0321355 0.114214
0.42475 0.0367132 0.121843
0.550118 0.0394293 0.127886
0.684459 0.040238 0.132235
0.827695 0.0394446 0.135103
0.977722 0.036408 0.135531
0.0415961 0.124559 0.124727
0.1393 0.134951 0.135134
0.249104 0.142382 0.142565
0.368429 0.14786 0.148058
0.496574 0.151369 0.151568
0.631693 0.152682 0.15288
0.772488 0.152514 0.152728
0.915709 0.15079 0.151019
1 0.147799 0.148028
0.0578927 0.255024 0.152575
0.163348 0.264897 0.158602
0.281621 0.270985 0.161196
0.408103 0.274861 0.162112
0.539559 0.276204 0.161105
0.674586 0.275883 0.158968
0.81181 0.274296 0.156069
0.948974 0.271092 0.151949
1 0.266606 0.146853
0.0576944 0.39382 0.162737
0.170016 0.400275 0.164843
0.293004 0.402884 0.164187
0.421195 0.40354 0.162448
0.55169 0.401816 0.159106
0.683528 0.398428 0.154696
0.816281 0.393957 0.149645
0.948104 0.387869 0.143313
1 0.380301 0.13576
0.0505226 0.527428 0.160403
0.165774 0.529549 0.160418
0.289219 0.527962 0.157534
0.415808 0.524559 0.15346
0.543511 0.519219 0.147936
0.671534 0.51223 0.141054
0.799664 0.503975 0.133104
0.92752 0.495033 0.124666
1 0.484657 0.114992
0.0381476 0.649073 0.149294
0.152331 0.646815 0.14696
0.273594 0.641306 0.14168
0.396826 0.63386 0.134752
0.52137 0.625345 0.127001
0.646143 0.615534 0.118257
0.770901 0.604791 0.108843
0.895064 0.5935 0.0991836
1 0.58172 0.0893873
0.017731 0.757366 0.128679
0.129564 0.751812 0.124208
0.248295 0.743267 0.117113
0.369131 0.733333 0.10901
0.490883 0.722362 0.100237
0.613169 0.710842 0.0913558
0.735241 0.698726 0.0823072
0.856413 0.68629 0.0733501
0.977523 0.673457 0.0644541
0 0.855253 0.101656
0.101747 0.847196 0.0964523
0.218845 0.836683 0.0892805
0.338018 0.825193 0.0816815
0.457847 0.812924 0.0738384
0.577737 0.800198 0.0660716
0.697261 0.787289 0.0586099
0.815778 0.774502 0.0518807
0.933898 0.761608 0.0454566
0 0.94493 0.0739757
0.0749371 0.935271 0.0697337
0.190875 0.923445 0.0639506
0.308476 0.910842 0.0579995
0.426566 0.897887 0.0522774
0.54461 0.884962 0.0471656
0.661753 0.871962 0.0422827
0.777371 0.859068 0.0376287
0.89279 0.846601 0.0337682
0.0146181 0.0146181 0.172244
0.103975 0.0224765 0.18468
0.204547 0.0290379 0.196475
0.313542 0.0343633 0.207675
0.431662 0.0386053 0.218524
0.558358 0.0408179 0.227863
0.694423 0.0413062 0.23592
0.837919 0.0397498 0.241871
0.988144 0.0363317 0.245472
0.0438087 0.127794 0.219409
0.142367 0.137957 0.233158
0.253101 0.144961 0.243946
0.373739 0.150179 0.253162
0.502281 0.152895 0.259709
0.637736 0.153704 0.264042
0.778408 0.153201 0.26656
0.920989 0.151141 0.266865
1 0.148028 0.265583
0.058732 0.258442 0.258854
0.164843 0.267567 0.267994
0.283757 0.273014 0.273457
0.41062 0.276356 0.276814
0.542138 0.277256 0.277714
0.676936 0.276524 0.276997
0.813672 0.274556 0.275029
0.950286 0.271061 0.271534
1 0.266163 0.266636
0.0574502 0.395911 0.278141
0.170352 0.401816 0.282048
0.293629 0.403937 0.282658
0.421653 0.403937 0.281605
0.55201 0.401877 0.278843
0.683467 0.398077 0.274601
0.815671 0.393164 0.269459
0.947097 0.386831 0.263066
1 0.378912 0.255177
0.0500038 0.527977 0.279805
0.165286 0.52958 0.280186
0.288685 0.527626 0.277516
0.414939 0.52372 0.273274
0.54226 0.517968 0.267475
0.670008 0.510735 0.260365
0.797711 0.502144 0.252018
0.925139 0.492912 0.243183
1 0.482414 0.233204
0.037171 0.648188 0.269123
0.151003 0.645426 0.266392
0.271992 0.639582 0.260807
0.394995 0.631907 0.253574
0.519173 0.623087 0.245411
0.643656 0.613062 0.236271
0.768154 0.602228 0.22652
0.891981 0.590799 0.216403
1 0.578927 0.206119
0.0160678 0.755306 0.247425
0.127642 0.749432 0.242527
0.246098 0.740612 0.234989
0.366751 0.730526 0.226474
0.488319 0.719478 0.217319
0.610361 0.707881 0.207965
0.732128 0.695689 0.198367
0.853025 0.683268 0.188891
0.973816 0.670466 0.1794
0 0.852247 0.218967
0.0996719 0.844068 0.213321
0.216709 0.833494 0.205737
0.335653 0.821881 0.197543
0.455299 0.809583 0.18912
0.575006 0.796918 0.180774
0.69427 0.784039 0.172641
0.812497 0.771359 0.165179
0.930327 0.758587 0.157961
0 0.941375 0.18967
0.0732891 0.931655 0.184802
0.189136 0.919829 0.178393
0.3066 0.907271 0.171771
0.424506 0.894392 0.165316
0.542321 0.881575 0.15935
0.659236 0.868727 0.153613
0.774609 0.856016 0.148104
0.889784 0.843763 0.143313
0.0169985 0.0169985 0.261555
0.107057 0.0247196 0.276555
0.208789 0.0312657 0.291508
0.318914 0.036286 0.305913
0.438376 0.0401465 0.320272
0.566293 0.041825 0.33312
0.703655 0.041825 0.344869
0.847547 0.0396887 0.35407
0.998016 0.0360418 0.360861
0.0457618 0.130831 0.319081
0.145068 0.140612 0.336309
0.256764 0.147158 0.350698
0.378271 0.151827 0.363455
0.507485 0.15404 0.373281
0.643336 0.154528 0.380591
0.783566 0.153521 0.38526
0.925582 0.151202 0.387366
1 0.147921 0.387457
0.0590066 0.261219 0.370398
0.165927 0.26978 0.382712
0.285679 0.27483 0.391028
0.412589 0.277394 0.396246
0.544182 0.277913 0.39881
0.678843 0.276905 0.399329
0.814893 0.274388 0.397879
0.951034 0.270649 0.394873
1 0.265415 0.390097
0.0569314 0.397528 0.39823
0.170291 0.402838 0.40354
0.29398 0.404654 0.405371
0.421698 0.403952 0.404685
0.551812 0.40148 0.402197
0.682994 0.397375 0.398108
0.814664 0.392035 0.392752
0.945586 0.385336 0.386069
1 0.377203 0.377935
0.0492561 0.528161 0.403098
0.164431 0.529152 0.403571
0.287907 0.526986 0.401114
0.413779 0.522576 0.396582
0.540627 0.51632 0.390356
0.66804 0.508797 0.38291
0.795499 0.500069 0.374319
0.922423 0.490471 0.36495
1 0.479805 0.354559
0.0358282 0.64686 0.392279
0.149386 0.643732 0.389227
0.269978 0.637461 0.383169
0.392996 0.629786 0.375845
0.516701 0.620539 0.367086
0.640833 0.610269 0.357458
0.765057 0.599313 0.34728
0.888609 0.587823 0.336736
1 0.575875 0.325902
0.0140078 0.752804 0.369329
0.125383 0.746685 0.364034
0.243671 0.737682 0.356069
0.36405 0.727398 0.347051
0.485466 0.716289 0.337469
0.607279 0.704631 0.327596
0.72874 0.692363 0.317372
0.849363 0.679957 0.307286
0.969833 0.667247 0.297154
0 0.848951 0.339422
0.0973526 0.840604 0.333227
0.214389 0.830076 0.325231
0.333089 0.818326 0.316365
0.452522 0.805997 0.307271
0.572015 0.793362 0.298253
0.691051 0.78056 0.289403
0.809018 0.768002 0.281132
0.926528 0.755337 0.27303
0 0.937545 0.308263
0.0714733 0.927794 0.302739
0.187167 0.915953 0.295583
0.304524 0.903456 0.288212
0.422278 0.890684 0.280949
0.539834 0.877974 0.274098
0.656519 0.865293 0.26743
0.771664 0.852781 0.261021
0.886595 0.840742 0.255207
0.0190585 0.0190585 0.353948
0.110033 0.0268254 0.37203
0.212894 0.0332799 0.390417
0.324468 0.0381781 0.408591
0.444907 0.0413672 0.426337
0.574044 0.0424964 0.442893
0.712306 0.0419318 0.458244
0.856672 0.0393683 0.47071
1 0.035523 0.480415
0.0476844 0.133883 0.423316
0.147494 0.142977 0.44387
0.260121 0.149035 0.461997
0.382422 0.15314 0.478248
0.512215 0.154849 0.491173
0.648341 0.155047 0.501183
0.788022 0.153536 0.507607
0.929503 0.151019 0.511223
1 0.147539 0.512337
0.0589914 0.263645 0.486397
0.166659 0.271595 0.501625
0.287175 0.276234 0.512474
0.41416 0.278111 0.519234
0.545724 0.278187 0.523079
0.680247 0.276951 0.52459
0.815656 0.27393 0.523476
0.951263 0.269886 0.520699
1 0.264546 0.516106
0.05626 0.398825 0.521813
0.169955 0.403464 0.528161
0.293904 0.404913 0.530831
0.421515 0.403723 0.53048
0.551247 0.400732 0.528023
0.682399 0.396597 0.524178
0.813382 0.390677 0.51838
0.94374 0.383536 0.511238
1 0.375128 0.502754
0.0482795 0.527977 0.528954
0.163409 0.528481 0.529473
0.286687 0.525872 0.526864
0.412268 0.521065 0.522057
0.538766 0.514473 0.515465
0.665736 0.506554 0.507546
0.793042 0.497765 0.498756
0.919493 0.487846 0.488838
1 0.476951 0.477943
0.0341192 0.645136 0.51754
0.147509 0.641749 0.514214
0.267796 0.635111 0.507713
0.390463 0.627115 0.499916
0.51397 0.617716 0.490791
0.637827 0.607294 0.480705
0.761715 0.59617 0.469993
0.8851 0.584772 0.459098
1 0.572671 0.447593
0.0117647 0.750072 0.493355
0.122881 0.743648 0.487526
0.241032 0.734524 0.479149
0.361212 0.724086 0.469627
0.482414 0.712886 0.459495
0.603983 0.701167 0.449042
0.7252 0.688899 0.438193
0.845502 0.676493 0.427405
0.965682 0.663844 0.416556
0 0.845441 0.461814
0.0948959 0.836957 0.455039
0.21178 0.826322 0.446418
0.330373 0.814588 0.436942
0.449622 0.802258 0.427146
0.568887 0.789654 0.417334
0.687709 0.776959 0.407721
0.805402 0.764508 0.398596
0.922606 0.751995 0.389563
0 0.933516 0.42858
0.0695506 0.923751 0.422354
0.185153 0.91194 0.41442
0.302342 0.899489 0.40621
0.420081 0.886961 0.39823
0.537255 0.874266 0.390265
0.653452 0.861524 0.382345
0.768627 0.849454 0.375296
0.883314 0.837613 0.36846
0.021088 0.021088 0.4495
0.113329 0.02916 0.471412
0.216876 0.0350805 0.492866
0.329793 0.0397498 0.515038
0.451255 0.0423133 0.536431
0.581765 0.0429999 0.557
0.720562 0.0417639 0.575662
0.865187 0.0388037 0.591196
1 0.034699 0.603311
0.049073 0.1364 0.53109
0.14966 0.145068 0.555489
0.263401 0.150835 0.577722
0.386206 0.154162 0.597009
0.516442 0.155352 0.612741
0.652659 0.1552 0.624994
0.791882 0.153338 0.632944
0.932769 0.150576 0.63769
1 0.146944 0.639612
0.0587472 0.265766 0.606332
0.167132 0.27306 0.624063
0.288197 0.27718 0.636957
0.415442 0.278599 0.645167
0.546838 0.278187 0.649851
0.681117 0.276631 0.652033
0.816114 0.27332 0.651225
0.951049 0.268864 0.648386
1 0.263447 0.643885
0.055436 0.399786 0.648142
0.169467 0.403861 0.655268
0.293446 0.40473 0.658351
0.421027 0.403204 0.658289
0.550469 0.399802 0.655772
0.681147 0.395209 0.651652
0.81178 0.389044 0.645609
0.94168 0.381567 0.638071
1 0.372808 0.629099
0.0470436 0.527398 0.656687
0.162188 0.52755 0.657206
0.285206 0.524468 0.654292
0.410422 0.519219 0.649073
0.536675 0.512398 0.642176
0.663249 0.504128 0.633768
0.790158 0.495064 0.624506
0.91632 0.485008 0.614191
1 0.473976 0.602808
0.0322118 0.643168 0.644419
0.145342 0.639429 0.640696
0.265431 0.632578 0.633829
0.387778 0.624277 0.625528
0.511009 0.614664 0.615915
0.634638 0.60415 0.605402
0.758221 0.592889 0.594141
0.881315 0.58143 0.582666
1 0.569314 0.570535
0.00933852 0.747112 0.61886
0.120226 0.740414 0.612482
0.238209 0.731136 0.603601
0.358236 0.720623 0.593576
0.47924 0.709346 0.582864
0.600534 0.697551 0.571725
0.721523 0.685298 0.56022
0.84155 0.672938 0.548684
0.961395 0.660349 0.537026
0 0.841733 0.585519
0.0923934 0.833204 0.578195
0.209094 0.822461 0.568856
0.327535 0.810697 0.558663
0.446632 0.798413 0.54815
0.565682 0.78584 0.537514
0.68426 0.773251 0.527047
0.80174 0.760967 0.517021
0.918624 0.748577 0.506981
0 0.929335 0.550042
0.0675669 0.91957 0.543038
0.183078 0.907805 0.534295
0.300099 0.89543 0.52517
0.417655 0.883009 0.516258
0.534615 0.870466 0.507317
0.650584 0.857923 0.498436
0.765545 0.846067 0.490379
0.880003 0.83447 0.482536
0.0230106 0.0230106 0.548028
0.116197 0.0310521 0.573648
0.220722 0.0366827 0.598825
0.334829 0.0409705 0.62504
0.457404 0.0429847 0.650339
0.589319 0.0432746 0.675135
0.728359 0.0413367 0.696773
0.873075 0.0380255 0.715053
1 0.033753 0.729244
0.0502022 0.138689 0.642618
0.151568 0.146914 0.671031
0.266285 0.152255 0.697154
0.38967 0.154925 0.719417
0.520272 0.155673 0.737575
0.656397 0.155123 0.751629
0.795285 0.153002 0.760845
0.935592 0.150057 0.766476
1 0.146151 0.76875
0.0582742 0.267567 0.729763
0.167468 0.274357 0.749798
0.288899 0.277806 0.764111
0.416403 0.278843 0.77348
0.547784 0.278111 0.778912
0.681559 0.276036 0.781231
0.816205 0.27248 0.780621
0.950561 0.267689 0.777646
1 0.261906 0.772824
0.0544289 0.400366 0.776654
0.168933 0.404105 0.784543
0.29279 0.404318 0.787655
0.420218 0.402365 0.787594
0.549462 0.398672 0.785016
0.679667 0.393652 0.780499
0.809827 0.387121 0.774044
0.939406 0.379416 0.766171
1 0.370352 0.75671
0.0456245 0.526543 0.785931
0.1608 0.526375 0.786358
0.283574 0.522866 0.783078
0.408377 0.517159 0.77734
0.53431 0.510033 0.770031
0.660594 0.501549 0.761242
0.787106 0.492195 0.751446
0.912902 0.481971 0.740612
1 0.470863 0.728771
0.0301976 0.641047 0.772625
0.142962 0.636881 0.768353
0.262974 0.629923 0.761212
0.384985 0.621302 0.752346
0.507881 0.611444 0.742153
0.631266 0.600809 0.731106
0.75462 0.589502 0.71931
0.877394 0.577981 0.70721
1 0.56582 0.694377
0.00675975 0.743938 0.745464
0.117494 0.737072 0.738582
0.235248 0.727596 0.729091
0.355123 0.716991 0.718486
0.47599 0.705699 0.707195
0.596994 0.693812 0.695308
0.717739 0.68159 0.683055
0.837491 0.669291 0.670756
0.957015 0.656779 0.658244
0 0.837858 0.710201
0.0899519 0.829419 0.702403
0.206378 0.818494 0.692195
0.324636 0.806699 0.681224
0.44358 0.794446 0.669886
0.562417 0.781964 0.658396
0.680766 0.769497 0.646998
0.797971 0.757336 0.635996
0.91458 0.745113 0.624964
0 0.925078 0.672343
0.0655222 0.915297 0.664469
0.180957 0.903593 0.654841
0.297841 0.89131 0.644785
0.415198 0.879026 0.634867
0.531945 0.866636 0.624918
0.647715 0.854307 0.615045
0.762417 0.842664 0.60592
0.876661 0.831296 0.597086
0.0248569 0.0248569 0.649561
0.118975 0.0328222 0.679133
0.224598 0.0381933 0.708446
0.339681 0.0419165 0.738674
0.463401 0.0433814 0.768048
0.596185 0.0431067 0.796536
0.735759 0.0407263 0.821332
0.880568 0.0372473 0.842176
1 0.0326543 0.857786
0.0510567 0.140749 0.757855
0.153201 0.148486 0.790311
0.268711 0.153246 0.819959
0.392767 0.155428 0.84509
0.523903 0.155947 0.865599
0.659602 0.154818 0.88069
0.798169 0.152499 0.890883
0.938003 0.149447 0.897169
1 0.145129 0.899443
0.0575723 0.269032 0.856245
0.167712 0.275517 0.878477
0.289357 0.278187 0.893614
0.416999 0.278782 0.903716
0.548501 0.277897 0.909819
0.681682 0.275242 0.911986
0.815885 0.271382 0.911299
0.949798 0.266377 0.908171
1 0.260212 0.902892
0.0532845 0.400656 0.907042
0.168276 0.40415 0.915541
0.292012 0.403754 0.918502
0.41915 0.401282 0.918166
0.548363 0.397498 0.915587
0.678019 0.391943 0.910506
0.807645 0.38497 0.903487
0.936843 0.377005 0.895186
1 0.367819 0.88539
0.0441444 0.525536 0.916518
0.159197 0.524926 0.916609
0.281727 0.521019 0.912886
0.40621 0.514977 0.906706
0.531701 0.507439 0.898848
0.657938 0.498985 0.889845
0.783932 0.489235 0.879347
0.909331 0.478782 0.867933
1 0.467597 0.855543
0.0280003 0.638712 0.901839
0.140475 0.634195 0.897063
0.260243 0.626978 0.889418
0.38201 0.618158 0.880034
0.504677 0.608148 0.869307
0.627756 0.59733 0.857633
0.750896 0.586023 0.845289
0.87335 0.574441 0.832486
0.995697 0.562249 0.818891
0.00401312 0.740566 0.872908
0.114656 0.733577 0.865522
0.232242 0.723949 0.855436
0.351904 0.713222 0.84416
0.472663 0.701976 0.832242
0.593393 0.690028 0.819562
0.713848 0.677791 0.806485
0.833341 0.665568 0.793347
0.95256 0.653178 0.779934
0 0.83389 0.835645
0.0872663 0.82536 0.8271
0.203616 0.81442 0.816159
0.321721 0.802625 0.804349
0.440452 0.790417 0.792126
0.559121 0.778027 0.779736
0.677241 0.765698 0.767376
0.794156 0.753658 0.755337
0.910506 0.741619 0.743282
0 0.920714 0.795178
0.063508 0.910964 0.786389
0.178836 0.899306 0.775799
0.29575 0.887266 0.764904
0.412726 0.874998 0.753811
0.528984 0.862562 0.742596
0.644816 0.850675 0.73196
0.759289 0.839246 0.721782
0.87332 0.828122 0.71191
0.026978 0.026978 0.754772
0.121599 0.0344091 0.787793
0.228534 0.0396582 0.821881
0.344381 0.0426184 0.855848
0.469169 0.043534 0.889326
0.602731 0.0426947 0.921355
0.742657 0.0399176 0.948928
0.887327 0.0362707 0.971832
1 0.0314336 0.988449
0.0516976 0.14258 0.876631
0.154665 0.149889 0.913237
0.270878 0.154025 0.946029
0.395483 0.155688 0.973571
0.52697 0.155917 0.995911
0.662379 0.15436 1
0.800519 0.151797 1
0.939849 0.148608 1
1 0.143984 1
0.056733 0.270207 0.985367
0.167605 0.276234 1
0.289647 0.278416 1
0.417288 0.278508 1
0.548745 0.277348 1
0.681605 0.274357 1
0.815229 0.270069 1
0.948959 0.26511 1
1 0.258427 1
0.0520943 0.400748 1
0.167224 0.403693 1
0.29102 0.40296 1
0.41796 0.400076 1
0.546822 0.39588 1
0.676112 0.390036 1
0.805341 0.382742 1
0.934051 0.374395 1
1 0.365164 1
0.0425727 0.524315 1
0.157488 0.523339 1
0.279606 0.518898 1
0.403861 0.512612 1
0.529 0.504738 1
0.654856 0.495995 1
0.780575 0.486122 1
0.905653 0.475532 0.995895
1 0.464195 0.982849
0.0255894 0.636118 1
0.137896 0.631388 1
0.257404 0.623896 1
0.378882 0.614816 1
0.501366 0.604715 0.997055
0.62417 0.59379 0.984741
0.747036 0.582406 0.971725
0.869184 0.570809 0.95819
0.991226 0.558648 0.943832
0.0011902 0.737072 1
0.111696 0.729915 0.993011
0.229175 0.720211 0.982315
0.348653 0.709392 0.970321
0.469184 0.69807 0.957641
0.589731 0.686152 0.944167
0.709941 0.673961 0.930251
0.829129 0.661799 0.916182
0.948089 0.649577 0.901854
0 0.829847 0.961578
0.0845655 0.821225 0.952224
0.200793 0.810254 0.940444
0.318807 0.798505 0.927794
0.437339 0.786343 0.914626
0.555795 0.774044 0.901244
0.673808 0.761959 0.887984
0.790356 0.749996 0.874784
0.906218 0.737896 0.861448
0 0.916289 0.918273
0.0615244 0.906584 0.908553
0.176715 0.895003 0.896956
0.293492 0.883085 0.885023
0.410254 0.870954 0.872877
0.526329 0.858717 0.860609
0.641932 0.847044 0.84892
0.756176 0.835843 0.837705
0.869993 0.824948 0.826795
