SKINTONE_02.cube
TITLE "Generated by Resolve"
LUT_3D_SIZE 33
0.0112306 0.0112306 0.0112306
0.0299535 0.0121157 0.0121157
0.0515908 0.0138857 0.0138857
0.0737926 0.0153506 0.0153506
0.0970932 0.0171664 0.0171664
0.120668 0.0186923 0.0186923
0.145037 0.0203708 0.0203708
0.169894 0.0219883 0.0219883
0.195071 0.0233921 0.0233921
0.22118 0.0250858 0.0250858
0.247395 0.0264134 0.0264134
0.274464 0.0279393 0.0279393
0.301915 0.0292973 0.0292973
0.329763 0.0304875 0.0304875
0.358587 0.0319219 0.0319219
0.387457 0.032929 0.032929
0.416876 0.0338598 0.0338598
0.447364 0.0350195 0.0350195
0.477928 0.0357824 0.0357824
0.509331 0.0366064 0.0366064
0.541314 0.0373236 0.0373236
0.573571 0.0377661 0.0377661
0.606836 0.0383001 0.0383001
0.640375 0.0385595 0.0385595
0.674281 0.0386511 0.0386511
0.709438 0.0388952 0.0388952
0.744518 0.0387274 0.0387274
0.780118 0.0384375 0.0384375
0.816556 0.0383917 0.0383917
0.853193 0.0378271 0.0378271
0.890394 0.0372168 0.0372168
0.928344 0.0366369 0.0366369
0.966171 0.0357519 0.0357519
0.0177462 0.0349737 0.0177462
0.0383001 0.0374151 0.0200656
0.0606546 0.0395361 0.0220645
0.0836652 0.0413977 0.0238041
0.107698 0.043534 0.0257877
0.131945 0.0452277 0.0273594
0.156771 0.0468757 0.0288701
0.182544 0.0488289 0.0306706
0.208499 0.0504005 0.0320897
0.235431 0.0522621 0.0337835
0.26247 0.0536965 0.0350652
0.290013 0.0550546 0.0362554
0.318532 0.0566567 0.0376898
0.347158 0.0578317 0.0386969
0.376822 0.059266 0.0399329
0.406592 0.0602884 0.0407721
0.436927 0.0612039 0.0415198
0.468299 0.0623331 0.0424506
0.499748 0.0630198 0.0429389
0.531731 0.0635843 0.0433204
0.564782 0.0643626 0.0438849
0.59791 0.0646982 0.044007
0.631586 0.0649119 0.0440223
0.666362 0.0652934 0.0441901
0.701106 0.0652781 0.0439612
0.736309 0.0651102 0.0436103
0.77258 0.0651255 0.0434119
0.808652 0.0647288 0.0428168
0.845396 0.0645762 0.0424506
0.882399 0.0639658 0.0416571
0.919707 0.0632639 0.0407568
0.957778 0.0626688 0.0399786
0.995773 0.0618448 0.0389715
0.0250553 0.06215 0.0250553
0.0460365 0.0647135 0.0273442
0.0691081 0.0672007 0.0295262
0.0927138 0.0692302 0.0312657
0.117372 0.0715343 0.0332494
0.142336 0.0734264 0.0348211
0.16788 0.0752575 0.0363165
0.194369 0.0773327 0.0380407
0.221012 0.0789654 0.0393378
0.248417 0.0806897 0.0406806
0.276371 0.0823072 0.0419471
0.304692 0.0836957 0.0429541
0.334035 0.0853285 0.0441901
0.3635 0.0865339 0.0449836
0.393484 0.087602 0.045655
0.424506 0.0888838 0.0465248
0.455619 0.0897231 0.046952
0.487572 0.0906691 0.0474708
0.519982 0.0913863 0.0477455
0.552758 0.0918746 0.0478065
0.586465 0.0924544 0.0479591
0.620432 0.0927901 0.047837
0.654719 0.0928969 0.0475319
0.690028 0.0931868 0.0473793
0.725216 0.0930495 0.0468299
0.7608 0.0928054 0.0461738
0.79736 0.0927749 0.045716
0.833692 0.0923323 0.044892
0.870008 0.0918898 0.0440681
0.907546 0.0915236 0.0433051
0.944701 0.0907607 0.0421912
0.981964 0.0899519 0.041062
1 0.0893721 0.0401312
0.0320745 0.0907454 0.0320745
0.0536507 0.0935836 0.0344396
0.0772717 0.0962387 0.0365759
0.101518 0.0984665 0.0383001
0.126772 0.100877 0.0401617
0.152346 0.102876 0.0416114
0.178515 0.104738 0.0429236
0.205661 0.106859 0.0444648
0.233005 0.108553 0.0455634
0.260945 0.110155 0.0465705
0.289845 0.111971 0.0477455
0.318898 0.113329 0.0484932
0.348623 0.114672 0.0491951
0.379126 0.116045 0.0499123
0.409827 0.117052 0.0502785
0.441596 0.118288 0.0508125
0.473426 0.119051 0.0509194
0.505791 0.119692 0.0509041
0.539178 0.120531 0.0510567
0.572534 0.120912 0.050782
0.606348 0.121172 0.0504005
0.641138 0.12163 0.0501869
0.675807 0.121645 0.0495766
0.710903 0.121584 0.0488899
0.746883 0.121706 0.0484016
0.782635 0.121416 0.0475319
0.818845 0.121141 0.0466773
0.85536 0.120836 0.0458381
0.891432 0.120363 0.0448463
0.928191 0.119738 0.0437324
0.965576 0.119295 0.0428168
1 0.118517 0.0415961
1 0.117861 0.0404974
0.0387884 0.12076 0.0387884
0.0607614 0.123659 0.0409857
0.0849622 0.126497 0.0430304
0.109728 0.128771 0.0445563
0.135424 0.131136 0.046128
0.161776 0.133349 0.0475166
0.188602 0.135271 0.0486305
0.216373 0.137392 0.0498817
0.244419 0.139101 0.0507515
0.272984 0.140658 0.0514382
0.302556 0.142443 0.0523232
0.33228 0.143755 0.0527504
0.36257 0.144945 0.0530556
0.393866 0.146349 0.0535134
0.425269 0.147295 0.0535592
0.457145 0.148089 0.0534676
0.490013 0.149096 0.0535439
0.522881 0.14963 0.053193
0.55639 0.150179 0.0528572
0.590448 0.150668 0.052491
0.624613 0.150851 0.0518502
0.659281 0.151019 0.051194
0.694514 0.151202 0.0505837
0.729641 0.151049 0.0496834
0.765484 0.151095 0.0489967
0.801099 0.150774 0.0479744
0.836942 0.150362 0.0469215
0.873304 0.150103 0.0460212
0.909255 0.149722 0.0450446
0.945541 0.14902 0.0438087
0.982376 0.148547 0.0428016
1 0.147738 0.0415045
1 0.146883 0.0402075
0.0447395 0.151843 0.0447395
0.0671702 0.154879 0.0467842
0.0919203 0.157824 0.0486458
0.117266 0.160189 0.0499733
0.143343 0.162387 0.0511177
0.170459 0.164797 0.0523842
0.197864 0.16669 0.053193
0.225956 0.168521 0.0539254
0.254902 0.170474 0.0546883
0.284123 0.171984 0.0550698
0.314015 0.173449 0.0553902
0.344671 0.17496 0.0557259
0.37554 0.176059 0.0556954
0.40737 0.177356 0.0558175
0.439231 0.178164 0.0555428
0.47158 0.178866 0.0551461
0.50486 0.179782 0.0549477
0.538094 0.18024 0.0543679
0.571725 0.180575 0.0536965
0.606149 0.181109 0.0532082
0.640406 0.181186 0.0523537
0.674907 0.18117 0.0514687
0.710201 0.181384 0.050782
0.745266 0.181201 0.0498054
0.780514 0.180926 0.0487526
0.816358 0.18085 0.0479286
0.85185 0.180362 0.0467689
0.887419 0.179797 0.0455634
0.923262 0.179583 0.0447242
0.959182 0.178897 0.0434882
0.995132 0.178149 0.0422217
1 0.1776 0.0411688
1 0.176654 0.0397803
0.0498665 0.184085 0.0498665
0.0727245 0.187167 0.0516518
0.097612 0.189746 0.0529183
0.123812 0.192477 0.0542611
0.150439 0.194675 0.0551003
0.178103 0.19704 0.0560311
0.206119 0.198932 0.0565499
0.23473 0.200656 0.0569009
0.264302 0.202579 0.0573739
0.294102 0.204013 0.057435
0.324407 0.20528 0.0573587
0.355642 0.206744 0.057435
0.386984 0.207736 0.0571145
0.418799 0.208606 0.0567025
0.451514 0.209689 0.0564736
0.484199 0.210285 0.0558633
0.517235 0.210727 0.0551614
0.551034 0.211398 0.0546731
0.584726 0.211612 0.0538186
0.618738 0.211734 0.0529335
0.653452 0.2121 0.0522927
0.687938 0.212024 0.0513008
0.722667 0.211887 0.050309
0.757794 0.211826 0.0494087
0.792737 0.211444 0.0482795
0.827832 0.211002 0.0471351
0.863478 0.210819 0.0462654
0.898741 0.210224 0.0450599
0.933776 0.209705 0.0439612
0.969451 0.209094 0.0428168
1 0.208225 0.0414588
1 0.207309 0.040116
1 0.206668 0.0390326
0.0538338 0.217212 0.0538338
0.0771344 0.220325 0.0553445
0.102525 0.222904 0.0563058
0.129229 0.225635 0.0573281
0.156405 0.227771 0.057847
0.184283 0.229725 0.0581826
0.213169 0.231876 0.0586709
0.242283 0.233478 0.0586862
0.271992 0.234928 0.0585641
0.302632 0.236591 0.0586404
0.33341 0.237766 0.05832
0.364675 0.238773 0.0578775
0.396765 0.239994 0.0576181
0.42887 0.240696 0.0569772
0.461524 0.241443 0.0564279
0.494575 0.242084 0.0558022
0.527764 0.242435 0.0549935
0.561303 0.242741 0.0541695
0.595361 0.243137 0.0534829
0.629267 0.243122 0.0524758
0.663661 0.243244 0.0516518
0.698039 0.243122 0.0506447
0.732525 0.242863 0.0495766
0.767239 0.242603 0.0485542
0.802213 0.242359 0.0475929
0.836912 0.241779 0.0463722
0.871962 0.241337 0.0453193
0.906889 0.240696 0.0441138
0.941466 0.24004 0.0429541
0.976562 0.239231 0.0416724
1 0.238529 0.040528
1 0.237461 0.0390784
1 0.236469 0.0377356
0.0563058 0.250828 0.0563058
0.080354 0.254307 0.0578317
0.106233 0.256825 0.0584878
0.133349 0.259327 0.0590829
0.16112 0.261448 0.0593881
0.189502 0.263279 0.0594186
0.218723 0.265156 0.0595102
0.248508 0.266819 0.0594186
0.278676 0.268132 0.0590982
0.309682 0.269642 0.0589303
0.340795 0.270619 0.058381
0.37232 0.271458 0.0577859
0.404654 0.272526 0.0573892
0.436988 0.273121 0.056672
0.469642 0.273594 0.0558785
0.502937 0.274235 0.0552987
0.53608 0.274418 0.0543679
0.569467 0.274479 0.0533913
0.603494 0.274784 0.0526741
0.637339 0.274693 0.0516823
0.671321 0.274495 0.0506294
0.705776 0.274479 0.0498054
0.739925 0.274037 0.0486305
0.774166 0.273487 0.047425
0.808911 0.273213 0.0464942
0.843366 0.272572 0.0452888
0.877836 0.271839 0.0440375
0.912657 0.27129 0.0429999
0.946746 0.27042 0.0417182
0.981292 0.269368 0.0402686
1 0.268544 0.0390784
1 0.267445 0.0376593
1 0.266239 0.0361639
0.0578775 0.285451 0.0578775
0.0823377 0.288823 0.0590982
0.108736 0.291203 0.0594949
0.136141 0.293339 0.0596475
0.16466 0.295598 0.0599222
0.19353 0.297292 0.0597543
0.22298 0.298756 0.0594492
0.253315 0.300389 0.0593271
0.283833 0.301518 0.0588235
0.314824 0.302525 0.0582742
0.346609 0.303716 0.0579232
0.378378 0.304417 0.0572366
0.410468 0.304936 0.0564431
0.443214 0.305638 0.0558785
0.475883 0.305913 0.0549935
0.508827 0.306081 0.0540932
0.542382 0.306493 0.0534371
0.575738 0.306432 0.0524605
0.609201 0.306233 0.0514076
0.643168 0.306233 0.0505684
0.67689 0.305837 0.0494392
0.710765 0.305379 0.0482948
0.745113 0.30515 0.047425
0.779126 0.304509 0.0462196
0.813138 0.303746 0.0449378
0.847517 0.303166 0.0438697
0.88159 0.30222 0.0425116
0.915724 0.301259 0.0411536
0.949859 0.300618 0.0401465
0.984085 0.299443 0.0386816
1 0.298177 0.0371252
1 0.297078 0.0357977
1 0.295644 0.034165
0.0583963 0.3205 0.0583963
0.0830396 0.323369 0.059144
0.110231 0.325963 0.0596017
0.138094 0.327855 0.0595407
0.16672 0.329519 0.0593576
0.196338 0.331365 0.0593271
0.22623 0.332662 0.0589151
0.256611 0.333791 0.0584268
0.28777 0.335073 0.0581216
0.318959 0.335821 0.0574502
0.350591 0.336492 0.0567788
0.382757 0.33724 0.0562142
0.414984 0.337606 0.0554208
0.447486 0.337865 0.0545663
0.480522 0.338277 0.0539254
0.513359 0.338216 0.0529335
0.546456 0.338109 0.051957
0.579934 0.338109 0.0511177
0.613306 0.337789 0.0500649
0.646799 0.337362 0.0489662
0.680674 0.337118 0.0480812
0.714244 0.336431 0.0468452
0.747875 0.335637 0.0455482
0.781903 0.335103 0.0445411
0.815686 0.334218 0.0432441
0.849485 0.333242 0.0419013
0.883574 0.332448 0.0407568
0.917296 0.331243 0.0392615
0.950652 0.330037 0.0378119
0.984787 0.328969 0.0365148
1 0.327581 0.0349279
1 0.326116 0.0332952
1 0.324788 0.0318456
0.0580453 0.355688 0.0580453
0.0831617 0.358297 0.0586557
0.110704 0.360525 0.0588846
0.139193 0.362402 0.0588846
0.168276 0.363867 0.0585946
0.198245 0.365454 0.0584726
0.228397 0.366476 0.0579385
0.259007 0.367315 0.0573434
0.290303 0.368292 0.0569162
0.321813 0.368978 0.0563211
0.353552 0.36939 0.0555581
0.385855 0.369985 0.0550088
0.418051 0.370077 0.0541085
0.450462 0.370047 0.0531624
0.483345 0.370184 0.0523995
0.516274 0.370077 0.0514992
0.549249 0.369772 0.0504616
0.58262 0.369619 0.0496376
0.615732 0.369024 0.0484474
0.648936 0.368338 0.0472267
0.682399 0.367727 0.0461128
0.715984 0.367102 0.0450294
0.749416 0.366186 0.0437324
0.783047 0.365347 0.0425422
0.816541 0.364279 0.0411688
0.849943 0.363043 0.0396735
0.883406 0.361791 0.0381781
0.917174 0.360754 0.0369421
0.950271 0.359442 0.035462
0.983749 0.3579 0.0337835
1 0.356466 0.0322423
1 0.354742 0.0304417
1 0.352987 0.0286259
0.0572213 0.390799 0.0572213
0.0827649 0.393194 0.0577554
0.110552 0.394919 0.0577096
0.139544 0.396689 0.0577401
0.168933 0.397864 0.0573739
0.198917 0.398871 0.0569467
0.229694 0.400061 0.0567025
0.260548 0.400702 0.0560922
0.291707 0.401144 0.055375
0.323491 0.40174 0.0548562
0.355245 0.401892 0.0540322
0.387274 0.401953 0.0531777
0.419852 0.402228 0.0525826
0.452247 0.402029 0.051606
0.484764 0.401663 0.0505684
0.517708 0.40148 0.0497139
0.550484 0.400916 0.0485847
0.583398 0.40029 0.0474403
0.616663 0.399802 0.046479
0.64976 0.399008 0.0452735
0.682795 0.398032 0.0439307
0.716152 0.397223 0.0427863
0.749264 0.396063 0.0413519
0.782437 0.394858 0.0399176
0.815717 0.393683 0.038529
0.849073 0.392493 0.0371557
0.88217 0.390982 0.0355077
0.915343 0.389487 0.0339208
0.948211 0.388067 0.0324254
0.981399 0.386358 0.0306706
1 0.384588 0.0288701
1 0.382956 0.0272374
1 0.380957 0.0252232
0.0556344 0.425132 0.0556344
0.0818341 0.427634 0.0563973
0.110018 0.429129 0.0563516
0.139071 0.43032 0.0561074
0.169039 0.431586 0.0560006
0.199207 0.432273 0.0554665
0.22977 0.432776 0.0548409
0.261036 0.433478 0.0544442
0.292348 0.433738 0.053727
0.323934 0.433829 0.0529488
0.356023 0.434089 0.052369
0.387945 0.433845 0.0513924
0.42005 0.433478 0.05037
0.452659 0.433326 0.0496071
0.48513 0.432807 0.0485389
0.517693 0.432181 0.047425
0.550622 0.431693 0.0464942
0.583261 0.430762 0.0451972
0.615976 0.42974 0.0438392
0.649058 0.428962 0.0427558
0.681926 0.427832 0.0413825
0.714809 0.426596 0.0399481
0.747951 0.425513 0.0386969
0.780758 0.424033 0.0370794
0.813581 0.422477 0.0354009
0.846632 0.421073 0.0339361
0.879561 0.419501 0.0323186
0.912383 0.417762 0.0305638
0.945006 0.41622 0.0290227
0.977844 0.414252 0.0270695
1 0.412192 0.0250248
1 0.410101 0.0229801
1 0.408209 0.021149
0.0541695 0.45948 0.0541695
0.0805676 0.46157 0.0548104
0.109041 0.462791 0.0547341
0.138277 0.463645 0.0543984
0.168215 0.464378 0.0540169
0.19881 0.465141 0.053727
0.229557 0.465431 0.0531014
0.260731 0.465705 0.0525216
0.292119 0.465751 0.0518044
0.323629 0.465537 0.0509041
0.355367 0.465232 0.0499733
0.387625 0.465141 0.0492866
0.419699 0.464607 0.048249
0.451896 0.463951 0.0471504
0.484367 0.46334 0.0461433
0.516686 0.462409 0.0448768
0.549142 0.461433 0.043595
0.581949 0.460639 0.0425574
0.614511 0.459464 0.0411688
0.647044 0.458137 0.0396735
0.679835 0.456977 0.0383612
0.712398 0.455467 0.036759
0.745007 0.453925 0.0351415
0.777905 0.452567 0.033753
0.810498 0.450858 0.0320287
0.843015 0.449012 0.0301976
0.875746 0.447303 0.0285191
0.908248 0.445304 0.0265507
0.940414 0.443381 0.0246738
0.973083 0.441321 0.0226749
1 0.439292 0.0207218
1 0.436973 0.0184939
1 0.434623 0.0162509
0.0523079 0.493034 0.0523079
0.0787671 0.494621 0.0527504
0.107607 0.495766 0.0528115
0.137133 0.496498 0.0525673
0.167086 0.496834 0.0520333
0.197742 0.497276 0.0516518
0.228473 0.497261 0.0509346
0.259541 0.497154 0.0501564
0.290944 0.496986 0.0494087
0.322621 0.496757 0.048661
0.354238 0.496147 0.0475929
0.386145 0.495583 0.0466163
0.418173 0.494881 0.0455634
0.450217 0.493996 0.0443732
0.482368 0.493004 0.0431373
0.514824 0.492149 0.0420691
0.547005 0.490867 0.0406195
0.579217 0.489494 0.0391089
0.611765 0.488304 0.0378271
0.644129 0.486824 0.036286
0.676493 0.485252 0.0346838
0.709072 0.483818 0.0332341
0.74136 0.481987 0.0314183
0.773617 0.480064 0.0295262
0.80618 0.478355 0.027863
0.838514 0.476371 0.0259403
0.870817 0.474296 0.0239414
0.903304 0.472358 0.0220798
0.935164 0.470161 0.0200046
0.967437 0.467781 0.017731
0.999832 0.465492 0.0155795
1 0.463188 0.0134279
1 0.460685 0.0110933
0.0503395 0.52604 0.0503395
0.0768749 0.527276 0.05066
0.105577 0.527825 0.0504158
0.135363 0.528466 0.0502785
0.165423 0.528603 0.0497444
0.195865 0.528527 0.0490883
0.226871 0.528557 0.0485695
0.257816 0.528099 0.0476387
0.288975 0.527489 0.0466316
0.320623 0.527062 0.0458381
0.352224 0.526314 0.0447852
0.383902 0.525414 0.0436255
0.415915 0.52462 0.0426184
0.4477 0.5234 0.0412451
0.479576 0.522087 0.0398108
0.511604 0.52079 0.0384222
0.543862 0.51957 0.0371252
0.575921 0.518029 0.0355688
0.608042 0.516442 0.0339971
0.640223 0.514809 0.0323796
0.672267 0.512932 0.0305333
0.704356 0.511025 0.028687
0.736736 0.509316 0.0270542
0.768826 0.507256 0.0250858
0.80087 0.505089 0.0230106
0.833112 0.503059 0.021088
0.86511 0.50074 0.0189059
0.897154 0.498405 0.0167086
0.928985 0.496284 0.0147555
0.961135 0.493843 0.0125124
0.993149 0.491264 0.0101167
1 0.488762 0.00782788
1 0.486152 0.00546273
0.0476692 0.557809 0.0476692
0.0746471 0.559152 0.0482948
0.103441 0.559487 0.0480201
0.132937 0.559487 0.0475013
0.16318 0.559548 0.0470741
0.193515 0.559152 0.0462654
0.224216 0.558648 0.0454108
0.255436 0.558297 0.0447395
0.286534 0.557504 0.0436866
0.317754 0.556527 0.0425116
0.349355 0.555673 0.0414893
0.380819 0.554452 0.0401617
0.412421 0.553185 0.0388037
0.444251 0.55198 0.0375525
0.476081 0.550591 0.0361486
0.50779 0.548959 0.0345312
0.539666 0.547356 0.0329595
0.571542 0.545632 0.031281
0.603403 0.543786 0.0294957
0.635279 0.541863 0.0276493
0.667353 0.540063 0.0259556
0.699168 0.537911 0.0239109
0.730983 0.535683 0.0218051
0.763043 0.533639 0.019913
0.794903 0.531334 0.0177615
0.826749 0.528969 0.0155795
0.858763 0.526726 0.01355
0.890517 0.524178 0.0112154
0.921904 0.521675 0.00894179
0.953918 0.519219 0.00674449
0.985779 0.516564 0.00436408
1 0.513848 0.00192264
1 0.511208 0
0.0450294 0.589166 0.0450294
0.0716564 0.589822 0.0452125
0.100679 0.590127 0.0450904
0.13019 0.589929 0.0445258
0.160174 0.589517 0.0438087
0.190738 0.589166 0.0431983
0.221271 0.588327 0.0421607
0.251987 0.587335 0.0410315
0.283192 0.586526 0.0401007
0.314321 0.585367 0.0388647
0.345571 0.584085 0.0375525
0.377111 0.58291 0.0363622
0.408438 0.581323 0.0348058
0.439826 0.579644 0.0331579
0.47155 0.578134 0.0317082
0.50312 0.576364 0.0300145
0.534707 0.574487 0.0282139
0.566506 0.572702 0.0265507
0.598077 0.570581 0.0245518
0.629648 0.568383 0.0224918
0.661295 0.566155 0.0204318
0.693172 0.564111 0.0185855
0.724819 0.561761 0.016434
0.756436 0.559319 0.0142061
0.788235 0.557015 0.0121309
0.819806 0.554437 0.00981155
0.851408 0.551843 0.00749218
0.883207 0.549432 0.00538643
0.914412 0.546838 0.00309758
0.946014 0.544045 0.000640879
0.977752 0.541405 0
1 0.538537 0
1 0.535653 0
0.0419776 0.619638 0.0419776
0.0686198 0.620081 0.0421149
0.0974594 0.619989 0.0417792
0.126925 0.619547 0.0411383
0.156725 0.618784 0.0402228
0.186923 0.617899 0.0392462
0.217655 0.617166 0.0384375
0.24831 0.615991 0.0372473
0.279057 0.614649 0.0359045
0.310155 0.613413 0.034699
0.341131 0.611826 0.0331579
0.372244 0.610178 0.0315862
0.403693 0.608713 0.0301976
0.434928 0.606867 0.0284581
0.466194 0.604898 0.0266117
0.497688 0.603052 0.0249027
0.529015 0.600916 0.0229191
0.560403 0.598749 0.0209354
0.591882 0.596551 0.0189517
0.623484 0.594415 0.0170291
0.654871 0.591989 0.0148318
0.68629 0.589517 0.0126192
0.717891 0.587167 0.0105592
0.749325 0.584604 0.00828565
0.780774 0.581994 0.0059968
0.81236 0.579522 0.00387579
0.843717 0.576761 0.00148013
0.875044 0.573968 0
0.906218 0.571435 0
0.937652 0.568582 0
0.969039 0.565667 0
1 0.562905 0
1 0.559899 0
0.038407 0.649165 0.038407
0.0649424 0.649302 0.038407
0.0935836 0.648829 0.0378424
0.122927 0.648112 0.0370794
0.15288 0.647379 0.036347
0.182864 0.646204 0.035172
0.213107 0.644892 0.0338903
0.243732 0.643656 0.0327153
0.274357 0.64213 0.031281
0.305104 0.640513 0.0297398
0.336156 0.638972 0.028336
0.36701 0.637064 0.026566
0.39794 0.635065 0.0247044
0.429191 0.633234 0.0230564
0.460304 0.631113 0.0211337
0.491447 0.628931 0.0191653
0.52282 0.626856 0.0173342
0.553979 0.62446 0.015198
0.585153 0.622003 0.0130159
0.616449 0.619593 0.0109102
0.647837 0.617197 0.00885023
0.679088 0.614618 0.00660716
0.710353 0.611994 0.00434882
0.741711 0.609415 0.00216678
0.7729 0.606622 0
0.804105 0.60383 0
0.835508 0.601221 0
0.866667 0.598352 0
0.897429 0.595514 0
0.928786 0.592691 0
0.959945 0.58967 0
0.991073 0.586633 0
1 0.583581 0
0.0342718 0.677714 0.0342718
0.0609293 0.677836 0.0343938
0.0893416 0.677028 0.0336156
0.118425 0.675959 0.0325933
0.148074 0.674846 0.0315557
0.178088 0.673655 0.0304417
0.208179 0.67216 0.0290532
0.238529 0.670604 0.0276188
0.269017 0.66891 0.0260929
0.299504 0.667002 0.0243534
0.330144 0.665049 0.0225986
0.36112 0.663249 0.0210117
0.391928 0.661112 0.0191043
0.422766 0.658869 0.0171206
0.453849 0.656733 0.0152743
0.484764 0.654322 0.0131685
0.515755 0.651896 0.0110628
0.546914 0.649531 0.0090486
0.578042 0.647059 0.00695811
0.609064 0.644404 0.00469978
0.640162 0.641779 0.00248722
0.671321 0.639155 0.00030518
0.702388 0.636393 0
0.73344 0.633585 0
0.764675 0.630915 0
0.795651 0.627985 0
0.826612 0.625025 0
0.857755 0.622232 0
0.88835 0.619348 0
0.919356 0.616297 0
0.950484 0.613397 0
0.981384 0.610254 0
1 0.607111 0
0.0296635 0.705486 0.0296635
0.0559243 0.70515 0.0294041
0.0844282 0.704356 0.0287175
0.113466 0.703197 0.0276799
0.142809 0.701732 0.0263523
0.172595 0.700252 0.0250401
0.202533 0.698573 0.0235447
0.232639 0.696742 0.0219272
0.262913 0.69482 0.0202335
0.293492 0.692988 0.018677
0.323934 0.690806 0.0167697
0.354437 0.688533 0.014786
0.385275 0.686427 0.0130312
0.415991 0.684047 0.0110018
0.446738 0.681605 0.00892653
0.477729 0.679286 0.00701915
0.508522 0.676677 0.00482185
0.53933 0.674006 0.00259403
0.570321 0.671427 0.000503548
0.601282 0.668772 0
0.632181 0.66598 0
0.663142 0.663218 0
0.694087 0.66041 0
0.724941 0.657481 0
0.755779 0.654521 0
0.786816 0.651728 0
0.817624 0.648707 0
0.848371 0.64564 0
0.87892 0.642832 0
0.909712 0.639673 0
0.940475 0.63653 0
0.971191 0.633371 0
1 0.630381 0
0.0246281 0.732647 0.0246281
0.0506752 0.732021 0.024155
0.0787671 0.73077 0.0230869
0.107774 0.729534 0.0220645
0.137026 0.727932 0.0206912
0.166567 0.726162 0.0191806
0.196506 0.724437 0.0177462
0.226413 0.722393 0.0159915
0.256474 0.720226 0.0141451
0.286687 0.717998 0.0122835
0.317235 0.715923 0.0105898
0.347662 0.713558 0.00862135
0.378119 0.71107 0.00656138
0.408835 0.708721 0.00466926
0.439384 0.706096 0.00251774
0.470024 0.703456 0.000366217
0.500877 0.700923 0
0.531594 0.698192 0
0.56228 0.695369 0
0.593088 0.692607 0
0.623865 0.689754 0
0.654582 0.686824 0
0.685313 0.683864 0
0.716182 0.681041 0
0.746838 0.677974 0
0.777462 0.674891 0
0.808255 0.671977 0
0.838849 0.668864 0
0.869062 0.665812 0
0.899825 0.662806 0
0.930358 0.659586 0
0.960845 0.656352 0
0.991287 0.653117 0
0.0187076 0.758694 0.0187076
0.0449073 0.75816 0.0184329
0.0729229 0.756771 0.0173037
0.101549 0.755108 0.0159457
0.130816 0.75346 0.0146334
0.160159 0.751476 0.0129854
0.189792 0.749401 0.0112917
0.219608 0.74725 0.00953689
0.249775 0.745159 0.00790417
0.27982 0.742763 0.00595102
0.309957 0.740276 0.00393683
0.340414 0.737926 0.002121
0.370764 0.735348 7.62951e-05
0.40119 0.732708 0
0.43183 0.73019 0
0.462287 0.727398 0
0.492775 0.724544 0
0.523461 0.721828 0
0.55407 0.718959 0
0.584634 0.716014 0
0.61529 0.713115 0
0.645899 0.710155 0
0.676432 0.707073 0
0.70695 0.70399 0
0.737652 0.701076 0
0.768124 0.697932 0
0.79855 0.694759 0
0.829099 0.691752 0
0.859113 0.68864 0
0.889525 0.685405 0
0.91989 0.68217 0
0.950347 0.679088 0
0.980575 0.675822 0
0.0126955 0.784375 0.0126955
0.0384833 0.783368 0.0120241
0.0665751 0.781994 0.0110475
0.0951247 0.780194 0.0096437
0.124086 0.778225 0.0081178
0.153552 0.776303 0.00666819
0.183001 0.774044 0.00488289
0.21265 0.771664 0.00302129
0.242496 0.769268 0.00114443
0.272648 0.766949 0
0.302708 0.764385 0
0.33283 0.761715 0
0.36321 0.759167 0
0.393454 0.756374 0
0.423758 0.753552 0
0.454322 0.750866 0
0.484703 0.747967 0
0.515084 0.744976 0
0.545602 0.742077 0
0.576043 0.739086 0
0.60647 0.736019 0
0.636881 0.732937 0
0.667445 0.729976 0
0.69778 0.726818 0
0.728099 0.723629 0
0.758572 0.720607 0
0.78883 0.717403 0
0.819059 0.714183 0
0.849058 0.711208 0
0.879271 0.707927 0
0.909407 0.704631 0
0.939513 0.70135 0
0.969696 0.698253 0
0.00634775 0.8094 0.00634775
0.0320897 0.80827 0.00569161
0.0598306 0.806516 0.00440986
0.088426 0.804715 0.0031281
0.11725 0.802563 0.0015259
0.14641 0.800305 0
0.17586 0.798001 0
0.20557 0.795682 0
0.235264 0.793103 0
0.26508 0.790463 0
0.295186 0.787915 0
0.325216 0.785168 0
0.355306 0.782361 0
0.385641 0.77966 0
0.415808 0.776715 0
0.446006 0.773724 0
0.476402 0.770871 0
0.506706 0.767865 0
0.53698 0.764782 0
0.567346 0.761776 0
0.597665 0.758694 0
0.627894 0.755505 0
0.658122 0.752331 0
0.688518 0.74931 0
0.718685 0.746075 0
0.748806 0.74284 0
0.779049 0.739742 0
0.809079 0.736477 0
0.838727 0.733303 0
0.868772 0.730007 0
0.898894 0.726879 0
0.928786 0.723583 0
0.958618 0.720272 0
0 0.8336 0
0.0253758 0.832502 0
0.0530709 0.830625 0
0.0814069 0.828534 0
0.110369 0.826444 0
0.139376 0.824018 0
0.168627 0.8215 0
0.198138 0.818967 0
0.227909 0.816449 0
