SKINTONE_02.cube
TITLE "Generated by Resolve"
LUT_3D_SIZE 5
0.0112306 0.0112306 0.0112306
0.195071 0.0233921 0.0233921
0.416876 0.0338598 0.0338598
0.674281 0.0386511 0.0386511
0.966171 0.0357519 0.0357519
0.0563058 0.250828 0.0563058
0.278676 0.268132 0.0590982
0.53608 0.274418 0.0543679
0.808911 0.273213 0.0464942
1 0.266239 0.0361639
0.0503395 0.52604 0.0503395
0.288975 0.527489 0.0466316
0.543862 0.51957 0.0371252
0.80087 0.505089 0.0230106
1 0.486152 0.00546273
0.0187076 0.758694 0.0187076
0.249775 0.745159 0.00790417
0.492775 0.724544 0
0.737652 0.701076 0
0.980575 0.675822 0
0 0.947784 0
0.192004 0.926375 0
0.428031 0.900755 0
0.663691 0.874601 0
0.895247 0.848875 0
0.0146181 0.0146181 0.172244
0.204547 0.0290379 0.196475
0.431662 0.0386053 0.218524
0.694423 0.0413062 0.23592
0.988144 0.0363317 0.245472
0.058732 0.258442 0.258854
0.283757 0.273014 0.273457
0.542138 0.277256 0.277714
0.813672 0.274556 0.275029
1 0.266163 0.266636
0.0500038 0.527977 0.279805
0.288685 0.527626 0.277516
0.54226 0.517968 0.267475
0.797711 0.502144 0.252018
1 0.482414 0.233204
0.0160678 0.755306 0.247425
0.246098 0.740612 0.234989
0.488319 0.719478 0.217319
0.732128 0.695689 0.198367
0.973816 0.670466 0.1794
0 0.941375 0.18967
0.189136 0.919829 0.178393
0.424506 0.894392 0.165316
0.659236 0.868727 0.153613
0.889784 0.843763 0.143313
0.0190585 0.0190585 0.353948
0.212894 0.0332799 0.390417
0.444907 0.0413672 0.426337
0.712306 0.0419318 0.458244
1 0.035523 0.480415
0.0589914 0.263645 0.486397
0.287175 0.276234 0.512474
0.545724 0.278187 0.523079
0.815656 0.27393 0.523476
1 0.264546 0.516106
0.0482795 0.527977 0.528954
0.286687 0.525872 0.526864
0.538766 0.514473 0.515465
0.793042 0.497765 0.498756
1 0.476951 0.477943
0.0117647 0.750072 0.493355
0.241032 0.734524 0.479149
0.482414 0.712886 0.459495
0.7252 0.688899 0.438193
0.965682 0.663844 0.416556
0 0.933516 0.42858
0.185153 0.91194 0.41442
0.420081 0.886961 0.39823
0.653452 0.861524 0.382345
0.883314 0.837613 0.36846
0.0230106 0.0230106 0.548028
0.220722 0.0366827 0.598825
0.457404 0.0429847 0.650339
0.728359 0.0413367 0.696773
1 0.033753 0.729244
0.0582742 0.267567 0.729763
0.288899 0.277806 0.764111
0.547784 0.278111 0.778912
0.816205 0.27248 0.780621
1 0.261906 0.772824
0.0456245 0.526543 0.785931
0.283574 0.522866 0.783078
0.53431 0.510033 0.770031
0.787106 0.492195 0.751446
1 0.470863 0.728771
0.00675975 0.743938 0.745464
0.235248 0.727596 0.729091
0.47599 0.705699 0.707195
0.717739 0.68159 0.683055
0.957015 0.656779 0.658244
0 0.925078 0.672343
0.180957 0.903593 0.654841
0.415198 0.879026 0.634867
0.647715 0.854307 0.615045
0.876661 0.831296 0.597086
0.026978 0.026978 0.754772
0.228534 0.0396582 0.821881
0.469169 0.043534 0.889326
0.742657 0.0399176 0.948928
1 0.0314336 0.988449
0.056733 0.270207 0.985367
0.289647 0.278416 1
0.548745 0.277348 1
0.815229 0.270069 1
1 0.258427 1
0.0425727 0.524315 1
0.279606 0.518898 1
0.529 0.504738 1
0.780575 0.486122 1
1 0.464195 0.982849
0.0011902 0.737072 1
0.229175 0.720211 0.982315
0.469184 0.69807 0.957641
0.709941 0.673961 0.930251
0.948089 0.649577 0.901854
0 0.916289 0.918273
0.176715 0.895003 0.896956
0.410254 0.870954 0.872877
0.641932 0.847044 0.84892
0.869993 0.824948 0.826795
