luts/Acid Flash.cube
TITLE "Generated by Resolve"
LUT_3D_SIZE 9
0 0 0
0 0.0376593 0.0376593
0 0.0753338 0.0753338
0 0.112993 0.112993
0 0.150668 0.150668
0 0.188327 0.188327
0 0.226001 0.225986
0 0.263661 0.263661
0 0.30132 0.30132
0.162936 0.0383154 0.162936
0.09131 0.09131 0.21593
0.0043183 0.128969 0.253605
0 0.166644 0.291264
0 0.204303 0.328939
0 0.241962 0.366598
0 0.279637 0.404273
0 0.317296 0.441932
0 0.354971 0.479606
0.325902 0.0766308 0.325902
0.254261 0.129625 0.378897
0.18262 0.18262 0.431907
0.0956436 0.220279 0.469566
0.00865187 0.257954 0.507225
0 0.295613 0.5449
0 0.333288 0.582559
0 0.370947 0.620233
0 0.408621 0.657893
0.488869 0.114946 0.488869
0.417227 0.167926 0.541863
0.345586 0.220935 0.594858
0.27393 0.27393 0.647868
0.186954 0.311604 0.685527
0.0999771 0.349264 0.723201
0.0129854 0.386938 0.760861
0 0.424598 0.798535
0 0.462272 0.836194
0.651835 0.153246 0.651835
0.580194 0.206241 0.704829
0.508537 0.259251 0.757824
0.436896 0.312245 0.810819
0.365255 0.365255 0.863828
0.278264 0.402914 0.901488
0.191287 0.440589 0.939162
0.104311 0.478248 0.976822
0.017319 0.515908 1
0.814801 0.191562 0.814801
0.74316 0.244556 0.867781
0.671504 0.297566 0.92079
0.599863 0.350561 0.973785
0.528206 0.403571 1
0.456565 0.456565 1
0.369589 0.494224 1
0.282597 0.531899 1
0.195621 0.569558 1
0.977752 0.229877 0.977752
0.906111 0.282872 1
0.83447 0.335882 1
0.762829 0.388876 1
0.691173 0.441871 1
0.619532 0.494881 1
0.547875 0.547875 1
0.460899 0.58555 1
0.373922 0.623209 1
1 0.268193 1
1 0.321187 1
0.997436 0.374197 1
0.92578 0.427192 1
0.854139 0.480186 1
0.782483 0.533196 1
0.710842 0.586191 1
0.6392 0.6392 1
0.552209 0.67686 1
1 0.306508 1
1 0.359503 1
1 0.412512 1
1 0.465507 1
1 0.518502 1
0.945449 0.571511 1
0.873808 0.624506 1
0.802152 0.677516 1
0.73051 0.73051 1
0.00267033 0.00267033 0
0 0.0556649 0
0 0.0933242 0
0 0.130999 0.00636301
0 0.168658 0.0440223
0 0.206317 0.0816968
0 0.243992 0.119356
0 0.281651 0.157031
0 0.319326 0.19469
0.180941 0.0563058 0.0563058
0.124987 0.124987 0.124987
0.0380102 0.162646 0.162646
0 0.20032 0.20032
0 0.23798 0.23798
0 0.275654 0.275654
0 0.313313 0.313313
0 0.350988 0.350988
0 0.388647 0.388647
0.343908 0.0946212 0.219272
0.287953 0.163302 0.287953
0.216297 0.216297 0.340948
0.12932 0.253971 0.378622
0.0423438 0.29163 0.416281
0 0.329305 0.453956
0 0.366964 0.491615
0 0.404639 0.529274
0 0.442298 0.566949
0.506859 0.132937 0.382239
0.450919 0.201617 0.450919
0.379263 0.254612 0.503914
0.307622 0.307622 0.556909
0.22063 0.345281 0.594583
0.133654 0.382956 0.632242
0.0466773 0.420615 0.669917
0 0.458289 0.707576
0 0.495949 0.745251
0.669825 0.171252 0.54519
0.61387 0.239933 0.61387
0.542229 0.292927 0.66688
0.470573 0.345937 0.719875
0.398932 0.398932 0.772869
0.311955 0.436591 0.810544
0.224964 0.474266 0.848203
0.137987 0.511925 0.885878
0.0510109 0.549599 0.923537
0.832792 0.209567 0.708156
0.776837 0.278248 0.776837
0.705196 0.331243 0.829831
0.633539 0.384253 0.882841
0.561898 0.437247 0.935836
0.490242 0.490242 0.988846
0.403265 0.527916 1
0.316289 0.565576 1
0.229297 0.60325 1
0.995758 0.247883 0.871122
0.939803 0.316564 0.939803
0.868147 0.369558 0.992798
0.796506 0.422553 1
0.724865 0.475563 1
0.653208 0.528557 1
0.581567 0.581567 1
0.494575 0.619226 1
0.407599 0.656901 1
1 0.286198 1
1 0.354879 1
1 0.407874 1
0.959472 0.460868 1
0.887816 0.513878 1
0.816175 0.566873 1
0.744518 0.619883 1
0.672877 0.672877 1
0.585901 0.710536 1
1 0.324514 1
1 0.393194 1
1 0.446189 1
1 0.499184 1
1 0.552193 1
0.979141 0.605188 1
0.907485 0.658198 1
0.835843 0.711192 1
0.764187 0.764187 1
0.0053254 0.0053254 0
0 0.05832 0
0 0.11133 0
0 0.148989 0
0 0.186664 0
0 0.224323 0
0 0.261997 0.0127108
0 0.299657 0.05037
0 0.337316 0.0880446
0.183612 0.0589761 0
0.127657 0.127657 0.00300603
0.0560006 0.180652 0.0560006
0 0.218326 0.0936751
0 0.255985 0.131334
0 0.293645 0.169009
0 0.331319 0.206668
0 0.368978 0.244343
0 0.406653 0.282002
0.361898 0.112627 0.112627
0.305943 0.181308 0.181308
0.249989 0.249989 0.249989
0.163012 0.287648 0.287648
0.0760204 0.325322 0.325322
0 0.362982 0.362982
0 0.400656 0.400656
0 0.438315 0.438315
0 0.47599 0.47599
0.524865 0.150942 0.275578
0.46891 0.219608 0.344259
0.412955 0.288304 0.412955
0.341299 0.341299 0.46595
0.254322 0.378973 0.503624
0.167346 0.416632 0.541283
0.080354 0.454307 0.578958
0 0.491966 0.616617
0 0.529641 0.654276
0.687831 0.189242 0.438544
0.631876 0.257923 0.507225
0.575921 0.326619 0.575921
0.504265 0.379614 0.628916
0.432624 0.432624 0.68191
0.345632 0.470283 0.719585
0.258656 0.507958 0.757244
0.171679 0.545617 0.794919
0.0846876 0.583291 0.832578
0.850797 0.227558 0.601511
0.794842 0.296239 0.670192
0.738872 0.364935 0.738872
0.667231 0.417929 0.791882
0.595575 0.470939 0.844877
0.523934 0.523934 0.897871
0.436957 0.561593 0.935546
0.349966 0.599268 0.973205
0.262989 0.636927 1
1 0.265873 0.764477
0.957794 0.334554 0.833158
0.901839 0.40325 0.901839
0.830198 0.456245 0.954833
0.758541 0.509255 1
0.6869 0.562249 1
0.615244 0.615244 1
0.528267 0.652918 1
0.441291 0.690578 1
1 0.304189 0.927428
1 0.372869 0.996109
1 0.441566 1
0.993149 0.49456 1
0.921508 0.547555 1
0.849867 0.600565 1
0.77821 0.653559 1
0.706569 0.706569 1
0.619577 0.744228 1
1 0.342504 1
1 0.411185 1
1 0.479881 1
1 0.532876 1
1 0.58587 1
1 0.63888 1
0.941176 0.691875 1
0.86952 0.744884 1
0.797879 0.797879 1
0.00799573 0.00799573 0
0 0.0609903 0
0 0.113985 0
0 0.166995 0
0 0.204654 0
0 0.242329 0
0 0.279988 0
0 0.317662 0
0 0.355322 0
0.186267 0.0616312 0
0.130312 0.130312 0
0.0586709 0.183322 0
0 0.236316 0
0 0.273991 0.0246891
0 0.31165 0.0623484
0 0.34931 0.100023
0 0.386984 0.137682
0 0.424643 0.175357
0.364569 0.115282 0
0.308614 0.183963 0.0593118
0.252659 0.252659 0.128008
0.181003 0.305653 0.181003
0.0940261 0.343328 0.218677
0.00704967 0.380987 0.256336
0 0.418647 0.294011
0 0.456321 0.33167
0 0.49398 0.369345
0.54287 0.168933 0.168933
0.486915 0.237613 0.237613
0.430945 0.30631 0.30631
0.37499 0.37499 0.37499
0.288014 0.41265 0.41265
0.201022 0.450324 0.450324
0.114046 0.487984 0.487984
0.0270695 0.525658 0.525658
0 0.563317 0.563317
0.705821 0.207248 0.331899
0.649866 0.275929 0.40058
0.593912 0.34461 0.469261
0.537957 0.413306 0.537957
0.4663 0.4663 0.590951
0.379324 0.503975 0.628626
0.292348 0.541634 0.666285
0.205356 0.579309 0.70396
0.118379 0.616968 0.741619
0.868788 0.245563 0.494865
0.812833 0.314244 0.563546
0.756878 0.382925 0.632227
0.700923 0.451621 0.700923
0.629267 0.504616 0.753918
0.557626 0.557626 0.806912
0.470634 0.595285 0.844587
0.383658 0.632959 0.882246
0.296681 0.670619 0.919921
1 0.283879 0.657816
0.975799 0.35256 0.726497
0.919844 0.421241 0.795193
0.863874 0.489937 0.863874
0.792233 0.542931 0.916884
0.720577 0.595941 0.969879
0.648936 0.648936 1
0.561959 0.686595 1
0.474968 0.724269 1
1 0.322194 0.820783
1 0.390875 0.889464
1 0.459556 0.95816
1 0.528252 1
0.9552 0.581247 1
0.883543 0.634256 1
0.811902 0.687251 1
0.740246 0.740246 1
0.653269 0.77792 1
1 0.36051 0.983749
1 0.429191 1
1 0.497871 1
1 0.566567 1
1 0.619562 1
1 0.672557 1
0.974868 0.725567 1
0.903212 0.778561 1
0.831571 0.831571 1
0.0106661 0.0106661 0
0 0.0636606 0
0 0.116655 0
0 0.16965 0
0 0.22266 0
0 0.260319 0
0 0.297993 0
0 0.335653 0
0 0.373327 0
0.188937 0.0643015 0
0.132982 0.132982 0
0.0613413 0.185977 0
0 0.238987 0
0 0.291981 0
0 0.329656 0
0 0.367315 0
0 0.40499 0.0310369
0 0.442649 0.0687114
0.367239 0.117952 0
0.311284 0.186633 0
0.255314 0.255314 0.00602731
0.183673 0.308324 0.0590219
0.112016 0.361318 0.112016
0.0250401 0.398993 0.149691
0 0.436652 0.18735
0 0.474311 0.225025
0 0.511986 0.262684
0.545525 0.171603 0.046952
0.48957 0.240284 0.115633
0.433616 0.308965 0.184314
0.377661 0.377661 0.25301
0.306004 0.430655 0.306004
0.219028 0.46833 0.343679
0.132052 0.505989 0.381338
0.0450599 0.543648 0.419013
0 0.581323 0.456672
0.723827 0.225254 0.225254
0.667872 0.293935 0.293935
0.611917 0.362615 0.362615
0.555947 0.431312 0.431312
0.499992 0.499992 0.499992
0.413016 0.537652 0.537652
0.326024 0.575326 0.575326
0.239048 0.612985 0.612985
0.152071 0.65066 0.65066
0.886793 0.263569 0.388205
0.830839 0.33225 0.456886
0.774868 0.400931 0.525582
0.718914 0.469612 0.594263
0.662959 0.538308 0.662959
0.591302 0.591302 0.715953
0.504326 0.628977 0.753628
0.41735 0.666636 0.791287
0.330358 0.704311 0.828962
1 0.301885 0.551171
0.993805 0.37055 0.619852
0.937835 0.439246 0.688548
0.88188 0.507927 0.757229
0.825925 0.576623 0.825925
0.754269 0.629618 0.87892
0.682628 0.682628 0.931914
0.595636 0.720287 0.969589
0.508659 0.757961 1
1 0.340185 0.714137
1 0.408865 0.782818
1 0.477562 0.851499
1 0.546242 0.920195
0.988876 0.614939 0.988876
0.917235 0.667933 1
0.845579 0.720943 1
0.773938 0.773938 1
0.686961 0.811597 1
1 0.3785 0.877104
1 0.447181 0.945785
1 0.515877 1
1 0.584558 1
1 0.653254 1
1 0.706249 1
1 0.759258 1
0.936904 0.812253 1
0.865248 0.865248 1
0.0133211 0.0133211 0
0 0.0663157 0
0 0.119326 0
0 0.17232 0
0 0.225315 0
0 0.278325 0
0 0.315984 0
0 0.353658 0
0 0.391318 0
0.191608 0.0669718 0
0.135653 0.135653 0
0.0639963 0.188647 0
0 0.241642 0
0 0.294652 0
0 0.347646 0
0 0.385321 0
0 0.42298 0
0 0.460655 0
0.369894 0.120623 0
0.313939 0.189303 0
0.257984 0.257984 0
0.186343 0.310979 0
0.114687 0.363989 0
0.0430457 0.416983 0.0430457
0 0.454658 0.080705
0 0.492317 0.118379
0 0.529992 0.156039
0.548196 0.174258 0
0.492241 0.242939 0
0.436286 0.311635 0.0623331
0.380316 0.380316 0.131029
0.308675 0.433326 0.184024
0.237018 0.48632 0.237018
0.150042 0.523995 0.274693
0.0630655 0.561654 0.312352
0 0.599313 0.350027
0.726497 0.227909 0.103258
0.670542 0.29659 0.171939
0.614572 0.365286 0.240635
0.558618 0.433967 0.309316
0.502663 0.502663 0.378012
0.431006 0.555657 0.431006
0.34403 0.593332 0.468681
0.257053 0.630991 0.50634
0.170062 0.66865 0.544015
0.904784 0.281559 0.281559
0.848829 0.35024 0.35024
0.792874 0.418936 0.418936
0.736919 0.487617 0.487617
0.680949 0.556313 0.556313
0.624994 0.624994 0.624994
0.538018 0.662654 0.662654
0.451026 0.700328 0.700328
0.36405 0.737987 0.737987
1 0.319875 0.444526
1 0.388556 0.513207
0.95584 0.457252 0.581888
0.89987 0.525933 0.650584
0.843915 0.594614 0.719265
0.787961 0.66331 0.787961
0.716304 0.716304 0.840955
0.629328 0.753979 0.87863
0.542351 0.791638 0.916289
1 0.35819 0.607492
1 0.426871 0.676173
1 0.495552 0.744854
1 0.564248 0.81355
1 0.632929 0.882231
0.950927 0.701625 0.950927
0.879271 0.75462 1
0.80763 0.80763 1
0.720638 0.845289 1
1 0.396506 0.770443
1 0.465187 0.839124
1 0.533867 0.90782
1 0.602564 0.976501
1 0.671244 1
1 0.73994 1
1 0.792935 1
0.970581 0.845945 1
0.898939 0.898939 1
0.0159915 0.0159915 0
0 0.068986 0
0 0.121981 0
0 0.17499 0
0 0.227985 0
0 0.28098 0
0 0.333989 0
0 0.371649 0
0 0.409323 0
0.194263 0.0696269 0
0.138308 0.138308 0
0.0666667 0.191318 0
0 0.244312 0
0 0.297307 0
0 0.350317 0
0 0.403311 0
0 0.440986 0
0 0.478645 0
0.372564 0.123278 0
0.316609 0.191959 0
0.260655 0.260655 0
0.188998 0.313649 0
0.117357 0.366644 0
0.0457008 0.419654 0
0 0.472648 0
0 0.510323 0.0117189
0 0.547982 0.0493935
0.550866 0.176928 0
0.494911 0.245609 0
0.438941 0.314305 0
0.382986 0.382986 0.0090486
0.311345 0.435981 0.0620432
0.239689 0.488991 0.115038
0.168048 0.541985 0.168048
0.0810559 0.57966 0.205707
0 0.617319 0.243381
0.729152 0.230579 0
0.673198 0.29926 0.049958
0.617243 0.367941 0.118654
0.561288 0.436637 0.187335
0.505318 0.505318 0.256031
0.433677 0.558328 0.309026
0.36202 0.611322 0.36202
0.275044 0.648997 0.399695
0.188067 0.686656 0.437354
0.907454 0.28423 0.159579
0.851499 0.352911 0.22826
0.795544 0.421592 0.296941
0.739574 0.490288 0.365637
0.683619 0.558968 0.434318
0.627665 0.627665 0.503014
0.556008 0.680659 0.556008
0.469032 0.718334 0.593683
0.382055 0.755993 0.631342
1 0.337881 0.337881
1 0.406561 0.406561
0.973831 0.475242 0.475242
0.917876 0.543938 0.543938
0.861921 0.612619 0.612619
0.805951 0.681315 0.681315
0.749996 0.749996 0.749996
0.66302 0.787655 0.787655
0.576028 0.82533 0.82533
1 0.376196 0.500832
1 0.444877 0.569512
1 0.513558 0.638209
1 0.582254 0.706889
1 0.650935 0.775586
0.968917 0.719615 0.844266
0.912963 0.788312 0.912963
0.841306 0.841306 0.965957
0.75433 0.878981 1
1 0.414511 0.663798
1 0.483192 0.732479
1 0.551873 0.801175
1 0.620554 0.869856
1 0.68925 0.938552
1 0.757931 1
1 0.826627 1
1 0.879622 1
0.932631 0.932631 1
0.0186618 0.0186618 0
0 0.0716564 0
0 0.124651 0
0 0.177646 0
0 0.230655 0
0 0.28365 0
0 0.336645 0
0 0.389654 0
0 0.427314 0
0.196933 0.0722972 0
0.140978 0.140978 0
0.069337 0.193973 0
0 0.246983 0
0 0.299977 0
0 0.352987 0
0 0.405982 0
0 0.458976 0
0 0.496651 0
0.375235 0.125948 0
0.31928 0.194629 0
0.26331 0.26331 0
0.191669 0.31632 0
0.120012 0.369314 0
0.0483711 0.422309 0
0 0.475319 0
0 0.528313 0
0 0.565988 0
0.553521 0.179599 0
0.497566 0.24828 0
0.441611 0.31696 0
0.385657 0.385657 0
0.314 0.438651 0
0.242359 0.491646 0
0.170703 0.544656 0.046067
0.0990616 0.59765 0.0990616
0.0120851 0.635325 0.136721
0.731823 0.233249 0
0.675868 0.30193 0
0.619913 0.370611 0
0.563943 0.439307 0.0653544
0.507988 0.507988 0.134051
0.436347 0.560983 0.187045
0.364691 0.613993 0.24004
0.29305 0.666987 0.29305
0.206058 0.704662 0.330709
0.910124 0.286885 0.0375982
0.85417 0.355566 0.106279
0.798199 0.424262 0.17496
0.742245 0.492943 0.243656
0.68629 0.561639 0.312337
0.63032 0.63032 0.381033
0.558679 0.68333 0.434028
0.487022 0.736324 0.487022
0.400046 0.773999 0.524697
1 0.340536 0.2159
1 0.409216 0.284566
0.976501 0.477913 0.353262
0.920546 0.546593 0.421942
0.864576 0.61529 0.490639
0.808621 0.68397 0.559319
0.752667 0.752667 0.628016
0.68101 0.805661 0.68101
0.594034 0.843336 0.718685
1 0.394186 0.394186
1 0.462867 0.462867
1 0.531563 0.531563
1 0.600244 0.600244
1 0.66894 0.66894
0.986923 0.737621 0.737621
0.930953 0.806317 0.806317
0.874998 0.874998 0.874998
0.788022 0.912657 0.912657
1 0.432502 0.557153
1 0.501183 0.625834
1 0.569879 0.694514
1 0.63856 0.76321
1 0.707256 0.831891
1 0.775937 0.900587
1 0.844617 0.969268
1 0.913314 1
0.966308 0.966308 1
0.0213169 0.0213169 0
0 0.0743114 0
0 0.127321 0
0 0.180316 0
0 0.23331 0
0 0.28632 0
0 0.339315 0
0 0.392325 0
0 0.445319 0
0.199603 0.0749676 0
0.143648 0.143648 0
0.0719921 0.196643 0
0.000350958 0.249638 0
0 0.302647 0
0 0.355642 0
0 0.408652 0
0 0.461646 0
0 0.514641 0
0.37789 0.128618 0
0.321935 0.197299 0
0.26598 0.26598 0
0.194339 0.318975 0
0.122683 0.371984 0
0.0510414 0.424979 0
0 0.477989 0
0 0.530983 0
0 0.583978 0
0.556191 0.182254 0
0.500237 0.250935 0
0.444282 0.319631 0
0.388312 0.388312 0
0.31667 0.441321 0
0.245014 0.494316 0
0.173373 0.547311 0
0.101732 0.60032 0
0.0300755 0.653315 0.0300755
0.734493 0.235904 0
0.678538 0.304585 0
0.622568 0.373281 0
0.566613 0.441962 0
0.510658 0.510658 0.0120546
0.439002 0.563653 0.0650645
0.367361 0.616648 0.118059
0.295705 0.669657 0.171069
0.224063 0.722652 0.224063
0.912779 0.289555 0
0.856825 0.358236 0
0.80087 0.426932 0.0529793
0.744915 0.495613 0.121675
0.688945 0.564309 0.190356
0.63299 0.63299 0.259052
0.561349 0.685985 0.312047
0.489693 0.738994 0.365042
0.418051 0.791989 0.418051
1 0.343206 0.093904
1 0.411887 0.162585
0.979171 0.480568 0.231281
0.923201 0.549264 0.299962
0.867247 0.617945 0.368658
0.811292 0.686641 0.437339
0.755322 0.755322 0.506035
0.68368 0.808331 0.55903
0.612024 0.861326 0.612024
1 0.396857 0.272206
1 0.465537 0.340887
1 0.534218 0.409567
1 0.602914 0.478264
1 0.671595 0.546944
0.989578 0.740291 0.615641
0.933623 0.808972 0.684321
0.877668 0.877668 0.753017
0.806012 0.930663 0.806012
1 0.450507 0.450507
1 0.519188 0.519188
1 0.587869 0.587869
1 0.656565 0.656565
1 0.725246 0.725246
1 0.793942 0.793942
1 0.862623 0.862623
1 0.931319 0.931319
1 1 1
