luts/Acid Flash.cube
TITLE "Generated by Resolve"
LUT_3D_SIZE 33
0 0 0
0 0.00941482 0.00941482
0 0.0188296 0.0188296
0 0.0282444 0.0282444
0 0.0376593 0.0376593
0 0.0470741 0.0470741
0 0.0564889 0.0564889
0 0.065919 0.065919
0 0.0753338 0.0753338
0 0.0847486 0.0847486
0 0.0941634 0.0941634
0 0.103578 0.103578
0 0.112993 0.112993
0 0.122408 0.122408
0 0.131823 0.131823
0 0.141238 0.141238
0 0.150668 0.150668
0 0.160082 0.160082
0 0.169497 0.169497
0 0.178912 0.178912
0 0.188327 0.188327
0 0.197742 0.197742
0 0.207156 0.207156
0 0.216571 0.216571
0 0.226001 0.225986
0 0.235416 0.235416
0 0.244831 0.244831
0 0.254246 0.254246
0 0.263661 0.263661
0 0.273075 0.273075
0 0.28249 0.28249
0 0.291905 0.291905
0 0.30132 0.30132
0.0407263 0.00956741 0.0407263
0.0228122 0.0228122 0.0539712
0.00106813 0.0322271 0.063386
0 0.0416571 0.0728008
0 0.0510719 0.0822156
0 0.0604868 0.0916304
0 0.0699016 0.101045
0 0.0793164 0.11046
0 0.0887312 0.119875
0 0.098146 0.12929
0 0.107561 0.13872
0 0.116991 0.148135
0 0.126406 0.157549
0 0.135821 0.166964
0 0.145235 0.176379
0 0.15465 0.185794
0 0.164065 0.195209
0 0.17348 0.204623
0 0.182895 0.214054
0 0.192309 0.223468
0 0.20174 0.232883
0 0.211154 0.242298
0 0.220569 0.251713
0 0.229984 0.261128
0 0.239399 0.270542
0 0.248814 0.279957
0 0.258228 0.289372
0 0.267643 0.298802
0 0.277073 0.308217
0 0.286488 0.317632
0 0.295903 0.327047
0 0.305318 0.336461
0 0.314733 0.345876
0.0814679 0.0191501 0.0814679
0.0635538 0.0323949 0.0946975
0.0456397 0.0456397 0.107958
0.0238956 0.0550698 0.117372
0.00215152 0.0644846 0.126787
0 0.0738994 0.136202
0 0.0833143 0.145617
0 0.0927291 0.155032
0 0.102144 0.164462
0 0.111559 0.173877
0 0.120974 0.183291
0 0.130388 0.192706
0 0.139818 0.202121
0 0.149233 0.211536
0 0.158648 0.220951
0 0.168063 0.230365
0 0.177478 0.23978
0 0.186892 0.24921
0 0.196307 0.258625
0 0.205722 0.26804
0 0.215152 0.277455
0 0.224567 0.28687
0 0.233982 0.296284
0 0.243397 0.305699
0 0.252811 0.315114
0 0.262226 0.324544
0 0.271641 0.333959
0 0.281056 0.343374
0 0.290471 0.352789
0 0.299901 0.362203
0 0.309316 0.371618
0 0.31873 0.381033
0 0.328145 0.390448
0.12221 0.0287327 0.12221
0.104295 0.0419776 0.135439
0.0863813 0.0552224 0.148699
0.0684825 0.0684825 0.161944
0.0467231 0.0778973 0.171359
0.024979 0.0873121 0.180774
0.00323491 0.0967269 0.190188
0 0.106142 0.199619
0 0.115557 0.209033
0 0.124971 0.218448
0 0.134386 0.227863
0 0.143801 0.237278
0 0.153231 0.246693
0 0.162646 0.256107
0 0.172061 0.265522
0 0.181476 0.274952
0 0.19089 0.284367
0 0.200305 0.293782
0 0.20972 0.303197
0 0.219135 0.312612
0 0.228565 0.322026
0 0.23798 0.331441
0 0.247395 0.340856
0 0.256809 0.350271
0 0.266224 0.359701
0 0.275639 0.369116
0 0.285054 0.378531
0 0.294469 0.387945
0 0.303883 0.39736
0 0.313313 0.406775
0 0.322728 0.41619
0 0.332143 0.425605
0 0.341558 0.435035
0.162936 0.0383154 0.162936
0.145037 0.0515602 0.176181
0.127123 0.0648051 0.189441
0.109209 0.0780499 0.202686
0.09131 0.09131 0.21593
0.0695659 0.100725 0.22536
0.0478065 0.11014 0.234775
0.0260624 0.119554 0.24419
0.0043183 0.128969 0.253605
0 0.138384 0.26302
0 0.147799 0.272435
0 0.157214 0.281849
0 0.166644 0.291264
0 0.176059 0.300679
0 0.185473 0.310109
0 0.194888 0.319524
0 0.204303 0.328939
0 0.213718 0.338354
0 0.223133 0.347768
0 0.232547 0.357183
0 0.241962 0.366598
0 0.251392 0.376013
0 0.260807 0.385443
0 0.270222 0.394858
0 0.279637 0.404273
0 0.289052 0.413687
0 0.298466 0.423102
0 0.307881 0.432517
0 0.317296 0.441932
0 0.326726 0.451347
0 0.336141 0.460761
0 0.345556 0.470192
0 0.354971 0.479606
0.203677 0.0478828 0.203677
0.185779 0.0611276 0.216922
0.167865 0.0743877 0.230182
0.14995 0.0876326 0.243427
0.132052 0.100877 0.256672
0.114137 0.114137 0.269932
0.0923934 0.123552 0.279347
0.070634 0.132967 0.288762
0.0488899 0.142382 0.298177
0.0271458 0.151797 0.307591
0.00540169 0.161212 0.317006
0 0.170626 0.326421
0 0.180041 0.335851
0 0.189471 0.345266
0 0.198886 0.354681
0 0.208301 0.364096
0 0.217716 0.37351
0 0.227131 0.382925
0 0.236545 0.39234
0 0.24596 0.401755
0 0.255375 0.41117
0 0.264805 0.4206
0 0.27422 0.430014
0 0.283635 0.439429
0 0.29305 0.448844
0 0.302464 0.458259
0 0.311879 0.467674
0 0.321294 0.477089
0 0.330709 0.486503
0 0.340124 0.495933
0 0.349554 0.505348
0 0.358968 0.514763
0 0.368383 0.524178
0.244419 0.0574655 0.244419
0.22652 0.0707103 0.257664
0.208606 0.0839551 0.270924
0.190692 0.0972152 0.284169
0.172778 0.11046 0.297414
0.154879 0.123705 0.310674
0.136965 0.136965 0.323919
0.115221 0.14638 0.333333
0.0934768 0.155795 0.342748
0.0717174 0.165209 0.352163
0.0499733 0.174624 0.361578
0.0282292 0.184039 0.371008
0.00648508 0.193454 0.380423
0 0.202884 0.389838
0 0.212299 0.399252
0 0.221714 0.408667
0 0.231128 0.418082
0 0.240543 0.427497
0 0.249958 0.436912
0 0.259373 0.446342
0 0.268788 0.455756
0 0.278218 0.465171
0 0.287633 0.474586
0 0.297047 0.484001
0 0.306462 0.493416
0 0.315877 0.502831
0 0.325292 0.512245
0 0.334707 0.52166
0 0.344121 0.53109
0 0.353536 0.540505
0 0.362966 0.54992
0 0.372381 0.559335
0 0.381796 0.56875
0.285161 0.0670481 0.285161
0.267262 0.080293 0.298405
0.249348 0.0935378 0.311666
0.231434 0.106783 0.32491
0.213519 0.120043 0.338155
0.195621 0.133288 0.351415
0.177707 0.146532 0.36466
0.159792 0.159792 0.377905
0.138048 0.169207 0.38732
0.116304 0.178622 0.39675
0.0945602 0.188037 0.406165
0.0728008 0.197452 0.415579
0.0510567 0.206867 0.424994
0.0293126 0.216297 0.434409
0.00756847 0.225711 0.443824
0 0.235126 0.453239
0 0.244541 0.462654
0 0.253956 0.472068
0 0.263371 0.481498
0 0.272786 0.490913
0 0.2822 0.500328
0 0.291615 0.509743
0 0.301045 0.519158
0 0.31046 0.528572
0 0.319875 0.537987
0 0.32929 0.547402
0 0.338704 0.556817
0 0.348119 0.566247
0 0.357534 0.575662
0 0.366949 0.585077
0 0.376379 0.594491
0 0.385794 0.603906
0 0.395209 0.613321
0.325902 0.0766308 0.325902
0.308003 0.0898756 0.339147
0.290089 0.10312 0.352392
0.272175 0.116365 0.365652
0.254261 0.129625 0.378897
0.236362 0.14287 0.392157
0.218448 0.156115 0.405402
0.200534 0.169375 0.418647
0.18262 0.18262 0.431907
0.160876 0.192035 0.441321
0.139132 0.20145 0.450736
0.117388 0.210864 0.460151
0.0956436 0.220279 0.469566
0.0738842 0.229709 0.478981
0.0521401 0.239124 0.488396
0.030396 0.248539 0.49781
0.00865187 0.257954 0.507225
0 0.267369 0.516655
0 0.276783 0.52607
0 0.286198 0.535485
0 0.295613 0.5449
0 0.305028 0.554314
0 0.314458 0.563729
0 0.323873 0.573144
0 0.333288 0.582559
0 0.342702 0.591989
0 0.352117 0.601404
0 0.361532 0.610819
0 0.370947 0.620233
0 0.380362 0.629648
0 0.389776 0.639063
0 0.399207 0.648478
0 0.408621 0.657893
0.366644 0.0861982 0.366644
0.348745 0.099443 0.379889
0.330831 0.112703 0.393133
0.312917 0.125948 0.406394
0.295003 0.139193 0.419638
0.277089 0.152453 0.432883
0.25919 0.165698 0.446143
0.241276 0.178943 0.459388
0.223362 0.192203 0.472648
0.205447 0.205447 0.485893
0.183703 0.214862 0.495308
0.161959 0.224277 0.504723
0.140215 0.233692 0.514138
0.118471 0.243107 0.523552
0.0967269 0.252537 0.532967
0.0749676 0.261952 0.542397
0.0532235 0.271366 0.551812
0.0314794 0.280781 0.561227
0.00973526 0.290196 0.570642
0 0.299611 0.580056
0 0.309026 0.589471
0 0.318441 0.598886
0 0.327871 0.608301
0 0.337285 0.617716
0 0.3467 0.627146
0 0.356115 0.636561
0 0.36553 0.645975
0 0.374945 0.65539
0 0.38436 0.664805
0 0.393774 0.67422
0 0.403189 0.683635
0 0.412619 0.693049
0 0.422034 0.70248
0.407385 0.0957809 0.407385
0.389487 0.109026 0.42063
0.371572 0.122271 0.433875
0.353658 0.135531 0.447135
0.335744 0.148775 0.46038
0.31783 0.16202 0.473625
0.299931 0.17528 0.486885
0.282017 0.188525 0.50013
0.264103 0.20177 0.513375
0.246189 0.21503 0.526635
0.228275 0.228275 0.539879
0.206531 0.23769 0.549294
0.184787 0.247105 0.558709
0.163043 0.256519 0.568124
0.141299 0.265949 0.577554
0.119554 0.275364 0.586969
0.0978103 0.284779 0.596384
0.076051 0.294194 0.605798
0.0543069 0.303609 0.615213
0.0325628 0.313024 0.624628
0.0108186 0.322438 0.634043
0 0.331853 0.643458
0 0.341268 0.652888
0 0.350698 0.662303
0 0.360113 0.671717
0 0.369528 0.681132
0 0.378943 0.690547
0 0.388357 0.699962
0 0.397772 0.709377
0 0.407187 0.718791
0 0.416602 0.728206
0 0.426032 0.737636
0 0.435447 0.747051
0.448127 0.105364 0.448127
0.430228 0.118608 0.461372
0.412314 0.131853 0.474617
0.3944 0.145098 0.487877
0.376486 0.158358 0.501122
0.358572 0.171603 0.514366
0.340658 0.184848 0.527626
0.322759 0.198108 0.540871
0.304845 0.211353 0.554116
0.286931 0.224598 0.567376
0.269017 0.237858 0.580621
0.251102 0.251102 0.593866
0.229358 0.260517 0.603296
0.207614 0.269932 0.612711
0.18587 0.279362 0.622126
0.164126 0.288777 0.63154
0.142382 0.298192 0.640955
0.120638 0.307607 0.65037
0.0988937 0.317021 0.659785
0.0771344 0.326436 0.6692
0.0553902 0.335851 0.678614
0.0336461 0.345266 0.688045
0.011902 0.354681 0.697459
0 0.364111 0.706874
0 0.373526 0.716289
0 0.38294 0.725704
0 0.392355 0.735119
0 0.40177 0.744533
0 0.411185 0.753948
0 0.4206 0.763378
0 0.430014 0.772793
0 0.439429 0.782208
0 0.448859 0.791623
0.488869 0.114946 0.488869
0.47097 0.128176 0.502113
0.453056 0.141436 0.515358
0.435142 0.154681 0.528618
0.417227 0.167926 0.541863
0.399313 0.181186 0.555108
0.381399 0.19443 0.568368
0.3635 0.207691 0.581613
0.345586 0.220935 0.594858
0.327672 0.23418 0.608118
0.309758 0.24744 0.621363
0.291844 0.260685 0.634607
0.27393 0.27393 0.647868
0.252186 0.283345 0.657282
0.230442 0.29276 0.666697
0.208698 0.30219 0.676112
0.186954 0.311604 0.685527
0.165209 0.321019 0.694942
0.143465 0.330434 0.704356
0.121721 0.339849 0.713787
0.0999771 0.349264 0.723201
0.0782177 0.358679 0.732616
0.0564736 0.368093 0.742031
0.0347295 0.377523 0.751446
0.0129854 0.386938 0.760861
0 0.396353 0.770275
0 0.405768 0.77969
0 0.415183 0.789105
0 0.424598 0.798535
0 0.434012 0.80795
0 0.443427 0.817365
0 0.452842 0.82678
0 0.462272 0.836194
0.52961 0.124514 0.52961
0.511711 0.137758 0.542855
0.493797 0.151019 0.5561
0.475883 0.164263 0.56936
0.457969 0.177508 0.582605
0.440055 0.190768 0.59585
0.422141 0.204013 0.60911
0.404227 0.217258 0.622354
0.386328 0.230518 0.635599
0.368414 0.243763 0.648859
0.3505 0.257008 0.662104
0.332586 0.270268 0.675349
0.314672 0.283513 0.688609
0.296757 0.296757 0.701854
0.275013 0.306172 0.711269
0.253269 0.315602 0.720684
0.231525 0.325017 0.730098
0.209781 0.334432 0.739513
0.188037 0.343847 0.748943
0.166293 0.353262 0.758358
0.144549 0.362676 0.767773
0.122805 0.372091 0.777188
0.101061 0.381506 0.786603
0.0793011 0.390936 0.796017
0.057557 0.400351 0.805432
0.0358129 0.409766 0.814847
0.0140688 0.419181 0.824277
0 0.428595 0.833692
0 0.43801 0.843107
0 0.447425 0.852522
0 0.45684 0.861936
0 0.466255 0.871351
0 0.475685 0.880766
0.570352 0.134096 0.570352
0.552453 0.147341 0.583597
0.534539 0.160586 0.596841
0.516625 0.173846 0.610086
0.498711 0.187091 0.623346
0.480797 0.200336 0.636591
0.462882 0.213596 0.649851
0.444968 0.226841 0.663096
0.42707 0.240085 0.676341
0.409155 0.253346 0.689601
0.391241 0.26659 0.702846
0.373327 0.279835 0.716091
0.355413 0.293095 0.729351
0.337499 0.30634 0.742596
0.319585 0.319585 0.75584
0.297841 0.329015 0.765255
0.276097 0.33843 0.774685
0.254353 0.347845 0.7841
0.232609 0.357259 0.793515
0.210864 0.366674 0.80293
0.18912 0.376089 0.812345
0.167376 0.385504 0.821759
0.145632 0.394919 0.831174
0.123888 0.404334 0.840589
0.102144 0.413764 0.850004
0.0803845 0.423178 0.859434
0.0586404 0.432593 0.868849
0.0368963 0.442008 0.878264
0.0151522 0.451423 0.887678
0 0.460838 0.897093
0 0.470253 0.906508
0 0.479667 0.915923
0 0.489097 0.925338
0.611093 0.143679 0.611093
0.593194 0.156924 0.624338
0.57528 0.170169 0.637583
0.557366 0.183413 0.650828
0.539452 0.196674 0.664088
0.521538 0.209918 0.677333
0.503624 0.223163 0.690578
0.48571 0.236423 0.703838
0.467811 0.249668 0.717083
0.449897 0.262913 0.730327
0.431983 0.276173 0.743587
0.414069 0.289418 0.756832
0.396155 0.302663 0.770092
0.378241 0.315923 0.783337
0.360327 0.329168 0.796582
0.342412 0.342412 0.809842
0.320668 0.351843 0.819257
0.298924 0.361257 0.828672
0.27718 0.370672 0.838087
0.255436 0.380087 0.847501
0.233692 0.389502 0.856916
0.211948 0.398917 0.866331
0.190204 0.408331 0.875746
0.16846 0.417746 0.885176
0.146715 0.427176 0.894591
0.124971 0.436591 0.904005
0.103227 0.446006 0.91342
0.0814679 0.455421 0.922835
0.0597238 0.464836 0.93225
0.0379797 0.47425 0.941665
0.0162356 0.483665 0.95108
0 0.49308 0.960494
0 0.502495 0.969924
0.651835 0.153246 0.651835
0.633921 0.166491 0.66508
0.616022 0.179751 0.678325
0.598108 0.192996 0.691569
0.580194 0.206241 0.704829
0.56228 0.219501 0.718074
0.544366 0.232746 0.731319
0.526452 0.245991 0.744579
0.508537 0.259251 0.757824
0.490639 0.272496 0.771069
0.472724 0.285756 0.784329
0.45481 0.299001 0.797574
0.436896 0.312245 0.810819
0.418982 0.325505 0.824079
0.401068 0.33875 0.837324
0.383154 0.351995 0.850584
0.365255 0.365255 0.863828
0.343496 0.37467 0.873243
0.321752 0.384085 0.882658
0.300008 0.3935 0.892073
0.278264 0.402914 0.901488
0.256519 0.412329 0.910903
0.234775 0.421744 0.920333
0.213031 0.431159 0.929747
0.191287 0.440589 0.939162
0.169543 0.450004 0.948577
0.147799 0.459419 0.957992
0.126055 0.468833 0.967407
0.104311 0.478248 0.976822
0.0825513 0.487663 0.986236
0.0608072 0.497078 0.995651
0.0390631 0.506493 1
0.017319 0.515908 1
0.692576 0.162829 0.692576
0.674662 0.176074 0.705821
0.656764 0.189319 0.719066
0.638849 0.202579 0.732311
0.620935 0.215824 0.745571
0.603021 0.229084 0.758816
0.585107 0.242329 0.772061
0.567193 0.255573 0.785321
0.549279 0.268833 0.798566
0.53138 0.282078 0.81181
0.513466 0.295323 0.825071
0.495552 0.308583 0.838315
0.477638 0.321828 0.85156
0.459724 0.335073 0.86482
0.44181 0.348333 0.878065
0.423896 0.361578 0.89131
0.405997 0.374823 0.90457
0.388083 0.388083 0.917815
0.366339 0.397498 0.92723
0.344579 0.406912 0.936645
0.322835 0.416327 0.946059
0.301091 0.425742 0.955489
0.279347 0.435157 0.964904
0.257603 0.444572 0.974319
0.235859 0.453986 0.983734
0.214115 0.463416 0.993149
0.19237 0.472831 1
0.170626 0.482246 1
0.148882 0.491661 1
0.127138 0.501076 1
0.105394 0.510491 1
0.0836347 0.519905 1
0.0618906 0.52932 1
0.733318 0.172412 0.733318
0.715404 0.185657 0.746563
0.69749 0.198901 0.759808
0.679591 0.212161 0.773053
0.661677 0.225406 0.786313
0.643763 0.238651 0.799558
0.625849 0.251911 0.812802
0.607935 0.265156 0.826062
0.590021 0.278401 0.839307
0.572106 0.291661 0.852552
0.554208 0.304906 0.865812
0.536294 0.318151 0.879057
0.51838 0.331411 0.892302
0.500465 0.344656 0.905562
0.482551 0.3579 0.918807
0.464637 0.37116 0.932052
0.446723 0.384405 0.945312
0.428824 0.39765 0.958556
0.41091 0.41091 0.971801
0.389166 0.420325 0.981231
0.367422 0.42974 0.990646
0.345663 0.439155 1
0.323919 0.448569 1
0.302174 0.457984 1
0.28043 0.467399 1
0.258686 0.476829 1
0.236942 0.486244 1
0.215198 0.495659 1
0.193454 0.505074 1
0.17171 0.514488 1
0.149966 0.523903 1
0.128222 0.533318 1
0.106462 0.542733 1
0.77406 0.181994 0.77406
0.756146 0.195239 0.787305
0.738231 0.208484 0.800549
0.720333 0.221729 0.813794
0.702419 0.234989 0.827054
0.684504 0.248234 0.840299
0.66659 0.261479 0.853544
0.648676 0.274739 0.866804
0.630762 0.287984 0.880049
0.612848 0.301228 0.893294
0.594949 0.314488 0.906554
0.577035 0.327733 0.919799
0.559121 0.340978 0.933043
0.541207 0.354238 0.946303
0.523293 0.367483 0.959548
0.505379 0.380728 0.972793
0.487465 0.393988 0.986053
0.469566 0.407233 0.999298
0.451652 0.420478 1
0.433738 0.433738 1
0.411994 0.443153 1
0.390249 0.452567 1
0.368505 0.461982 1
0.346746 0.471397 1
0.325002 0.480812 1
0.303258 0.490242 1
0.281514 0.499657 1
0.25977 0.509071 1
0.238025 0.518486 1
0.216281 0.527901 1
0.194537 0.537316 1
0.172793 0.546731 1
0.151049 0.556146 1
0.814801 0.191562 0.814801
0.796887 0.204807 0.828031
0.778973 0.218067 0.841291
0.761074 0.231312 0.854536
0.74316 0.244556 0.867781
0.725246 0.257816 0.881041
0.707332 0.271061 0.894286
0.689418 0.284306 0.907546
0.671504 0.297566 0.92079
0.65359 0.310811 0.934035
0.635691 0.324056 0.947295
0.617777 0.337316 0.96054
0.599863 0.350561 0.973785
0.581949 0.363806 0.987045
0.564034 0.377066 1
0.54612 0.390311 1
0.528206 0.403571 1
0.510292 0.416815 1
0.492393 0.43006 1
0.474479 0.44332 1
0.456565 0.456565 1
0.434821 0.46598 1
0.413077 0.475395 1
0.391333 0.48481 1
0.369589 0.494224 1
0.347829 0.503639 1
0.326085 0.513069 1
0.304341 0.522484 1
0.282597 0.531899 1
0.260853 0.541314 1
0.239109 0.550729 1
0.217365 0.560143 1
0.195621 0.569558 1
0.855528 0.201144 0.855528
0.837629 0.214389 0.868772
0.819715 0.227634 0.882033
0.801801 0.240894 0.895277
0.783902 0.254139 0.908522
0.765988 0.267384 0.921782
0.748074 0.280644 0.935027
0.730159 0.293889 0.948272
0.712245 0.307134 0.961532
0.694331 0.320394 0.974777
0.676417 0.333639 0.988022
0.658518 0.346899 1
0.640604 0.360143 1
0.62269 0.373388 1
0.604776 0.386648 1
0.586862 0.399893 1
0.568948 0.413138 1
0.551034 0.426398 1
0.533135 0.439643 1
0.515221 0.452888 1
0.497307 0.466148 1
0.479393 0.479393 1
0.457649 0.488807 1
0.435904 0.498222 1
0.41416 0.507637 1
0.392416 0.517052 1
0.370672 0.526482 1
0.348913 0.535897 1
0.327169 0.545312 1
0.305425 0.554726 1
0.28368 0.564141 1
0.261936 0.573556 1
0.240192 0.582971 1
0.896269 0.210727 0.896269
0.87837 0.223972 0.909514
0.860456 0.237217 0.922774
0.842542 0.250477 0.936019
0.824643 0.263722 0.949264
0.806729 0.276967 0.962524
0.788815 0.290227 0.975769
0.770901 0.303471 0.989013
0.752987 0.316716 1
0.735073 0.329976 1
0.717159 0.343221 1
0.69926 0.356466 1
0.681346 0.369726 1
0.663432 0.382971 1
0.645518 0.396216 1
0.627604 0.409476 1
0.609689 0.422721 1
0.591775 0.435966 1
0.573877 0.449226 1
0.555962 0.46247 1
0.538048 0.475715 1
0.520134 0.488975 1
0.50222 0.50222 1
0.480476 0.511635 1
0.458732 0.52105 1
0.436988 0.530465 1
0.415244 0.539895 1
0.3935 0.54931 1
0.371756 0.558724 1
0.349996 0.568139 1
0.328252 0.577554 1
0.306508 0.586969 1
0.284764 0.596384 1
0.937011 0.22031 0.937011
0.919112 0.233555 0.950256
0.901198 0.246799 0.963516
0.883284 0.260044 0.976761
0.86537 0.273304 0.990005
0.847471 0.286549 1
0.829557 0.299794 1
0.811643 0.313054 1
0.793729 0.326299 1
0.775814 0.339544 1
0.7579 0.352804 1
0.739986 0.366049 1
0.722087 0.379294 1
0.704173 0.392554 1
0.686259 0.405798 1
0.668345 0.419043 1
0.650431 0.432303 1
0.632517 0.445548 1
0.614603 0.458793 1
0.596704 0.472053 1
0.57879 0.485298 1
0.560876 0.498543 1
0.542962 0.511803 1
0.525048 0.525048 1
0.503304 0.534463 1
0.481559 0.543877 1
0.459815 0.553292 1
0.438071 0.562722 1
0.416327 0.572137 1
0.394583 0.581552 1
0.372839 0.590967 1
0.35108 0.600381 1
0.329335 0.609796 1
0.977752 0.229877 0.977752
0.959854 0.243122 0.990997
0.941939 0.256382 1
0.924025 0.269627 1
0.906111 0.282872 1
0.888212 0.296132 1
0.870298 0.309377 1
0.852384 0.322621 1
0.83447 0.335882 1
0.816556 0.349126 1
0.798642 0.362371 1
0.780728 0.375631 1
0.762829 0.388876 1
0.744915 0.402121 1
0.727001 0.415381 1
0.709087 0.428626 1
0.691173 0.441871 1
0.673259 0.455131 1
0.655344 0.468376 1
0.637446 0.481636 1
0.619532 0.494881 1
0.601617 0.508125 1
0.583703 0.521385 1
0.565789 0.53463 1
0.547875 0.547875 1
0.526131 0.55729 1
0.504387 0.566705 1
0.482643 0.576135 1
0.460899 0.58555 1
0.439155 0.594965 1
0.417411 0.604379 1
0.395666 0.613794 1
0.373922 0.623209 1
1 0.23946 1
1 0.252705 1
0.982681 0.265949 1
0.964767 0.27921 1
0.946853 0.292454 1
0.928954 0.305699 1
0.91104 0.318959 1
0.893126 0.332204 1
0.875212 0.345449 1
0.857298 0.358709 1
0.839384 0.371954 1
0.821469 0.385199 1
0.803555 0.398459 1
0.785657 0.411704 1
0.767742 0.424964 1
0.749828 0.438209 1
0.731914 0.451453 1
0.714 0.464714 1
0.696086 0.477958 1
0.678172 0.491203 1
0.660273 0.504463 1
0.642359 0.517708 1
0.624445 0.530953 1
0.606531 0.544213 1
0.588617 0.557458 1
0.570703 0.570703 1
0.548959 0.580118 1
0.527214 0.589548 1
0.50547 0.598962 1
0.483726 0.608377 1
0.461982 0.617792 1
0.440238 0.627207 1
0.418494 0.636622 1
1 0.249042 1
1 0.262287 1
1 0.275532 1
1 0.288777 1
0.987594 0.302037 1
0.96968 0.315282 1
0.951782 0.328527 1
0.933867 0.341787 1
0.915953 0.355032 1
0.898039 0.368292 1
0.880125 0.381537 1
0.862211 0.394781 1
0.844297 0.408042 1
0.826398 0.421286 1
0.808484 0.434531 1
0.79057 0.447791 1
0.772656 0.461036 1
0.754742 0.474281 1
0.736828 0.487541 1
0.718914 0.500786 1
0.701015 0.514031 1
0.683101 0.527291 1
0.665187 0.540536 1
0.647272 0.55378 1
0.629358 0.567041 1
0.611444 0.580285 1
0.59353 0.59353 1
0.571786 0.60296 1
0.550042 0.612375 1
0.528298 0.62179 1
0.506554 0.631205 1
0.48481 0.64062 1
0.463066 0.650034 1
1 0.258625 1
1 0.271855 1
1 0.285115 1
1 0.29836 1
1 0.31162 1
1 0.324865 1
0.992523 0.338109 1
0.974609 0.35137 1
0.956695 0.364614 1
