luts/Acid Flash.cube
TITLE "Generated by Resolve"
LUT_3D_SIZE 5
0 0 0
0 0.0753338 0.0753338
0 0.150668 0.150668
0 0.226001 0.225986
0 0.30132 0.30132
0.325902 0.0766308 0.325902
0.18262 0.18262 0.431907
0.00865187 0.257954 0.507225
0 0.333288 0.582559
0 0.408621 0.657893
0.651835 0.153246 0.651835
0.508537 0.259251 0.757824
0.365255 0.365255 0.863828
0.191287 0.440589 0.939162
0.017319 0.515908 1
0.977752 0.229877 0.977752
0.83447 0.335882 1
0.691173 0.441871 1
0.547875 0.547875 1
0.373922 0.623209 1
1 0.306508 1
1 0.412512 1
1 0.518502 1
0.873808 0.624506 1
0.73051 0.73051 1
0.0053254 0.0053254 0
0 0.11133 0
0 0.186664 0
0 0.261997 0.0127108
0 0.337316 0.0880446
0.361898 0.112627 0.112627
0.249989 0.249989 0.249989
0.0760204 0.325322 0.325322
0 0.400656 0.400656
0 0.47599 0.47599
0.687831 0.189242 0.438544
0.575921 0.326619 0.575921
0.432624 0.432624 0.68191
0.258656 0.507958 0.757244
0.0846876 0.583291 0.832578
1 0.265873 0.764477
0.901839 0.40325 0.901839
0.758541 0.509255 1
0.615244 0.615244 1
0.441291 0.690578 1
1 0.342504 1
1 0.479881 1
1 0.58587 1
0.941176 0.691875 1
0.797879 0.797879 1
0.0106661 0.0106661 0
0 0.116655 0
0 0.22266 0
0 0.297993 0
0 0.373327 0
0.367239 0.117952 0
0.255314 0.255314 0.00602731
0.112016 0.361318 0.112016
0 0.436652 0.18735
0 0.511986 0.262684
0.723827 0.225254 0.225254
0.611917 0.362615 0.362615
0.499992 0.499992 0.499992
0.326024 0.575326 0.575326
0.152071 0.65066 0.65066
1 0.301885 0.551171
0.937835 0.439246 0.688548
0.825925 0.576623 0.825925
0.682628 0.682628 0.931914
0.508659 0.757961 1
1 0.3785 0.877104
1 0.515877 1
1 0.653254 1
1 0.759258 1
0.865248 0.865248 1
0.0159915 0.0159915 0
0 0.121981 0
0 0.227985 0
0 0.333989 0
0 0.409323 0
0.372564 0.123278 0
0.260655 0.260655 0
0.117357 0.366644 0
0 0.472648 0
0 0.547982 0.0493935
0.729152 0.230579 0
0.617243 0.367941 0.118654
0.505318 0.505318 0.256031
0.36202 0.611322 0.36202
0.188067 0.686656 0.437354
1 0.337881 0.337881
0.973831 0.475242 0.475242
0.861921 0.612619 0.612619
0.749996 0.749996 0.749996
0.576028 0.82533 0.82533
1 0.414511 0.663798
1 0.551873 0.801175
1 0.68925 0.938552
1 0.826627 1
0.932631 0.932631 1
0.0213169 0.0213169 0
0 0.127321 0
0 0.23331 0
0 0.339315 0
0 0.445319 0
0.37789 0.128618 0
0.26598 0.26598 0
0.122683 0.371984 0
0 0.477989 0
0 0.583978 0
0.734493 0.235904 0
0.622568 0.373281 0
0.510658 0.510658 0.0120546
0.367361 0.616648 0.118059
0.224063 0.722652 0.224063
1 0.343206 0.093904
0.979171 0.480568 0.231281
0.867247 0.617945 0.368658
0.755322 0.755322 0.506035
0.612024 0.861326 0.612024
1 0.450507 0.450507
1 0.587869 0.587869
1 0.725246 0.725246
1 0.862623 0.862623
1 1 1
