luts/agfa_vista_200.cube
TITLE Film LUT
LUT_3D_SIZE 5
DOMAIN_MIN 0.0 0.0 0.0
DOMAIN_MAX 1.0 1.0 1.0
0.000000 0.000000 0.000000
0.272971 0.000000 0.049135
0.533782 0.000000 0.096081
0.777437 0.000000 0.139939
1.000000 0.000000 0.180000
0.049135 0.272970 0.000000
0.272971 0.223835 0.000000
0.533782 0.176889 0.000000
0.777437 0.133031 0.000000
1.000000 0.092970 0.000000
0.096081 0.533785 0.000000
0.369052 0.533785 0.000000
0.533785 0.437707 0.000000
0.777437 0.393846 0.000000
1.000000 0.353785 0.000000
0.139939 0.777440 0.000000
0.412910 0.777440 0.000000
0.673721 0.777440 0.000000
0.777440 0.637504 0.000000
1.000000 0.597440 0.000000
0.180000 1.000000 0.000000
0.452971 1.000000 0.000000
0.713782 1.000000 0.000000
0.957437 1.000000 0.000000
1.000000 0.820000 0.000000
0.000000 0.049134 0.272966
0.223841 0.000000 0.272971
0.533782 0.000000 0.369047
0.777437 0.000000 0.412905
1.000000 0.000000 0.452966
0.000000 0.272970 0.223831
0.272971 0.272969 0.272965
0.533782 0.246884 0.298522
0.777437 0.222519 0.322400
1.000000 0.200263 0.344211
0.000000 0.533785 0.176885
0.298532 0.533785 0.246884
0.533785 0.482146 0.246884
0.777437 0.409535 0.222519
1.000000 0.343211 0.200263
0.000000 0.777440 0.133027
0.322410 0.777440 0.222519
0.609302 0.777440 0.222519
0.777440 0.677557 0.222519
1.000000 0.611231 0.200263
0.000000 1.000000 0.092966
0.344221 1.000000 0.200263
0.631113 1.000000 0.200263
0.899133 1.000000 0.200263
1.000000 0.856047 0.200263
0.000000 0.096081 0.533784
0.176890 0.000000 0.533784
0.437701 0.000000 0.533784
0.777437 0.000000 0.673723
1.000000 0.000000 0.713784
0.000000 0.369051 0.533784
0.246889 0.298529 0.533784
0.482141 0.246889 0.533784
0.777437 0.222523 0.609303
1.000000 0.200267 0.631114
0.000000 0.533785 0.437703
0.246890 0.533785 0.482143
0.533782 0.533785 0.533783
0.777437 0.509419 0.557661
1.000000 0.487162 0.579472
0.000000 0.777440 0.393845
0.222524 0.777440 0.409534
0.557658 0.777440 0.509416
0.777440 0.729199 0.509418
1.000000 0.662873 0.487162
0.000000 1.000000 0.353784
0.200268 1.000000 0.343211
0.579469 1.000000 0.487160
0.847491 1.000000 0.487162
1.000000 0.907689 0.487162
0.000000 0.139939 0.777438
0.133032 0.000000 0.777438
0.393843 0.000000 0.777438
0.637498 0.000000 0.777438
1.000000 0.000000 0.957438
0.000000 0.412909 0.777438
0.222523 0.322407 0.777438
0.409532 0.222523 0.777438
0.677552 0.222523 0.777438
1.000000 0.200267 0.899134
0.000000 0.673724 0.777438
0.222524 0.609304 0.777438
0.509416 0.557664 0.777438
0.729194 0.509420 0.777438
1.000000 0.487163 0.847492
0.000000 0.777440 0.637499
0.222524 0.777440 0.677553
0.509416 0.777440 0.729194
0.777437 0.777440 0.777437
1.000000 0.755182 0.799247
0.000000 1.000000 0.597438
0.200268 1.000000 0.611230
0.487160 1.000000 0.662871
0.799247 1.000000 0.755181
1.000000 0.955933 0.755182
0.000000 0.180000 1.000000
0.092971 0.000000 1.000000
0.353782 0.000000 1.000000
0.597437 0.000000 1.000000
0.820000 0.000000 1.000000
0.000000 0.452970 1.000000
0.200267 0.344218 1.000000
0.343208 0.200267 1.000000
0.611229 0.200267 1.000000
0.856048 0.200267 1.000000
0.000000 0.713785 1.000000
0.200268 0.631115 1.000000
0.487160 0.579475 1.000000
0.662870 0.487163 1.000000
0.907689 0.487163 1.000000
0.000000 0.957440 1.000000
0.200268 0.899136 1.000000
0.487160 0.847495 1.000000
0.755181 0.799251 1.000000
0.955933 0.755184 1.000000
0.000000 1.000000 0.820000
0.200268 1.000000 0.856048
0.487160 1.000000 0.907689
0.755181 1.000000 0.955933
1.000000 1.000000 1.000000
