luts/agfa_apx_100.cube
TITLE Film LUT
LUT_3D_SIZE 9
DOMAIN_MIN 0.0 0.0 0.0
DOMAIN_MAX 1.0 1.0 1.0
0.000000 0.000000 0.000000
0.000000 0.000000 0.000000
0.000000 0.000000 0.000000
0.004095 0.004095 0.004095
0.037023 0.037023 0.037023
0.068740 0.068740 0.068740
0.099081 0.099081 0.099081
0.127909 0.127909 0.127909
0.155120 0.155120 0.155120
0.019000 0.019000 0.019000
0.054374 0.054374 0.054374
0.089144 0.089144 0.089144
0.123095 0.123095 0.123095
0.156023 0.156023 0.156023
0.187740 0.187740 0.187740
0.218081 0.218081 0.218081
0.246909 0.246909 0.246909
0.274120 0.274120 0.274120
0.135968 0.135968 0.135968
0.171342 0.171342 0.171342
0.206112 0.206112 0.206112
0.240063 0.240063 0.240063
0.272991 0.272991 0.272991
0.304708 0.304708 0.304708
0.335049 0.335049 0.335049
0.363877 0.363877 0.363877
0.391088 0.391088 0.391088
0.250182 0.250182 0.250182
0.285556 0.285556 0.285556
0.320325 0.320325 0.320325
0.354276 0.354276 0.354276
0.387205 0.387205 0.387205
0.418922 0.418922 0.418922
0.449262 0.449262 0.449262
0.478091 0.478091 0.478091
0.505302 0.505302 0.505302
0.360955 0.360955 0.360955
0.396329 0.396329 0.396329
0.431098 0.431098 0.431098
0.465050 0.465050 0.465050
0.497978 0.497978 0.497978
0.529695 0.529695 0.529695
0.560035 0.560035 0.560035
0.588864 0.588864 0.588864
0.616075 0.616075 0.616075
0.467652 0.467652 0.467652
0.503026 0.503026 0.503026
0.537796 0.537796 0.537796
0.571747 0.571747 0.571747
0.604675 0.604675 0.604675
0.636392 0.636392 0.636392
0.666733 0.666733 0.666733
0.695561 0.695561 0.695561
0.722772 0.722772 0.722772
0.569720 0.569720 0.569720
0.605094 0.605094 0.605094
0.639864 0.639864 0.639864
0.673815 0.673815 0.673815
0.706743 0.706743 0.706743
0.738460 0.738460 0.738460
0.768800 0.768800 0.768800
0.797629 0.797629 0.797629
0.824840 0.824840 0.824840
0.666700 0.666700 0.666700
0.702074 0.702074 0.702074
0.736844 0.736844 0.736844
0.770795 0.770795 0.770795
0.803723 0.803723 0.803723
0.835440 0.835440 0.835440
0.865781 0.865781 0.865781
0.894609 0.894609 0.894609
0.921820 0.921820 0.921820
0.758240 0.758240 0.758240
0.793614 0.793614 0.793614
0.828384 0.828384 0.828384
0.862335 0.862335 0.862335
0.895263 0.895263 0.895263
0.926980 0.926980 0.926980
0.957321 0.957321 0.957321
0.986149 0.986149 0.986149
1.000000 1.000000 1.000000
0.000000 0.000000 0.000000
0.000000 0.000000 0.000000
0.000000 0.000000 0.000000
0.016108 0.016108 0.016108
0.049036 0.049036 0.049036
0.080753 0.080753 0.080753
0.111094 0.111094 0.111094
0.139922 0.139922 0.139922
0.167133 0.167133 0.167133
0.031013 0.031013 0.031013
0.066387 0.066387 0.066387
0.101157 0.101157 0.101157
0.135108 0.135108 0.135108
0.168036 0.168036 0.168036
0.199753 0.199753 0.199753
0.230094 0.230094 0.230094
0.258922 0.258922 0.258922
0.286133 0.286133 0.286133
0.147981 0.147981 0.147981
0.183355 0.183355 0.183355
0.218125 0.218125 0.218125
0.252076 0.252076 0.252076
0.285004 0.285004 0.285004
0.316721 0.316721 0.316721
0.347062 0.347062 0.347062
0.375890 0.375890 0.375890
0.403101 0.403101 0.403101
0.262195 0.262195 0.262195
0.297569 0.297569 0.297569
0.332339 0.332339 0.332339
0.366290 0.366290 0.366290
0.399218 0.399218 0.399218
0.430935 0.430935 0.430935
0.461275 0.461275 0.461275
0.490104 0.490104 0.490104
0.517315 0.517315 0.517315
0.372968 0.372968 0.372968
0.408342 0.408342 0.408342
0.443112 0.443112 0.443112
0.477063 0.477063 0.477063
0.509991 0.509991 0.509991
0.541708 0.541708 0.541708
0.572048 0.572048 0.572048
0.600877 0.600877 0.600877
0.628088 0.628088 0.628088
0.479665 0.479665 0.479665
0.515039 0.515039 0.515039
0.549809 0.549809 0.549809
0.583760 0.583760 0.583760
0.616688 0.616688 0.616688
0.648405 0.648405 0.648405
0.678746 0.678746 0.678746
0.707574 0.707574 0.707574
0.734785 0.734785 0.734785
0.581733 0.581733 0.581733
0.617107 0.617107 0.617107
0.651877 0.651877 0.651877
0.685828 0.685828 0.685828
0.718756 0.718756 0.718756
0.750473 0.750473 0.750473
0.780814 0.780814 0.780814
0.809642 0.809642 0.809642
0.836853 0.836853 0.836853
0.678713 0.678713 0.678713
0.714087 0.714087 0.714087
0.748857 0.748857 0.748857
0.782808 0.782808 0.782808
0.815736 0.815736 0.815736
0.847453 0.847453 0.847453
0.877794 0.877794 0.877794
0.906622 0.906622 0.906622
0.933833 0.933833 0.933833
0.770253 0.770253 0.770253
0.805627 0.805627 0.805627
0.840397 0.840397 0.840397
0.874348 0.874348 0.874348
0.907276 0.907276 0.907276
0.938993 0.938993 0.938993
0.969334 0.969334 0.969334
0.998162 0.998162 0.998162
1.000000 1.000000 1.000000
0.000000 0.000000 0.000000
0.000000 0.000000 0.000000
0.000000 0.000000 0.000000
0.027916 0.027916 0.027916
0.060844 0.060844 0.060844
0.092561 0.092561 0.092561
0.122902 0.122902 0.122902
0.151730 0.151730 0.151730
0.178941 0.178941 0.178941
0.042821 0.042821 0.042821
0.078195 0.078195 0.078195
0.112965 0.112965 0.112965
0.146916 0.146916 0.146916
0.179844 0.179844 0.179844
0.211561 0.211561 0.211561
0.241902 0.241902 0.241902
0.270730 0.270730 0.270730
0.297941 0.297941 0.297941
0.159789 0.159789 0.159789
0.195163 0.195163 0.195163
0.229933 0.229933 0.229933
0.263884 0.263884 0.263884
0.296812 0.296812 0.296812
0.328529 0.328529 0.328529
0.358870 0.358870 0.358870
0.387698 0.387698 0.387698
0.414909 0.414909 0.414909
0.274003 0.274003 0.274003
0.309377 0.309377 0.309377
0.344147 0.344147 0.344147
0.378098 0.378098 0.378098
0.411026 0.411026 0.411026
0.442743 0.442743 0.442743
0.473083 0.473083 0.473083
0.501912 0.501912 0.501912
0.529123 0.529123 0.529123
0.384776 0.384776 0.384776
0.420150 0.420150 0.420150
0.454920 0.454920 0.454920
0.488871 0.488871 0.488871
0.521799 0.521799 0.521799
0.553516 0.553516 0.553516
0.583856 0.583856 0.583856
0.612685 0.612685 0.612685
0.639896 0.639896 0.639896
0.491473 0.491473 0.491473
0.526847 0.526847 0.526847
0.561617 0.561617 0.561617
0.595568 0.595568 0.595568
0.628496 0.628496 0.628496
0.660213 0.660213 0.660213
0.690554 0.690554 0.690554
0.719382 0.719382 0.719382
0.746593 0.746593 0.746593
0.593541 0.593541 0.593541
0.628915 0.628915 0.628915
0.663685 0.663685 0.663685
0.697636 0.697636 0.697636
0.730564 0.730564 0.730564
0.762281 0.762281 0.762281
0.792622 0.792622 0.792622
0.821450 0.821450 0.821450
0.848661 0.848661 0.848661
0.690521 0.690521 0.690521
0.725895 0.725895 0.725895
0.760665 0.760665 0.760665
0.794616 0.794616 0.794616
0.827544 0.827544 0.827544
0.859261 0.859261 0.859261
0.889602 0.889602 0.889602
0.918430 0.918430 0.918430
0.945641 0.945641 0.945641
0.782061 0.782061 0.782061
0.817435 0.817435 0.817435
0.852205 0.852205 0.852205
0.886156 0.886156 0.886156
0.919084 0.919084 0.919084
0.950801 0.950801 0.950801
0.981142 0.981142 0.981142
1.000000 1.000000 1.000000
1.000000 1.000000 1.000000
0.000000 0.000000 0.000000
0.000000 0.000000 0.000000
0.005495 0.005495 0.005495
0.039446 0.039446 0.039446
0.072374 0.072374 0.072374
0.104091 0.104091 0.104091
0.134432 0.134432 0.134432
0.163260 0.163260 0.163260
0.190471 0.190471 0.190471
0.054351 0.054351 0.054351
0.089725 0.089725 0.089725
0.124495 0.124495 0.124495
0.158446 0.158446 0.158446
0.191374 0.191374 0.191374
0.223091 0.223091 0.223091
0.253432 0.253432 0.253432
0.282260 0.282260 0.282260
0.309471 0.309471 0.309471
0.171319 0.171319 0.171319
0.206693 0.206693 0.206693
0.241463 0.241463 0.241463
0.275414 0.275414 0.275414
0.308342 0.308342 0.308342
0.340059 0.340059 0.340059
0.370400 0.370400 0.370400
0.399228 0.399228 0.399228
0.426439 0.426439 0.426439
0.285533 0.285533 0.285533
0.320907 0.320907 0.320907
0.355676 0.355676 0.355676
0.389628 0.389628 0.389628
0.422556 0.422556 0.422556
0.454273 0.454273 0.454273
0.484613 0.484613 0.484613
0.513442 0.513442 0.513442
0.540653 0.540653 0.540653
0.396306 0.396306 0.396306
0.431680 0.431680 0.431680
0.466450 0.466450 0.466450
0.500401 0.500401 0.500401
0.533329 0.533329 0.533329
0.565046 0.565046 0.565046
0.595386 0.595386 0.595386
0.624215 0.624215 0.624215
0.651426 0.651426 0.651426
0.503003 0.503003 0.503003
0.538377 0.538377 0.538377
0.573147 0.573147 0.573147
0.607098 0.607098 0.607098
0.640026 0.640026 0.640026
0.671743 0.671743 0.671743
0.702084 0.702084 0.702084
0.730912 0.730912 0.730912
0.758123 0.758123 0.758123
0.605071 0.605071 0.605071
0.640445 0.640445 0.640445
0.675215 0.675215 0.675215
0.709166 0.709166 0.709166
0.742094 0.742094 0.742094
0.773811 0.773811 0.773811
0.804152 0.804152 0.804152
0.832980 0.832980 0.832980
0.860191 0.860191 0.860191
0.702051 0.702051 0.702051
0.737425 0.737425 0.737425
0.772195 0.772195 0.772195
0.806146 0.806146 0.806146
0.839074 0.839074 0.839074
0.870791 0.870791 0.870791
0.901132 0.901132 0.901132
0.929960 0.929960 0.929960
0.957171 0.957171 0.957171
0.793591 0.793591 0.793591
0.828965 0.828965 0.828965
0.863735 0.863735 0.863735
0.897686 0.897686 0.897686
0.930614 0.930614 0.930614
0.962331 0.962331 0.962331
0.992672 0.992672 0.992672
1.000000 1.000000 1.000000
1.000000 1.000000 1.000000
0.000000 0.000000 0.000000
0.000000 0.000000 0.000000
0.016677 0.016677 0.016677
0.050629 0.050629 0.050629
0.083557 0.083557 0.083557
0.115274 0.115274 0.115274
0.145614 0.145614 0.145614
0.174443 0.174443 0.174443
0.201654 0.201654 0.201654
0.065534 0.065534 0.065534
0.100908 0.100908 0.100908
0.135678 0.135678 0.135678
0.169629 0.169629 0.169629
0.202557 0.202557 0.202557
0.234274 0.234274 0.234274
0.264614 0.264614 0.264614
0.293443 0.293443 0.293443
0.320654 0.320654 0.320654
0.182502 0.182502 0.182502
0.217876 0.217876 0.217876
0.252645 0.252645 0.252645
0.286597 0.286597 0.286597
0.319525 0.319525 0.319525
0.351242 0.351242 0.351242
0.381582 0.381582 0.381582
0.410411 0.410411 0.410411
0.437622 0.437622 0.437622
0.296715 0.296715 0.296715
0.332089 0.332089 0.332089
0.366859 0.366859 0.366859
0.400810 0.400810 0.400810
0.433739 0.433739 0.433739
0.465455 0.465455 0.465455
0.495796 0.495796 0.495796
0.524624 0.524624 0.524624
0.551835 0.551835 0.551835
0.407488 0.407488 0.407488
0.442862 0.442862 0.442862
0.477632 0.477632 0.477632
0.511583 0.511583 0.511583
0.544512 0.544512 0.544512
0.576228 0.576228 0.576228
0.606569 0.606569 0.606569
0.635397 0.635397 0.635397
0.662608 0.662608 0.662608
0.514186 0.514186 0.514186
0.549560 0.549560 0.549560
0.584329 0.584329 0.584329
0.618281 0.618281 0.618281
0.651209 0.651209 0.651209
0.682926 0.682926 0.682926
0.713266 0.713266 0.713266
0.742095 0.742095 0.742095
0.769306 0.769306 0.769306
0.616254 0.616254 0.616254
0.651628 0.651628 0.651628
0.686397 0.686397 0.686397
0.720348 0.720348 0.720348
0.753277 0.753277 0.753277
0.784994 0.784994 0.784994
0.815334 0.815334 0.815334
0.844162 0.844162 0.844162
0.871374 0.871374 0.871374
0.713234 0.713234 0.713234
0.748608 0.748608 0.748608
0.783378 0.783378 0.783378
0.817329 0.817329 0.817329
0.850257 0.850257 0.850257
0.881974 0.881974 0.881974
0.912314 0.912314 0.912314
0.941143 0.941143 0.941143
0.968354 0.968354 0.968354
0.804774 0.804774 0.804774
0.840148 0.840148 0.840148
0.874917 0.874917 0.874917
0.908869 0.908869 0.908869
0.941797 0.941797 0.941797
0.973514 0.973514 0.973514
1.000000 1.000000 1.000000
1.000000 1.000000 1.000000
1.000000 1.000000 1.000000
0.000000 0.000000 0.000000
0.000000 0.000000 0.000000
0.027449 0.027449 0.027449
0.061400 0.061400 0.061400
0.094328 0.094328 0.094328
0.126045 0.126045 0.126045
0.156386 0.156386 0.156386
0.185214 0.185214 0.185214
0.212425 0.212425 0.212425
0.076305 0.076305 0.076305
0.111679 0.111679 0.111679
0.146449 0.146449 0.146449
0.180400 0.180400 0.180400
0.213328 0.213328 0.213328
0.245045 0.245045 0.245045
0.275386 0.275386 0.275386
0.304214 0.304214 0.304214
0.331425 0.331425 0.331425
0.193273 0.193273 0.193273
0.228647 0.228647 0.228647
0.263417 0.263417 0.263417
0.297368 0.297368 0.297368
0.330296 0.330296 0.330296
0.362013 0.362013 0.362013
0.392353 0.392353 0.392353
0.421182 0.421182 0.421182
0.448393 0.448393 0.448393
0.307487 0.307487 0.307487
0.342860 0.342860 0.342860
0.377630 0.377630 0.377630
0.411581 0.411581 0.411581
0.444510 0.444510 0.444510
0.476227 0.476227 0.476227
0.506567 0.506567 0.506567
0.535395 0.535395 0.535395
0.562607 0.562607 0.562607
0.418260 0.418260 0.418260
0.453634 0.453634 0.453634
0.488403 0.488403 0.488403
0.522354 0.522354 0.522354
0.555283 0.555283 0.555283
0.587000 0.587000 0.587000
0.617340 0.617340 0.617340
0.646169 0.646169 0.646169
0.673380 0.673380 0.673380
0.524957 0.524957 0.524957
0.560331 0.560331 0.560331
0.595101 0.595101 0.595101
0.629052 0.629052 0.629052
0.661980 0.661980 0.661980
0.693697 0.693697 0.693697
0.724037 0.724037 0.724037
0.752866 0.752866 0.752866
0.780077 0.780077 0.780077
0.627025 0.627025 0.627025
0.662399 0.662399 0.662399
0.697168 0.697168 0.697168
0.731120 0.731120 0.731120
0.764048 0.764048 0.764048
0.795765 0.795765 0.795765
0.826105 0.826105 0.826105
0.854934 0.854934 0.854934
0.882145 0.882145 0.882145
0.724005 0.724005 0.724005
0.759379 0.759379 0.759379
0.794149 0.794149 0.794149
0.828100 0.828100 0.828100
0.861028 0.861028 0.861028
0.892745 0.892745 0.892745
0.923086 0.923086 0.923086
0.951914 0.951914 0.951914
0.979125 0.979125 0.979125
0.815545 0.815545 0.815545
0.850919 0.850919 0.850919
0.885689 0.885689 0.885689
0.919640 0.919640 0.919640
0.952568 0.952568 0.952568
0.984285 0.984285 0.984285
1.000000 1.000000 1.000000
1.000000 1.000000 1.000000
1.000000 1.000000 1.000000
0.000000 0.000000 0.000000
0.002983 0.002983 0.002983
0.037752 0.037752 0.037752
0.071704 0.071704 0.071704
0.104632 0.104632 0.104632
0.136349 0.136349 0.136349
0.166689 0.166689 0.166689
0.195518 0.195518 0.195518
0.222729 0.222729 0.222729
0.086609 0.086609 0.086609
0.121983 0.121983 0.121983
0.156753 0.156753 0.156753
0.190704 0.190704 0.190704
0.223632 0.223632 0.223632
0.255349 0.255349 0.255349
0.285689 0.285689 0.285689
0.314518 0.314518 0.314518
0.341729 0.341729 0.341729
0.203577 0.203577 0.203577
0.238951 0.238951 0.238951
0.273720 0.273720 0.273720
0.307672 0.307672 0.307672
0.340600 0.340600 0.340600
0.372317 0.372317 0.372317
0.402657 0.402657 0.402657
0.431486 0.431486 0.431486
0.458697 0.458697 0.458697
0.317790 0.317790 0.317790
0.353164 0.353164 0.353164
0.387934 0.387934 0.387934
0.421885 0.421885 0.421885
0.454814 0.454814 0.454814
0.486530 0.486530 0.486530
0.516871 0.516871 0.516871
0.545699 0.545699 0.545699
0.572910 0.572910 0.572910
0.428563 0.428563 0.428563
0.463937 0.463937 0.463937
0.498707 0.498707 0.498707
0.532658 0.532658 0.532658
0.565587 0.565587 0.565587
0.597303 0.597303 0.597303
0.627644 0.627644 0.627644
0.656472 0.656472 0.656472
0.683683 0.683683 0.683683
0.535261 0.535261 0.535261
0.570635 0.570635 0.570635
0.605404 0.605404 0.605404
0.639356 0.639356 0.639356
0.672284 0.672284 0.672284
0.704001 0.704001 0.704001
0.734341 0.734341 0.734341
0.763170 0.763170 0.763170
0.790381 0.790381 0.790381
0.637329 0.637329 0.637329
0.672703 0.672703 0.672703
0.707472 0.707472 0.707472
0.741423 0.741423 0.741423
0.774352 0.774352 0.774352
0.806069 0.806069 0.806069
0.836409 0.836409 0.836409
0.865238 0.865238 0.865238
0.892449 0.892449 0.892449
0.734309 0.734309 0.734309
0.769683 0.769683 0.769683
0.804453 0.804453 0.804453
0.838404 0.838404 0.838404
0.871332 0.871332 0.871332
0.903049 0.903049 0.903049
0.933389 0.933389 0.933389
0.962218 0.962218 0.962218
0.989429 0.989429 0.989429
0.825849 0.825849 0.825849
0.861223 0.861223 0.861223
0.895992 0.895992 0.895992
0.929944 0.929944 0.929944
0.962872 0.962872 0.962872
0.994589 0.994589 0.994589
1.000000 1.000000 1.000000
1.000000 1.000000 1.000000
1.000000 1.000000 1.000000
0.000000 0.000000 0.000000
0.012773 0.012773 0.012773
0.047543 0.047543 0.047543
0.081494 0.081494 0.081494
0.114422 0.114422 0.114422
0.146139 0.146139 0.146139
0.176480 0.176480 0.176480
0.205308 0.205308 0.205308
0.232519 0.232519 0.232519
0.096399 0.096399 0.096399
0.131773 0.131773 0.131773
0.166543 0.166543 0.166543
0.200494 0.200494 0.200494
0.233422 0.233422 0.233422
0.265139 0.265139 0.265139
0.295480 0.295480 0.295480
0.324308 0.324308 0.324308
0.351519 0.351519 0.351519
0.213367 0.213367 0.213367
0.248741 0.248741 0.248741
0.283511 0.283511 0.283511
0.317462 0.317462 0.317462
0.350390 0.350390 0.350390
0.382107 0.382107 0.382107
0.412448 0.412448 0.412448
0.441276 0.441276 0.441276
0.468487 0.468487 0.468487
0.327581 0.327581 0.327581
0.362955 0.362955 0.362955
0.397724 0.397724 0.397724
0.431675 0.431675 0.431675
0.464604 0.464604 0.464604
0.496321 0.496321 0.496321
0.526661 0.526661 0.526661
0.555490 0.555490 0.555490
0.582701 0.582701 0.582701
0.438354 0.438354 0.438354
0.473728 0.473728 0.473728
0.508497 0.508497 0.508497
0.542449 0.542449 0.542449
0.575377 0.575377 0.575377
0.607094 0.607094 0.607094
0.637434 0.637434 0.637434
0.666263 0.666263 0.666263
0.693474 0.693474 0.693474
0.545051 0.545051 0.545051
0.580425 0.580425 0.580425
0.615195 0.615195 0.615195
0.649146 0.649146 0.649146
0.682074 0.682074 0.682074
0.713791 0.713791 0.713791
0.744132 0.744132 0.744132
0.772960 0.772960 0.772960
0.800171 0.800171 0.800171
0.647119 0.647119 0.647119
0.682493 0.682493 0.682493
0.717263 0.717263 0.717263
0.751214 0.751214 0.751214
0.784142 0.784142 0.784142
0.815859 0.815859 0.815859
0.846199 0.846199 0.846199
0.875028 0.875028 0.875028
0.902239 0.902239 0.902239
0.744099 0.744099 0.744099
0.779473 0.779473 0.779473
0.814243 0.814243 0.814243
0.848194 0.848194 0.848194
0.881122 0.881122 0.881122
0.912839 0.912839 0.912839
0.943180 0.943180 0.943180
0.972008 0.972008 0.972008
0.999219 0.999219 0.999219
0.835639 0.835639 0.835639
0.871013 0.871013 0.871013
0.905783 0.905783 0.905783
0.939734 0.939734 0.939734
0.972662 0.972662 0.972662
1.000000 1.000000 1.000000
1.000000 1.000000 1.000000
1.000000 1.000000 1.000000
1.000000 1.000000 1.000000
0.000000 0.000000 0.000000
0.022014 0.022014 0.022014
0.056784 0.056784 0.056784
0.090735 0.090735 0.090735
0.123663 0.123663 0.123663
0.155380 0.155380 0.155380
0.185721 0.185721 0.185721
0.214549 0.214549 0.214549
0.241760 0.241760 0.241760
0.105640 0.105640 0.105640
0.141014 0.141014 0.141014
0.175784 0.175784 0.175784
0.209735 0.209735 0.209735
0.242663 0.242663 0.242663
0.274380 0.274380 0.274380
0.304721 0.304721 0.304721
0.333549 0.333549 0.333549
0.360760 0.360760 0.360760
0.222608 0.222608 0.222608
0.257982 0.257982 0.257982
0.292752 0.292752 0.292752
0.326703 0.326703 0.326703
0.359631 0.359631 0.359631
0.391348 0.391348 0.391348
0.421689 0.421689 0.421689
0.450517 0.450517 0.450517
0.477728 0.477728 0.477728
0.336822 0.336822 0.336822
0.372196 0.372196 0.372196
0.406965 0.406965 0.406965
0.440916 0.440916 0.440916
0.473845 0.473845 0.473845
0.505562 0.505562 0.505562
0.535902 0.535902 0.535902
0.564731 0.564731 0.564731
0.591942 0.591942 0.591942
0.447595 0.447595 0.447595
0.482969 0.482969 0.482969
0.517738 0.517738 0.517738
0.551690 0.551690 0.551690
0.584618 0.584618 0.584618
0.616335 0.616335 0.616335
0.646675 0.646675 0.646675
0.675504 0.675504 0.675504
0.702715 0.702715 0.702715
0.554292 0.554292 0.554292
0.589666 0.589666 0.589666
0.624436 0.624436 0.624436
0.658387 0.658387 0.658387
0.691315 0.691315 0.691315
0.723032 0.723032 0.723032
0.753373 0.753373 0.753373
0.782201 0.782201 0.782201
0.809412 0.809412 0.809412
0.656360 0.656360 0.656360
0.691734 0.691734 0.691734
0.726504 0.726504 0.726504
0.760455 0.760455 0.760455
0.793383 0.793383 0.793383
0.825100 0.825100 0.825100
0.855440 0.855440 0.855440
0.884269 0.884269 0.884269
0.911480 0.911480 0.911480
0.753340 0.753340 0.753340
0.788714 0.788714 0.788714
0.823484 0.823484 0.823484
0.857435 0.857435 0.857435
0.890363 0.890363 0.890363
0.922080 0.922080 0.922080
0.952421 0.952421 0.952421
0.981249 0.981249 0.981249
1.000000 1.000000 1.000000
0.844880 0.844880 0.844880
0.880254 0.880254 0.880254
0.915024 0.915024 0.915024
0.948975 0.948975 0.948975
0.981903 0.981903 0.981903
1.000000 1.000000 1.000000
1.000000 1.000000 1.000000
1.000000 1.000000 1.000000
1.000000 1.000000 1.000000
