luts/agfa_vista_200.cube
TITLE Film LUT
LUT_3D_SIZE 9
DOMAIN_MIN 0.0 0.0 0.0
DOMAIN_MAX 1.0 1.0 1.0
0.000000 0.000000 0.000000
0.137662 0.000000 0.024779
0.272971 0.000000 0.049135
0.405227 0.000000 0.072941
0.533782 0.000000 0.096081
0.658031 0.000000 0.118446
0.777437 0.000000 0.139939
0.891552 0.000000 0.160479
1.000000 0.000000 0.180000
0.024780 0.137666 0.000000
0.137666 0.112890 0.000000
0.272971 0.088531 0.000000
0.405227 0.064725 0.000000
0.533782 0.041585 0.000000
0.658031 0.019220 0.000000
0.777437 0.000000 0.002273
0.891552 0.000000 0.022813
1.000000 0.000000 0.042334
0.049135 0.272970 0.000000
0.186797 0.272970 0.000000
0.272971 0.223835 0.000000
0.405227 0.200029 0.000000
0.533782 0.176889 0.000000
0.658031 0.154524 0.000000
0.777437 0.133031 0.000000
0.891552 0.112491 0.000000
1.000000 0.092970 0.000000
0.072941 0.405230 0.000000
0.210603 0.405230 0.000000
0.345912 0.405230 0.000000
0.405230 0.332292 0.000000
0.533782 0.309149 0.000000
0.658031 0.286784 0.000000
0.777437 0.265291 0.000000
0.891552 0.244751 0.000000
1.000000 0.225230 0.000000
0.096081 0.533785 0.000000
0.233743 0.533785 0.000000
0.369052 0.533785 0.000000
0.501308 0.533785 0.000000
0.533785 0.437707 0.000000
0.658031 0.415339 0.000000
0.777437 0.393846 0.000000
0.891552 0.373306 0.000000
1.000000 0.353785 0.000000
0.118446 0.658033 0.000000
0.256108 0.658033 0.000000
0.391417 0.658033 0.000000
0.523673 0.658033 0.000000
0.652228 0.658033 0.000000
0.658033 0.539589 0.000000
0.777437 0.518094 0.000000
0.891552 0.497554 0.000000
1.000000 0.478033 0.000000
0.139939 0.777440 0.000000
0.277601 0.777440 0.000000
0.412910 0.777440 0.000000
0.545166 0.777440 0.000000
0.673721 0.777440 0.000000
0.777440 0.756910 0.000000
0.777440 0.637504 0.000000
0.891552 0.616961 0.000000
1.000000 0.597440 0.000000
0.160479 0.891551 0.000000
0.298141 0.891551 0.000000
0.433450 0.891551 0.000000
0.565706 0.891551 0.000000
0.694261 0.891551 0.000000
0.818510 0.891551 0.000000
0.891551 0.845186 0.000000
0.891552 0.731072 0.000000
1.000000 0.711551 0.000000
0.180000 1.000000 0.000000
0.317662 1.000000 0.000000
0.452971 1.000000 0.000000
0.585227 1.000000 0.000000
0.713782 1.000000 0.000000
0.838031 1.000000 0.000000
0.957437 1.000000 0.000000
1.000000 0.928448 0.000000
1.000000 0.820000 0.000000
0.000000 0.024779 0.137660
0.112885 0.000000 0.137662
0.272971 0.000000 0.186795
0.405227 0.000000 0.210601
0.533782 0.000000 0.233741
0.658031 0.000000 0.256106
0.777437 0.000000 0.277599
0.891552 0.000000 0.298139
1.000000 0.000000 0.317660
0.000000 0.137666 0.112880
0.137663 0.137666 0.137659
0.272971 0.124129 0.150914
0.405227 0.110903 0.163875
0.533782 0.098048 0.176473
0.658031 0.085623 0.188650
0.777437 0.073682 0.200352
0.891552 0.062271 0.211535
1.000000 0.051426 0.222163
0.000000 0.272970 0.088525
0.150923 0.272970 0.124129
0.272971 0.246178 0.124129
0.405227 0.206766 0.110903
0.533782 0.168457 0.098048
0.658031 0.131430 0.085623
0.777437 0.095847 0.073682
0.891552 0.062271 0.062700
1.000000 0.051426 0.073328
0.000000 0.405230 0.064719
0.163884 0.405230 0.110903
0.312724 0.405230 0.110903
0.405230 0.352254 0.110903
0.533782 0.313943 0.098048
0.658031 0.276916 0.085623
0.777437 0.241333 0.073682
0.891552 0.207327 0.062271
1.000000 0.175010 0.051426
0.000000 0.533785 0.041579
0.176482 0.533785 0.098048
0.325322 0.533785 0.098048
0.470804 0.533785 0.098048
0.533785 0.455356 0.098048
0.658031 0.418327 0.085623
0.777437 0.382744 0.073682
0.891552 0.348738 0.062271
1.000000 0.316420 0.051426
0.000000 0.658033 0.019214
0.188659 0.658033 0.085623
0.337499 0.658033 0.085623
0.482980 0.658033 0.085623
0.624391 0.658033 0.085623
0.658033 0.555001 0.085623
0.777437 0.519417 0.073682
0.891552 0.485410 0.062271
1.000000 0.453093 0.051426
0.002279 0.777440 0.000000
0.200361 0.777440 0.073682
0.349201 0.777440 0.073682
0.494682 0.777440 0.073682
0.636093 0.777440 0.073682
0.772767 0.777440 0.073682
0.777440 0.650767 0.073682
0.891552 0.616758 0.062271
1.000000 0.584441 0.051426
0.022819 0.891551 0.000000
0.211544 0.891551 0.062271
0.360383 0.891551 0.062271
0.505865 0.891551 0.062271
0.647276 0.891551 0.062271
0.783949 0.891551 0.062271
0.891551 0.867806 0.062271
0.891552 0.742280 0.062271
1.000000 0.709963 0.051426
0.042340 1.000000 0.000000
0.222172 1.000000 0.051426
0.371011 1.000000 0.051426
0.516493 1.000000 0.051426
0.657904 1.000000 0.051426
0.794577 1.000000 0.051426
0.925924 1.000000 0.051426
1.000000 0.948549 0.051426
1.000000 0.829257 0.051426
0.000000 0.049134 0.272966
0.088528 0.000000 0.272966
0.223841 0.000000 0.272971
0.405227 0.000000 0.345907
0.533782 0.000000 0.369047
0.658031 0.000000 0.391412
0.777437 0.000000 0.412905
0.891552 0.000000 0.433445
1.000000 0.000000 0.452966
0.000000 0.186800 0.272966
0.124132 0.150926 0.272966
0.246186 0.124136 0.272971
0.405227 0.110910 0.312717
0.533782 0.098054 0.325315
0.658031 0.085630 0.337492
0.777437 0.073689 0.349194
0.891552 0.062277 0.360377
1.000000 0.051433 0.371005
0.000000 0.272970 0.223831
0.124131 0.272970 0.246175
0.272971 0.272969 0.272965
0.405227 0.259740 0.285923
0.533782 0.246884 0.298522
0.658031 0.234459 0.310698
0.777437 0.222519 0.322400
0.891552 0.211107 0.333583
1.000000 0.200263 0.344211
0.000000 0.405230 0.200025
0.110905 0.405230 0.206761
0.285933 0.405230 0.259740
0.405230 0.379045 0.259740
0.533782 0.340733 0.246884
0.658031 0.303707 0.234459
0.777437 0.268124 0.222519
0.891552 0.234118 0.211107
1.000000 0.201800 0.200263
0.000000 0.533785 0.176885
0.098050 0.533785 0.168452
0.298532 0.533785 0.246884
0.444013 0.533785 0.246884
0.533785 0.482146 0.246884
0.658031 0.445118 0.234459
0.777437 0.409535 0.222519
0.891552 0.375528 0.211107
1.000000 0.343211 0.200263
0.000000 0.658033 0.154520
0.085625 0.658033 0.131426
0.310708 0.658033 0.234459
0.456190 0.658033 0.234459
0.597600 0.658033 0.234459
0.658033 0.581792 0.234459
0.777437 0.546207 0.222519
0.891552 0.512201 0.211107
1.000000 0.479884 0.200263
0.000000 0.777440 0.133027
0.073684 0.777440 0.095843
0.322410 0.777440 0.222519
0.467892 0.777440 0.222519
0.609302 0.777440 0.222519
0.745976 0.777440 0.222519
0.777440 0.677557 0.222519
0.891552 0.643549 0.211107
1.000000 0.611231 0.200263
0.000000 0.891551 0.112487
0.062709 0.891551 0.062273
0.333593 0.891551 0.211108
0.479074 0.891551 0.211108
0.620485 0.891551 0.211108
0.757159 0.891551 0.211108
0.888505 0.891551 0.211108
0.891552 0.769071 0.211107
1.000000 0.736753 0.200263
0.000000 1.000000 0.092966
0.073337 1.000000 0.051428
0.344221 1.000000 0.200263
0.489702 1.000000 0.200263
0.631113 1.000000 0.200263
0.767787 1.000000 0.200263
0.899133 1.000000 0.200263
1.000000 0.975340 0.200263
1.000000 0.856047 0.200263
0.000000 0.072942 0.405232
0.064720 0.000000 0.405232
0.200029 0.000000 0.405232
0.332285 0.000000 0.405232
0.533782 0.000000 0.501313
0.658031 0.000000 0.523678
0.777437 0.000000 0.545171
0.891552 0.000000 0.565711
1.000000 0.000000 0.585232
0.000000 0.210608 0.405232
0.110905 0.163888 0.405232
0.206767 0.110909 0.405232
0.352248 0.110909 0.405232
0.533782 0.098054 0.470808
0.658031 0.085630 0.482984
0.777437 0.073689 0.494686
0.891552 0.062277 0.505869
1.000000 0.051433 0.516497
0.000000 0.345912 0.405232
0.110905 0.312723 0.405232
0.259744 0.285931 0.405232
0.379039 0.259744 0.405232
0.533782 0.246889 0.444018
0.658031 0.234464 0.456194
0.777437 0.222523 0.467896
0.891552 0.211112 0.479079
1.000000 0.200267 0.489707
0.000000 0.405232 0.332292
0.110905 0.405232 0.352255
0.259745 0.405232 0.379047
0.405226 0.405231 0.405232
0.533782 0.392375 0.417830
0.658031 0.379950 0.430007
0.777437 0.368009 0.441708
0.891552 0.356598 0.452892
1.000000 0.345753 0.463520
0.000000 0.533785 0.309151
0.098050 0.533785 0.313944
0.246890 0.533785 0.340736
0.417820 0.533785 0.392371
0.533785 0.508335 0.392377
0.658031 0.471306 0.379952
0.777437 0.435723 0.368011
0.891552 0.401717 0.356600
1.000000 0.369399 0.345755
0.000000 0.658033 0.286786
0.085625 0.658033 0.276918
0.234465 0.658033 0.303710
0.429996 0.658033 0.379946
0.571411 0.658033 0.379952
0.658033 0.607981 0.379952
0.777437 0.572396 0.368011
0.891552 0.538390 0.356600
1.000000 0.506072 0.345755
0.000000 0.777440 0.265293
0.073684 0.777440 0.241335
0.222524 0.777440 0.268126
0.441698 0.777440 0.368006
0.583113 0.777440 0.368011
0.719787 0.777440 0.368011
0.777440 0.703746 0.368011
0.891552 0.669737 0.356600
1.000000 0.637420 0.345755
0.000000 0.891551 0.244753
0.062273 0.891551 0.207330
0.211113 0.891551 0.234121
0.452881 0.891551 0.356595
0.594296 0.891551 0.356600
0.730970 0.891551 0.356600
0.862317 0.891551 0.356600
0.891552 0.795260 0.356600
1.000000 0.762942 0.345755
0.000000 1.000000 0.225232
0.051428 1.000000 0.175012
0.200268 1.000000 0.201803
0.463509 1.000000 0.345750
0.604924 1.000000 0.345755
0.741598 1.000000 0.345755
0.872945 1.000000 0.345755
0.998471 1.000000 0.345755
1.000000 0.882236 0.345755
0.000000 0.096081 0.533784
0.041581 0.000000 0.533784
0.176890 0.000000 0.533784
0.309146 0.000000 0.533784
0.437701 0.000000 0.533784
0.658031 0.000000 0.652230
0.777437 0.000000 0.673723
0.891552 0.000000 0.694263
1.000000 0.000000 0.713784
0.000000 0.233747 0.533784
0.098050 0.176486 0.533784
0.168458 0.098054 0.533784
0.313940 0.098054 0.533784
0.455350 0.098054 0.533784
0.658031 0.085630 0.624392
0.777437 0.073689 0.636093
0.891552 0.062277 0.647277
1.000000 0.051433 0.657905
0.000000 0.369051 0.533784
0.098050 0.325321 0.533784
0.246889 0.298529 0.533784
0.340730 0.246889 0.533784
0.482141 0.246889 0.533784
0.658031 0.234464 0.597601
0.777437 0.222523 0.609303
0.891552 0.211112 0.620486
1.000000 0.200267 0.631114
0.000000 0.501311 0.533784
0.098050 0.470807 0.533784
0.246890 0.444016 0.533784
0.392371 0.417829 0.533784
0.508328 0.392375 0.533784
0.658031 0.379950 0.571414
0.777437 0.368009 0.583116
0.891552 0.356598 0.594299
1.000000 0.345753 0.604927
0.000000 0.533785 0.437703
0.098050 0.533785 0.455352
0.246890 0.533785 0.482143
0.392371 0.533785 0.508329
0.533782 0.533785 0.533783
0.658031 0.521359 0.545959
0.777437 0.509419 0.557661
0.891552 0.498007 0.568844
1.000000 0.487162 0.579472
0.000000 0.658033 0.415338
0.085625 0.658033 0.418326
0.234465 0.658033 0.445117
0.379946 0.658033 0.471304
0.545956 0.658033 0.521357
0.658033 0.633434 0.521359
0.777437 0.597849 0.509419
0.891552 0.563843 0.498007
1.000000 0.531526 0.487162
0.000000 0.777440 0.393845
0.073684 0.777440 0.382742
0.222524 0.777440 0.409534
0.368006 0.777440 0.435720
0.557658 0.777440 0.509416
0.694334 0.777440 0.509418
0.777440 0.729199 0.509418
0.891552 0.695191 0.498007
1.000000 0.662873 0.487162
0.000000 0.891551 0.373305
0.062273 0.891551 0.348737
0.211113 0.891551 0.375528
0.356595 0.891551 0.401715
0.568841 0.891551 0.498005
0.705517 0.891551 0.498007
0.836863 0.891551 0.498007
0.891552 0.820713 0.498007
1.000000 0.788395 0.487162
0.000000 1.000000 0.353784
0.051428 1.000000 0.316419
0.200268 1.000000 0.343211
0.345750 1.000000 0.369397
0.579469 1.000000 0.487160
0.716145 1.000000 0.487162
0.847491 1.000000 0.487162
0.973018 1.000000 0.487162
1.000000 0.907689 0.487162
0.000000 0.118446 0.658032
0.019216 0.000000 0.658032
0.154525 0.000000 0.658032
0.286781 0.000000 0.658032
0.415336 0.000000 0.658032
0.539585 0.000000 0.658032
0.756903 0.000000 0.777437
0.891552 0.000000 0.818511
1.000000 0.000000 0.838032
0.000000 0.256112 0.658032
0.085625 0.188663 0.658032
0.131432 0.085629 0.658032
0.276914 0.085629 0.658032
0.418325 0.085629 0.658032
0.554998 0.085629 0.658032
0.777437 0.073689 0.772766
0.891552 0.062277 0.783949
1.000000 0.051433 0.794577
0.000000 0.391416 0.658032
0.085625 0.337497 0.658032
0.234464 0.310705 0.658032
0.303704 0.234464 0.658032
0.445115 0.234464 0.658032
0.581789 0.234464 0.658032
0.777437 0.222523 0.745976
0.891552 0.211112 0.757159
1.000000 0.200267 0.767787
0.000000 0.523676 0.658032
0.085625 0.482983 0.658032
0.234465 0.456192 0.658032
0.379947 0.430005 0.658032
0.471302 0.379950 0.658032
0.607976 0.379950 0.658032
0.777437 0.368009 0.719788
0.891552 0.356598 0.730972
1.000000 0.345753 0.741600
0.000000 0.652231 0.658032
0.085625 0.624394 0.658032
0.234465 0.597602 0.658032
0.379947 0.571416 0.658032
0.521357 0.545962 0.658032
0.633430 0.521360 0.658032
0.777437 0.509420 0.694335
0.891552 0.498008 0.705518
1.000000 0.487163 0.716146
0.000000 0.658033 0.539586
0.085625 0.658033 0.554998
0.234465 0.658033 0.581790
0.379946 0.658033 0.607976
0.521357 0.658033 0.633430
0.658031 0.658033 0.658032
0.777437 0.646091 0.669733
0.891552 0.634680 0.680916
1.000000 0.623835 0.691544
0.000000 0.777440 0.518093
0.073684 0.777440 0.519415
0.222524 0.777440 0.546206
0.368006 0.777440 0.572393
0.509416 0.777440 0.597847
0.669732 0.777440 0.646090
0.777440 0.753801 0.646091
0.891552 0.719792 0.634680
1.000000 0.687474 0.623835
0.000000 0.891551 0.497553
0.062273 0.891551 0.485410
0.211113 0.891551 0.512201
0.356595 0.891551 0.538388
0.498005 0.891551 0.563842
0.680915 0.891551 0.634679
0.812262 0.891551 0.634680
0.891552 0.845314 0.634680
1.000000 0.812996 0.623835
0.000000 1.000000 0.478032
0.051428 1.000000 0.453092
0.200268 1.000000 0.479883
0.345750 1.000000 0.506070
0.487160 1.000000 0.531524
0.691543 1.000000 0.623834
0.822890 1.000000 0.623835
0.948417 1.000000 0.623835
1.000000 0.932290 0.623835
0.000000 0.139939 0.777438
0.000000 0.002277 0.777438
0.133032 0.000000 0.777438
0.265288 0.000000 0.777438
0.393843 0.000000 0.777438
0.518092 0.000000 0.777438
0.637498 0.000000 0.777438
0.845187 0.000000 0.891552
1.000000 0.000000 0.957438
0.000000 0.277605 0.777438
0.073684 0.200364 0.777438
0.095849 0.073689 0.777438
0.241331 0.073689 0.777438
0.382742 0.073689 0.777438
0.519415 0.073689 0.777438
0.650762 0.073689 0.777438
0.867808 0.062277 0.891552
1.000000 0.051433 0.925924
0.000000 0.412909 0.777438
0.073684 0.349199 0.777438
0.222523 0.322407 0.777438
0.268121 0.222523 0.777438
0.409532 0.222523 0.777438
0.546206 0.222523 0.777438
0.677552 0.222523 0.777438
0.891552 0.211112 0.888506
1.000000 0.200267 0.899134
0.000000 0.545169 0.777438
0.073684 0.494685 0.777438
0.222524 0.467894 0.777438
0.368006 0.441707 0.777438
0.435719 0.368009 0.777438
0.572393 0.368009 0.777438
0.703740 0.368009 0.777438
0.891552 0.356598 0.862318
1.000000 0.345753 0.872946
0.000000 0.673724 0.777438
0.073684 0.636095 0.777438
0.222524 0.609304 0.777438
0.368006 0.583117 0.777438
0.509416 0.557664 0.777438
0.597847 0.509420 0.777438
0.729194 0.509420 0.777438
0.891552 0.498008 0.836864
1.000000 0.487163 0.847492
0.000000 0.777438 0.756904
0.073684 0.772768 0.777438
0.222524 0.745977 0.777438
0.368006 0.719790 0.777438
0.509416 0.694336 0.777438
0.646090 0.669735 0.777438
0.753795 0.646092 0.777438
0.891552 0.634681 0.812263
1.000000 0.623836 0.822891
0.000000 0.777440 0.637499
0.073684 0.777440 0.650762
0.222524 0.777440 0.677553
0.368006 0.777440 0.703740
0.509416 0.777440 0.729194
0.646090 0.777440 0.753795
0.777437 0.777440 0.777437
0.891552 0.766027 0.788619
1.000000 0.755182 0.799247
0.000000 0.891551 0.616959
0.062273 0.891551 0.616757
0.211113 0.891551 0.643548
0.356595 0.891551 0.669735
0.498005 0.891551 0.695188
0.634679 0.891551 0.719790
0.788619 0.891551 0.766026
0.891552 0.868956 0.766027
1.000000 0.836639 0.755182
0.000000 1.000000 0.597438
0.051428 1.000000 0.584439
0.200268 1.000000 0.611230
0.345750 1.000000 0.637417
0.487160 1.000000 0.662871
0.623834 1.000000 0.687472
0.799247 1.000000 0.755181
0.924774 1.000000 0.755182
1.000000 0.955933 0.755182
0.000000 0.160479 0.891548
0.000000 0.022817 0.891548
0.112492 0.000000 0.891548
0.244748 0.000000 0.891548
0.373303 0.000000 0.891548
0.497552 0.000000 0.891548
0.616958 0.000000 0.891548
0.731077 0.000000 0.891552
0.928452 0.000000 1.000000
0.000000 0.298145 0.891548
0.062273 0.211547 0.891548
0.062278 0.062711 0.891548
0.207326 0.062278 0.891548
0.348737 0.062278 0.891548
0.485411 0.062278 0.891548
0.616757 0.062278 0.891548
0.742287 0.062277 0.891552
0.948555 0.051433 1.000000
0.000000 0.433449 0.891548
0.062273 0.360382 0.891548
0.211112 0.333590 0.891548
0.234116 0.211112 0.891548
0.375527 0.211112 0.891548
0.512201 0.211112 0.891548
0.643547 0.211112 0.891548
0.769077 0.211112 0.891552
0.975345 0.200267 1.000000
0.000000 0.565709 0.891548
0.062273 0.505868 0.891548
0.211113 0.479076 0.891548
0.356595 0.452890 0.891548
0.401714 0.356598 0.891548
0.538388 0.356598 0.891548
0.669735 0.356598 0.891548
0.795265 0.356598 0.891552
1.000000 0.345753 0.998467
0.000000 0.694264 0.891548
0.062273 0.647278 0.891548
0.211113 0.620487 0.891548
0.356595 0.594300 0.891548
0.498005 0.568846 0.891548
0.563842 0.498009 0.891548
0.695189 0.498009 0.891548
0.820719 0.498008 0.891552
1.000000 0.487163 0.973013
0.000000 0.818512 0.891548
0.062273 0.783951 0.891548
0.211113 0.757160 0.891548
0.356595 0.730973 0.891548
0.498005 0.705519 0.891548
0.634679 0.680918 0.891548
0.719790 0.634682 0.891548
0.845320 0.634681 0.891552
1.000000 0.623836 0.948412
0.000000 0.891548 0.845177
0.062273 0.891548 0.867797
0.211113 0.888507 0.891548
0.356595 0.862321 0.891548
0.498005 0.836867 0.891548
0.634679 0.812266 0.891548
0.766026 0.788623 0.891548
0.868962 0.766029 0.891552
1.000000 0.755184 0.924770
0.000000 0.891551 0.731069
0.062273 0.891551 0.742278
0.211113 0.891551 0.769069
0.356595 0.891551 0.795256
0.498005 0.891551 0.820709
0.634679 0.891551 0.845311
0.766026 0.891551 0.868953
0.891552 0.891550 0.891548
1.000000 0.880703 0.902173
0.000000 1.000000 0.711548
0.051428 1.000000 0.709960
0.200268 1.000000 0.736751
0.345750 1.000000 0.762938
0.487160 1.000000 0.788392
0.623834 1.000000 0.812993
0.755181 1.000000 0.836635
0.902181 1.000000 0.880703
1.000000 0.978527 0.880703
0.000000 0.180000 1.000000
0.000000 0.042338 1.000000
0.092971 0.000000 1.000000
0.225227 0.000000 1.000000
0.353782 0.000000 1.000000
0.478031 0.000000 1.000000
0.597437 0.000000 1.000000
0.711552 0.000000 1.000000
0.820000 0.000000 1.000000
0.000000 0.317666 1.000000
0.051428 0.222176 1.000000
0.051433 0.073339 1.000000
0.175008 0.051433 1.000000
0.316418 0.051433 1.000000
0.453092 0.051433 1.000000
0.584439 0.051433 1.000000
0.709965 0.051433 1.000000
0.829258 0.051433 1.000000
0.000000 0.452970 1.000000
0.051428 0.371010 1.000000
0.200267 0.344218 1.000000
0.201798 0.200267 1.000000
0.343208 0.200267 1.000000
0.479882 0.200267 1.000000
0.611229 0.200267 1.000000
0.736755 0.200267 1.000000
0.856048 0.200267 1.000000
0.000000 0.585230 1.000000
0.051428 0.516496 1.000000
0.200268 0.489705 1.000000
0.345750 0.463518 1.000000
0.369396 0.345753 1.000000
0.506070 0.345753 1.000000
0.637416 0.345753 1.000000
0.762943 0.345753 1.000000
0.882236 0.345753 1.000000
0.000000 0.713785 1.000000
0.051428 0.657906 1.000000
0.200268 0.631115 1.000000
0.345750 0.604929 1.000000
0.487160 0.579475 1.000000
0.531524 0.487163 1.000000
0.662870 0.487163 1.000000
0.788397 0.487163 1.000000
0.907689 0.487163 1.000000
0.000000 0.838033 1.000000
0.051428 0.794579 1.000000
0.200268 0.767788 1.000000
0.345750 0.741601 1.000000
0.487160 0.716147 1.000000
0.623834 0.691546 1.000000
0.687471 0.623836 1.000000
0.812998 0.623836 1.000000
0.932291 0.623836 1.000000
0.000000 0.957440 1.000000
0.051428 0.925927 1.000000
0.200268 0.899136 1.000000
0.345750 0.872949 1.000000
0.487160 0.847495 1.000000
0.623834 0.822894 1.000000
0.755181 0.799251 1.000000
0.836640 0.755184 1.000000
0.955933 0.755184 1.000000
0.000000 1.000000 0.928449
0.051428 1.000000 0.948551
0.200268 1.000000 0.975342
0.345750 0.998471 1.000000
0.487160 0.973017 1.000000
0.623834 0.948416 1.000000
0.755181 0.924774 1.000000
0.880706 0.902178 1.000000
0.978527 0.880706 1.000000
0.000000 1.000000 0.820000
0.051428 1.000000 0.829257
0.200268 1.000000 0.856048
0.345750 1.000000 0.882235
0.487160 1.000000 0.907689
0.623834 1.000000 0.932290
0.755181 1.000000 0.955933
0.880707 1.000000 0.978527
1.000000 1.000000 1.000000
