luts/agfa_vista_200.cube
TITLE Film LUT
LUT_3D_SIZE 33
DOMAIN_MIN 0.0 0.0 0.0
DOMAIN_MAX 1.0 1.0 1.0
0.000000 0.000000 0.000000
0.034595 0.000000 0.006227
0.069082 0.000000 0.012435
0.103441 0.000000 0.018619
0.137662 0.000000 0.024779
0.171737 0.000000 0.030913
0.205655 0.000000 0.037018
0.239398 0.000000 0.043092
0.272971 0.000000 0.049135
0.306345 0.000000 0.055142
0.339519 0.000000 0.061113
0.372488 0.000000 0.067048
0.405227 0.000000 0.072941
0.437736 0.000000 0.078792
0.470009 0.000000 0.084602
0.502029 0.000000 0.090365
0.533782 0.000000 0.096081
0.565269 0.000000 0.101748
0.596478 0.000000 0.107366
0.627403 0.000000 0.112933
0.658031 0.000000 0.118446
0.688358 0.000000 0.123904
0.718369 0.000000 0.129306
0.748066 0.000000 0.134652
0.777437 0.000000 0.139939
0.806481 0.000000 0.145167
0.835181 0.000000 0.150333
0.863542 0.000000 0.155438
0.891552 0.000000 0.160479
0.919205 0.000000 0.165457
0.946501 0.000000 0.170370
0.973435 0.000000 0.175218
1.000000 0.000000 0.180000
0.006228 0.034599 0.000000
0.034599 0.028375 0.000000
0.069082 0.022164 0.000000
0.103441 0.015980 0.000000
0.137662 0.009820 0.000000
0.171737 0.003686 0.000000
0.205655 0.000000 0.002419
0.239398 0.000000 0.008493
0.272971 0.000000 0.014536
0.306345 0.000000 0.020543
0.339519 0.000000 0.026514
0.372488 0.000000 0.032449
0.405227 0.000000 0.038342
0.437736 0.000000 0.044193
0.470009 0.000000 0.050003
0.502029 0.000000 0.055766
0.533782 0.000000 0.061482
0.565269 0.000000 0.067149
0.596478 0.000000 0.072767
0.627403 0.000000 0.078334
0.658031 0.000000 0.083847
0.688358 0.000000 0.089305
0.718369 0.000000 0.094707
0.748066 0.000000 0.100053
0.777437 0.000000 0.105340
0.806481 0.000000 0.110568
0.835181 0.000000 0.115734
0.863542 0.000000 0.120839
0.891552 0.000000 0.125880
0.919205 0.000000 0.130858
0.946501 0.000000 0.135771
0.973435 0.000000 0.140619
1.000000 0.000000 0.145401
0.012435 0.069082 0.000000
0.047030 0.069082 0.000000
0.069082 0.056647 0.000000
0.103441 0.050463 0.000000
0.137662 0.044303 0.000000
0.171737 0.038169 0.000000
0.205655 0.032064 0.000000
0.239398 0.025990 0.000000
0.272971 0.019947 0.000000
0.306345 0.013940 0.000000
0.339519 0.007969 0.000000
0.372488 0.002034 0.000000
0.405227 0.000000 0.003859
0.437736 0.000000 0.009710
0.470009 0.000000 0.015520
0.502029 0.000000 0.021283
0.533782 0.000000 0.026999
0.565269 0.000000 0.032666
0.596478 0.000000 0.038284
0.627403 0.000000 0.043851
0.658031 0.000000 0.049364
0.688358 0.000000 0.054822
0.718369 0.000000 0.060224
0.748066 0.000000 0.065570
0.777437 0.000000 0.070857
0.806481 0.000000 0.076085
0.835181 0.000000 0.081251
0.863542 0.000000 0.086356
0.891552 0.000000 0.091397
0.919205 0.000000 0.096375
0.946501 0.000000 0.101288
0.973435 0.000000 0.106136
1.000000 0.000000 0.110918
0.018620 0.103444 0.000000
0.053215 0.103444 0.000000
0.087702 0.103444 0.000000
0.103444 0.084827 0.000000
0.137662 0.078665 0.000000
0.171737 0.072531 0.000000
0.205655 0.066426 0.000000
0.239398 0.060352 0.000000
0.272971 0.054309 0.000000
0.306345 0.048302 0.000000
0.339519 0.042331 0.000000
0.372488 0.036396 0.000000
0.405227 0.030503 0.000000
0.437736 0.024652 0.000000
0.470009 0.018842 0.000000
0.502029 0.013079 0.000000
0.533782 0.007363 0.000000
0.565269 0.001696 0.000000
0.596478 0.000000 0.003922
0.627403 0.000000 0.009489
0.658031 0.000000 0.015002
0.688358 0.000000 0.020460
0.718369 0.000000 0.025862
0.748066 0.000000 0.031208
0.777437 0.000000 0.036495
0.806481 0.000000 0.041723
0.835181 0.000000 0.046889
0.863542 0.000000 0.051994
0.891552 0.000000 0.057035
0.919205 0.000000 0.062013
0.946501 0.000000 0.066926
0.973435 0.000000 0.071774
1.000000 0.000000 0.076556
0.024780 0.137666 0.000000
0.059375 0.137666 0.000000
0.093862 0.137666 0.000000
0.128221 0.137666 0.000000
0.137666 0.112890 0.000000
0.171737 0.106753 0.000000
0.205655 0.100648 0.000000
0.239398 0.094574 0.000000
0.272971 0.088531 0.000000
0.306345 0.082524 0.000000
0.339519 0.076553 0.000000
0.372488 0.070618 0.000000
0.405227 0.064725 0.000000
0.437736 0.058874 0.000000
0.470009 0.053064 0.000000
0.502029 0.047301 0.000000
0.533782 0.041585 0.000000
0.565269 0.035918 0.000000
0.596478 0.030300 0.000000
0.627403 0.024733 0.000000
0.658031 0.019220 0.000000
0.688358 0.013762 0.000000
0.718369 0.008360 0.000000
0.748066 0.003014 0.000000
0.777437 0.000000 0.002273
0.806481 0.000000 0.007501
0.835181 0.000000 0.012667
0.863542 0.000000 0.017772
0.891552 0.000000 0.022813
0.919205 0.000000 0.027791
0.946501 0.000000 0.032704
0.973435 0.000000 0.037552
1.000000 0.000000 0.042334
0.030913 0.171737 0.000000
0.065508 0.171737 0.000000
0.099995 0.171737 0.000000
0.134354 0.171737 0.000000
0.168575 0.171737 0.000000
0.171737 0.140824 0.000000
0.205655 0.134719 0.000000
0.239398 0.128645 0.000000
0.272971 0.122602 0.000000
0.306345 0.116595 0.000000
0.339519 0.110624 0.000000
0.372488 0.104689 0.000000
0.405227 0.098796 0.000000
0.437736 0.092945 0.000000
0.470009 0.087135 0.000000
0.502029 0.081372 0.000000
0.533782 0.075656 0.000000
0.565269 0.069989 0.000000
0.596478 0.064371 0.000000
0.627403 0.058804 0.000000
0.658031 0.053291 0.000000
0.688358 0.047833 0.000000
0.718369 0.042431 0.000000
0.748066 0.037085 0.000000
0.777437 0.031798 0.000000
0.806481 0.026570 0.000000
0.835181 0.021404 0.000000
0.863542 0.016299 0.000000
0.891552 0.011258 0.000000
0.919205 0.006280 0.000000
0.946501 0.001367 0.000000
0.973435 0.000000 0.003481
1.000000 0.000000 0.008263
0.037018 0.205655 0.000000
0.071613 0.205655 0.000000
0.106100 0.205655 0.000000
0.140459 0.205655 0.000000
0.174680 0.205655 0.000000
0.205655 0.202555 0.000000
0.205655 0.168637 0.000000
0.239398 0.162563 0.000000
0.272971 0.156520 0.000000
0.306345 0.150513 0.000000
0.339519 0.144542 0.000000
0.372488 0.138607 0.000000
0.405227 0.132714 0.000000
0.437736 0.126863 0.000000
0.470009 0.121053 0.000000
0.502029 0.115290 0.000000
0.533782 0.109574 0.000000
0.565269 0.103907 0.000000
0.596478 0.098289 0.000000
0.627403 0.092722 0.000000
0.658031 0.087209 0.000000
0.688358 0.081751 0.000000
0.718369 0.076349 0.000000
0.748066 0.071003 0.000000
0.777437 0.065716 0.000000
0.806481 0.060488 0.000000
0.835181 0.055322 0.000000
0.863542 0.050217 0.000000
0.891552 0.045176 0.000000
0.919205 0.040198 0.000000
0.946501 0.035285 0.000000
0.973435 0.030437 0.000000
1.000000 0.025655 0.000000
0.043093 0.239404 0.000000
0.077688 0.239404 0.000000
0.112175 0.239404 0.000000
0.146534 0.239404 0.000000
0.180755 0.239404 0.000000
0.214830 0.239404 0.000000
0.239404 0.230060 0.000000
0.239404 0.196317 0.000000
0.272971 0.190269 0.000000
0.306345 0.184262 0.000000
0.339519 0.178291 0.000000
0.372488 0.172356 0.000000
0.405227 0.166463 0.000000
0.437736 0.160612 0.000000
0.470009 0.154802 0.000000
0.502029 0.149039 0.000000
0.533782 0.143323 0.000000
0.565269 0.137656 0.000000
0.596478 0.132038 0.000000
0.627403 0.126471 0.000000
0.658031 0.120958 0.000000
0.688358 0.115500 0.000000
0.718369 0.110098 0.000000
0.748066 0.104752 0.000000
0.777437 0.099465 0.000000
0.806481 0.094237 0.000000
0.835181 0.089071 0.000000
0.863542 0.083966 0.000000
0.891552 0.078925 0.000000
0.919205 0.073947 0.000000
0.946501 0.069034 0.000000
0.973435 0.064186 0.000000
1.000000 0.059404 0.000000
0.049135 0.272970 0.000000
0.083730 0.272970 0.000000
0.118217 0.272970 0.000000
0.152576 0.272970 0.000000
0.186797 0.272970 0.000000
0.220872 0.272970 0.000000
0.254790 0.272970 0.000000
0.272970 0.257407 0.000000
0.272971 0.223835 0.000000
0.306345 0.217828 0.000000
0.339519 0.211857 0.000000
0.372488 0.205922 0.000000
0.405227 0.200029 0.000000
0.437736 0.194178 0.000000
0.470009 0.188368 0.000000
0.502029 0.182605 0.000000
0.533782 0.176889 0.000000
0.565269 0.171222 0.000000
0.596478 0.165604 0.000000
0.627403 0.160037 0.000000
0.658031 0.154524 0.000000
0.688358 0.149066 0.000000
0.718369 0.143664 0.000000
0.748066 0.138318 0.000000
0.777437 0.133031 0.000000
0.806481 0.127803 0.000000
0.835181 0.122637 0.000000
0.863542 0.117532 0.000000
0.891552 0.112491 0.000000
0.919205 0.107513 0.000000
0.946501 0.102600 0.000000
0.973435 0.097752 0.000000
1.000000 0.092970 0.000000
0.055143 0.306348 0.000000
0.089738 0.306348 0.000000
0.124225 0.306348 0.000000
0.158584 0.306348 0.000000
0.192805 0.306348 0.000000
0.226880 0.306348 0.000000
0.260798 0.306348 0.000000
0.294541 0.306348 0.000000
0.306348 0.284582 0.000000
0.306348 0.251208 0.000000
0.339519 0.245235 0.000000
0.372488 0.239300 0.000000
0.405227 0.233407 0.000000
0.437736 0.227556 0.000000
0.470009 0.221746 0.000000
0.502029 0.215983 0.000000
0.533782 0.210267 0.000000
0.565269 0.204600 0.000000
0.596478 0.198982 0.000000
0.627403 0.193415 0.000000
0.658031 0.187902 0.000000
0.688358 0.182444 0.000000
0.718369 0.177042 0.000000
0.748066 0.171696 0.000000
0.777437 0.166409 0.000000
0.806481 0.161181 0.000000
0.835181 0.156015 0.000000
0.863542 0.150910 0.000000
0.891552 0.145869 0.000000
0.919205 0.140891 0.000000
0.946501 0.135978 0.000000
0.973435 0.131130 0.000000
1.000000 0.126348 0.000000
0.061113 0.339519 0.000000
0.095708 0.339519 0.000000
0.130195 0.339519 0.000000
0.164554 0.339519 0.000000
0.198775 0.339519 0.000000
0.232850 0.339519 0.000000
0.266768 0.339519 0.000000
0.300511 0.339519 0.000000
0.334084 0.339519 0.000000
0.339519 0.311580 0.000000
0.339519 0.278406 0.000000
0.372488 0.272471 0.000000
0.405227 0.266578 0.000000
0.437736 0.260727 0.000000
0.470009 0.254917 0.000000
0.502029 0.249154 0.000000
0.533782 0.243438 0.000000
0.565269 0.237771 0.000000
0.596478 0.232153 0.000000
0.627403 0.226586 0.000000
0.658031 0.221073 0.000000
0.688358 0.215615 0.000000
0.718369 0.210213 0.000000
0.748066 0.204867 0.000000
0.777437 0.199580 0.000000
0.806481 0.194352 0.000000
0.835181 0.189186 0.000000
0.863542 0.184081 0.000000
0.891552 0.179040 0.000000
0.919205 0.174062 0.000000
0.946501 0.169149 0.000000
0.973435 0.164301 0.000000
1.000000 0.159519 0.000000
0.067048 0.372490 0.000000
0.101643 0.372490 0.000000
0.136130 0.372490 0.000000
0.170489 0.372490 0.000000
0.204710 0.372490 0.000000
0.238785 0.372490 0.000000
0.272703 0.372490 0.000000
0.306446 0.372490 0.000000
0.340019 0.372490 0.000000
0.372490 0.371587 0.000000
0.372490 0.338413 0.000000
0.372490 0.305444 0.000000
0.405227 0.299549 0.000000
0.437736 0.293698 0.000000
0.470009 0.287888 0.000000
0.502029 0.282125 0.000000
0.533782 0.276409 0.000000
0.565269 0.270742 0.000000
0.596478 0.265124 0.000000
0.627403 0.259557 0.000000
0.658031 0.254044 0.000000
0.688358 0.248586 0.000000
0.718369 0.243184 0.000000
0.748066 0.237838 0.000000
0.777437 0.232551 0.000000
0.806481 0.227323 0.000000
0.835181 0.222157 0.000000
0.863542 0.217052 0.000000
0.891552 0.212011 0.000000
0.919205 0.207033 0.000000
0.946501 0.202120 0.000000
0.973435 0.197272 0.000000
1.000000 0.192490 0.000000
0.072941 0.405230 0.000000
0.107536 0.405230 0.000000
0.142023 0.405230 0.000000
0.176382 0.405230 0.000000
0.210603 0.405230 0.000000
0.244678 0.405230 0.000000
0.278596 0.405230 0.000000
0.312339 0.405230 0.000000
0.345912 0.405230 0.000000
0.379286 0.405230 0.000000
0.405230 0.398000 0.000000
0.405230 0.365031 0.000000
0.405230 0.332292 0.000000
0.437736 0.326438 0.000000
0.470009 0.320628 0.000000
0.502029 0.314865 0.000000
0.533782 0.309149 0.000000
0.565269 0.303482 0.000000
0.596478 0.297864 0.000000
0.627403 0.292297 0.000000
0.658031 0.286784 0.000000
0.688358 0.281326 0.000000
0.718369 0.275924 0.000000
0.748066 0.270578 0.000000
0.777437 0.265291 0.000000
0.806481 0.260063 0.000000
0.835181 0.254897 0.000000
0.863542 0.249792 0.000000
0.891552 0.244751 0.000000
0.919205 0.239773 0.000000
0.946501 0.234860 0.000000
0.973435 0.230012 0.000000
1.000000 0.225230 0.000000
0.078793 0.437739 0.000000
0.113388 0.437739 0.000000
0.147875 0.437739 0.000000
0.182234 0.437739 0.000000
0.216455 0.437739 0.000000
0.250530 0.437739 0.000000
0.284448 0.437739 0.000000
0.318191 0.437739 0.000000
0.351764 0.437739 0.000000
0.385138 0.437739 0.000000
0.418312 0.437739 0.000000
0.437739 0.424197 0.000000
0.437739 0.391458 0.000000
0.437739 0.358949 0.000000
0.470009 0.353137 0.000000
0.502029 0.347374 0.000000
0.533782 0.341658 0.000000
0.565269 0.335991 0.000000
0.596478 0.330373 0.000000
0.627403 0.324806 0.000000
0.658031 0.319293 0.000000
0.688358 0.313835 0.000000
0.718369 0.308433 0.000000
0.748066 0.303087 0.000000
0.777437 0.297800 0.000000
0.806481 0.292572 0.000000
0.835181 0.287406 0.000000
0.863542 0.282301 0.000000
0.891552 0.277260 0.000000
0.919205 0.272282 0.000000
0.946501 0.267369 0.000000
0.973435 0.262521 0.000000
1.000000 0.257739 0.000000
0.084602 0.470012 0.000000
0.119197 0.470012 0.000000
0.153684 0.470012 0.000000
0.188043 0.470012 0.000000
0.222264 0.470012 0.000000
0.256339 0.470012 0.000000
0.290257 0.470012 0.000000
0.324000 0.470012 0.000000
0.357573 0.470012 0.000000
0.390947 0.470012 0.000000
0.424121 0.470012 0.000000
0.457090 0.470012 0.000000
0.470012 0.450195 0.000000
0.470012 0.417686 0.000000
0.470012 0.385413 0.000000
0.502029 0.379647 0.000000
0.533782 0.373931 0.000000
0.565269 0.368264 0.000000
0.596478 0.362646 0.000000
0.627403 0.357079 0.000000
0.658031 0.351566 0.000000
0.688358 0.346108 0.000000
0.718369 0.340706 0.000000
0.748066 0.335360 0.000000
0.777437 0.330073 0.000000
0.806481 0.324845 0.000000
0.835181 0.319679 0.000000
0.863542 0.314574 0.000000
0.891552 0.309533 0.000000
0.919205 0.304555 0.000000
0.946501 0.299642 0.000000
0.973435 0.294794 0.000000
1.000000 0.290012 0.000000
0.090365 0.502029 0.000000
0.124960 0.502029 0.000000
0.159447 0.502029 0.000000
0.193806 0.502029 0.000000
0.228027 0.502029 0.000000
0.262102 0.502029 0.000000
0.296020 0.502029 0.000000
0.329763 0.502029 0.000000
0.363336 0.502029 0.000000
0.396710 0.502029 0.000000
0.429884 0.502029 0.000000
0.462853 0.502029 0.000000
0.495592 0.502029 0.000000
0.502029 0.475957 0.000000
0.502029 0.443684 0.000000
0.502029 0.411664 0.000000
0.533782 0.405948 0.000000
0.565269 0.400281 0.000000
0.596478 0.394663 0.000000
0.627403 0.389096 0.000000
0.658031 0.383583 0.000000
0.688358 0.378125 0.000000
0.718369 0.372723 0.000000
0.748066 0.367377 0.000000
0.777437 0.362090 0.000000
0.806481 0.356862 0.000000
0.835181 0.351696 0.000000
0.863542 0.346591 0.000000
0.891552 0.341550 0.000000
0.919205 0.336572 0.000000
0.946501 0.331659 0.000000
0.973435 0.326811 0.000000
1.000000 0.322029 0.000000
0.096081 0.533785 0.000000
0.130676 0.533785 0.000000
0.165163 0.533785 0.000000
0.199522 0.533785 0.000000
0.233743 0.533785 0.000000
0.267818 0.533785 0.000000
0.301736 0.533785 0.000000
0.335479 0.533785 0.000000
0.369052 0.533785 0.000000
0.402426 0.533785 0.000000
0.435600 0.533785 0.000000
0.468569 0.533785 0.000000
0.501308 0.533785 0.000000
0.533785 0.533753 0.000000
0.533785 0.501480 0.000000
0.533785 0.469460 0.000000
0.533785 0.437707 0.000000
0.565269 0.432037 0.000000
0.596478 0.426419 0.000000
0.627403 0.420852 0.000000
0.658031 0.415339 0.000000
0.688358 0.409881 0.000000
0.718369 0.404479 0.000000
0.748066 0.399133 0.000000
0.777437 0.393846 0.000000
0.806481 0.388618 0.000000
0.835181 0.383452 0.000000
0.863542 0.378347 0.000000
0.891552 0.373306 0.000000
0.919205 0.368328 0.000000
0.946501 0.363415 0.000000
0.973435 0.358567 0.000000
1.000000 0.353785 0.000000
0.101749 0.565274 0.000000
0.136344 0.565274 0.000000
0.170831 0.565274 0.000000
0.205190 0.565274 0.000000
0.239411 0.565274 0.000000
0.273486 0.565274 0.000000
0.307404 0.565274 0.000000
0.341147 0.565274 0.000000
0.374720 0.565274 0.000000
0.408094 0.565274 0.000000
0.441268 0.565274 0.000000
0.474237 0.565274 0.000000
0.506976 0.565274 0.000000
0.539485 0.565274 0.000000
0.565274 0.558790 0.000000
0.565274 0.526770 0.000000
0.565274 0.495017 0.000000
0.565274 0.463530 0.000000
0.596478 0.457908 0.000000
0.627403 0.452341 0.000000
0.658031 0.446828 0.000000
0.688358 0.441370 0.000000
0.718369 0.435968 0.000000
0.748066 0.430622 0.000000
0.777437 0.425335 0.000000
0.806481 0.420107 0.000000
0.835181 0.414941 0.000000
0.863542 0.409836 0.000000
0.891552 0.404795 0.000000
0.919205 0.399817 0.000000
0.946501 0.394904 0.000000
0.973435 0.390056 0.000000
1.000000 0.385274 0.000000
0.107367 0.596483 0.000000
0.141962 0.596483 0.000000
0.176449 0.596483 0.000000
0.210808 0.596483 0.000000
0.245029 0.596483 0.000000
0.279104 0.596483 0.000000
0.313022 0.596483 0.000000
0.346765 0.596483 0.000000
0.380338 0.596483 0.000000
0.413712 0.596483 0.000000
0.446886 0.596483 0.000000
0.479855 0.596483 0.000000
0.512594 0.596483 0.000000
0.545103 0.596483 0.000000
0.577376 0.596483 0.000000
0.596483 0.583570 0.000000
0.596483 0.551817 0.000000
0.596483 0.520330 0.000000
0.596483 0.489121 0.000000
0.627403 0.483550 0.000000
0.658031 0.478037 0.000000
0.688358 0.472579 0.000000
0.718369 0.467177 0.000000
0.748066 0.461831 0.000000
0.777437 0.456544 0.000000
0.806481 0.451316 0.000000
0.835181 0.446150 0.000000
0.863542 0.441045 0.000000
0.891552 0.436004 0.000000
0.919205 0.431026 0.000000
0.946501 0.426113 0.000000
0.973435 0.421265 0.000000
1.000000 0.416483 0.000000
0.112933 0.627407 0.000000
0.147528 0.627407 0.000000
0.182015 0.627407 0.000000
0.216374 0.627407 0.000000
0.250595 0.627407 0.000000
0.284670 0.627407 0.000000
0.318588 0.627407 0.000000
0.352331 0.627407 0.000000
0.385904 0.627407 0.000000
0.419278 0.627407 0.000000
0.452452 0.627407 0.000000
0.485421 0.627407 0.000000
0.518160 0.627407 0.000000
0.550669 0.627407 0.000000
0.582942 0.627407 0.000000
0.614962 0.627407 0.000000
0.627407 0.608099 0.000000
0.627407 0.576612 0.000000
0.627407 0.545403 0.000000
0.627407 0.514478 0.000000
0.658031 0.508961 0.000000
0.688358 0.503503 0.000000
0.718369 0.498101 0.000000
0.748066 0.492755 0.000000
0.777437 0.487468 0.000000
0.806481 0.482240 0.000000
0.835181 0.477074 0.000000
0.863542 0.471969 0.000000
0.891552 0.466928 0.000000
0.919205 0.461950 0.000000
0.946501 0.457037 0.000000
0.973435 0.452189 0.000000
1.000000 0.447407 0.000000
0.118446 0.658033 0.000000
0.153041 0.658033 0.000000
0.187528 0.658033 0.000000
0.221887 0.658033 0.000000
0.256108 0.658033 0.000000
0.290183 0.658033 0.000000
0.324101 0.658033 0.000000
0.357844 0.658033 0.000000
0.391417 0.658033 0.000000
0.424791 0.658033 0.000000
0.457965 0.658033 0.000000
0.490934 0.658033 0.000000
0.523673 0.658033 0.000000
0.556182 0.658033 0.000000
0.588455 0.658033 0.000000
0.620475 0.658033 0.000000
0.652228 0.658033 0.000000
0.658033 0.632351 0.000000
0.658033 0.601142 0.000000
0.658033 0.570217 0.000000
0.658033 0.539589 0.000000
0.688358 0.534129 0.000000
0.718369 0.528727 0.000000
0.748066 0.523381 0.000000
0.777437 0.518094 0.000000
0.806481 0.512866 0.000000
0.835181 0.507700 0.000000
0.863542 0.502595 0.000000
0.891552 0.497554 0.000000
0.919205 0.492576 0.000000
0.946501 0.487663 0.000000
0.973435 0.482815 0.000000
1.000000 0.478033 0.000000
0.123904 0.688356 0.000000
0.158499 0.688356 0.000000
0.192986 0.688356 0.000000
0.227345 0.688356 0.000000
0.261566 0.688356 0.000000
0.295641 0.688356 0.000000
0.329559 0.688356 0.000000
0.363302 0.688356 0.000000
0.396875 0.688356 0.000000
0.430249 0.688356 0.000000
0.463423 0.688356 0.000000
0.496392 0.688356 0.000000
0.529131 0.688356 0.000000
0.561640 0.688356 0.000000
0.593913 0.688356 0.000000
0.625933 0.688356 0.000000
0.657686 0.688356 0.000000
0.688356 0.687539 0.000000
0.688356 0.656330 0.000000
0.688356 0.625405 0.000000
0.688356 0.594777 0.000000
0.688358 0.564452 0.000000
0.718369 0.559050 0.000000
0.748066 0.553704 0.000000
0.777437 0.548417 0.000000
0.806481 0.543189 0.000000
0.835181 0.538023 0.000000
0.863542 0.532918 0.000000
0.891552 0.527877 0.000000
0.919205 0.522899 0.000000
0.946501 0.517986 0.000000
0.973435 0.513138 0.000000
1.000000 0.508356 0.000000
0.129307 0.718375 0.000000
0.163903 0.718375 0.000000
0.198389 0.718375 0.000000
0.232748 0.718375 0.000000
0.266969 0.718375 0.000000
0.301044 0.718375 0.000000
0.334962 0.718375 0.000000
0.368705 0.718375 0.000000
0.402279 0.718375 0.000000
0.435653 0.718375 0.000000
0.468827 0.718375 0.000000
0.501795 0.718375 0.000000
0.534535 0.718375 0.000000
0.567043 0.718375 0.000000
0.599317 0.718375 0.000000
0.631336 0.718375 0.000000
0.663090 0.718375 0.000000
0.694576 0.718375 0.000000
0.718375 0.710964 0.000000
0.718375 0.680040 0.000000
0.718375 0.649411 0.000000
0.718375 0.619085 0.000000
0.718375 0.589074 0.000000
0.748066 0.583723 0.000000
0.777437 0.578436 0.000000
0.806481 0.573208 0.000000
0.835181 0.568042 0.000000
0.863542 0.562937 0.000000
0.891552 0.557896 0.000000
0.919205 0.552918 0.000000
0.946501 0.548005 0.000000
0.973435 0.543157 0.000000
1.000000 0.538375 0.000000
0.134653 0.748071 0.000000
0.169248 0.748071 0.000000
0.203735 0.748071 0.000000
0.238094 0.748071 0.000000
0.272315 0.748071 0.000000
0.306390 0.748071 0.000000
0.340308 0.748071 0.000000
0.374051 0.748071 0.000000
0.407624 0.748071 0.000000
0.440998 0.748071 0.000000
0.474172 0.748071 0.000000
0.507141 0.748071 0.000000
0.539880 0.748071 0.000000
0.572389 0.748071 0.000000
0.604662 0.748071 0.000000
0.636682 0.748071 0.000000
0.668435 0.748071 0.000000
0.699922 0.748071 0.000000
0.731131 0.748071 0.000000
0.748071 0.734086 0.000000
0.748071 0.703458 0.000000
0.748071 0.673131 0.000000
0.748071 0.643120 0.000000
0.748071 0.613423 0.000000
0.777437 0.608132 0.000000
0.806481 0.602904 0.000000
0.835181 0.597738 0.000000
0.863542 0.592633 0.000000
0.891552 0.587592 0.000000
0.919205 0.582614 0.000000
0.946501 0.577701 0.000000
0.973435 0.572853 0.000000
1.000000 0.568071 0.000000
0.139939 0.777440 0.000000
0.174534 0.777440 0.000000
0.209021 0.777440 0.000000
0.243380 0.777440 0.000000
0.277601 0.777440 0.000000
0.311676 0.777440 0.000000
0.345594 0.777440 0.000000
0.379337 0.777440 0.000000
0.412910 0.777440 0.000000
0.446284 0.777440 0.000000
0.479458 0.777440 0.000000
0.512427 0.777440 0.000000
0.545166 0.777440 0.000000
0.577675 0.777440 0.000000
0.609948 0.777440 0.000000
0.641968 0.777440 0.000000
0.673721 0.777440 0.000000
0.705208 0.777440 0.000000
0.736417 0.777440 0.000000
0.767342 0.777440 0.000000
0.777440 0.756910 0.000000
0.777440 0.726583 0.000000
0.777440 0.696572 0.000000
0.777440 0.666875 0.000000
0.777440 0.637504 0.000000
0.806481 0.632273 0.000000
0.835181 0.627107 0.000000
0.863542 0.622002 0.000000
0.891552 0.616961 0.000000
0.919205 0.611983 0.000000
0.946501 0.607070 0.000000
0.973435 0.602222 0.000000
1.000000 0.597440 0.000000
0.145167 0.806481 0.000000
0.179762 0.806481 0.000000
0.214249 0.806481 0.000000
0.248608 0.806481 0.000000
0.282829 0.806481 0.000000
0.316904 0.806481 0.000000
0.350822 0.806481 0.000000
0.384565 0.806481 0.000000
0.418138 0.806481 0.000000
0.451512 0.806481 0.000000
0.484686 0.806481 0.000000
0.517655 0.806481 0.000000
0.550394 0.806481 0.000000
0.582903 0.806481 0.000000
0.615176 0.806481 0.000000
0.647196 0.806481 0.000000
0.678949 0.806481 0.000000
0.710436 0.806481 0.000000
0.741645 0.806481 0.000000
0.772570 0.806481 0.000000
0.803198 0.806481 0.000000
0.806481 0.779437 0.000000
0.806481 0.749426 0.000000
0.806481 0.719729 0.000000
0.806481 0.690358 0.000000
0.806481 0.661314 0.000000
0.835181 0.656148 0.000000
0.863542 0.651043 0.000000
0.891552 0.646002 0.000000
0.919205 0.641024 0.000000
0.946501 0.636111 0.000000
0.973435 0.631263 0.000000
1.000000 0.626481 0.000000
0.150333 0.835182 0.000000
0.184928 0.835182 0.000000
0.219415 0.835182 0.000000
0.253774 0.835182 0.000000
0.287995 0.835182 0.000000
0.322070 0.835182 0.000000
0.355988 0.835182 0.000000
0.389731 0.835182 0.000000
0.423304 0.835182 0.000000
0.456678 0.835182 0.000000
0.489852 0.835182 0.000000
0.522821 0.835182 0.000000
0.555560 0.835182 0.000000
0.588069 0.835182 0.000000
0.620342 0.835182 0.000000
0.652362 0.835182 0.000000
0.684115 0.835182 0.000000
0.715602 0.835182 0.000000
0.746811 0.835182 0.000000
0.777736 0.835182 0.000000
0.808364 0.835182 0.000000
0.835182 0.831673 0.000000
0.835182 0.801662 0.000000
0.835182 0.771965 0.000000
0.835182 0.742594 0.000000
0.835182 0.713550 0.000000
0.835182 0.684850 0.000000
0.863542 0.679744 0.000000
