luts/agfa_ultra_100.cube
TITLE Film LUT
LUT_3D_SIZE 9
DOMAIN_MIN 0.0 0.0 0.0
DOMAIN_MAX 1.0 1.0 1.0
0.000000 0.000000 0.000000
0.101978 0.004712 0.000000
0.251363 0.058491 0.000000
0.397296 0.111027 0.000000
0.538984 0.162034 0.000000
0.675695 0.211250 0.000000
0.806778 0.258440 0.000000
0.931691 0.303409 0.000000
1.000000 0.346000 0.000000
0.000000 0.101980 0.004713
0.047265 0.101980 0.000000
0.251363 0.210471 0.000000
0.397296 0.263007 0.000000
0.538984 0.314015 0.000000
0.675695 0.363231 0.000000
0.806778 0.410420 0.000000
0.931691 0.455389 0.000000
1.000000 0.497980 0.000000
0.000000 0.251357 0.058489
0.000000 0.251357 0.000000
0.142878 0.251363 0.000000
0.382209 0.397296 0.000000
0.538984 0.463391 0.000000
0.675695 0.512607 0.000000
0.806778 0.559797 0.000000
0.931691 0.604766 0.000000
1.000000 0.647357 0.000000
0.000000 0.397295 0.111026
0.000000 0.397295 0.000000
0.090336 0.397295 0.000000
0.236271 0.397296 0.000000
0.468639 0.538984 0.000000
0.675695 0.658546 0.000000
0.806778 0.705735 0.000000
0.931691 0.750704 0.000000
1.000000 0.793295 0.000000
0.000000 0.538986 0.162035
0.000000 0.538986 0.010057
0.039328 0.538986 0.000000
0.185261 0.538986 0.000000
0.326949 0.538986 0.000000
0.551154 0.675695 0.000000
0.766130 0.806778 0.000000
0.931691 0.892395 0.000000
1.000000 0.934986 0.000000
0.000000 0.675693 0.211250
0.000000 0.675693 0.059271
0.000000 0.675693 0.000000
0.136047 0.675693 0.000000
0.277734 0.675693 0.000000
0.414447 0.675695 0.000000
0.629423 0.806778 0.000000
0.834279 0.931691 0.000000
1.000000 1.000000 0.000000
0.000000 0.806779 0.258440
0.000000 0.806779 0.106462
0.000000 0.806779 0.000000
0.088856 0.806779 0.000000
0.230544 0.806779 0.000000
0.367255 0.806779 0.000000
0.498337 0.806779 0.000000
0.703194 0.931691 0.000000
0.897221 1.000000 0.000000
0.000000 0.931692 0.303409
0.000000 0.931692 0.151431
0.000000 0.931692 0.002046
0.043887 0.931692 0.000000
0.185575 0.931692 0.000000
0.322286 0.931692 0.000000
0.453369 0.931692 0.000000
0.578282 0.931692 0.000000
0.772308 1.000000 0.000000
0.000000 1.000000 0.346000
0.000000 1.000000 0.194022
0.000000 1.000000 0.044637
0.001296 1.000000 0.000000
0.142984 1.000000 0.000000
0.279695 1.000000 0.000000
0.410778 1.000000 0.000000
0.535691 1.000000 0.000000
0.654000 1.000000 0.000000
0.004712 0.000000 0.101978
0.101978 0.000000 0.047266
0.251363 0.000000 0.000000
0.397296 0.000000 0.000000
0.538984 0.010056 0.000000
0.675695 0.059272 0.000000
0.806778 0.106462 0.000000
0.931691 0.151430 0.000000
1.000000 0.194022 0.000000
0.000000 0.047270 0.101980
0.101978 0.101980 0.101979
0.251363 0.131858 0.064632
0.397296 0.161045 0.028149
0.538984 0.189382 0.000000
0.675695 0.216724 0.000000
0.806778 0.258443 0.000000
0.931691 0.303411 0.000000
1.000000 0.346003 0.000000
0.000000 0.251357 0.210467
0.064633 0.251357 0.131854
0.184146 0.251363 0.064632
0.397296 0.347765 0.028149
0.538984 0.376103 0.000000
0.675695 0.403445 0.000000
0.806778 0.440030 0.000000
0.931691 0.480149 0.000000
1.000000 0.519326 0.000000
0.000000 0.397295 0.263004
0.028149 0.397295 0.161042
0.081987 0.397295 0.028149
0.264405 0.397296 0.028149
0.519442 0.538984 0.000000
0.675695 0.585868 0.000000
0.806778 0.617437 0.000000
0.931691 0.652819 0.000000
1.000000 0.688660 0.000000
0.000000 0.538986 0.314013
0.000000 0.538986 0.189380
0.000000 0.538986 0.002649
0.165220 0.538986 0.000000
0.342330 0.538986 0.000000
0.588409 0.675695 0.000000
0.806778 0.789681 0.000000
0.931691 0.820463 0.000000
1.000000 0.853065 0.000000
0.000000 0.675693 0.363228
0.000000 0.675693 0.216721
0.000000 0.675693 0.029991
0.069525 0.675693 0.000000
0.246635 0.675693 0.000000
0.417525 0.675695 0.000000
0.657689 0.806778 0.000000
0.881170 0.931691 0.000000
1.000000 1.000000 0.000000
0.000000 0.806779 0.410419
0.000000 0.806779 0.258440
0.000000 0.806779 0.076844
0.000558 0.806779 0.000000
0.172798 0.806779 0.000000
0.338989 0.806779 0.000000
0.498337 0.806779 0.000000
0.726074 0.931691 0.000000
0.936212 1.000000 0.000000
0.000000 0.931692 0.455387
0.000000 0.931692 0.303409
0.000000 0.931692 0.126662
0.000000 0.931692 0.000000
0.113643 0.931692 0.000000
0.275396 0.931692 0.000000
0.430488 0.931692 0.000000
0.578281 0.931692 0.000000
0.791274 1.000000 0.000000
0.000000 1.000000 0.497978
0.000000 1.000000 0.346000
0.000000 1.000000 0.172668
0.000000 1.000000 0.003339
0.061063 1.000000 0.000000
0.219690 1.000000 0.000000
0.371787 1.000000 0.000000
0.516724 1.000000 0.000000
0.654000 1.000000 0.000000
0.058490 0.000000 0.251362
0.210468 0.000000 0.251362
0.251363 0.000000 0.142871
0.397296 0.000000 0.090335
0.538984 0.000000 0.039327
0.675695 0.000000 0.000000
0.806778 0.000000 0.000000
0.931691 0.002047 0.000000
1.000000 0.044638 0.000000
0.000000 0.000000 0.251362
0.131852 0.064632 0.251362
0.251363 0.064635 0.184139
0.397296 0.028151 0.081986
0.538984 0.002655 0.000000
0.675695 0.029997 0.000000
0.806778 0.076847 0.000000
0.931691 0.126665 0.000000
1.000000 0.172671 0.000000
0.000000 0.142867 0.251362
0.064632 0.184134 0.251362
0.251363 0.251356 0.251359
0.397296 0.280539 0.214872
0.538984 0.308877 0.179450
0.675695 0.336219 0.145273
0.806778 0.362436 0.112502
0.931691 0.387418 0.081274
1.000000 0.411080 0.051696
0.000000 0.382203 0.397295
0.028149 0.397295 0.347771
0.214878 0.397295 0.280547
0.331627 0.397296 0.214878
0.538984 0.491303 0.179456
0.675695 0.518645 0.145278
0.806778 0.544862 0.112507
0.931691 0.569844 0.081279
1.000000 0.593506 0.051702
0.000000 0.538986 0.463397
0.000000 0.538986 0.376109
0.179455 0.538986 0.308885
0.232443 0.538986 0.179455
0.409552 0.538986 0.179455
0.655631 0.675695 0.145278
0.806778 0.721976 0.112507
0.931691 0.746958 0.081279
1.000000 0.770620 0.051702
0.000000 0.675693 0.512611
0.000000 0.675693 0.403450
0.145279 0.675693 0.336226
0.145279 0.675693 0.153809
0.313858 0.675693 0.145279
0.484748 0.675695 0.145278
0.720697 0.806778 0.112507
0.931691 0.917842 0.081279
1.000000 0.941504 0.051702
0.000000 0.806779 0.559802
0.000000 0.806779 0.440036
0.112507 0.806779 0.362444
0.112507 0.806779 0.180026
0.222097 0.806779 0.112507
0.392986 0.806779 0.112507
0.556840 0.806779 0.112507
0.781682 0.931691 0.081279
0.994639 1.000000 0.051702
0.000000 0.931692 0.604771
0.000000 0.931692 0.480155
0.081279 0.931692 0.387426
0.081279 0.931692 0.205009
0.134658 0.931692 0.081279
0.305548 0.931692 0.081279
0.469401 0.931692 0.081279
0.625542 0.931692 0.081279
0.838498 1.000000 0.051702
0.000000 1.000000 0.647361
0.000000 1.000000 0.519331
0.051702 1.000000 0.411088
0.051702 1.000000 0.228671
0.051843 1.000000 0.051702
0.222732 1.000000 0.051702
0.386585 1.000000 0.051702
0.542726 1.000000 0.051702
0.690613 1.000000 0.051702
0.111025 0.000000 0.397291
0.263003 0.000000 0.397291
0.397291 0.000000 0.382194
0.397296 0.000000 0.236264
0.538984 0.000000 0.185257
0.675695 0.000000 0.136040
0.806778 0.000000 0.088851
0.931691 0.000000 0.043882
1.000000 0.000000 0.001291
0.000000 0.000000 0.397291
0.161038 0.028150 0.397291
0.347770 0.028153 0.397291
0.397296 0.028151 0.264397
0.538984 0.000000 0.165216
0.675695 0.000000 0.069518
0.806778 0.000000 0.000550
0.931691 0.000000 0.000000
1.000000 0.003347 0.000000
0.000000 0.090332 0.397291
0.028150 0.081983 0.397291
0.280551 0.214874 0.397291
0.397296 0.214872 0.331617
0.538984 0.179450 0.232435
0.675695 0.153808 0.145273
0.806778 0.180024 0.112502
0.931691 0.205007 0.081274
1.000000 0.228669 0.051696
0.000000 0.236273 0.397295
0.028149 0.264408 0.397295
0.214879 0.331631 0.397295
0.397295 0.397296 0.397289
0.538984 0.425635 0.361868
0.675695 0.452977 0.327690
0.806778 0.479194 0.294919
0.931691 0.504176 0.263691
1.000000 0.527838 0.234113
0.000000 0.468647 0.538986
0.000000 0.519452 0.538986
0.179457 0.538986 0.491298
0.361867 0.538986 0.425623
0.475221 0.538986 0.361867
0.675695 0.630091 0.327690
0.806778 0.656307 0.294919
0.931691 0.681290 0.263691
1.000000 0.704952 0.234113
0.000000 0.675693 0.658540
0.000000 0.675693 0.585862
0.145280 0.675693 0.518639
0.327690 0.675693 0.452964
0.379526 0.675693 0.327690
0.550416 0.675695 0.327690
0.786365 0.806778 0.294919
0.931691 0.852174 0.263691
1.000000 0.875836 0.234113
0.000000 0.806779 0.705731
0.000000 0.806779 0.617432
0.112509 0.806779 0.544856
0.294919 0.806779 0.479182
0.294919 0.806779 0.302072
0.458655 0.806779 0.294919
0.622508 0.806779 0.294919
0.847350 0.931691 0.263691
1.000000 1.000000 0.234113
0.000000 0.931692 0.750700
0.000000 0.931692 0.652814
0.081280 0.931692 0.569839
0.263691 0.931692 0.504164
0.263691 0.931692 0.327054
0.371216 0.931692 0.263691
0.535069 0.931692 0.263691
0.691210 0.931692 0.263691
0.904166 1.000000 0.234113
0.000000 1.000000 0.793291
0.000000 1.000000 0.688654
0.051703 1.000000 0.593500
0.234113 1.000000 0.527826
0.234113 1.000000 0.350716
0.288400 1.000000 0.234113
0.452253 1.000000 0.234113
0.608394 1.000000 0.234113
0.756281 1.000000 0.234113
0.162035 0.000000 0.538985
0.314013 0.000000 0.538985
0.463397 0.000000 0.538985
0.538985 0.000000 0.468639
0.538985 0.000000 0.326952
0.675695 0.000000 0.277735
0.806778 0.000000 0.230545
0.931691 0.000000 0.185576
1.000000 0.000000 0.142985
0.010054 0.000000 0.538985
0.189377 0.000000 0.538985
0.376109 0.000000 0.538985
0.538985 0.000000 0.519444
0.538985 0.000000 0.342334
0.675695 0.000000 0.246636
0.806778 0.000000 0.172799
0.931691 0.000000 0.113643
1.000000 0.000000 0.061062
0.000000 0.039322 0.538985
0.002656 0.000000 0.538985
0.308890 0.179450 0.538985
0.491307 0.179450 0.538985
0.538985 0.179450 0.409554
0.675695 0.145273 0.313855
0.806778 0.112502 0.222098
0.931691 0.081274 0.134659
1.000000 0.051696 0.051842
0.000000 0.185261 0.538985
0.000000 0.165220 0.538985
0.179457 0.232443 0.538985
0.425635 0.361873 0.538985
0.538985 0.361873 0.475226
0.675695 0.327695 0.379528
0.806778 0.302079 0.294925
0.931691 0.327062 0.263696
1.000000 0.350724 0.234119
0.000000 0.326952 0.538986
0.000000 0.342334 0.538986
0.179457 0.409557 0.538986
0.361874 0.475227 0.538986
0.538983 0.538986 0.538986
0.675695 0.566329 0.504808
0.806778 0.592545 0.472037
0.931691 0.617528 0.440809
1.000000 0.641189 0.411231
0.000000 0.551152 0.675693
0.000000 0.588406 0.675693
0.145280 0.655629 0.675693
0.327697 0.675693 0.630087
0.504807 0.675693 0.566327
0.614178 0.675695 0.504808
0.806778 0.763429 0.472037
0.931691 0.788411 0.440809
1.000000 0.812073 0.411231
0.000000 0.766132 0.806779
0.000000 0.806779 0.789680
0.112509 0.806779 0.721974
0.294926 0.806779 0.656304
0.472035 0.806779 0.592544
0.522417 0.806779 0.472037
0.686270 0.806779 0.472037
0.911113 0.931691 0.440809
1.000000 0.975930 0.411231
0.000000 0.931692 0.892394
0.000000 0.931692 0.820462
0.081280 0.931692 0.746957
0.263697 0.931692 0.681286
0.440807 0.931692 0.617527
0.440808 0.931692 0.446639
0.598831 0.931692 0.440808
0.754972 0.931692 0.440808
0.967929 1.000000 0.411231
0.000000 1.000000 0.934985
0.000000 1.000000 0.853064
0.051703 1.000000 0.770618
0.234120 1.000000 0.704948
0.411230 1.000000 0.641189
0.411231 1.000000 0.470300
0.516016 1.000000 0.411231
0.672157 1.000000 0.411231
0.820043 1.000000 0.411231
0.211249 0.000000 0.675691
0.363227 0.000000 0.675691
0.512611 0.000000 0.675691
0.658545 0.000000 0.675691
0.675691 0.000000 0.551149
0.675695 0.000000 0.414441
0.806778 0.000000 0.367251
0.931691 0.000000 0.322282
1.000000 0.000000 0.279691
0.059268 0.000000 0.675691
0.216718 0.000000 0.675691
0.403450 0.000000 0.675691
0.585867 0.000000 0.675691
0.675691 0.000000 0.588405
0.675695 0.000000 0.417518
0.806778 0.000000 0.338984
0.931691 0.000000 0.275390
1.000000 0.000000 0.219684
0.000000 0.000000 0.675691
0.029997 0.000000 0.675691
0.336231 0.145274 0.675691
0.518648 0.145274 0.675691
0.675691 0.145274 0.655624
0.675695 0.145273 0.484738
0.806778 0.112502 0.392980
0.931691 0.081274 0.305541
1.000000 0.051696 0.222724
0.000000 0.136046 0.675691
0.000000 0.069526 0.675691
0.153813 0.145281 0.675691
0.452976 0.327696 0.675691
0.630085 0.327696 0.675691
0.675695 0.327695 0.550410
0.806778 0.294925 0.458652
0.931691 0.263696 0.371213
1.000000 0.234119 0.288396
0.000000 0.277737 0.675691
0.000000 0.246639 0.675691
0.145281 0.313862 0.675691
0.327698 0.379532 0.675691
0.566323 0.504807 0.675691
0.675695 0.504809 0.614171
0.806778 0.472038 0.522413
0.931691 0.446646 0.440810
1.000000 0.470308 0.411233
0.000000 0.414446 0.675693
0.000000 0.417524 0.675693
0.145280 0.484747 0.675693
0.327697 0.550417 0.675693
0.504807 0.614177 0.675693
0.675695 0.675695 0.675690
0.806778 0.701911 0.642919
0.931691 0.726894 0.611691
1.000000 0.750555 0.582114
0.000000 0.629427 0.806779
0.000000 0.657694 0.806779
0.112509 0.720702 0.806779
0.294926 0.786372 0.806779
0.472035 0.806779 0.763427
0.642919 0.806779 0.701903
0.747788 0.806779 0.642919
0.931691 0.890751 0.611691
1.000000 0.914413 0.582114
0.000000 0.834283 0.931692
0.000000 0.881175 0.931692
0.081280 0.931692 0.917839
0.263697 0.931692 0.852169
0.440807 0.931692 0.788409
0.611691 0.931692 0.726886
0.660349 0.931692 0.611691
0.816490 0.931692 0.611691
1.000000 1.000000 0.582114
0.000000 1.000000 1.000000
0.000000 1.000000 1.000000
0.051703 1.000000 0.941500
0.234120 1.000000 0.875830
0.411230 1.000000 0.812071
0.582114 1.000000 0.750547
0.582114 1.000000 0.586694
0.733674 1.000000 0.582114
0.881561 1.000000 0.582114
0.258439 0.000000 0.806776
0.410417 0.000000 0.806776
0.559802 0.000000 0.806776
0.705736 0.000000 0.806776
0.806776 0.000000 0.766128
0.806776 0.000000 0.629417
0.806778 0.000000 0.498336
0.931691 0.000000 0.453367
1.000000 0.000000 0.410776
0.106459 0.000000 0.806776
0.258437 0.000000 0.806776
0.440034 0.000000 0.806776
0.617436 0.000000 0.806776
0.789677 0.000000 0.806776
0.806776 0.000000 0.657683
0.806778 0.000000 0.498335
0.931691 0.000000 0.430486
1.000000 0.000000 0.371784
0.000000 0.000000 0.806776
0.076849 0.000000 0.806776
0.362448 0.112502 0.806776
0.544865 0.112502 0.806776
0.721974 0.112502 0.806776
0.806776 0.112502 0.720688
0.806778 0.112502 0.556836
0.931691 0.081274 0.469397
1.000000 0.051696 0.386580
0.000000 0.088856 0.806776
0.000000 0.000558 0.806776
0.180029 0.112509 0.806776
0.479193 0.294925 0.806776
0.656302 0.294925 0.806776
0.806776 0.294925 0.786360
0.806778 0.294925 0.622508
0.931691 0.263696 0.535069
1.000000 0.234119 0.452252
0.000000 0.230547 0.806776
0.000000 0.172802 0.806776
0.112509 0.222103 0.806776
0.302080 0.294926 0.806776
0.592540 0.472036 0.806776
0.763430 0.472039 0.806776
0.806778 0.472038 0.686269
0.931691 0.440810 0.598830
1.000000 0.411233 0.516013
0.000000 0.367254 0.806776
0.000000 0.338988 0.806776
0.112509 0.392987 0.806776
0.294926 0.458657 0.806776
0.472036 0.522416 0.806776
0.701912 0.642922 0.806776
0.806778 0.642922 0.747787
0.931691 0.611694 0.660348
1.000000 0.586701 0.582116
0.000000 0.498342 0.806779
0.000000 0.498343 0.806779
0.112509 0.556846 0.806779
0.294926 0.622516 0.806779
0.472035 0.686275 0.806779
0.642924 0.747795 0.806779
0.806776 0.806779 0.806775
0.931691 0.831763 0.775547
1.000000 0.855425 0.745970
0.000000 0.703199 0.931692
0.000000 0.726079 0.931692
0.081280 0.781689 0.931692
0.263697 0.847359 0.931692
0.440807 0.911118 0.931692
0.611696 0.931692 0.890745
0.775547 0.931692 0.831756
0.875478 0.931692 0.775547
1.000000 1.000000 0.745970
0.000000 0.897224 1.000000
0.000000 0.936216 1.000000
0.051703 0.994644 1.000000
0.234120 1.000000 1.000000
0.411230 1.000000 0.975927
0.582119 1.000000 0.914407
0.745970 1.000000 0.855418
0.792662 1.000000 0.745970
0.940549 1.000000 0.745970
0.303408 0.000000 0.931690
0.455386 0.000000 0.931690
0.604771 0.000000 0.931690
0.750705 0.000000 0.931690
0.892392 0.000000 0.931690
0.931690 0.000000 0.834275
0.931690 0.000000 0.703193
0.931691 0.000000 0.578281
1.000000 0.000000 0.535689
0.151428 0.000000 0.931690
0.303406 0.000000 0.931690
0.480153 0.000000 0.931690
0.652818 0.000000 0.931690
0.820459 0.000000 0.931690
0.931690 0.000000 0.881167
0.931690 0.000000 0.726073
0.931691 0.000000 0.578281
1.000000 0.000000 0.516723
0.002051 0.000000 0.931690
0.126668 0.000000 0.931690
0.387430 0.081274 0.931690
0.569848 0.081274 0.931690
0.746957 0.081274 0.931690
0.917846 0.081274 0.931690
0.931690 0.081274 0.781679
0.931691 0.081274 0.625539
1.000000 0.051696 0.542723
0.000000 0.043887 0.931690
0.000000 0.000000 0.931690
0.205012 0.081281 0.931690
0.504175 0.263697 0.931690
0.681285 0.263697 0.931690
0.852174 0.263697 0.931690
0.931690 0.263697 0.847352
0.931691 0.263696 0.691211
1.000000 0.234119 0.608395
0.000000 0.185578 0.931690
0.000000 0.113647 0.931690
0.081281 0.134663 0.931690
0.327063 0.263698 0.931690
0.617522 0.440808 0.931690
0.788413 0.440810 0.931690
0.931690 0.440810 0.911113
0.931691 0.440810 0.754972
1.000000 0.411233 0.672156
0.000000 0.322285 0.931690
0.000000 0.275394 0.931690
0.081281 0.305547 0.931690
0.263698 0.371217 0.931690
0.446639 0.440808 0.931690
0.726895 0.611694 0.931690
0.890748 0.611694 0.931690
0.931691 0.611694 0.816490
1.000000 0.582116 0.733674
0.000000 0.453371 0.931690
0.000000 0.430491 0.931690
0.081281 0.469404 0.931690
0.263698 0.535074 0.931690
0.440808 0.598834 0.931690
0.611697 0.660354 0.931690
0.831759 0.775550 0.931690
0.931691 0.775551 0.875479
1.000000 0.745974 0.792662
0.000000 0.578285 0.931692
0.000000 0.578285 0.931692
0.081280 0.625546 0.931692
0.263697 0.691217 0.931692
0.440807 0.754976 0.931692
0.611696 0.816496 0.931692
0.775549 0.875483 0.931692
0.931689 0.931692 0.931689
1.000000 0.955354 0.902112
0.000000 0.772311 1.000000
0.000000 0.791277 1.000000
0.051703 0.838501 1.000000
0.234120 0.904171 1.000000
0.411230 0.967931 1.000000
0.582119 1.000000 1.000000
0.745972 1.000000 1.000000
0.902112 1.000000 0.955350
0.996760 1.000000 0.902112
0.346000 0.000000 1.000000
0.497978 0.000000 1.000000
0.647363 0.000000 1.000000
0.793296 0.000000 1.000000
0.934984 0.000000 1.000000
1.000000 0.000000 1.000000
1.000000 0.000000 0.897222
1.000000 0.000000 0.772309
1.000000 0.000000 0.654000
0.194020 0.000000 1.000000
0.345997 0.000000 1.000000
0.519330 0.000000 1.000000
0.688659 0.000000 1.000000
0.853061 0.000000 1.000000
1.000000 0.000000 1.000000
1.000000 0.000000 0.936214
1.000000 0.000000 0.791276
1.000000 0.000000 0.654000
0.044643 0.000000 1.000000
0.172674 0.000000 1.000000
0.411093 0.051696 1.000000
0.593510 0.051696 1.000000
0.770619 0.051696 1.000000
0.941508 0.051696 1.000000
1.000000 0.051696 0.994638
1.000000 0.051696 0.838497
1.000000 0.051696 0.690611
0.000000 0.001295 1.000000
0.003340 0.000000 1.000000
0.228674 0.051703 1.000000
0.527838 0.234119 1.000000
0.704947 0.234119 1.000000
0.875836 0.234119 1.000000
1.000000 0.234119 1.000000
1.000000 0.234119 0.904170
1.000000 0.234119 0.756283
0.000000 0.142986 1.000000
0.000000 0.061065 1.000000
0.051703 0.051846 1.000000
0.350725 0.234120 1.000000
0.641184 0.411230 1.000000
0.812075 0.411233 1.000000
0.975929 0.411233 1.000000
1.000000 0.411233 0.967931
1.000000 0.411233 0.820044
0.000000 0.279693 1.000000
0.000000 0.219688 1.000000
0.051703 0.222730 1.000000
0.234120 0.288400 1.000000
0.470301 0.411230 1.000000
0.750557 0.582116 1.000000
0.914410 0.582116 1.000000
1.000000 0.582116 1.000000
1.000000 0.582116 0.881562
0.000000 0.410779 1.000000
0.000000 0.371788 1.000000
0.051703 0.386587 1.000000
0.234120 0.452257 1.000000
0.411230 0.516017 1.000000
0.586702 0.582119 1.000000
0.855421 0.745972 1.000000
1.000000 0.745974 1.000000
1.000000 0.745974 0.940551
0.000000 0.535692 1.000000
0.000000 0.516726 1.000000
0.051703 0.542728 1.000000
0.234120 0.608398 1.000000
0.411230 0.672157 1.000000
0.582119 0.733678 1.000000
0.745972 0.792665 1.000000
0.955351 0.902113 1.000000
1.000000 0.902115 0.996761
0.000000 0.654000 1.000000
0.000000 0.654000 1.000000
0.051703 0.690613 1.000000
0.234120 0.756283 1.000000
0.411230 0.820043 1.000000
0.582119 0.881563 1.000000
0.745972 0.940550 1.000000
0.902113 0.996761 1.000000
1.000000 1.000000 1.000000
