luts/agfa_precisa_ct_100.cube
TITLE Film LUT
LUT_3D_SIZE 5
DOMAIN_MIN 0.0 0.0 0.0
DOMAIN_MAX 1.0 1.0 1.0
0.000000 0.000000 0.000000
0.252436 0.095169 0.000000
0.540803 0.233586 0.000000
0.808378 0.362022 0.000000
1.000000 0.478000 0.000000
0.000000 0.252439 0.095171
0.107265 0.252439 0.000000
0.540803 0.536025 0.000000
0.808378 0.664461 0.000000
1.000000 0.780440 0.000000
0.000000 0.540801 0.233585
0.000000 0.540801 0.000000
0.257220 0.540803 0.000000
0.663934 0.808378 0.000000
1.000000 1.000000 0.000000
0.000000 0.808380 0.362022
0.000000 0.808380 0.059586
0.128781 0.808380 0.000000
0.396356 0.808380 0.000000
0.763621 1.000000 0.000000
0.000000 1.000000 0.478000
0.000000 1.000000 0.175564
0.012803 1.000000 0.000000
0.280378 1.000000 0.000000
0.522000 1.000000 0.000000
0.095171 0.000000 0.252439
0.252439 0.000000 0.107272
0.540803 0.000000 0.000000
0.808378 0.059582 0.000000
1.000000 0.175560 0.000000
0.000000 0.107269 0.252439
0.252436 0.252438 0.252439
0.540803 0.360864 0.194767
0.808378 0.461473 0.141252
1.000000 0.552322 0.092927
0.000000 0.540801 0.536024
0.194763 0.540801 0.360865
0.374708 0.540803 0.194767
0.808378 0.807507 0.141252
1.000000 0.898356 0.092927
0.000000 0.808380 0.664462
0.141248 0.808380 0.461475
0.167067 0.808380 0.141252
0.488157 0.808380 0.141252
0.880550 1.000000 0.092927
0.000000 1.000000 0.780440
0.092923 1.000000 0.552324
0.092927 1.000000 0.206286
0.300659 1.000000 0.092927
0.590605 1.000000 0.092927
0.233586 0.000000 0.540803
0.536022 0.000000 0.540803
0.540803 0.000000 0.257218
0.808378 0.000000 0.128782
1.000000 0.000000 0.012803
0.000000 0.000000 0.540803
0.360858 0.194763 0.540803
0.540803 0.194767 0.374706
0.808378 0.141252 0.167068
1.000000 0.206286 0.092927
0.000000 0.257216 0.540803
0.194763 0.374701 0.540803
0.540803 0.540801 0.540802
0.808378 0.641408 0.487286
1.000000 0.732257 0.438961
0.000000 0.663933 0.808380
0.141248 0.808380 0.807512
0.487288 0.808380 0.641412
0.654254 0.808380 0.487288
1.000000 1.000000 0.438964
0.000000 1.000000 1.000000
0.092923 1.000000 0.898361
0.438964 1.000000 0.732261
0.466757 1.000000 0.438964
0.756703 1.000000 0.438964
0.362019 0.000000 0.808373
0.664455 0.000000 0.808373
0.808373 0.000000 0.663923
0.808378 0.000000 0.396351
1.000000 0.000000 0.280373
0.059579 0.000000 0.808373
0.461464 0.141249 0.808373
0.807507 0.141253 0.808373
0.808378 0.141252 0.488151
1.000000 0.092927 0.300653
0.000000 0.128782 0.808373
0.141249 0.167067 0.808373
0.641411 0.487287 0.808373
0.808378 0.487286 0.654247
1.000000 0.438961 0.466749
0.000000 0.396364 0.808380
0.141248 0.488164 0.808380
0.487288 0.654264 0.808380
0.808374 0.808380 0.808372
1.000000 0.899233 0.760047
0.000000 0.763627 1.000000
0.092923 0.880556 1.000000
0.438964 1.000000 1.000000
0.760047 1.000000 0.899218
0.910823 1.000000 0.760047
0.478000 0.000000 1.000000
0.780436 0.000000 1.000000
1.000000 0.000000 1.000000
1.000000 0.000000 0.763622
1.000000 0.000000 0.522000
0.175560 0.000000 1.000000
0.552316 0.092923 1.000000
0.898359 0.092927 1.000000
1.000000 0.092927 0.880551
1.000000 0.092927 0.590605
0.000000 0.012801 1.000000
0.206282 0.092923 1.000000
0.732263 0.438961 1.000000
1.000000 0.438961 1.000000
1.000000 0.438961 0.756701
0.000000 0.280380 1.000000
0.092923 0.300659 1.000000
0.438964 0.466758 1.000000
0.899227 0.760054 1.000000
1.000000 0.760055 0.910827
0.000000 0.522000 1.000000
0.092923 0.590603 1.000000
0.438964 0.756703 1.000000
0.760054 0.910826 1.000000
1.000000 1.000000 1.000000
