luts/agfa_apx_100.cube
TITLE Film LUT
LUT_3D_SIZE 33
DOMAIN_MIN 0.0 0.0 0.0
DOMAIN_MAX 1.0 1.0 1.0
0.000000 0.000000 0.000000
0.000000 0.000000 0.000000
0.000000 0.000000 0.000000
0.000000 0.000000 0.000000
0.000000 0.000000 0.000000
0.000000 0.000000 0.000000
0.000000 0.000000 0.000000
0.000000 0.000000 0.000000
0.000000 0.000000 0.000000
0.000000 0.000000 0.000000
0.000000 0.000000 0.000000
0.000000 0.000000 0.000000
0.004095 0.004095 0.004095
0.012432 0.012432 0.012432
0.020699 0.020699 0.020699
0.028897 0.028897 0.028897
0.037023 0.037023 0.037023
0.045072 0.045072 0.045072
0.053044 0.053044 0.053044
0.060933 0.060933 0.060933
0.068740 0.068740 0.068740
0.076459 0.076459 0.076459
0.084091 0.084091 0.084091
0.091633 0.091633 0.091633
0.099081 0.099081 0.099081
0.106435 0.106435 0.106435
0.113691 0.113691 0.113691
0.120850 0.120850 0.120850
0.127909 0.127909 0.127909
0.134867 0.134867 0.134867
0.141722 0.141722 0.141722
0.148474 0.148474 0.148474
0.155120 0.155120 0.155120
0.000000 0.000000 0.000000
0.000000 0.000000 0.000000
0.000000 0.000000 0.000000
0.000000 0.000000 0.000000
0.000000 0.000000 0.000000
0.000000 0.000000 0.000000
0.000000 0.000000 0.000000
0.000000 0.000000 0.000000
0.000047 0.000047 0.000047
0.008620 0.008620 0.008620
0.017139 0.017139 0.017139
0.025600 0.025600 0.025600
0.033998 0.033998 0.033998
0.042336 0.042336 0.042336
0.050602 0.050602 0.050602
0.058801 0.058801 0.058801
0.066927 0.066927 0.066927
0.074976 0.074976 0.074976
0.082948 0.082948 0.082948
0.090837 0.090837 0.090837
0.098644 0.098644 0.098644
0.106362 0.106362 0.106362
0.113995 0.113995 0.113995
0.121536 0.121536 0.121536
0.128984 0.128984 0.128984
0.136338 0.136338 0.136338
0.143595 0.143595 0.143595
0.150753 0.150753 0.150753
0.157813 0.157813 0.157813
0.164771 0.164771 0.164771
0.171626 0.171626 0.171626
0.178377 0.178377 0.178377
0.185024 0.185024 0.185024
0.000000 0.000000 0.000000
0.000000 0.000000 0.000000
0.000000 0.000000 0.000000
0.000000 0.000000 0.000000
0.000000 0.000000 0.000000
0.003839 0.003839 0.003839
0.012555 0.012555 0.012555
0.021227 0.021227 0.021227
0.029851 0.029851 0.029851
0.038424 0.038424 0.038424
0.046943 0.046943 0.046943
0.055404 0.055404 0.055404
0.063803 0.063803 0.063803
0.072140 0.072140 0.072140
0.080407 0.080407 0.080407
0.088605 0.088605 0.088605
0.096731 0.096731 0.096731
0.104780 0.104780 0.104780
0.112752 0.112752 0.112752
0.120641 0.120641 0.120641
0.128448 0.128448 0.128448
0.136166 0.136166 0.136166
0.143799 0.143799 0.143799
0.151340 0.151340 0.151340
0.158788 0.158788 0.158788
0.166142 0.166142 0.166142
0.173399 0.173399 0.173399
0.180557 0.180557 0.180557
0.187617 0.187617 0.187617
0.194575 0.194575 0.194575
0.201430 0.201430 0.201430
0.208181 0.208181 0.208181
0.214828 0.214828 0.214828
0.000000 0.000000 0.000000
0.000000 0.000000 0.000000
0.007160 0.007160 0.007160
0.015990 0.015990 0.015990
0.024785 0.024785 0.024785
0.033543 0.033543 0.033543
0.042259 0.042259 0.042259
0.050931 0.050931 0.050931
0.059555 0.059555 0.059555
0.068128 0.068128 0.068128
0.076647 0.076647 0.076647
0.085108 0.085108 0.085108
0.093506 0.093506 0.093506
0.101844 0.101844 0.101844
0.110110 0.110110 0.110110
0.118309 0.118309 0.118309
0.126435 0.126435 0.126435
0.134484 0.134484 0.134484
0.142455 0.142455 0.142455
0.150344 0.150344 0.150344
0.158151 0.158151 0.158151
0.165870 0.165870 0.165870
0.173502 0.173502 0.173502
0.181044 0.181044 0.181044
0.188492 0.188492 0.188492
0.195846 0.195846 0.195846
0.203103 0.203103 0.203103
0.210261 0.210261 0.210261
0.217320 0.217320 0.217320
0.224279 0.224279 0.224279
0.231134 0.231134 0.231134
0.237885 0.237885 0.237885
0.244531 0.244531 0.244531
0.019000 0.019000 0.019000
0.027889 0.027889 0.027889
0.036749 0.036749 0.036749
0.045579 0.045579 0.045579
0.054374 0.054374 0.054374
0.063132 0.063132 0.063132
0.071848 0.071848 0.071848
0.080520 0.080520 0.080520
0.089144 0.089144 0.089144
0.097717 0.097717 0.097717
0.106236 0.106236 0.106236
0.114697 0.114697 0.114697
0.123095 0.123095 0.123095
0.131432 0.131432 0.131432
0.139699 0.139699 0.139699
0.147897 0.147897 0.147897
0.156023 0.156023 0.156023
0.164073 0.164073 0.164073
0.172044 0.172044 0.172044
0.179933 0.179933 0.179933
0.187740 0.187740 0.187740
0.195459 0.195459 0.195459
0.203091 0.203091 0.203091
0.210633 0.210633 0.210633
0.218081 0.218081 0.218081
0.225435 0.225435 0.225435
0.232691 0.232691 0.232691
0.239850 0.239850 0.239850
0.246909 0.246909 0.246909
0.253867 0.253867 0.253867
0.260722 0.260722 0.260722
0.267474 0.267474 0.267474
0.274120 0.274120 0.274120
0.048461 0.048461 0.048461
0.057350 0.057350 0.057350
0.066210 0.066210 0.066210
0.075039 0.075039 0.075039
0.083835 0.083835 0.083835
0.092592 0.092592 0.092592
0.101309 0.101309 0.101309
0.109981 0.109981 0.109981
0.118605 0.118605 0.118605
0.127177 0.127177 0.127177
0.135696 0.135696 0.135696
0.144157 0.144157 0.144157
0.152556 0.152556 0.152556
0.160893 0.160893 0.160893
0.169160 0.169160 0.169160
0.177358 0.177358 0.177358
0.185484 0.185484 0.185484
0.193533 0.193533 0.193533
0.201505 0.201505 0.201505
0.209394 0.209394 0.209394
0.217201 0.217201 0.217201
0.224920 0.224920 0.224920
0.232552 0.232552 0.232552
0.240094 0.240094 0.240094
0.247542 0.247542 0.247542
0.254896 0.254896 0.254896
0.262152 0.262152 0.262152
0.269311 0.269311 0.269311
0.276370 0.276370 0.276370
0.283328 0.283328 0.283328
0.290183 0.290183 0.290183
0.296935 0.296935 0.296935
0.303581 0.303581 0.303581
0.077783 0.077783 0.077783
0.086672 0.086672 0.086672
0.095531 0.095531 0.095531
0.104361 0.104361 0.104361
0.113157 0.113157 0.113157
0.121914 0.121914 0.121914
0.130630 0.130630 0.130630
0.139302 0.139302 0.139302
0.147926 0.147926 0.147926
0.156499 0.156499 0.156499
0.165018 0.165018 0.165018
0.173479 0.173479 0.173479
0.181878 0.181878 0.181878
0.190215 0.190215 0.190215
0.198482 0.198482 0.198482
0.206680 0.206680 0.206680
0.214806 0.214806 0.214806
0.222855 0.222855 0.222855
0.230827 0.230827 0.230827
0.238716 0.238716 0.238716
0.246523 0.246523 0.246523
0.254241 0.254241 0.254241
0.261874 0.261874 0.261874
0.269415 0.269415 0.269415
0.276863 0.276863 0.276863
0.284217 0.284217 0.284217
0.291474 0.291474 0.291474
0.298632 0.298632 0.298632
0.305692 0.305692 0.305692
0.312650 0.312650 0.312650
0.319505 0.319505 0.319505
0.326256 0.326256 0.326256
0.332903 0.332903 0.332903
0.106956 0.106956 0.106956
0.115845 0.115845 0.115845
0.124705 0.124705 0.124705
0.133534 0.133534 0.133534
0.142330 0.142330 0.142330
0.151087 0.151087 0.151087
0.159804 0.159804 0.159804
0.168476 0.168476 0.168476
0.177100 0.177100 0.177100
0.185673 0.185673 0.185673
0.194191 0.194191 0.194191
0.202653 0.202653 0.202653
0.211051 0.211051 0.211051
0.219388 0.219388 0.219388
0.227655 0.227655 0.227655
0.235853 0.235853 0.235853
0.243979 0.243979 0.243979
0.252028 0.252028 0.252028
0.260000 0.260000 0.260000
0.267889 0.267889 0.267889
0.275696 0.275696 0.275696
0.283415 0.283415 0.283415
0.291047 0.291047 0.291047
0.298589 0.298589 0.298589
0.306037 0.306037 0.306037
0.313391 0.313391 0.313391
0.320647 0.320647 0.320647
0.327806 0.327806 0.327806
0.334865 0.334865 0.334865
0.341823 0.341823 0.341823
0.348678 0.348678 0.348678
0.355430 0.355430 0.355430
0.362076 0.362076 0.362076
0.135968 0.135968 0.135968
0.144857 0.144857 0.144857
0.153717 0.153717 0.153717
0.162546 0.162546 0.162546
0.171342 0.171342 0.171342
0.180099 0.180099 0.180099
0.188816 0.188816 0.188816
0.197488 0.197488 0.197488
0.206112 0.206112 0.206112
0.214684 0.214684 0.214684
0.223203 0.223203 0.223203
0.231664 0.231664 0.231664
0.240063 0.240063 0.240063
0.248400 0.248400 0.248400
0.256667 0.256667 0.256667
0.264865 0.264865 0.264865
0.272991 0.272991 0.272991
0.281040 0.281040 0.281040
0.289012 0.289012 0.289012
0.296901 0.296901 0.296901
0.304708 0.304708 0.304708
0.312427 0.312427 0.312427
0.320059 0.320059 0.320059
0.327601 0.327601 0.327601
0.335049 0.335049 0.335049
0.342403 0.342403 0.342403
0.349659 0.349659 0.349659
0.356818 0.356818 0.356818
0.363877 0.363877 0.363877
0.370835 0.370835 0.370835
0.377690 0.377690 0.377690
0.384442 0.384442 0.384442
0.391088 0.391088 0.391088
0.164807 0.164807 0.164807
0.173697 0.173697 0.173697
0.182556 0.182556 0.182556
0.191386 0.191386 0.191386
0.200181 0.200181 0.200181
0.208939 0.208939 0.208939
0.217655 0.217655 0.217655
0.226327 0.226327 0.226327
0.234951 0.234951 0.234951
0.243524 0.243524 0.243524
0.252043 0.252043 0.252043
0.260504 0.260504 0.260504
0.268902 0.268902 0.268902
0.277240 0.277240 0.277240
0.285506 0.285506 0.285506
0.293704 0.293704 0.293704
0.301831 0.301831 0.301831
0.309880 0.309880 0.309880
0.317851 0.317851 0.317851
0.325740 0.325740 0.325740
0.333547 0.333547 0.333547
0.341266 0.341266 0.341266
0.348898 0.348898 0.348898
0.356440 0.356440 0.356440
0.363888 0.363888 0.363888
0.371242 0.371242 0.371242
0.378498 0.378498 0.378498
0.385657 0.385657 0.385657
0.392716 0.392716 0.392716
0.399675 0.399675 0.399675
0.406530 0.406530 0.406530
0.413281 0.413281 0.413281
0.419927 0.419927 0.419927
0.193466 0.193466 0.193466
0.202355 0.202355 0.202355
0.211214 0.211214 0.211214
0.220044 0.220044 0.220044
0.228840 0.228840 0.228840
0.237597 0.237597 0.237597
0.246313 0.246313 0.246313
0.254985 0.254985 0.254985
0.263609 0.263609 0.263609
0.272182 0.272182 0.272182
0.280701 0.280701 0.280701
0.289162 0.289162 0.289162
0.297561 0.297561 0.297561
0.305898 0.305898 0.305898
0.314165 0.314165 0.314165
0.322363 0.322363 0.322363
0.330489 0.330489 0.330489
0.338538 0.338538 0.338538
0.346510 0.346510 0.346510
0.354399 0.354399 0.354399
0.362206 0.362206 0.362206
0.369924 0.369924 0.369924
0.377557 0.377557 0.377557
0.385098 0.385098 0.385098
0.392546 0.392546 0.392546
0.399900 0.399900 0.399900
0.407157 0.407157 0.407157
0.414315 0.414315 0.414315
0.421375 0.421375 0.421375
0.428333 0.428333 0.428333
0.435188 0.435188 0.435188
0.441939 0.441939 0.441939
0.448586 0.448586 0.448586
0.221929 0.221929 0.221929
0.230818 0.230818 0.230818
0.239678 0.239678 0.239678
0.248508 0.248508 0.248508
0.257303 0.257303 0.257303
0.266061 0.266061 0.266061
0.274777 0.274777 0.274777
0.283449 0.283449 0.283449
0.292073 0.292073 0.292073
0.300646 0.300646 0.300646
0.309165 0.309165 0.309165
0.317626 0.317626 0.317626
0.326024 0.326024 0.326024
0.334361 0.334361 0.334361
0.342628 0.342628 0.342628
0.350826 0.350826 0.350826
0.358952 0.358952 0.358952
0.367002 0.367002 0.367002
0.374973 0.374973 0.374973
0.382862 0.382862 0.382862
0.390669 0.390669 0.390669
0.398388 0.398388 0.398388
0.406020 0.406020 0.406020
0.413562 0.413562 0.413562
0.421010 0.421010 0.421010
0.428364 0.428364 0.428364
0.435620 0.435620 0.435620
0.442779 0.442779 0.442779
0.449838 0.449838 0.449838
0.456797 0.456797 0.456797
0.463652 0.463652 0.463652
0.470403 0.470403 0.470403
0.477049 0.477049 0.477049
0.250182 0.250182 0.250182
0.259071 0.259071 0.259071
0.267930 0.267930 0.267930
0.276760 0.276760 0.276760
0.285556 0.285556 0.285556
0.294313 0.294313 0.294313
0.303029 0.303029 0.303029
0.311701 0.311701 0.311701
0.320325 0.320325 0.320325
0.328898 0.328898 0.328898
0.337417 0.337417 0.337417
0.345878 0.345878 0.345878
0.354276 0.354276 0.354276
0.362614 0.362614 0.362614
0.370880 0.370880 0.370880
0.379079 0.379079 0.379079
0.387205 0.387205 0.387205
0.395254 0.395254 0.395254
0.403226 0.403226 0.403226
0.411115 0.411115 0.411115
0.418922 0.418922 0.418922
0.426640 0.426640 0.426640
0.434273 0.434273 0.434273
0.441814 0.441814 0.441814
0.449262 0.449262 0.449262
0.456616 0.456616 0.456616
0.463873 0.463873 0.463873
0.471031 0.471031 0.471031
0.478091 0.478091 0.478091
0.485049 0.485049 0.485049
0.491904 0.491904 0.491904
0.498655 0.498655 0.498655
0.505302 0.505302 0.505302
0.278229 0.278229 0.278229
0.287118 0.287118 0.287118
0.295978 0.295978 0.295978
0.304807 0.304807 0.304807
0.313603 0.313603 0.313603
0.322360 0.322360 0.322360
0.331077 0.331077 0.331077
0.339749 0.339749 0.339749
0.348373 0.348373 0.348373
0.356945 0.356945 0.356945
0.365464 0.365464 0.365464
0.373925 0.373925 0.373925
0.382324 0.382324 0.382324
0.390661 0.390661 0.390661
0.398928 0.398928 0.398928
0.407126 0.407126 0.407126
0.415252 0.415252 0.415252
0.423301 0.423301 0.423301
0.431273 0.431273 0.431273
0.439162 0.439162 0.439162
0.446969 0.446969 0.446969
0.454688 0.454688 0.454688
0.462320 0.462320 0.462320
0.469862 0.469862 0.469862
0.477310 0.477310 0.477310
0.484664 0.484664 0.484664
0.491920 0.491920 0.491920
0.499079 0.499079 0.499079
0.506138 0.506138 0.506138
0.513096 0.513096 0.513096
0.519951 0.519951 0.519951
0.526703 0.526703 0.526703
0.533349 0.533349 0.533349
0.306038 0.306038 0.306038
0.314928 0.314928 0.314928
0.323787 0.323787 0.323787
0.332617 0.332617 0.332617
0.341412 0.341412 0.341412
0.350170 0.350170 0.350170
0.358886 0.358886 0.358886
0.367558 0.367558 0.367558
0.376182 0.376182 0.376182
0.384755 0.384755 0.384755
0.393274 0.393274 0.393274
0.401735 0.401735 0.401735
0.410133 0.410133 0.410133
0.418471 0.418471 0.418471
0.426737 0.426737 0.426737
0.434936 0.434936 0.434936
0.443062 0.443062 0.443062
0.451111 0.451111 0.451111
0.459082 0.459082 0.459082
0.466972 0.466972 0.466972
0.474778 0.474778 0.474778
0.482497 0.482497 0.482497
0.490130 0.490130 0.490130
0.497671 0.497671 0.497671
0.505119 0.505119 0.505119
0.512473 0.512473 0.512473
0.519730 0.519730 0.519730
0.526888 0.526888 0.526888
0.533947 0.533947 0.533947
0.540906 0.540906 0.540906
0.547761 0.547761 0.547761
0.554512 0.554512 0.554512
0.561158 0.561158 0.561158
0.333618 0.333618 0.333618
0.342507 0.342507 0.342507
0.351367 0.351367 0.351367
0.360196 0.360196 0.360196
0.368992 0.368992 0.368992
0.377749 0.377749 0.377749
0.386466 0.386466 0.386466
0.395138 0.395138 0.395138
0.403762 0.403762 0.403762
0.412335 0.412335 0.412335
0.420854 0.420854 0.420854
0.429315 0.429315 0.429315
0.437713 0.437713 0.437713
0.446050 0.446050 0.446050
0.454317 0.454317 0.454317
0.462515 0.462515 0.462515
0.470641 0.470641 0.470641
0.478690 0.478690 0.478690
0.486662 0.486662 0.486662
0.494551 0.494551 0.494551
0.502358 0.502358 0.502358
0.510077 0.510077 0.510077
0.517709 0.517709 0.517709
0.525251 0.525251 0.525251
0.532699 0.532699 0.532699
0.540053 0.540053 0.540053
0.547309 0.547309 0.547309
0.554468 0.554468 0.554468
0.561527 0.561527 0.561527
0.568485 0.568485 0.568485
0.575340 0.575340 0.575340
0.582092 0.582092 0.582092
0.588738 0.588738 0.588738
0.360955 0.360955 0.360955
0.369844 0.369844 0.369844
0.378703 0.378703 0.378703
0.387533 0.387533 0.387533
0.396329 0.396329 0.396329
0.405086 0.405086 0.405086
0.413802 0.413802 0.413802
0.422474 0.422474 0.422474
0.431098 0.431098 0.431098
0.439671 0.439671 0.439671
0.448190 0.448190 0.448190
0.456651 0.456651 0.456651
0.465050 0.465050 0.465050
0.473387 0.473387 0.473387
0.481653 0.481653 0.481653
0.489852 0.489852 0.489852
0.497978 0.497978 0.497978
0.506027 0.506027 0.506027
0.513999 0.513999 0.513999
0.521888 0.521888 0.521888
0.529695 0.529695 0.529695
0.537413 0.537413 0.537413
0.545046 0.545046 0.545046
0.552587 0.552587 0.552587
0.560035 0.560035 0.560035
0.567389 0.567389 0.567389
0.574646 0.574646 0.574646
0.581804 0.581804 0.581804
0.588864 0.588864 0.588864
0.595822 0.595822 0.595822
0.602677 0.602677 0.602677
0.609428 0.609428 0.609428
0.616075 0.616075 0.616075
0.388033 0.388033 0.388033
0.396922 0.396922 0.396922
0.405782 0.405782 0.405782
0.414611 0.414611 0.414611
0.423407 0.423407 0.423407
0.432164 0.432164 0.432164
0.440881 0.440881 0.440881
0.449553 0.449553 0.449553
0.458177 0.458177 0.458177
0.466750 0.466750 0.466750
0.475269 0.475269 0.475269
0.483730 0.483730 0.483730
0.492128 0.492128 0.492128
0.500465 0.500465 0.500465
0.508732 0.508732 0.508732
0.516930 0.516930 0.516930
0.525056 0.525056 0.525056
0.533105 0.533105 0.533105
0.541077 0.541077 0.541077
0.548966 0.548966 0.548966
0.556773 0.556773 0.556773
0.564492 0.564492 0.564492
0.572124 0.572124 0.572124
0.579666 0.579666 0.579666
0.587114 0.587114 0.587114
0.594468 0.594468 0.594468
0.601724 0.601724 0.601724
0.608883 0.608883 0.608883
0.615942 0.615942 0.615942
0.622900 0.622900 0.622900
0.629755 0.629755 0.629755
0.636507 0.636507 0.636507
0.643153 0.643153 0.643153
0.414850 0.414850 0.414850
0.423739 0.423739 0.423739
0.432598 0.432598 0.432598
0.441428 0.441428 0.441428
0.450224 0.450224 0.450224
0.458981 0.458981 0.458981
0.467697 0.467697 0.467697
0.476369 0.476369 0.476369
0.484993 0.484993 0.484993
0.493566 0.493566 0.493566
0.502085 0.502085 0.502085
0.510546 0.510546 0.510546
0.518944 0.518944 0.518944
0.527282 0.527282 0.527282
0.535548 0.535548 0.535548
0.543747 0.543747 0.543747
0.551873 0.551873 0.551873
0.559922 0.559922 0.559922
0.567894 0.567894 0.567894
0.575783 0.575783 0.575783
0.583590 0.583590 0.583590
0.591308 0.591308 0.591308
0.598941 0.598941 0.598941
0.606482 0.606482 0.606482
0.613930 0.613930 0.613930
0.621284 0.621284 0.621284
0.628541 0.628541 0.628541
0.635699 0.635699 0.635699
0.642758 0.642758 0.642758
0.649717 0.649717 0.649717
0.656572 0.656572 0.656572
0.663323 0.663323 0.663323
0.669970 0.669970 0.669970
0.441389 0.441389 0.441389
0.450278 0.450278 0.450278
0.459138 0.459138 0.459138
0.467967 0.467967 0.467967
0.476763 0.476763 0.476763
0.485520 0.485520 0.485520
0.494237 0.494237 0.494237
0.502909 0.502909 0.502909
0.511533 0.511533 0.511533
0.520105 0.520105 0.520105
0.528624 0.528624 0.528624
0.537085 0.537085 0.537085
0.545484 0.545484 0.545484
0.553821 0.553821 0.553821
0.562088 0.562088 0.562088
0.570286 0.570286 0.570286
0.578412 0.578412 0.578412
0.586461 0.586461 0.586461
0.594433 0.594433 0.594433
0.602322 0.602322 0.602322
0.610129 0.610129 0.610129
0.617848 0.617848 0.617848
0.625480 0.625480 0.625480
0.633022 0.633022 0.633022
0.640470 0.640470 0.640470
0.647824 0.647824 0.647824
0.655080 0.655080 0.655080
0.662239 0.662239 0.662239
0.669298 0.669298 0.669298
0.676256 0.676256 0.676256
0.683111 0.683111 0.683111
0.689863 0.689863 0.689863
0.696509 0.696509 0.696509
0.467652 0.467652 0.467652
0.476541 0.476541 0.476541
0.485401 0.485401 0.485401
0.494230 0.494230 0.494230
0.503026 0.503026 0.503026
0.511783 0.511783 0.511783
0.520500 0.520500 0.520500
0.529172 0.529172 0.529172
0.537796 0.537796 0.537796
0.546368 0.546368 0.546368
0.554887 0.554887 0.554887
0.563348 0.563348 0.563348
0.571747 0.571747 0.571747
0.580084 0.580084 0.580084
0.588351 0.588351 0.588351
0.596549 0.596549 0.596549
0.604675 0.604675 0.604675
0.612724 0.612724 0.612724
0.620696 0.620696 0.620696
0.628585 0.628585 0.628585
0.636392 0.636392 0.636392
0.644111 0.644111 0.644111
0.651743 0.651743 0.651743
0.659285 0.659285 0.659285
0.666733 0.666733 0.666733
0.674087 0.674087 0.674087
0.681343 0.681343 0.681343
0.688502 0.688502 0.688502
0.695561 0.695561 0.695561
0.702519 0.702519 0.702519
0.709374 0.709374 0.709374
0.716126 0.716126 0.716126
0.722772 0.722772 0.722772
0.493618 0.493618 0.493618
0.502507 0.502507 0.502507
0.511367 0.511367 0.511367
0.520196 0.520196 0.520196
0.528992 0.528992 0.528992
0.537749 0.537749 0.537749
0.546466 0.546466 0.546466
0.555138 0.555138 0.555138
0.563762 0.563762 0.563762
0.572335 0.572335 0.572335
0.580853 0.580853 0.580853
0.589315 0.589315 0.589315
0.597713 0.597713 0.597713
0.606050 0.606050 0.606050
0.614317 0.614317 0.614317
0.622515 0.622515 0.622515
0.630641 0.630641 0.630641
0.638690 0.638690 0.638690
0.646662 0.646662 0.646662
0.654551 0.654551 0.654551
0.662358 0.662358 0.662358
0.670077 0.670077 0.670077
0.677709 0.677709 0.677709
0.685251 0.685251 0.685251
0.692699 0.692699 0.692699
0.700053 0.700053 0.700053
0.707309 0.707309 0.707309
0.714468 0.714468 0.714468
0.721527 0.721527 0.721527
0.728485 0.728485 0.728485
0.735340 0.735340 0.735340
0.742092 0.742092 0.742092
0.748738 0.748738 0.748738
0.519294 0.519294 0.519294
0.528183 0.528183 0.528183
0.537043 0.537043 0.537043
0.545872 0.545872 0.545872
0.554668 0.554668 0.554668
0.563425 0.563425 0.563425
0.572142 0.572142 0.572142
0.580814 0.580814 0.580814
0.589438 0.589438 0.589438
0.598010 0.598010 0.598010
0.606529 0.606529 0.606529
0.614991 0.614991 0.614991
0.623389 0.623389 0.623389
0.631726 0.631726 0.631726
0.639993 0.639993 0.639993
0.648191 0.648191 0.648191
0.656317 0.656317 0.656317
0.664366 0.664366 0.664366
0.672338 0.672338 0.672338
0.680227 0.680227 0.680227
0.688034 0.688034 0.688034
0.695753 0.695753 0.695753
0.703385 0.703385 0.703385
0.710927 0.710927 0.710927
0.718375 0.718375 0.718375
0.725729 0.725729 0.725729
0.732985 0.732985 0.732985
0.740144 0.740144 0.740144
0.747203 0.747203 0.747203
0.754161 0.754161 0.754161
0.761016 0.761016 0.761016
0.767768 0.767768 0.767768
0.774414 0.774414 0.774414
0.544664 0.544664 0.544664
0.553554 0.553554 0.553554
0.562413 0.562413 0.562413
0.571243 0.571243 0.571243
0.580038 0.580038 0.580038
0.588796 0.588796 0.588796
0.597512 0.597512 0.597512
0.606184 0.606184 0.606184
0.614808 0.614808 0.614808
0.623381 0.623381 0.623381
0.631900 0.631900 0.631900
0.640361 0.640361 0.640361
0.648759 0.648759 0.648759
0.657097 0.657097 0.657097
0.665363 0.665363 0.665363
0.673561 0.673561 0.673561
0.681688 0.681688 0.681688
0.689737 0.689737 0.689737
0.697708 0.697708 0.697708
0.705597 0.705597 0.705597
0.713404 0.713404 0.713404
0.721123 0.721123 0.721123
0.728755 0.728755 0.728755
0.736297 0.736297 0.736297
0.743745 0.743745 0.743745
0.751099 0.751099 0.751099
0.758355 0.758355 0.758355
0.765514 0.765514 0.765514
0.772573 0.772573 0.772573
0.779532 0.779532 0.779532
0.786387 0.786387 0.786387
0.793138 0.793138 0.793138
0.799784 0.799784 0.799784
0.569720 0.569720 0.569720
0.578609 0.578609 0.578609
0.587469 0.587469 0.587469
0.596298 0.596298 0.596298
0.605094 0.605094 0.605094
0.613851 0.613851 0.613851
0.622567 0.622567 0.622567
0.631239 0.631239 0.631239
0.639864 0.639864 0.639864
0.648436 0.648436 0.648436
0.656955 0.656955 0.656955
0.665416 0.665416 0.665416
0.673815 0.673815 0.673815
0.682152 0.682152 0.682152
0.690419 0.690419 0.690419
0.698617 0.698617 0.698617
0.706743 0.706743 0.706743
0.714792 0.714792 0.714792
0.722764 0.722764 0.722764
0.730653 0.730653 0.730653
0.738460 0.738460 0.738460
0.746178 0.746178 0.746178
0.753811 0.753811 0.753811
0.761352 0.761352 0.761352
0.768800 0.768800 0.768800
0.776155 0.776155 0.776155
0.783411 0.783411 0.783411
0.790570 0.790570 0.790570
0.797629 0.797629 0.797629
0.804587 0.804587 0.804587
0.811442 0.811442 0.811442
0.818193 0.818193 0.818193
0.824840 0.824840 0.824840
0.594459 0.594459 0.594459
0.603349 0.603349 0.603349
0.612208 0.612208 0.612208
0.621038 0.621038 0.621038
0.629833 0.629833 0.629833
0.638591 0.638591 0.638591
0.647307 0.647307 0.647307
0.655979 0.655979 0.655979
0.664603 0.664603 0.664603
0.673176 0.673176 0.673176
0.681695 0.681695 0.681695
0.690156 0.690156 0.690156
0.698554 0.698554 0.698554
0.706892 0.706892 0.706892
0.715158 0.715158 0.715158
0.723357 0.723357 0.723357
0.731483 0.731483 0.731483
0.739532 0.739532 0.739532
0.747503 0.747503 0.747503
0.755392 0.755392 0.755392
0.763199 0.763199 0.763199
0.770918 0.770918 0.770918
0.778551 0.778551 0.778551
0.786092 0.786092 0.786092
0.793540 0.793540 0.793540
0.800894 0.800894 0.800894
0.808151 0.808151 0.808151
0.815309 0.815309 0.815309
0.822368 0.822368 0.822368
0.829327 0.829327 0.829327
0.836182 0.836182 0.836182
0.842933 0.842933 0.842933
0.849579 0.849579 0.849579
0.618870 0.618870 0.618870
0.627760 0.627760 0.627760
0.636619 0.636619 0.636619
0.645449 0.645449 0.645449
0.654244 0.654244 0.654244
0.663002 0.663002 0.663002
0.671718 0.671718 0.671718
0.680390 0.680390 0.680390
0.689014 0.689014 0.689014
0.697587 0.697587 0.697587
0.706106 0.706106 0.706106
0.714567 0.714567 0.714567
0.722965 0.722965 0.722965
0.731303 0.731303 0.731303
0.739569 0.739569 0.739569
0.747767 0.747767 0.747767
0.755894 0.755894 0.755894
0.763943 0.763943 0.763943
0.771914 0.771914 0.771914
0.779803 0.779803 0.779803
0.787610 0.787610 0.787610
0.795329 0.795329 0.795329
0.802961 0.802961 0.802961
0.810503 0.810503 0.810503
0.817951 0.817951 0.817951
0.825305 0.825305 0.825305
0.832561 0.832561 0.832561
0.839720 0.839720 0.839720
