luts/agfa_precisa_ct_100.cube
TITLE Film LUT
LUT_3D_SIZE 9
DOMAIN_MIN 0.0 0.0 0.0
DOMAIN_MAX 1.0 1.0 1.0
0.000000 0.000000 0.000000
0.102520 0.023210 0.000000
0.252436 0.095169 0.000000
0.398826 0.165437 0.000000
0.540803 0.233586 0.000000
0.677552 0.299225 0.000000
0.808378 0.362022 0.000000
0.932679 0.421686 0.000000
1.000000 0.478000 0.000000
0.000000 0.102519 0.023209
0.029312 0.102520 0.000000
0.252436 0.247689 0.000000
0.398826 0.317956 0.000000
0.540803 0.386105 0.000000
0.677552 0.451744 0.000000
0.808378 0.514541 0.000000
0.932679 0.574206 0.000000
1.000000 0.630519 0.000000
0.000000 0.252439 0.095171
0.000000 0.252439 0.000000
0.107265 0.252439 0.000000
0.329777 0.398826 0.000000
0.540803 0.536025 0.000000
0.677552 0.601665 0.000000
0.808378 0.664461 0.000000
0.932679 0.724126 0.000000
1.000000 0.780440 0.000000
0.000000 0.398826 0.165437
0.000000 0.398826 0.012916
0.037000 0.398826 0.000000
0.183390 0.398826 0.000000
0.399195 0.540803 0.000000
0.607053 0.677552 0.000000
0.805909 0.808378 0.000000
0.932679 0.870513 0.000000
1.000000 0.926826 0.000000
0.000000 0.540801 0.233585
0.000000 0.540801 0.081064
0.000000 0.540801 0.000000
0.115242 0.540801 0.000000
0.257220 0.540803 0.000000
0.465078 0.677552 0.000000
0.663934 0.808378 0.000000
0.852872 0.932679 0.000000
1.000000 1.000000 0.000000
0.000000 0.677554 0.299226
0.000000 0.677554 0.146706
0.000000 0.677554 0.000000
0.049600 0.677554 0.000000
0.191577 0.677554 0.000000
0.328326 0.677554 0.000000
0.527181 0.808378 0.000000
0.716119 0.932679 0.000000
0.894446 1.000000 0.000000
0.000000 0.808380 0.362022
0.000000 0.808380 0.209502
0.000000 0.808380 0.059586
0.000000 0.808380 0.000000
0.128781 0.808380 0.000000
0.265530 0.808380 0.000000
0.396356 0.808380 0.000000
0.585293 0.932679 0.000000
0.763621 1.000000 0.000000
0.000000 0.932676 0.421685
0.000000 0.932676 0.269164
0.000000 0.932676 0.119248
0.000000 0.932676 0.000000
0.069119 0.932676 0.000000
0.205868 0.932676 0.000000
0.336694 0.932676 0.000000
0.460997 0.932679 0.000000
0.639324 1.000000 0.000000
0.000000 1.000000 0.478000
0.000000 1.000000 0.325480
0.000000 1.000000 0.175564
0.000000 1.000000 0.029174
0.012803 1.000000 0.000000
0.149552 1.000000 0.000000
0.280378 1.000000 0.000000
0.404680 1.000000 0.000000
0.522000 1.000000 0.000000
0.023210 0.000000 0.102520
0.102520 0.000000 0.029311
0.252436 0.000000 0.000000
0.398826 0.012916 0.000000
0.540803 0.081065 0.000000
0.677552 0.146705 0.000000
0.808378 0.209501 0.000000
0.932679 0.269166 0.000000
1.000000 0.325480 0.000000
0.000000 0.029310 0.102520
0.102520 0.102519 0.102520
0.252436 0.158887 0.072536
0.398826 0.213930 0.043258
0.540803 0.267313 0.014863
0.677552 0.318730 0.000000
0.808378 0.367921 0.000000
0.932679 0.421685 0.000000
1.000000 0.477999 0.000000
0.000000 0.252439 0.247691
0.072537 0.252439 0.158890
0.166082 0.252439 0.072537
0.398826 0.393834 0.043259
0.540803 0.447218 0.014864
0.677552 0.498635 0.000000
0.808378 0.547826 0.000000
0.932679 0.599149 0.000000
1.000000 0.652052 0.000000
0.000000 0.398826 0.317957
0.043259 0.398826 0.213932
0.052486 0.398826 0.043259
0.228154 0.398826 0.043259
0.458725 0.540803 0.014864
0.677552 0.674299 0.000000
0.808378 0.723490 0.000000
0.932679 0.772431 0.000000
1.000000 0.822004 0.000000
0.000000 0.540801 0.386105
0.014864 0.540801 0.267314
0.014864 0.540801 0.087415
0.117982 0.540801 0.014864
0.288355 0.540803 0.014864
0.510435 0.677552 0.000000
0.722897 0.808378 0.000000
0.924869 0.932679 0.000000
1.000000 0.986833 0.000000
0.000000 0.677554 0.451747
0.000000 0.677554 0.318733
0.000000 0.677554 0.138834
0.011861 0.677554 0.000000
0.182234 0.677554 0.000000
0.346332 0.677554 0.000000
0.558793 0.808378 0.000000
0.762991 0.932679 0.000000
0.954400 1.000000 0.000000
0.000000 0.808380 0.514543
0.000000 0.808380 0.367923
0.000000 0.808380 0.188025
0.000000 0.808380 0.012356
0.080713 0.808380 0.000000
0.244812 0.808380 0.000000
0.401803 0.808380 0.000000
0.608130 0.932679 0.000000
0.802515 1.000000 0.000000
0.000000 0.932676 0.574205
0.000000 0.932676 0.421685
0.000000 0.932676 0.244226
0.000000 0.932676 0.070940
0.000000 0.932676 0.000000
0.158995 0.932676 0.000000
0.313857 0.932676 0.000000
0.460997 0.932679 0.000000
0.658210 1.000000 0.000000
0.000000 1.000000 0.630520
0.000000 1.000000 0.478000
0.000000 1.000000 0.303952
0.000000 1.000000 0.133996
0.000000 1.000000 0.000000
0.089597 1.000000 0.000000
0.241483 1.000000 0.000000
0.385794 1.000000 0.000000
0.522000 1.000000 0.000000
0.095171 0.000000 0.252439
0.247691 0.000000 0.252439
0.252439 0.000000 0.107272
0.398826 0.000000 0.037003
0.540803 0.000000 0.000000
0.677552 0.000000 0.000000
0.808378 0.059582 0.000000
0.932679 0.119247 0.000000
1.000000 0.175560 0.000000
0.000000 0.000000 0.252439
0.158891 0.072535 0.252439
0.252439 0.072535 0.166089
0.398826 0.043258 0.052489
0.540803 0.087410 0.014863
0.677552 0.138828 0.000000
0.808378 0.188018 0.000000
0.932679 0.244222 0.000000
1.000000 0.303947 0.000000
0.000000 0.107269 0.252439
0.072537 0.166086 0.252439
0.252436 0.252438 0.252439
0.398826 0.307481 0.223162
0.540803 0.360864 0.194767
0.677552 0.412282 0.167417
0.808378 0.461473 0.141252
0.932679 0.508210 0.116391
1.000000 0.552322 0.092927
0.000000 0.329777 0.398826
0.043259 0.398826 0.393834
0.223158 0.398826 0.307483
0.314508 0.398826 0.223162
0.540803 0.536529 0.194767
0.677552 0.587946 0.167417
0.808378 0.637137 0.141252
0.932679 0.683874 0.116391
1.000000 0.727987 0.092927
0.000000 0.540801 0.536024
0.014864 0.540801 0.447217
0.194763 0.540801 0.360865
0.204335 0.540801 0.194767
0.374708 0.540803 0.194767
0.596788 0.677552 0.167417
0.808378 0.807507 0.141252
0.932679 0.854244 0.116391
1.000000 0.898356 0.092927
0.000000 0.677554 0.601666
0.000000 0.677554 0.498636
0.167413 0.677554 0.412285
0.167417 0.677554 0.236618
0.268587 0.677554 0.167417
0.432686 0.677554 0.167417
0.645147 0.808378 0.141252
0.847011 0.932679 0.116391
1.000000 1.000000 0.092927
0.000000 0.808380 0.664462
0.000000 0.808380 0.547826
0.141248 0.808380 0.461475
0.141252 0.808380 0.285809
0.167067 0.808380 0.141252
0.331165 0.808380 0.141252
0.488157 0.808380 0.141252
0.690021 0.932679 0.116391
0.880550 1.000000 0.092927
0.000000 0.932676 0.724124
0.000000 0.932676 0.599147
0.116388 0.932676 0.508210
0.116392 0.932676 0.332544
0.116392 0.932676 0.162172
0.234711 0.932676 0.116392
0.391703 0.932676 0.116392
0.540865 0.932679 0.116391
0.731394 1.000000 0.092927
0.000000 1.000000 0.780440
0.000000 1.000000 0.652052
0.092923 1.000000 0.552324
0.092927 1.000000 0.376658
0.092927 1.000000 0.206286
0.143668 1.000000 0.092927
0.300659 1.000000 0.092927
0.449821 1.000000 0.092927
0.590605 1.000000 0.092927
0.165437 0.000000 0.398826
0.317957 0.000000 0.398826
0.398826 0.000000 0.329780
0.398826 0.000000 0.183390
0.540803 0.000000 0.115241
0.677552 0.000000 0.049601
0.808378 0.000000 0.000000
0.932679 0.000000 0.000000
1.000000 0.029174 0.000000
0.012917 0.000000 0.398826
0.213932 0.043258 0.398826
0.393831 0.043258 0.398826
0.398826 0.043258 0.228154
0.540803 0.014863 0.117979
0.677552 0.000000 0.011862
0.808378 0.012354 0.000000
0.932679 0.070941 0.000000
1.000000 0.133995 0.000000
0.000000 0.037003 0.398826
0.043259 0.052490 0.398826
0.307475 0.223158 0.398826
0.398826 0.223162 0.314508
0.540803 0.194767 0.204333
0.677552 0.236618 0.167417
0.808378 0.285808 0.141252
0.932679 0.332545 0.116391
1.000000 0.376658 0.092927
0.000000 0.183390 0.398826
0.043259 0.228154 0.398826
0.223158 0.314506 0.398826
0.398826 0.398826 0.398826
0.540803 0.452210 0.370431
0.677552 0.503627 0.343081
0.808378 0.552818 0.316916
0.932679 0.599555 0.292056
1.000000 0.643668 0.268592
0.000000 0.399191 0.540801
0.014864 0.458721 0.540801
0.194763 0.540801 0.536530
0.370431 0.540801 0.452209
0.459027 0.540803 0.370431
0.677552 0.673997 0.343081
0.808378 0.723188 0.316916
0.932679 0.769925 0.292056
1.000000 0.814037 0.268592
0.000000 0.607056 0.677554
0.000000 0.677554 0.674300
0.167413 0.677554 0.587949
0.343081 0.677554 0.503628
0.352906 0.677554 0.343081
0.517004 0.677554 0.343081
0.729465 0.808378 0.316916
0.931330 0.932679 0.292056
1.000000 0.978141 0.268592
0.000000 0.805910 0.808380
0.000000 0.808380 0.723491
0.141248 0.808380 0.637139
0.316916 0.808380 0.552818
0.316916 0.808380 0.382446
0.415484 0.808380 0.316916
0.572476 0.808380 0.316916
0.774340 0.932679 0.292056
0.964869 1.000000 0.268592
0.000000 0.932676 0.870511
0.000000 0.932676 0.772429
0.116388 0.932676 0.683875
0.292056 0.932676 0.599554
0.292056 0.932676 0.429182
0.319030 0.932676 0.292056
0.476021 0.932676 0.292056
0.625184 0.932679 0.292056
0.815713 1.000000 0.268592
0.000000 1.000000 0.926826
0.000000 1.000000 0.822004
0.092923 1.000000 0.727988
0.268592 1.000000 0.643668
0.268592 1.000000 0.473295
0.268592 1.000000 0.309197
0.384978 1.000000 0.268592
0.534139 1.000000 0.268592
0.674924 1.000000 0.268592
0.233586 0.000000 0.540803
0.386106 0.000000 0.540803
0.536022 0.000000 0.540803
0.540803 0.000000 0.399195
0.540803 0.000000 0.257218
0.677552 0.000000 0.191578
0.808378 0.000000 0.128782
0.932679 0.000000 0.069117
1.000000 0.000000 0.012803
0.081066 0.000000 0.540803
0.267316 0.014863 0.540803
0.447214 0.014863 0.540803
0.540803 0.014863 0.458724
0.540803 0.014863 0.288352
0.677552 0.000000 0.182235
0.808378 0.000000 0.080714
0.932679 0.000000 0.000000
1.000000 0.000000 0.000000
0.000000 0.000000 0.540803
0.087412 0.014864 0.540803
0.360858 0.194763 0.540803
0.536529 0.194767 0.540803
0.540803 0.194767 0.374706
0.677552 0.167417 0.268589
0.808378 0.141252 0.167068
0.932679 0.162173 0.116391
1.000000 0.206286 0.092927
0.000000 0.115241 0.540803
0.014864 0.117980 0.540803
0.194763 0.204331 0.540803
0.452210 0.370431 0.540803
0.540803 0.370431 0.459025
0.677552 0.343081 0.352908
0.808378 0.382446 0.316916
0.932679 0.429183 0.292056
1.000000 0.473295 0.268592
0.000000 0.257216 0.540803
0.014864 0.288350 0.540803
0.194763 0.374701 0.540803
0.370431 0.459022 0.540803
0.540803 0.540801 0.540802
0.677552 0.592217 0.513451
0.808378 0.641408 0.487286
0.932679 0.688145 0.462426
1.000000 0.732257 0.438961
0.000000 0.465079 0.677554
0.000000 0.510436 0.677554
0.167413 0.596787 0.677554
0.343081 0.677554 0.674000
0.513453 0.677554 0.592222
0.598783 0.677554 0.513453
0.808378 0.805513 0.487288
0.932679 0.852250 0.462428
1.000000 0.896362 0.438964
0.000000 0.663933 0.808380
0.000000 0.722896 0.808380
0.141248 0.808380 0.807512
0.316916 0.808380 0.723191
0.487288 0.808380 0.641412
0.497263 0.808380 0.487288
0.654254 0.808380 0.487288
0.856119 0.932679 0.462428
1.000000 1.000000 0.438964
0.000000 0.852864 0.932676
0.000000 0.924861 0.932676
0.116388 0.932676 0.854247
0.292056 0.932676 0.769926
0.462429 0.932676 0.688148
0.462429 0.932676 0.524049
0.557800 0.932676 0.462429
0.706963 0.932679 0.462428
0.897491 1.000000 0.438964
0.000000 1.000000 1.000000
0.000000 1.000000 0.986835
0.092923 1.000000 0.898361
0.268592 1.000000 0.814040
0.438964 1.000000 0.732261
0.438964 1.000000 0.568163
0.466757 1.000000 0.438964
0.615918 1.000000 0.438964
0.756703 1.000000 0.438964
0.299227 0.000000 0.677555
0.451747 0.000000 0.677555
0.601663 0.000000 0.677555
0.677555 0.000000 0.607058
0.677555 0.000000 0.465081
0.677555 0.000000 0.328332
0.808378 0.000000 0.265534
0.932679 0.000000 0.205869
1.000000 0.000000 0.149555
0.146707 0.000000 0.677555
0.318734 0.000000 0.677555
0.498633 0.000000 0.677555
0.674301 0.000000 0.677555
0.677555 0.000000 0.510437
0.677555 0.000000 0.346339
0.808378 0.000000 0.244816
0.932679 0.000000 0.158997
1.000000 0.000000 0.089602
0.000000 0.000000 0.677555
0.138831 0.000000 0.677555
0.412277 0.167412 0.677555
0.587947 0.167416 0.677555
0.677555 0.167416 0.596791
0.677555 0.167416 0.432693
0.808378 0.141252 0.331170
0.932679 0.116391 0.234712
1.000000 0.092927 0.143672
0.000000 0.049600 0.677555
0.000000 0.011860 0.677555
0.236613 0.167412 0.677555
0.503629 0.343081 0.677555
0.674001 0.343081 0.677555
0.677555 0.343081 0.517011
0.808378 0.316916 0.415489
0.932679 0.292056 0.319031
1.000000 0.309193 0.268592
0.000000 0.191575 0.677555
0.000000 0.182230 0.677555
0.167412 0.268582 0.677555
0.343081 0.352902 0.677555
0.592223 0.513450 0.677555
0.677555 0.513450 0.598789
0.808378 0.487286 0.497266
0.932679 0.524042 0.462426
1.000000 0.568155 0.438961
0.000000 0.328328 0.677555
0.000000 0.346334 0.677555
0.167412 0.432685 0.677555
0.343081 0.517006 0.677555
0.513453 0.598785 0.677555
0.677551 0.677552 0.677555
0.808378 0.726743 0.651389
0.932679 0.773480 0.626529
1.000000 0.817593 0.603065
0.000000 0.527181 0.808380
0.000000 0.558794 0.808380
0.141248 0.645145 0.808380
0.316916 0.729466 0.808380
0.487288 0.808380 0.805514
0.651387 0.808380 0.726747
0.733023 0.808380 0.651391
0.932679 0.930471 0.626531
1.000000 0.974583 0.603066
0.000000 0.716112 0.932676
0.000000 0.762985 0.932676
0.116388 0.847003 0.932676
0.292056 0.931324 0.932676
0.462429 0.932676 0.852250
0.626527 0.932676 0.773483
0.636569 0.932676 0.626531
0.785732 0.932679 0.626531
0.976260 1.000000 0.603066
0.000000 0.894445 1.000000
0.000000 0.954399 1.000000
0.092923 1.000000 1.000000
0.268592 1.000000 0.978142
0.438964 1.000000 0.896364
0.603063 1.000000 0.817596
0.603066 1.000000 0.660607
0.694687 1.000000 0.603066
0.835472 1.000000 0.603066
0.362019 0.000000 0.808373
0.514539 0.000000 0.808373
0.664455 0.000000 0.808373
0.808373 0.000000 0.805900
0.808373 0.000000 0.663923
0.808373 0.000000 0.527175
0.808378 0.000000 0.396351
0.932679 0.000000 0.336687
1.000000 0.000000 0.280373
0.209500 0.000000 0.808373
0.367922 0.000000 0.808373
0.547820 0.000000 0.808373
0.723489 0.000000 0.808373
0.808373 0.000000 0.722885
0.808373 0.000000 0.558786
0.808378 0.000000 0.401797
0.932679 0.000000 0.313849
1.000000 0.000000 0.241477
0.059579 0.000000 0.808373
0.188018 0.000000 0.808373
0.461464 0.141249 0.808373
0.637135 0.141253 0.808373
0.807507 0.141253 0.808373
0.808373 0.141253 0.645140
0.808378 0.141252 0.488151
0.932679 0.116391 0.391693
1.000000 0.092927 0.300653
0.000000 0.000000 0.808373
0.012354 0.000000 0.808373
0.285800 0.141249 0.808373
0.552816 0.316917 0.808373
0.723188 0.316917 0.808373
0.808373 0.316917 0.729459
0.808378 0.316916 0.572470
0.932679 0.292056 0.476012
1.000000 0.268592 0.384971
0.000000 0.128782 0.808373
0.000000 0.080716 0.808373
0.141249 0.167067 0.808373
0.382446 0.316917 0.808373
0.641411 0.487287 0.808373
0.805509 0.487287 0.808373
0.808378 0.487286 0.654247
0.932679 0.462426 0.557790
1.000000 0.438961 0.466749
0.000000 0.265535 0.808373
0.000000 0.244820 0.808373
0.141249 0.331171 0.808373
0.316917 0.415492 0.808373
0.487289 0.497271 0.808373
0.726738 0.651388 0.808373
0.808378 0.651389 0.733017
0.932679 0.626529 0.636559
1.000000 0.660612 0.603065
0.000000 0.396364 0.808380
0.000000 0.401813 0.808380
0.141248 0.488164 0.808380
0.316916 0.572485 0.808380
0.487288 0.654264 0.808380
0.651387 0.733031 0.808380
0.808374 0.808380 0.808372
0.932679 0.855120 0.783512
1.000000 0.899233 0.760047
0.000000 0.585295 0.932676
0.000000 0.608133 0.932676
0.116388 0.690022 0.932676
0.292056 0.774343 0.932676
0.462429 0.856121 0.932676
0.626527 0.932676 0.930464
0.783512 0.932676 0.855104
0.861083 0.932679 0.783512
1.000000 1.000000 0.760047
0.000000 0.763627 1.000000
0.000000 0.802523 1.000000
0.092923 0.880556 1.000000
0.268592 0.964877 1.000000
0.438964 1.000000 1.000000
0.603063 1.000000 0.974577
0.760047 1.000000 0.899218
0.770038 1.000000 0.760047
0.910823 1.000000 0.760047
0.421685 0.000000 0.932676
0.574205 0.000000 0.932676
0.724121 0.000000 0.932676
0.870511 0.000000 0.932676
0.932676 0.000000 0.852864
0.932676 0.000000 0.716116
0.932676 0.000000 0.585289
0.932679 0.000000 0.460990
1.000000 0.000000 0.404676
0.269165 0.000000 0.932676
0.421686 0.000000 0.932676
0.599145 0.000000 0.932676
0.772430 0.000000 0.932676
0.932676 0.000000 0.924861
0.932676 0.000000 0.762988
0.932676 0.000000 0.608126
0.932679 0.000000 0.460989
1.000000 0.000000 0.385790
0.119245 0.000000 0.932676
0.244222 0.000000 0.932676
0.508202 0.116388 0.932676
0.683873 0.116392 0.932676
0.854245 0.116392 0.932676
0.932676 0.116392 0.847009
0.932676 0.116392 0.690017
0.932679 0.116391 0.540857
1.000000 0.092927 0.449817
0.000000 0.000000 0.932676
0.070940 0.000000 0.932676
0.332538 0.116388 0.932676
0.599554 0.292056 0.932676
0.769926 0.292056 0.932676
0.932676 0.292056 0.931328
0.932676 0.292056 0.774336
0.932679 0.292056 0.625176
1.000000 0.268592 0.534135
0.000000 0.069117 0.932676
0.000000 0.000000 0.932676
0.162168 0.116388 0.932676
0.429184 0.292056 0.932676
0.688149 0.462426 0.932676
0.852247 0.462426 0.932676
0.932676 0.462426 0.856114
0.932679 0.462426 0.706954
1.000000 0.438961 0.615913
0.000000 0.205870 0.932676
0.000000 0.158997 0.932676
0.116388 0.234712 0.932676
0.292056 0.319032 0.932676
0.524046 0.462429 0.932676
0.773476 0.626527 0.932676
0.930469 0.626530 0.932676
0.932679 0.626529 0.785723
1.000000 0.603065 0.694683
0.000000 0.336695 0.932676
0.000000 0.313858 0.932676
0.116388 0.391702 0.932676
0.292056 0.476023 0.932676
0.462429 0.557801 0.932676
0.626527 0.636569 0.932676
0.855113 0.783519 0.932676
0.932679 0.783520 0.861079
1.000000 0.760055 0.770038
0.000000 0.460992 0.932676
0.000000 0.460992 0.932676
0.116388 0.540858 0.932676
0.292056 0.625179 0.932676
0.462429 0.706957 0.932676
0.626527 0.785725 0.932676
0.783519 0.861081 0.932676
0.932679 0.932677 0.932676
1.000000 0.976790 0.909211
0.000000 0.639324 1.000000
0.000000 0.658210 1.000000
0.092923 0.731392 1.000000
0.268592 0.815713 1.000000
0.438964 0.897491 1.000000
0.603063 0.976259 1.000000
0.760054 1.000000 1.000000
0.909211 1.000000 0.976786
0.982421 1.000000 0.909211
0.478000 0.000000 1.000000
0.630521 0.000000 1.000000
0.780436 0.000000 1.000000
0.926826 0.000000 1.000000
1.000000 0.000000 1.000000
1.000000 0.000000 0.894448
1.000000 0.000000 0.763622
1.000000 0.000000 0.639320
1.000000 0.000000 0.522000
0.325481 0.000000 1.000000
0.478001 0.000000 1.000000
0.652049 0.000000 1.000000
0.822005 0.000000 1.000000
0.986836 0.000000 1.000000
1.000000 0.000000 0.954402
1.000000 0.000000 0.802516
1.000000 0.000000 0.658206
1.000000 0.000000 0.522000
0.175560 0.000000 1.000000
0.303948 0.000000 1.000000
0.552316 0.092923 1.000000
0.727987 0.092927 1.000000
0.898359 0.092927 1.000000
1.000000 0.092927 1.000000
1.000000 0.092927 0.880551
1.000000 0.092927 0.731390
1.000000 0.092927 0.590605
0.029174 0.000000 1.000000
0.133996 0.000000 1.000000
0.376652 0.092923 1.000000
0.643668 0.268592 1.000000
0.814040 0.268592 1.000000
0.978139 0.268592 1.000000
1.000000 0.268592 0.964870
1.000000 0.268592 0.815709
1.000000 0.268592 0.674924
0.000000 0.012801 1.000000
0.000000 0.000000 1.000000
0.206282 0.092923 1.000000
0.473298 0.268592 1.000000
0.732263 0.438961 1.000000
0.896361 0.438961 1.000000
1.000000 0.438961 1.000000
1.000000 0.438961 0.897486
1.000000 0.438961 0.756701
0.000000 0.149554 1.000000
0.000000 0.089600 1.000000
0.092923 0.143668 1.000000
0.309194 0.268592 1.000000
0.568160 0.438964 1.000000
0.817590 0.603063 1.000000
0.974583 0.603065 1.000000
1.000000 0.603065 0.976256
1.000000 0.603065 0.835471
0.000000 0.280380 1.000000
0.000000 0.241485 1.000000
0.092923 0.300659 1.000000
0.268592 0.384979 1.000000
0.438964 0.466758 1.000000
0.660600 0.603063 1.000000
0.899227 0.760054 1.000000
1.000000 0.760055 1.000000
1.000000 0.760055 0.910827
0.000000 0.404676 1.000000
0.000000 0.385790 1.000000
0.092923 0.449815 1.000000
0.268592 0.534135 1.000000
0.438964 0.615914 1.000000
0.603063 0.694681 1.000000
0.760054 0.770037 1.000000
0.976794 0.909211 1.000000
1.000000 0.909211 0.982421
0.000000 0.522000 1.000000
0.000000 0.522000 1.000000
0.092923 0.590603 1.000000
0.268592 0.674924 1.000000
0.438964 0.756703 1.000000
0.603063 0.835470 1.000000
0.760054 0.910826 1.000000
0.909215 0.982423 1.000000
1.000000 1.000000 1.000000
