luts/agfa_ultra_100.cube
TITLE Film LUT
LUT_3D_SIZE 5
DOMAIN_MIN 0.0 0.0 0.0
DOMAIN_MAX 1.0 1.0 1.0
0.000000 0.000000 0.000000
0.251363 0.058491 0.000000
0.538984 0.162034 0.000000
0.806778 0.258440 0.000000
1.000000 0.346000 0.000000
0.000000 0.251357 0.058489
0.142878 0.251363 0.000000
0.538984 0.463391 0.000000
0.806778 0.559797 0.000000
1.000000 0.647357 0.000000
0.000000 0.538986 0.162035
0.039328 0.538986 0.000000
0.326949 0.538986 0.000000
0.766130 0.806778 0.000000
1.000000 0.934986 0.000000
0.000000 0.806779 0.258440
0.000000 0.806779 0.000000
0.230544 0.806779 0.000000
0.498337 0.806779 0.000000
0.897221 1.000000 0.000000
0.000000 1.000000 0.346000
0.000000 1.000000 0.044637
0.142984 1.000000 0.000000
0.410778 1.000000 0.000000
0.654000 1.000000 0.000000
0.058490 0.000000 0.251362
0.251363 0.000000 0.142871
0.538984 0.000000 0.039327
0.806778 0.000000 0.000000
1.000000 0.044638 0.000000
0.000000 0.142867 0.251362
0.251363 0.251356 0.251359
0.538984 0.308877 0.179450
0.806778 0.362436 0.112502
1.000000 0.411080 0.051696
0.000000 0.538986 0.463397
0.179455 0.538986 0.308885
0.409552 0.538986 0.179455
0.806778 0.721976 0.112507
1.000000 0.770620 0.051702
0.000000 0.806779 0.559802
0.112507 0.806779 0.362444
0.222097 0.806779 0.112507
0.556840 0.806779 0.112507
0.994639 1.000000 0.051702
0.000000 1.000000 0.647361
0.051702 1.000000 0.411088
0.051843 1.000000 0.051702
0.386585 1.000000 0.051702
0.690613 1.000000 0.051702
0.162035 0.000000 0.538985
0.463397 0.000000 0.538985
0.538985 0.000000 0.326952
0.806778 0.000000 0.230545
1.000000 0.000000 0.142985
0.000000 0.039322 0.538985
0.308890 0.179450 0.538985
0.538985 0.179450 0.409554
0.806778 0.112502 0.222098
1.000000 0.051696 0.051842
0.000000 0.326952 0.538986
0.179457 0.409557 0.538986
0.538983 0.538986 0.538986
0.806778 0.592545 0.472037
1.000000 0.641189 0.411231
0.000000 0.766132 0.806779
0.112509 0.806779 0.721974
0.472035 0.806779 0.592544
0.686270 0.806779 0.472037
1.000000 0.975930 0.411231
0.000000 1.000000 0.934985
0.051703 1.000000 0.770618
0.411230 1.000000 0.641189
0.516016 1.000000 0.411231
0.820043 1.000000 0.411231
0.258439 0.000000 0.806776
0.559802 0.000000 0.806776
0.806776 0.000000 0.766128
0.806778 0.000000 0.498336
1.000000 0.000000 0.410776
0.000000 0.000000 0.806776
0.362448 0.112502 0.806776
0.721974 0.112502 0.806776
0.806778 0.112502 0.556836
1.000000 0.051696 0.386580
0.000000 0.230547 0.806776
0.112509 0.222103 0.806776
0.592540 0.472036 0.806776
0.806778 0.472038 0.686269
1.000000 0.411233 0.516013
0.000000 0.498342 0.806779
0.112509 0.556846 0.806779
0.472035 0.686275 0.806779
0.806776 0.806779 0.806775
1.000000 0.855425 0.745970
0.000000 0.897224 1.000000
0.051703 0.994644 1.000000
0.411230 1.000000 0.975927
0.745970 1.000000 0.855418
0.940549 1.000000 0.745970
0.346000 0.000000 1.000000
0.647363 0.000000 1.000000
0.934984 0.000000 1.000000
1.000000 0.000000 0.897222
1.000000 0.000000 0.654000
0.044643 0.000000 1.000000
0.411093 0.051696 1.000000
0.770619 0.051696 1.000000
1.000000 0.051696 0.994638
1.000000 0.051696 0.690611
0.000000 0.142986 1.000000
0.051703 0.051846 1.000000
0.641184 0.411230 1.000000
0.975929 0.411233 1.000000
1.000000 0.411233 0.820044
0.000000 0.410779 1.000000
0.051703 0.386587 1.000000
0.411230 0.516017 1.000000
0.855421 0.745972 1.000000
1.000000 0.745974 0.940551
0.000000 0.654000 1.000000
0.051703 0.690613 1.000000
0.411230 0.820043 1.000000
0.745972 0.940550 1.000000
1.000000 1.000000 1.000000
