luts/agfa_ultra_100.cube
TITLE Film LUT
LUT_3D_SIZE 33
DOMAIN_MIN 0.0 0.0 0.0
DOMAIN_MAX 1.0 1.0 1.0
0.000000 0.000000 0.000000
0.000000 0.000000 0.000000
0.026256 0.000000 0.000000
0.064194 0.000000 0.000000
0.101978 0.004712 0.000000
0.139600 0.018256 0.000000
0.177049 0.031738 0.000000
0.214305 0.045150 0.000000
0.251363 0.058491 0.000000
0.288196 0.071751 0.000000
0.324807 0.084931 0.000000
0.361176 0.098023 0.000000
0.397296 0.111027 0.000000
0.433143 0.123932 0.000000
0.468717 0.136738 0.000000
0.504000 0.149440 0.000000
0.538984 0.162034 0.000000
0.573658 0.174517 0.000000
0.608005 0.186882 0.000000
0.642021 0.199128 0.000000
0.675695 0.211250 0.000000
0.709017 0.223246 0.000000
0.741978 0.235112 0.000000
0.774567 0.246844 0.000000
0.806778 0.258440 0.000000
0.838603 0.269897 0.000000
0.870038 0.281214 0.000000
0.901069 0.292385 0.000000
0.931691 0.303409 0.000000
0.961902 0.314285 0.000000
0.991699 0.325012 0.000000
1.000000 0.335582 0.000000
1.000000 0.346000 0.000000
0.000000 0.000000 0.000000
0.000000 0.000000 0.000000
0.026256 0.015648 0.000000
0.064194 0.029305 0.000000
0.101978 0.042907 0.000000
0.139600 0.056451 0.000000
0.177049 0.069933 0.000000
0.214305 0.083345 0.000000
0.251363 0.096686 0.000000
0.288196 0.109946 0.000000
0.324807 0.123126 0.000000
0.361176 0.136219 0.000000
0.397296 0.149222 0.000000
0.433143 0.162127 0.000000
0.468717 0.174933 0.000000
0.504000 0.187635 0.000000
0.538984 0.200230 0.000000
0.573658 0.212712 0.000000
0.608005 0.225077 0.000000
0.642021 0.237323 0.000000
0.675695 0.249446 0.000000
0.709017 0.261441 0.000000
0.741978 0.273307 0.000000
0.774567 0.285039 0.000000
0.806778 0.296635 0.000000
0.838603 0.308092 0.000000
0.870038 0.319409 0.000000
0.901069 0.330580 0.000000
0.931691 0.341604 0.000000
0.961902 0.352480 0.000000
0.991699 0.363207 0.000000
1.000000 0.373777 0.000000
1.000000 0.384195 0.000000
0.000000 0.026264 0.000000
0.000000 0.026264 0.000000
0.000000 0.026264 0.000000
0.061015 0.064194 0.000000
0.101978 0.080976 0.000000
0.139600 0.094520 0.000000
0.177049 0.108002 0.000000
0.214305 0.121414 0.000000
0.251363 0.134755 0.000000
0.288196 0.148015 0.000000
0.324807 0.161195 0.000000
0.361176 0.174287 0.000000
0.397296 0.187291 0.000000
0.433143 0.200196 0.000000
0.468717 0.213002 0.000000
0.504000 0.225704 0.000000
0.538984 0.238298 0.000000
0.573658 0.250781 0.000000
0.608005 0.263146 0.000000
0.642021 0.275392 0.000000
0.675695 0.287514 0.000000
0.709017 0.299510 0.000000
0.741978 0.311376 0.000000
0.774567 0.323108 0.000000
0.806778 0.334704 0.000000
0.838603 0.346161 0.000000
0.870038 0.357478 0.000000
0.901069 0.368649 0.000000
0.931691 0.379673 0.000000
0.961902 0.390549 0.000000
0.991699 0.401276 0.000000
1.000000 0.411846 0.000000
1.000000 0.422264 0.000000
0.000000 0.064194 0.000000
0.000000 0.064194 0.000000
0.000000 0.064194 0.000000
0.023084 0.064194 0.000000
0.085050 0.101978 0.000000
0.139600 0.132450 0.000000
0.177049 0.145932 0.000000
0.214305 0.159344 0.000000
0.251363 0.172685 0.000000
0.288196 0.185945 0.000000
0.324807 0.199125 0.000000
0.361176 0.212218 0.000000
0.397296 0.225221 0.000000
0.433143 0.238126 0.000000
0.468717 0.250932 0.000000
0.504000 0.263634 0.000000
0.538984 0.276229 0.000000
0.573658 0.288711 0.000000
0.608005 0.301076 0.000000
0.642021 0.313322 0.000000
0.675695 0.325445 0.000000
0.709017 0.337440 0.000000
0.741978 0.349306 0.000000
0.774567 0.361038 0.000000
0.806778 0.372634 0.000000
0.838603 0.384091 0.000000
0.870038 0.395408 0.000000
0.901069 0.406579 0.000000
0.931691 0.417603 0.000000
0.961902 0.428479 0.000000
0.991699 0.439206 0.000000
1.000000 0.449776 0.000000
1.000000 0.460194 0.000000
0.000000 0.101980 0.004713
0.000000 0.101980 0.000000
0.000000 0.101980 0.000000
0.009481 0.101980 0.000000
0.047265 0.101980 0.000000
0.108964 0.139600 0.000000
0.170380 0.177049 0.000000
0.214305 0.197130 0.000000
0.251363 0.210471 0.000000
0.288196 0.223731 0.000000
0.324807 0.236911 0.000000
0.361176 0.250004 0.000000
0.397296 0.263007 0.000000
0.433143 0.275912 0.000000
0.468717 0.288719 0.000000
0.504000 0.301420 0.000000
0.538984 0.314015 0.000000
0.573658 0.326497 0.000000
0.608005 0.338862 0.000000
0.642021 0.351108 0.000000
0.675695 0.363231 0.000000
0.709017 0.375226 0.000000
0.741978 0.387092 0.000000
0.774567 0.398824 0.000000
0.806778 0.410420 0.000000
0.838603 0.421878 0.000000
0.870038 0.433194 0.000000
0.901069 0.444365 0.000000
0.931691 0.455389 0.000000
0.961902 0.466265 0.000000
0.991699 0.476992 0.000000
1.000000 0.487562 0.000000
1.000000 0.497980 0.000000
0.000000 0.139601 0.018257
0.000000 0.139601 0.000000
0.000000 0.139601 0.000000
0.000000 0.139601 0.000000
0.033722 0.139601 0.000000
0.071344 0.139601 0.000000
0.132759 0.177049 0.000000
0.193858 0.214305 0.000000
0.251363 0.248092 0.000000
0.288196 0.261352 0.000000
0.324807 0.274532 0.000000
0.361176 0.287625 0.000000
0.397296 0.300628 0.000000
0.433143 0.313533 0.000000
0.468717 0.326340 0.000000
0.504000 0.339041 0.000000
0.538984 0.351636 0.000000
0.573658 0.364118 0.000000
0.608005 0.376483 0.000000
0.642021 0.388729 0.000000
0.675695 0.400852 0.000000
0.709017 0.412847 0.000000
0.741978 0.424714 0.000000
0.774567 0.436445 0.000000
0.806778 0.448042 0.000000
0.838603 0.459499 0.000000
0.870038 0.470815 0.000000
0.901069 0.481986 0.000000
0.931691 0.493010 0.000000
0.961902 0.503886 0.000000
0.991699 0.514613 0.000000
1.000000 0.525183 0.000000
1.000000 0.535601 0.000000
0.000000 0.177047 0.031737
0.000000 0.177047 0.000000
0.000000 0.177047 0.000000
0.000000 0.177047 0.000000
0.020241 0.177047 0.000000
0.057864 0.177047 0.000000
0.095313 0.177049 0.000000
0.156413 0.214305 0.000000
0.217188 0.251363 0.000000
0.277595 0.288196 0.000000
0.324807 0.311977 0.000000
0.361176 0.325070 0.000000
0.397296 0.338073 0.000000
0.433143 0.350978 0.000000
0.468717 0.363785 0.000000
0.504000 0.376486 0.000000
0.538984 0.389081 0.000000
0.573658 0.401564 0.000000
0.608005 0.413928 0.000000
0.642021 0.426174 0.000000
0.675695 0.438297 0.000000
0.709017 0.450293 0.000000
0.741978 0.462159 0.000000
0.774567 0.473891 0.000000
0.806778 0.485487 0.000000
0.838603 0.496944 0.000000
0.870038 0.508260 0.000000
0.901069 0.519431 0.000000
0.931691 0.530455 0.000000
0.961902 0.541331 0.000000
0.991699 0.552058 0.000000
1.000000 0.562628 0.000000
1.000000 0.573047 0.000000
0.000000 0.214303 0.045149
0.000000 0.214303 0.006962
0.000000 0.214303 0.000000
0.000000 0.214303 0.000000
0.006829 0.214303 0.000000
0.044451 0.214303 0.000000
0.081900 0.214303 0.000000
0.119157 0.214305 0.000000
0.179932 0.251363 0.000000
0.240339 0.288196 0.000000
0.300382 0.324807 0.000000
0.360025 0.361176 0.000000
0.397296 0.375329 0.000000
0.433143 0.388234 0.000000
0.468717 0.401041 0.000000
0.504000 0.413742 0.000000
0.538984 0.426337 0.000000
0.573658 0.438819 0.000000
0.608005 0.451184 0.000000
0.642021 0.463430 0.000000
0.675695 0.475553 0.000000
0.709017 0.487548 0.000000
0.741978 0.499415 0.000000
0.774567 0.511146 0.000000
0.806778 0.522743 0.000000
0.838603 0.534200 0.000000
0.870038 0.545516 0.000000
0.901069 0.556687 0.000000
0.931691 0.567711 0.000000
0.961902 0.578587 0.000000
0.991699 0.589314 0.000000
1.000000 0.599884 0.000000
1.000000 0.610302 0.000000
0.000000 0.251357 0.058489
0.000000 0.251357 0.020302
0.000000 0.251357 0.000000
0.000000 0.251357 0.000000
0.000000 0.251357 0.000000
0.031112 0.251357 0.000000
0.068560 0.251357 0.000000
0.105816 0.251357 0.000000
0.142878 0.251363 0.000000
0.203285 0.288196 0.000000
0.263327 0.324807 0.000000
0.322971 0.361176 0.000000
0.382209 0.397296 0.000000
0.433143 0.425289 0.000000
0.468717 0.438095 0.000000
0.504000 0.450797 0.000000
0.538984 0.463391 0.000000
0.573658 0.475874 0.000000
0.608005 0.488239 0.000000
0.642021 0.500485 0.000000
0.675695 0.512607 0.000000
0.709017 0.524603 0.000000
0.741978 0.536469 0.000000
0.774567 0.548201 0.000000
0.806778 0.559797 0.000000
0.838603 0.571254 0.000000
0.870038 0.582571 0.000000
0.901069 0.593742 0.000000
0.931691 0.604766 0.000000
0.961902 0.615642 0.000000
0.991699 0.626369 0.000000
1.000000 0.636939 0.000000
1.000000 0.647357 0.000000
0.000000 0.288198 0.071751
0.000000 0.288198 0.033565
0.000000 0.288198 0.000000
0.000000 0.288198 0.000000
0.000000 0.288198 0.000000
0.017849 0.288198 0.000000
0.055297 0.288198 0.000000
0.092553 0.288198 0.000000
0.129611 0.288198 0.000000
0.166445 0.288198 0.000000
0.226486 0.324807 0.000000
0.286130 0.361176 0.000000
0.345368 0.397296 0.000000
0.404156 0.433143 0.000000
0.462498 0.468717 0.000000
0.504000 0.487638 0.000000
0.538984 0.500233 0.000000
0.573658 0.512715 0.000000
0.608005 0.525080 0.000000
0.642021 0.537326 0.000000
0.675695 0.549449 0.000000
0.709017 0.561444 0.000000
0.741978 0.573310 0.000000
0.774567 0.585042 0.000000
0.806778 0.596638 0.000000
0.838603 0.608095 0.000000
0.870038 0.619412 0.000000
0.901069 0.630583 0.000000
0.931691 0.641607 0.000000
0.961902 0.652483 0.000000
0.991699 0.663210 0.000000
1.000000 0.673780 0.000000
1.000000 0.684198 0.000000
0.000000 0.324805 0.084930
0.000000 0.324805 0.046743
0.000000 0.324805 0.008673
0.000000 0.324805 0.000000
0.000000 0.324805 0.000000
0.004671 0.324805 0.000000
0.042119 0.324805 0.000000
0.079375 0.324805 0.000000
0.116433 0.324805 0.000000
0.153266 0.324805 0.000000
0.189879 0.324807 0.000000
0.249523 0.361176 0.000000
0.308761 0.397296 0.000000
0.367549 0.433143 0.000000
0.425891 0.468717 0.000000
0.483754 0.504000 0.000000
0.538984 0.536839 0.000000
0.573658 0.549322 0.000000
0.608005 0.561687 0.000000
0.642021 0.573933 0.000000
0.675695 0.586056 0.000000
0.709017 0.598051 0.000000
0.741978 0.609917 0.000000
0.774567 0.621649 0.000000
0.806778 0.633245 0.000000
0.838603 0.644702 0.000000
0.870038 0.656019 0.000000
0.901069 0.667190 0.000000
0.931691 0.678214 0.000000
0.961902 0.689090 0.000000
0.991699 0.699817 0.000000
1.000000 0.710387 0.000000
1.000000 0.720805 0.000000
0.000000 0.361179 0.098024
0.000000 0.361179 0.059838
0.000000 0.361179 0.021768
0.000000 0.361179 0.000000
0.000000 0.361179 0.000000
0.000000 0.361179 0.000000
0.029024 0.361179 0.000000
0.066280 0.361179 0.000000
0.103338 0.361179 0.000000
0.140172 0.361179 0.000000
0.176783 0.361179 0.000000
0.213151 0.361179 0.000000
0.272387 0.397296 0.000000
0.331176 0.433143 0.000000
0.389517 0.468717 0.000000
0.447380 0.504000 0.000000
0.504755 0.538984 0.000000
0.561621 0.573658 0.000000
0.608005 0.598061 0.000000
0.642021 0.610306 0.000000
0.675695 0.622429 0.000000
0.709017 0.634425 0.000000
0.741978 0.646291 0.000000
0.774567 0.658023 0.000000
0.806778 0.669619 0.000000
0.838603 0.681076 0.000000
0.870038 0.692393 0.000000
0.901069 0.703564 0.000000
0.931691 0.714588 0.000000
0.961902 0.725464 0.000000
0.991699 0.736191 0.000000
1.000000 0.746761 0.000000
1.000000 0.757179 0.000000
0.000000 0.397295 0.111026
0.000000 0.397295 0.072840
0.000000 0.397295 0.034770
0.000000 0.397295 0.000000
0.000000 0.397295 0.000000
0.000000 0.397295 0.000000
0.016023 0.397295 0.000000
0.053278 0.397295 0.000000
0.090336 0.397295 0.000000
0.127170 0.397295 0.000000
0.163781 0.397295 0.000000
0.200149 0.397295 0.000000
0.236271 0.397296 0.000000
0.295059 0.433143 0.000000
0.353401 0.468717 0.000000
0.411264 0.504000 0.000000
0.468639 0.538984 0.000000
0.525504 0.573658 0.000000
0.581832 0.608005 0.000000
0.637619 0.642021 0.000000
0.675695 0.658546 0.000000
0.709017 0.670541 0.000000
0.741978 0.682407 0.000000
0.774567 0.694139 0.000000
0.806778 0.705735 0.000000
0.838603 0.717192 0.000000
0.870038 0.728509 0.000000
0.901069 0.739680 0.000000
0.931691 0.750704 0.000000
0.961902 0.761580 0.000000
0.991699 0.772307 0.000000
1.000000 0.782877 0.000000
1.000000 0.793295 0.000000
0.000000 0.433146 0.123933
0.000000 0.433146 0.085746
0.000000 0.433146 0.047676
0.000000 0.433146 0.009738
0.000000 0.433146 0.000000
0.000000 0.433146 0.000000
0.003116 0.433146 0.000000
0.040372 0.433146 0.000000
0.077430 0.433146 0.000000
0.114263 0.433146 0.000000
0.150875 0.433146 0.000000
0.187243 0.433146 0.000000
0.223364 0.433146 0.000000
0.259210 0.433146 0.000000
0.317550 0.468717 0.000000
0.375413 0.504000 0.000000
0.432787 0.538984 0.000000
0.489653 0.573658 0.000000
0.545981 0.608005 0.000000
0.601768 0.642021 0.000000
0.656994 0.675695 0.000000
0.709017 0.706392 0.000000
0.741978 0.718258 0.000000
0.774567 0.729990 0.000000
0.806778 0.741586 0.000000
0.838603 0.753044 0.000000
0.870038 0.764360 0.000000
0.901069 0.775531 0.000000
0.931691 0.786555 0.000000
0.961902 0.797431 0.000000
0.991699 0.808158 0.000000
1.000000 0.818728 0.000000
1.000000 0.829146 0.000000
0.000000 0.468720 0.136739
0.000000 0.468720 0.098553
0.000000 0.468720 0.060483
0.000000 0.468720 0.022545
0.000000 0.468720 0.000000
0.000000 0.468720 0.000000
0.000000 0.468720 0.000000
0.027565 0.468720 0.000000
0.064623 0.468720 0.000000
0.101457 0.468720 0.000000
0.138068 0.468720 0.000000
0.174436 0.468720 0.000000
0.210557 0.468720 0.000000
0.246404 0.468720 0.000000
0.281978 0.468720 0.000000
0.339839 0.504000 0.000000
0.397213 0.538984 0.000000
0.454079 0.573658 0.000000
0.510407 0.608005 0.000000
0.566194 0.642021 0.000000
0.621420 0.675695 0.000000
0.676067 0.709017 0.000000
0.730124 0.741978 0.000000
0.774567 0.765564 0.000000
0.806778 0.777160 0.000000
0.838603 0.788618 0.000000
0.870038 0.799934 0.000000
0.901069 0.811105 0.000000
0.931691 0.822129 0.000000
0.961902 0.833005 0.000000
0.991699 0.843732 0.000000
1.000000 0.854302 0.000000
1.000000 0.864720 0.000000
0.000000 0.504004 0.149441
0.000000 0.504004 0.111255
0.000000 0.504004 0.073185
0.000000 0.504004 0.035247
0.000000 0.504004 0.000000
0.000000 0.504004 0.000000
0.000000 0.504004 0.000000
0.014863 0.504004 0.000000
0.051921 0.504004 0.000000
0.088755 0.504004 0.000000
0.125366 0.504004 0.000000
0.161734 0.504004 0.000000
0.197855 0.504004 0.000000
0.233702 0.504004 0.000000
0.269276 0.504004 0.000000
0.304558 0.504004 0.000000
0.361930 0.538984 0.000000
0.418795 0.573658 0.000000
0.475124 0.608005 0.000000
0.530910 0.642021 0.000000
0.586136 0.675695 0.000000
0.640783 0.709017 0.000000
0.694840 0.741978 0.000000
0.748285 0.774567 0.000000
0.801112 0.806778 0.000000
0.838603 0.823901 0.000000
0.870038 0.835218 0.000000
0.901069 0.846389 0.000000
0.931691 0.857413 0.000000
0.961902 0.868289 0.000000
0.991699 0.879016 0.000000
1.000000 0.889586 0.000000
1.000000 0.900004 0.000000
0.000000 0.538986 0.162035
0.000000 0.538986 0.123849
0.000000 0.538986 0.085779
0.000000 0.538986 0.047841
0.000000 0.538986 0.010057
0.000000 0.538986 0.000000
0.000000 0.538986 0.000000
0.002270 0.538986 0.000000
0.039328 0.538986 0.000000
0.076161 0.538986 0.000000
0.112772 0.538986 0.000000
0.149141 0.538986 0.000000
0.185261 0.538986 0.000000
0.221108 0.538986 0.000000
0.256682 0.538986 0.000000
0.291965 0.538986 0.000000
0.326949 0.538986 0.000000
0.383813 0.573658 0.000000
0.440141 0.608005 0.000000
0.495928 0.642021 0.000000
0.551154 0.675695 0.000000
0.605801 0.709017 0.000000
0.659858 0.741978 0.000000
0.713303 0.774567 0.000000
0.766130 0.806778 0.000000
0.818323 0.838603 0.000000
0.869876 0.870038 0.000000
0.901069 0.881371 0.000000
0.931691 0.892395 0.000000
0.961902 0.903271 0.000000
0.991699 0.913998 0.000000
1.000000 0.924568 0.000000
1.000000 0.934986 0.000000
0.000000 0.573653 0.174515
0.000000 0.573653 0.136328
0.000000 0.573653 0.098259
0.000000 0.573653 0.060321
0.000000 0.573653 0.022537
0.000000 0.573653 0.000000
0.000000 0.573653 0.000000
0.000000 0.573653 0.000000
0.026848 0.573653 0.000000
0.063681 0.573653 0.000000
0.100292 0.573653 0.000000
0.136661 0.573653 0.000000
0.172781 0.573653 0.000000
0.208628 0.573653 0.000000
0.244202 0.573653 0.000000
0.279485 0.573653 0.000000
0.314469 0.573653 0.000000
0.349147 0.573658 0.000000
0.405475 0.608005 0.000000
0.461262 0.642021 0.000000
0.516488 0.675695 0.000000
0.571134 0.709017 0.000000
0.625191 0.741978 0.000000
0.678637 0.774567 0.000000
0.731463 0.806778 0.000000
0.783656 0.838603 0.000000
0.835209 0.870038 0.000000
0.886100 0.901069 0.000000
0.931691 0.927061 0.000000
0.961902 0.937937 0.000000
0.991699 0.948664 0.000000
1.000000 0.959234 0.000000
1.000000 0.969653 0.000000
0.000000 0.608003 0.186881
0.000000 0.608003 0.148695
0.000000 0.608003 0.110625
0.000000 0.608003 0.072687
0.000000 0.608003 0.034903
0.000000 0.608003 0.000000
0.000000 0.608003 0.000000
0.000000 0.608003 0.000000
0.014481 0.608003 0.000000
0.051315 0.608003 0.000000
0.087926 0.608003 0.000000
0.124294 0.608003 0.000000
0.160415 0.608003 0.000000
0.196262 0.608003 0.000000
0.231836 0.608003 0.000000
0.267118 0.608003 0.000000
0.302103 0.608003 0.000000
0.336777 0.608003 0.000000
0.371124 0.608005 0.000000
0.426911 0.642021 0.000000
0.482137 0.675695 0.000000
0.536784 0.709017 0.000000
0.590840 0.741978 0.000000
0.644286 0.774567 0.000000
0.697112 0.806778 0.000000
0.749306 0.838603 0.000000
0.800858 0.870038 0.000000
0.851749 0.901069 0.000000
0.901969 0.931691 0.000000
0.951516 0.961902 0.000000
0.991699 0.983015 0.000000
1.000000 0.993585 0.000000
1.000000 1.000000 0.000000
0.000000 0.642022 0.199128
0.000000 0.642022 0.160941
0.000000 0.642022 0.122872
0.000000 0.642022 0.084934
0.000000 0.642022 0.047150
0.000000 0.642022 0.009528
0.000000 0.642022 0.000000
0.000000 0.642022 0.000000
0.002235 0.642022 0.000000
0.039068 0.642022 0.000000
0.075679 0.642022 0.000000
0.112048 0.642022 0.000000
0.148168 0.642022 0.000000
0.184015 0.642022 0.000000
0.219589 0.642022 0.000000
0.254872 0.642022 0.000000
0.289856 0.642022 0.000000
0.324530 0.642022 0.000000
0.358877 0.642022 0.000000
0.392893 0.642022 0.000000
0.448118 0.675695 0.000000
0.502765 0.709017 0.000000
0.556822 0.741978 0.000000
0.610267 0.774567 0.000000
0.663094 0.806778 0.000000
0.715287 0.838603 0.000000
0.766840 0.870038 0.000000
0.817731 0.901069 0.000000
0.867950 0.931691 0.000000
0.917497 0.961902 0.000000
0.966364 0.991699 0.000000
1.000000 1.000000 0.000000
1.000000 1.000000 0.000000
0.000000 0.675693 0.211250
0.000000 0.675693 0.173063
0.000000 0.675693 0.134993
0.000000 0.675693 0.097055
0.000000 0.675693 0.059271
0.000000 0.675693 0.021649
0.000000 0.675693 0.000000
0.000000 0.675693 0.000000
0.000000 0.675693 0.000000
0.026947 0.675693 0.000000
0.063558 0.675693 0.000000
0.099926 0.675693 0.000000
0.136047 0.675693 0.000000
0.171894 0.675693 0.000000
0.207468 0.675693 0.000000
0.242750 0.675693 0.000000
0.277734 0.675693 0.000000
0.312409 0.675693 0.000000
0.346755 0.675693 0.000000
0.380771 0.675693 0.000000
0.414447 0.675695 0.000000
0.469094 0.709017 0.000000
0.523151 0.741978 0.000000
0.576596 0.774567 0.000000
0.629423 0.806778 0.000000
0.681616 0.838603 0.000000
0.733169 0.870038 0.000000
0.784060 0.901069 0.000000
0.834279 0.931691 0.000000
0.883826 0.961902 0.000000
0.932693 0.991699 0.000000
0.980845 1.000000 0.000000
1.000000 1.000000 0.000000
0.000000 0.709011 0.223244
0.000000 0.709011 0.185057
0.000000 0.709011 0.146988
0.000000 0.709011 0.109050
0.000000 0.709011 0.071266
0.000000 0.709011 0.033644
0.000000 0.709011 0.000000
0.000000 0.709011 0.000000
0.000000 0.709011 0.000000
0.014952 0.709011 0.000000
0.051563 0.709011 0.000000
0.087932 0.709011 0.000000
0.124052 0.709011 0.000000
0.159899 0.709011 0.000000
0.195473 0.709011 0.000000
0.230756 0.709011 0.000000
0.265740 0.709011 0.000000
0.300414 0.709011 0.000000
0.334761 0.709011 0.000000
0.368777 0.709011 0.000000
0.402451 0.709011 0.000000
0.435776 0.709017 0.000000
0.489833 0.741978 0.000000
0.543278 0.774567 0.000000
0.596105 0.806778 0.000000
0.648298 0.838603 0.000000
0.699851 0.870038 0.000000
0.750742 0.901069 0.000000
0.800962 0.931691 0.000000
0.850508 0.961902 0.000000
0.899375 0.991699 0.000000
0.947528 1.000000 0.000000
0.994989 1.000000 0.000000
0.000000 0.741976 0.235111
0.000000 0.741976 0.196925
0.000000 0.741976 0.158855
0.000000 0.741976 0.120917
0.000000 0.741976 0.083133
0.000000 0.741976 0.045511
0.000000 0.741976 0.008062
0.000000 0.741976 0.000000
0.000000 0.741976 0.000000
0.003085 0.741976 0.000000
0.039696 0.741976 0.000000
0.076064 0.741976 0.000000
0.112185 0.741976 0.000000
0.148032 0.741976 0.000000
0.183606 0.741976 0.000000
0.218888 0.741976 0.000000
0.253873 0.741976 0.000000
0.288547 0.741976 0.000000
0.322893 0.741976 0.000000
0.356910 0.741976 0.000000
0.390584 0.741976 0.000000
0.423905 0.741976 0.000000
0.456868 0.741978 0.000000
0.510313 0.774567 0.000000
0.563140 0.806778 0.000000
0.615333 0.838603 0.000000
0.666886 0.870038 0.000000
0.717777 0.901069 0.000000
0.767997 0.931691 0.000000
0.817544 0.961902 0.000000
0.866410 0.991699 0.000000
0.914563 1.000000 0.000000
0.962024 1.000000 0.000000
0.000000 0.774563 0.246843
0.000000 0.774563 0.208656
0.000000 0.774563 0.170586
0.000000 0.774563 0.132648
0.000000 0.774563 0.094865
0.000000 0.774563 0.057242
0.000000 0.774563 0.019794
0.000000 0.774563 0.000000
0.000000 0.774563 0.000000
0.000000 0.774563 0.000000
0.027965 0.774563 0.000000
0.064333 0.774563 0.000000
0.100454 0.774563 0.000000
0.136300 0.774563 0.000000
0.171874 0.774563 0.000000
0.207157 0.774563 0.000000
0.242141 0.774563 0.000000
0.276815 0.774563 0.000000
0.311162 0.774563 0.000000
0.345178 0.774563 0.000000
0.378853 0.774563 0.000000
0.412174 0.774563 0.000000
0.445135 0.774563 0.000000
0.477726 0.774567 0.000000
0.530552 0.806778 0.000000
0.582746 0.838603 0.000000
0.634299 0.870038 0.000000
0.685190 0.901069 0.000000
0.735409 0.931691 0.000000
0.784956 0.961902 0.000000
0.833823 0.991699 0.000000
0.881975 1.000000 0.000000
0.929437 1.000000 0.000000
0.000000 0.806779 0.258440
0.000000 0.806779 0.220254
0.000000 0.806779 0.182184
0.000000 0.806779 0.144246
0.000000 0.806779 0.106462
0.000000 0.806779 0.068840
0.000000 0.806779 0.031392
0.000000 0.806779 0.000000
0.000000 0.806779 0.000000
0.000000 0.806779 0.000000
0.016367 0.806779 0.000000
0.052735 0.806779 0.000000
0.088856 0.806779 0.000000
0.124703 0.806779 0.000000
0.160277 0.806779 0.000000
0.195559 0.806779 0.000000
0.230544 0.806779 0.000000
0.265218 0.806779 0.000000
0.299564 0.806779 0.000000
0.333581 0.806779 0.000000
0.367255 0.806779 0.000000
0.400576 0.806779 0.000000
0.433538 0.806779 0.000000
0.466126 0.806779 0.000000
0.498337 0.806779 0.000000
0.550530 0.838603 0.000000
0.602083 0.870038 0.000000
0.652974 0.901069 0.000000
0.703194 0.931691 0.000000
0.752740 0.961902 0.000000
0.801607 0.991699 0.000000
0.849760 1.000000 0.000000
0.897221 1.000000 0.000000
0.000000 0.838604 0.269898
0.000000 0.838604 0.231711
0.000000 0.838604 0.193641
0.000000 0.838604 0.155703
0.000000 0.838604 0.117919
0.000000 0.838604 0.080297
0.000000 0.838604 0.042849
0.000000 0.838604 0.005593
0.000000 0.838604 0.000000
0.000000 0.838604 0.000000
0.004910 0.838604 0.000000
0.041278 0.838604 0.000000
0.077399 0.838604 0.000000
0.113246 0.838604 0.000000
0.148820 0.838604 0.000000
0.184102 0.838604 0.000000
0.219086 0.838604 0.000000
0.253761 0.838604 0.000000
0.288107 0.838604 0.000000
0.322123 0.838604 0.000000
0.355798 0.838604 0.000000
0.389119 0.838604 0.000000
0.422080 0.838604 0.000000
0.454669 0.838604 0.000000
0.486880 0.838604 0.000000
0.518706 0.838604 0.000000
0.570258 0.870038 0.000000
0.621149 0.901069 0.000000
0.671368 0.931691 0.000000
0.720915 0.961902 0.000000
0.769782 0.991699 0.000000
0.817934 1.000000 0.000000
0.865396 1.000000 0.000000
0.000000 0.870032 0.281212
0.000000 0.870032 0.243025
0.000000 0.870032 0.204955
0.000000 0.870032 0.167017
0.000000 0.870032 0.129233
0.000000 0.870032 0.091611
0.000000 0.870032 0.054163
0.000000 0.870032 0.016907
0.000000 0.870032 0.000000
0.000000 0.870032 0.000000
0.000000 0.870032 0.000000
0.029964 0.870032 0.000000
0.066085 0.870032 0.000000
0.101931 0.870032 0.000000
0.137505 0.870032 0.000000
0.172788 0.870032 0.000000
0.207772 0.870032 0.000000
0.242447 0.870032 0.000000
0.276793 0.870032 0.000000
0.310809 0.870032 0.000000
0.344484 0.870032 0.000000
0.377805 0.870032 0.000000
0.410766 0.870032 0.000000
0.443355 0.870032 0.000000
0.475566 0.870032 0.000000
0.507391 0.870032 0.000000
0.538830 0.870038 0.000000
0.589721 0.901069 0.000000
