luts/agfa_apx_100.cube
TITLE Film LUT
LUT_3D_SIZE 5
DOMAIN_MIN 0.0 0.0 0.0
DOMAIN_MAX 1.0 1.0 1.0
0.000000 0.000000 0.000000
0.000000 0.000000 0.000000
0.037023 0.037023 0.037023
0.099081 0.099081 0.099081
0.155120 0.155120 0.155120
0.135968 0.135968 0.135968
0.206112 0.206112 0.206112
0.272991 0.272991 0.272991
0.335049 0.335049 0.335049
0.391088 0.391088 0.391088
0.360955 0.360955 0.360955
0.431098 0.431098 0.431098
0.497978 0.497978 0.497978
0.560035 0.560035 0.560035
0.616075 0.616075 0.616075
0.569720 0.569720 0.569720
0.639864 0.639864 0.639864
0.706743 0.706743 0.706743
0.768800 0.768800 0.768800
0.824840 0.824840 0.824840
0.758240 0.758240 0.758240
0.828384 0.828384 0.828384
0.895263 0.895263 0.895263
0.957321 0.957321 0.957321
1.000000 1.000000 1.000000
0.000000 0.000000 0.000000
0.000000 0.000000 0.000000
0.060844 0.060844 0.060844
0.122902 0.122902 0.122902
0.178941 0.178941 0.178941
0.159789 0.159789 0.159789
0.229933 0.229933 0.229933
0.296812 0.296812 0.296812
0.358870 0.358870 0.358870
0.414909 0.414909 0.414909
0.384776 0.384776 0.384776
0.454920 0.454920 0.454920
0.521799 0.521799 0.521799
0.583856 0.583856 0.583856
0.639896 0.639896 0.639896
0.593541 0.593541 0.593541
0.663685 0.663685 0.663685
0.730564 0.730564 0.730564
0.792622 0.792622 0.792622
0.848661 0.848661 0.848661
0.782061 0.782061 0.782061
0.852205 0.852205 0.852205
0.919084 0.919084 0.919084
0.981142 0.981142 0.981142
1.000000 1.000000 1.000000
0.000000 0.000000 0.000000
0.016677 0.016677 0.016677
0.083557 0.083557 0.083557
0.145614 0.145614 0.145614
0.201654 0.201654 0.201654
0.182502 0.182502 0.182502
0.252645 0.252645 0.252645
0.319525 0.319525 0.319525
0.381582 0.381582 0.381582
0.437622 0.437622 0.437622
0.407488 0.407488 0.407488
0.477632 0.477632 0.477632
0.544512 0.544512 0.544512
0.606569 0.606569 0.606569
0.662608 0.662608 0.662608
0.616254 0.616254 0.616254
0.686397 0.686397 0.686397
0.753277 0.753277 0.753277
0.815334 0.815334 0.815334
0.871374 0.871374 0.871374
0.804774 0.804774 0.804774
0.874917 0.874917 0.874917
0.941797 0.941797 0.941797
1.000000 1.000000 1.000000
1.000000 1.000000 1.000000
0.000000 0.000000 0.000000
0.037752 0.037752 0.037752
0.104632 0.104632 0.104632
0.166689 0.166689 0.166689
0.222729 0.222729 0.222729
0.203577 0.203577 0.203577
0.273720 0.273720 0.273720
0.340600 0.340600 0.340600
0.402657 0.402657 0.402657
0.458697 0.458697 0.458697
0.428563 0.428563 0.428563
0.498707 0.498707 0.498707
0.565587 0.565587 0.565587
0.627644 0.627644 0.627644
0.683683 0.683683 0.683683
0.637329 0.637329 0.637329
0.707472 0.707472 0.707472
0.774352 0.774352 0.774352
0.836409 0.836409 0.836409
0.892449 0.892449 0.892449
0.825849 0.825849 0.825849
0.895992 0.895992 0.895992
0.962872 0.962872 0.962872
1.000000 1.000000 1.000000
1.000000 1.000000 1.000000
0.000000 0.000000 0.000000
0.056784 0.056784 0.056784
0.123663 0.123663 0.123663
0.185721 0.185721 0.185721
0.241760 0.241760 0.241760
0.222608 0.222608 0.222608
0.292752 0.292752 0.292752
0.359631 0.359631 0.359631
0.421689 0.421689 0.421689
0.477728 0.477728 0.477728
0.447595 0.447595 0.447595
0.517738 0.517738 0.517738
0.584618 0.584618 0.584618
0.646675 0.646675 0.646675
0.702715 0.702715 0.702715
0.656360 0.656360 0.656360
0.726504 0.726504 0.726504
0.793383 0.793383 0.793383
0.855440 0.855440 0.855440
0.911480 0.911480 0.911480
0.844880 0.844880 0.844880
0.915024 0.915024 0.915024
0.981903 0.981903 0.981903
1.000000 1.000000 1.000000
1.000000 1.000000 1.000000
