luts/agfa_precisa_ct_100.cube
TITLE Film LUT
LUT_3D_SIZE 33
DOMAIN_MIN 0.0 0.0 0.0
DOMAIN_MAX 1.0 1.0 1.0
0.000000 0.000000 0.000000
0.000000 0.000000 0.000000
0.026524 0.000000 0.000000
0.064597 0.005007 0.000000
0.102520 0.023210 0.000000
0.140281 0.041335 0.000000
0.177861 0.059373 0.000000
0.215252 0.077321 0.000000
0.252436 0.095169 0.000000
0.289402 0.112913 0.000000
0.326135 0.130545 0.000000
0.362612 0.148054 0.000000
0.398826 0.165437 0.000000
0.434766 0.182687 0.000000
0.470417 0.199800 0.000000
0.505773 0.216771 0.000000
0.540803 0.233586 0.000000
0.575508 0.250244 0.000000
0.609882 0.266744 0.000000
0.643899 0.283071 0.000000
0.677552 0.299225 0.000000
0.710843 0.315204 0.000000
0.743745 0.330997 0.000000
0.776258 0.346604 0.000000
0.808378 0.362022 0.000000
0.840084 0.377240 0.000000
0.871371 0.392258 0.000000
0.902245 0.407077 0.000000
0.932679 0.421686 0.000000
0.962676 0.436085 0.000000
0.992235 0.450273 0.000000
1.000000 0.464245 0.000000
1.000000 0.478000 0.000000
0.000000 0.000000 0.000000
0.000000 0.000000 0.000000
0.026524 0.025051 0.000000
0.064597 0.043326 0.000000
0.102520 0.061529 0.000000
0.140281 0.079655 0.000000
0.177861 0.097693 0.000000
0.215252 0.115640 0.000000
0.252436 0.133489 0.000000
0.289402 0.151232 0.000000
0.326135 0.168864 0.000000
0.362612 0.186373 0.000000
0.398826 0.203756 0.000000
0.434766 0.221007 0.000000
0.470417 0.238120 0.000000
0.505773 0.255091 0.000000
0.540803 0.271905 0.000000
0.575508 0.288564 0.000000
0.609882 0.305063 0.000000
0.643899 0.321391 0.000000
0.677552 0.337545 0.000000
0.710843 0.353524 0.000000
0.743745 0.369317 0.000000
0.776258 0.384924 0.000000
0.808378 0.400341 0.000000
0.840084 0.415560 0.000000
0.871371 0.430578 0.000000
0.902245 0.445397 0.000000
0.932679 0.460006 0.000000
0.962676 0.474404 0.000000
0.992235 0.488592 0.000000
1.000000 0.502564 0.000000
1.000000 0.516320 0.000000
0.000000 0.026523 0.000000
0.000000 0.026523 0.000000
0.000000 0.026524 0.000000
0.047665 0.064597 0.000000
0.102520 0.099732 0.000000
0.140281 0.117858 0.000000
0.177861 0.135896 0.000000
0.215252 0.153843 0.000000
0.252436 0.171692 0.000000
0.289402 0.189435 0.000000
0.326135 0.207067 0.000000
0.362612 0.224576 0.000000
0.398826 0.241959 0.000000
0.434766 0.259210 0.000000
0.470417 0.276323 0.000000
0.505773 0.293294 0.000000
0.540803 0.310108 0.000000
0.575508 0.326767 0.000000
0.609882 0.343266 0.000000
0.643899 0.359594 0.000000
0.677552 0.375748 0.000000
0.710843 0.391727 0.000000
0.743745 0.407520 0.000000
0.776258 0.423127 0.000000
0.808378 0.438544 0.000000
0.840084 0.453763 0.000000
0.871371 0.468781 0.000000
0.902245 0.483600 0.000000
0.932679 0.498209 0.000000
0.962676 0.512607 0.000000
0.992235 0.526795 0.000000
1.000000 0.540767 0.000000
1.000000 0.554523 0.000000
0.000000 0.064595 0.005005
0.000000 0.064595 0.000000
0.000000 0.064595 0.000000
0.009593 0.064597 0.000000
0.067236 0.102520 0.000000
0.124633 0.140281 0.000000
0.177861 0.173968 0.000000
0.215252 0.191916 0.000000
0.252436 0.209764 0.000000
0.289402 0.227508 0.000000
0.326135 0.245140 0.000000
0.362612 0.262649 0.000000
0.398826 0.280031 0.000000
0.434766 0.297282 0.000000
0.470417 0.314395 0.000000
0.505773 0.331366 0.000000
0.540803 0.348180 0.000000
0.575508 0.364839 0.000000
0.609882 0.381338 0.000000
0.643899 0.397666 0.000000
0.677552 0.413820 0.000000
0.710843 0.429799 0.000000
0.743745 0.445592 0.000000
0.776258 0.461199 0.000000
0.808378 0.476616 0.000000
0.840084 0.491835 0.000000
0.871371 0.506853 0.000000
0.902245 0.521672 0.000000
0.932679 0.536281 0.000000
0.962676 0.550679 0.000000
0.992235 0.564867 0.000000
1.000000 0.578839 0.000000
1.000000 0.592595 0.000000
0.000000 0.102519 0.023209
0.000000 0.102519 0.000000
0.000000 0.102519 0.000000
0.000000 0.102519 0.000000
0.029312 0.102520 0.000000
0.086708 0.140281 0.000000
0.143829 0.177861 0.000000
0.200663 0.215252 0.000000
0.252436 0.247689 0.000000
0.289402 0.265432 0.000000
0.326135 0.283064 0.000000
0.362612 0.300573 0.000000
0.398826 0.317956 0.000000
0.434766 0.335207 0.000000
0.470417 0.352319 0.000000
0.505773 0.369290 0.000000
0.540803 0.386105 0.000000
0.575508 0.402763 0.000000
0.609882 0.419263 0.000000
0.643899 0.435591 0.000000
0.677552 0.451744 0.000000
0.710843 0.467724 0.000000
0.743745 0.483517 0.000000
0.776258 0.499123 0.000000
0.808378 0.514541 0.000000
0.840084 0.529760 0.000000
0.871371 0.544777 0.000000
0.902245 0.559597 0.000000
0.932679 0.574206 0.000000
0.962676 0.588604 0.000000
0.992235 0.602792 0.000000
1.000000 0.616764 0.000000
1.000000 0.630519 0.000000
0.000000 0.140282 0.041336
0.000000 0.140282 0.003012
0.000000 0.140282 0.000000
0.000000 0.140282 0.000000
0.011185 0.140282 0.000000
0.048946 0.140282 0.000000
0.106066 0.177861 0.000000
0.162900 0.215252 0.000000
0.219421 0.252436 0.000000
0.275608 0.289402 0.000000
0.326135 0.320827 0.000000
0.362612 0.338336 0.000000
0.398826 0.355719 0.000000
0.434766 0.372970 0.000000
0.470417 0.390082 0.000000
0.505773 0.407053 0.000000
0.540803 0.423868 0.000000
0.575508 0.440526 0.000000
0.609882 0.457026 0.000000
0.643899 0.473354 0.000000
0.677552 0.489507 0.000000
0.710843 0.505487 0.000000
0.743745 0.521280 0.000000
0.776258 0.536886 0.000000
0.808378 0.552304 0.000000
0.840084 0.567523 0.000000
0.871371 0.582540 0.000000
0.902245 0.597360 0.000000
0.932679 0.611969 0.000000
0.962676 0.626367 0.000000
0.992235 0.640555 0.000000
1.000000 0.654527 0.000000
1.000000 0.668282 0.000000
0.000000 0.177860 0.059373
0.000000 0.177860 0.021049
0.000000 0.177860 0.000000
0.000000 0.177860 0.000000
0.000000 0.177860 0.000000
0.030909 0.177860 0.000000
0.068489 0.177861 0.000000
0.125323 0.215252 0.000000
0.181844 0.252436 0.000000
0.238031 0.289402 0.000000
0.293866 0.326135 0.000000
0.349311 0.362612 0.000000
0.398826 0.393296 0.000000
0.434766 0.410547 0.000000
0.470417 0.427659 0.000000
0.505773 0.444630 0.000000
0.540803 0.461445 0.000000
0.575508 0.478104 0.000000
0.609882 0.494603 0.000000
0.643899 0.510931 0.000000
0.677552 0.527085 0.000000
0.710843 0.543064 0.000000
0.743745 0.558857 0.000000
0.776258 0.574464 0.000000
0.808378 0.589881 0.000000
0.840084 0.605100 0.000000
0.871371 0.620118 0.000000
0.902245 0.634937 0.000000
0.932679 0.649546 0.000000
0.962676 0.663944 0.000000
0.992235 0.678132 0.000000
1.000000 0.692104 0.000000
1.000000 0.705860 0.000000
0.000000 0.215257 0.077324
0.000000 0.215257 0.039000
0.000000 0.215257 0.000800
0.000000 0.215257 0.000000
0.000000 0.215257 0.000000
0.012958 0.215257 0.000000
0.050537 0.215257 0.000000
0.087928 0.215257 0.000000
0.144446 0.252436 0.000000
0.200633 0.289402 0.000000
0.256468 0.326135 0.000000
0.311913 0.362612 0.000000
0.366959 0.398826 0.000000
0.421586 0.434766 0.000000
0.470417 0.465057 0.000000
0.505773 0.482028 0.000000
0.540803 0.498843 0.000000
0.575508 0.515501 0.000000
0.609882 0.532001 0.000000
0.643899 0.548329 0.000000
0.677552 0.564482 0.000000
0.710843 0.580462 0.000000
0.743745 0.596255 0.000000
0.776258 0.611861 0.000000
0.808378 0.627279 0.000000
0.840084 0.642497 0.000000
0.871371 0.657515 0.000000
0.902245 0.672335 0.000000
0.932679 0.686943 0.000000
0.962676 0.701342 0.000000
0.992235 0.715530 0.000000
1.000000 0.729502 0.000000
1.000000 0.743257 0.000000
0.000000 0.252439 0.095171
0.000000 0.252439 0.056847
0.000000 0.252439 0.018647
0.000000 0.252439 0.000000
0.000000 0.252439 0.000000
0.000000 0.252439 0.000000
0.032690 0.252439 0.000000
0.070081 0.252439 0.000000
0.107265 0.252439 0.000000
0.163451 0.289402 0.000000
0.219286 0.326135 0.000000
0.274731 0.362612 0.000000
0.329777 0.398826 0.000000
0.384404 0.434766 0.000000
0.438594 0.470417 0.000000
0.492335 0.505773 0.000000
0.540803 0.536025 0.000000
0.575508 0.552684 0.000000
0.609882 0.569183 0.000000
0.643899 0.585511 0.000000
0.677552 0.601665 0.000000
0.710843 0.617644 0.000000
0.743745 0.633437 0.000000
0.776258 0.649044 0.000000
0.808378 0.664461 0.000000
0.840084 0.679680 0.000000
0.871371 0.694698 0.000000
0.902245 0.709517 0.000000
0.932679 0.724126 0.000000
0.962676 0.738524 0.000000
0.992235 0.752712 0.000000
1.000000 0.766684 0.000000
1.000000 0.780440 0.000000
0.000000 0.289404 0.112914
0.000000 0.289404 0.074590
0.000000 0.289404 0.036390
0.000000 0.289404 0.000000
0.000000 0.289404 0.000000
0.000000 0.289404 0.000000
0.014947 0.289404 0.000000
0.052338 0.289404 0.000000
0.089522 0.289404 0.000000
0.126488 0.289404 0.000000
0.182321 0.326135 0.000000
0.237767 0.362612 0.000000
0.292812 0.398826 0.000000
0.347440 0.434766 0.000000
0.401629 0.470417 0.000000
0.455371 0.505773 0.000000
0.508617 0.540803 0.000000
0.561369 0.575508 0.000000
0.609882 0.606147 0.000000
0.643899 0.622475 0.000000
0.677552 0.638629 0.000000
0.710843 0.654608 0.000000
0.743745 0.670401 0.000000
0.776258 0.686008 0.000000
0.808378 0.701426 0.000000
0.840084 0.716644 0.000000
0.871371 0.731662 0.000000
0.902245 0.746481 0.000000
0.932679 0.761090 0.000000
0.962676 0.775489 0.000000
0.992235 0.789677 0.000000
1.000000 0.803648 0.000000
1.000000 0.817404 0.000000
0.000000 0.326134 0.130544
0.000000 0.326134 0.092220
0.000000 0.326134 0.054021
0.000000 0.326134 0.015947
0.000000 0.326134 0.000000
0.000000 0.326134 0.000000
0.000000 0.326134 0.000000
0.034707 0.326134 0.000000
0.071892 0.326134 0.000000
0.108857 0.326134 0.000000
0.145591 0.326135 0.000000
0.201037 0.362612 0.000000
0.256082 0.398826 0.000000
0.310710 0.434766 0.000000
0.364899 0.470417 0.000000
0.418641 0.505773 0.000000
0.471887 0.540803 0.000000
0.524639 0.575508 0.000000
0.576887 0.609882 0.000000
0.628592 0.643899 0.000000
0.677552 0.675359 0.000000
0.710843 0.691338 0.000000
0.743745 0.707131 0.000000
0.776258 0.722738 0.000000
0.808378 0.738156 0.000000
0.840084 0.753374 0.000000
0.871371 0.768392 0.000000
0.902245 0.783211 0.000000
0.932679 0.797820 0.000000
0.962676 0.812219 0.000000
0.992235 0.826407 0.000000
1.000000 0.840379 0.000000
1.000000 0.854134 0.000000
0.000000 0.362610 0.148053
0.000000 0.362610 0.109729
0.000000 0.362610 0.071529
0.000000 0.362610 0.033456
0.000000 0.362610 0.000000
0.000000 0.362610 0.000000
0.000000 0.362610 0.000000
0.017199 0.362610 0.000000
0.054383 0.362610 0.000000
0.091349 0.362610 0.000000
0.128082 0.362610 0.000000
0.164561 0.362612 0.000000
0.219606 0.398826 0.000000
0.274234 0.434766 0.000000
0.328423 0.470417 0.000000
0.382165 0.505773 0.000000
0.435411 0.540803 0.000000
0.488163 0.575508 0.000000
0.540411 0.609882 0.000000
0.592116 0.643899 0.000000
0.643269 0.677552 0.000000
0.693871 0.710843 0.000000
0.743745 0.743607 0.000000
0.776258 0.759214 0.000000
0.808378 0.774632 0.000000
0.840084 0.789850 0.000000
0.871371 0.804868 0.000000
0.902245 0.819687 0.000000
0.932679 0.834296 0.000000
0.962676 0.848695 0.000000
0.992235 0.862883 0.000000
1.000000 0.876855 0.000000
1.000000 0.890610 0.000000
0.000000 0.398826 0.165437
0.000000 0.398826 0.127113
0.000000 0.398826 0.088913
0.000000 0.398826 0.050840
0.000000 0.398826 0.012916
0.000000 0.398826 0.000000
0.000000 0.398826 0.000000
0.000000 0.398826 0.000000
0.037000 0.398826 0.000000
0.073965 0.398826 0.000000
0.110698 0.398826 0.000000
0.147176 0.398826 0.000000
0.183390 0.398826 0.000000
0.238017 0.434766 0.000000
0.292207 0.470417 0.000000
0.345948 0.505773 0.000000
0.399195 0.540803 0.000000
0.451946 0.575508 0.000000
0.504195 0.609882 0.000000
0.555900 0.643899 0.000000
0.607053 0.677552 0.000000
0.657654 0.710843 0.000000
0.707665 0.743745 0.000000
0.757086 0.776258 0.000000
0.805909 0.808378 0.000000
0.840084 0.826067 0.000000
0.871371 0.841084 0.000000
0.902245 0.855904 0.000000
0.932679 0.870513 0.000000
0.962676 0.884911 0.000000
0.992235 0.899099 0.000000
1.000000 0.913071 0.000000
1.000000 0.926826 0.000000
0.000000 0.434770 0.182690
0.000000 0.434770 0.144366
0.000000 0.434770 0.106166
0.000000 0.434770 0.068093
0.000000 0.434770 0.030169
0.000000 0.434770 0.000000
0.000000 0.434770 0.000000
0.000000 0.434770 0.000000
0.019747 0.434770 0.000000
0.056712 0.434770 0.000000
0.093445 0.434770 0.000000
0.129923 0.434770 0.000000
0.166137 0.434770 0.000000
0.202076 0.434770 0.000000
0.256263 0.470417 0.000000
0.310005 0.505773 0.000000
0.363251 0.540803 0.000000
0.416003 0.575508 0.000000
0.468251 0.609882 0.000000
0.519956 0.643899 0.000000
0.571109 0.677552 0.000000
0.621711 0.710843 0.000000
0.671722 0.743745 0.000000
0.721143 0.776258 0.000000
0.769965 0.808378 0.000000
0.818157 0.840084 0.000000
0.865714 0.871371 0.000000
0.902245 0.891847 0.000000
0.932679 0.906456 0.000000
0.962676 0.920855 0.000000
0.992235 0.935043 0.000000
1.000000 0.949015 0.000000
1.000000 0.962770 0.000000
0.000000 0.470423 0.199803
0.000000 0.470423 0.161479
0.000000 0.470423 0.123279
0.000000 0.470423 0.085206
0.000000 0.470423 0.047283
0.000000 0.470423 0.009522
0.000000 0.470423 0.000000
0.000000 0.470423 0.000000
0.002633 0.470423 0.000000
0.039599 0.470423 0.000000
0.076332 0.470423 0.000000
0.112809 0.470423 0.000000
0.149023 0.470423 0.000000
0.184962 0.470423 0.000000
0.220613 0.470423 0.000000
0.274351 0.505773 0.000000
0.327598 0.540803 0.000000
0.380350 0.575508 0.000000
0.432598 0.609882 0.000000
0.484303 0.643899 0.000000
0.535456 0.677552 0.000000
0.586057 0.710843 0.000000
0.636069 0.743745 0.000000
0.685490 0.776258 0.000000
0.734312 0.808378 0.000000
0.782504 0.840084 0.000000
0.830061 0.871371 0.000000
0.876989 0.902245 0.000000
0.923250 0.932679 0.000000
0.962676 0.956508 0.000000
0.992235 0.970696 0.000000
1.000000 0.984668 0.000000
1.000000 0.998423 0.000000
0.000000 0.505767 0.216768
0.000000 0.505767 0.178444
0.000000 0.505767 0.140245
0.000000 0.505767 0.102171
0.000000 0.505767 0.064248
0.000000 0.505767 0.026487
0.000000 0.505767 0.000000
0.000000 0.505767 0.000000
0.000000 0.505767 0.000000
0.022633 0.505767 0.000000
0.059367 0.505767 0.000000
0.095844 0.505767 0.000000
0.132058 0.505767 0.000000
0.167997 0.505767 0.000000
0.203648 0.505767 0.000000
0.239007 0.505773 0.000000
0.292254 0.540803 0.000000
0.345005 0.575508 0.000000
0.397254 0.609882 0.000000
0.448959 0.643899 0.000000
0.500112 0.677552 0.000000
0.550713 0.710843 0.000000
0.600724 0.743745 0.000000
0.650145 0.776258 0.000000
0.698968 0.808378 0.000000
0.747160 0.840084 0.000000
0.794717 0.871371 0.000000
0.841645 0.902245 0.000000
0.887906 0.932679 0.000000
0.933501 0.962676 0.000000
0.978429 0.992235 0.000000
1.000000 1.000000 0.000000
1.000000 1.000000 0.000000
0.000000 0.540801 0.233585
0.000000 0.540801 0.195261
0.000000 0.540801 0.157061
0.000000 0.540801 0.118988
0.000000 0.540801 0.081064
0.000000 0.540801 0.043303
0.000000 0.540801 0.005724
0.000000 0.540801 0.000000
0.000000 0.540801 0.000000
0.005817 0.540801 0.000000
0.042551 0.540801 0.000000
0.079028 0.540801 0.000000
0.115242 0.540801 0.000000
0.151181 0.540801 0.000000
0.186832 0.540801 0.000000
0.222188 0.540801 0.000000
0.257220 0.540803 0.000000
0.309972 0.575508 0.000000
0.362220 0.609882 0.000000
0.413925 0.643899 0.000000
0.465078 0.677552 0.000000
0.515679 0.710843 0.000000
0.565691 0.743745 0.000000
0.615112 0.776258 0.000000
0.663934 0.808378 0.000000
0.712126 0.840084 0.000000
0.759683 0.871371 0.000000
0.806611 0.902245 0.000000
0.852872 0.932679 0.000000
0.898467 0.962676 0.000000
0.943395 0.992235 0.000000
0.987640 1.000000 0.000000
1.000000 1.000000 0.000000
0.000000 0.575507 0.250244
0.000000 0.575507 0.211920
0.000000 0.575507 0.173720
0.000000 0.575507 0.135647
0.000000 0.575507 0.097723
0.000000 0.575507 0.059962
0.000000 0.575507 0.022383
0.000000 0.575507 0.000000
0.000000 0.575507 0.000000
0.000000 0.575507 0.000000
0.025892 0.575507 0.000000
0.062369 0.575507 0.000000
0.098583 0.575507 0.000000
0.134522 0.575507 0.000000
0.170173 0.575507 0.000000
0.205529 0.575507 0.000000
0.240560 0.575507 0.000000
0.275265 0.575508 0.000000
0.327514 0.609882 0.000000
0.379219 0.643899 0.000000
0.430372 0.677552 0.000000
0.480973 0.710843 0.000000
0.530984 0.743745 0.000000
0.580405 0.776258 0.000000
0.629228 0.808378 0.000000
0.677420 0.840084 0.000000
0.724977 0.871371 0.000000
0.771905 0.902245 0.000000
0.818166 0.932679 0.000000
0.863761 0.962676 0.000000
0.908689 0.992235 0.000000
0.952934 1.000000 0.000000
0.996493 1.000000 0.000000
0.000000 0.609880 0.266742
0.000000 0.609880 0.228418
0.000000 0.609880 0.190219
0.000000 0.609880 0.152146
0.000000 0.609880 0.114222
0.000000 0.609880 0.076461
0.000000 0.609880 0.038882
0.000000 0.609880 0.001491
0.000000 0.609880 0.000000
0.000000 0.609880 0.000000
0.009393 0.609880 0.000000
0.045870 0.609880 0.000000
0.082084 0.609880 0.000000
0.118023 0.609880 0.000000
0.153674 0.609880 0.000000
0.189030 0.609880 0.000000
0.224061 0.609880 0.000000
0.258766 0.609880 0.000000
0.293141 0.609882 0.000000
0.344846 0.643899 0.000000
0.395999 0.677552 0.000000
0.446601 0.710843 0.000000
0.496612 0.743745 0.000000
0.546033 0.776258 0.000000
0.594855 0.808378 0.000000
0.643047 0.840084 0.000000
0.690604 0.871371 0.000000
0.737532 0.902245 0.000000
0.783793 0.932679 0.000000
0.829388 0.962676 0.000000
0.874316 0.992235 0.000000
0.918561 1.000000 0.000000
0.962120 1.000000 0.000000
0.000000 0.643893 0.283069
0.000000 0.643893 0.244745
0.000000 0.643893 0.206545
0.000000 0.643893 0.168472
0.000000 0.643893 0.130548
0.000000 0.643893 0.092787
0.000000 0.643893 0.055208
0.000000 0.643893 0.017817
0.000000 0.643893 0.000000
0.000000 0.643893 0.000000
0.000000 0.643893 0.000000
0.029543 0.643893 0.000000
0.065758 0.643893 0.000000
0.101697 0.643893 0.000000
0.137348 0.643893 0.000000
0.172704 0.643893 0.000000
0.207735 0.643893 0.000000
0.242440 0.643893 0.000000
0.276814 0.643893 0.000000
0.310833 0.643899 0.000000
0.361986 0.677552 0.000000
0.412587 0.710843 0.000000
0.462599 0.743745 0.000000
0.512020 0.776258 0.000000
0.560842 0.808378 0.000000
0.609034 0.840084 0.000000
0.656591 0.871371 0.000000
0.703519 0.902245 0.000000
0.749780 0.932679 0.000000
0.795375 0.962676 0.000000
0.840303 0.992235 0.000000
0.884548 1.000000 0.000000
0.928107 1.000000 0.000000
0.000000 0.677554 0.299226
0.000000 0.677554 0.260902
0.000000 0.677554 0.222702
0.000000 0.677554 0.184629
0.000000 0.677554 0.146706
0.000000 0.677554 0.108945
0.000000 0.677554 0.071365
0.000000 0.677554 0.033974
0.000000 0.677554 0.000000
0.000000 0.677554 0.000000
0.000000 0.677554 0.000000
0.013386 0.677554 0.000000
0.049600 0.677554 0.000000
0.085540 0.677554 0.000000
0.121191 0.677554 0.000000
0.156547 0.677554 0.000000
0.191577 0.677554 0.000000
0.226282 0.677554 0.000000
0.260656 0.677554 0.000000
0.294673 0.677554 0.000000
0.328326 0.677554 0.000000
0.378926 0.710843 0.000000
0.428937 0.743745 0.000000
0.478358 0.776258 0.000000
0.527181 0.808378 0.000000
0.575373 0.840084 0.000000
0.622930 0.871371 0.000000
0.669858 0.902245 0.000000
0.716119 0.932679 0.000000
0.761714 0.962676 0.000000
0.806642 0.992235 0.000000
0.850887 1.000000 0.000000
0.894446 1.000000 0.000000
0.000000 0.710844 0.315205
0.000000 0.710844 0.276881
0.000000 0.710844 0.238681
0.000000 0.710844 0.200608
0.000000 0.710844 0.162684
0.000000 0.710844 0.124924
0.000000 0.710844 0.087344
0.000000 0.710844 0.049953
0.000000 0.710844 0.012769
0.000000 0.710844 0.000000
0.000000 0.710844 0.000000
0.000000 0.710844 0.000000
0.033621 0.710844 0.000000
0.069561 0.710844 0.000000
0.105212 0.710844 0.000000
0.140568 0.710844 0.000000
0.175598 0.710844 0.000000
0.210303 0.710844 0.000000
0.244677 0.710844 0.000000
0.278694 0.710844 0.000000
0.312347 0.710844 0.000000
0.345638 0.710844 0.000000
0.395648 0.743745 0.000000
0.445069 0.776258 0.000000
0.493892 0.808378 0.000000
0.542084 0.840084 0.000000
0.589640 0.871371 0.000000
0.636568 0.902245 0.000000
0.682829 0.932679 0.000000
0.728425 0.962676 0.000000
0.773353 0.992235 0.000000
0.817597 1.000000 0.000000
0.861156 1.000000 0.000000
0.000000 0.743749 0.331000
0.000000 0.743749 0.292676
0.000000 0.743749 0.254476
0.000000 0.743749 0.216403
0.000000 0.743749 0.178479
0.000000 0.743749 0.140718
0.000000 0.743749 0.103139
0.000000 0.743749 0.065748
0.000000 0.743749 0.028563
0.000000 0.743749 0.000000
0.000000 0.743749 0.000000
0.000000 0.743749 0.000000
0.017827 0.743749 0.000000
0.053766 0.743749 0.000000
0.089417 0.743749 0.000000
0.124773 0.743749 0.000000
0.159804 0.743749 0.000000
0.194509 0.743749 0.000000
0.228883 0.743749 0.000000
0.262899 0.743749 0.000000
0.296553 0.743749 0.000000
0.329843 0.743749 0.000000
0.362745 0.743749 0.000000
0.412164 0.776258 0.000000
0.460986 0.808378 0.000000
0.509178 0.840084 0.000000
0.556735 0.871371 0.000000
0.603663 0.902245 0.000000
0.649924 0.932679 0.000000
0.695519 0.962676 0.000000
0.740448 0.992235 0.000000
0.784692 1.000000 0.000000
0.828251 1.000000 0.000000
0.000000 0.776259 0.346605
0.000000 0.776259 0.308281
0.000000 0.776259 0.270081
0.000000 0.776259 0.232008
0.000000 0.776259 0.194084
0.000000 0.776259 0.156323
0.000000 0.776259 0.118744
0.000000 0.776259 0.081353
0.000000 0.776259 0.044168
0.000000 0.776259 0.007203
0.000000 0.776259 0.000000
0.000000 0.776259 0.000000
0.002222 0.776259 0.000000
0.038161 0.776259 0.000000
0.073812 0.776259 0.000000
0.109168 0.776259 0.000000
0.144199 0.776259 0.000000
0.178904 0.776259 0.000000
0.213278 0.776259 0.000000
0.247294 0.776259 0.000000
0.280948 0.776259 0.000000
0.314238 0.776259 0.000000
0.347140 0.776259 0.000000
0.379654 0.776259 0.000000
0.428476 0.808378 0.000000
0.476668 0.840084 0.000000
0.524224 0.871371 0.000000
0.571152 0.902245 0.000000
0.617413 0.932679 0.000000
0.663009 0.962676 0.000000
0.707937 0.992235 0.000000
0.752182 1.000000 0.000000
0.795741 1.000000 0.000000
0.000000 0.808380 0.362022
0.000000 0.808380 0.323698
0.000000 0.808380 0.285498
0.000000 0.808380 0.247425
0.000000 0.808380 0.209502
0.000000 0.808380 0.171741
0.000000 0.808380 0.134162
0.000000 0.808380 0.096770
0.000000 0.808380 0.059586
0.000000 0.808380 0.022620
0.000000 0.808380 0.000000
0.000000 0.808380 0.000000
0.000000 0.808380 0.000000
0.022743 0.808380 0.000000
0.058394 0.808380 0.000000
0.093751 0.808380 0.000000
0.128781 0.808380 0.000000
0.163486 0.808380 0.000000
0.197860 0.808380 0.000000
0.231877 0.808380 0.000000
0.265530 0.808380 0.000000
0.298820 0.808380 0.000000
0.331722 0.808380 0.000000
0.364236 0.808380 0.000000
0.396356 0.808380 0.000000
0.444548 0.840084 0.000000
0.492104 0.871371 0.000000
0.539032 0.902245 0.000000
0.585293 0.932679 0.000000
0.630889 0.962676 0.000000
0.675817 0.992235 0.000000
0.720062 1.000000 0.000000
0.763621 1.000000 0.000000
0.000000 0.840085 0.377241
0.000000 0.840085 0.338917
0.000000 0.840085 0.300717
0.000000 0.840085 0.262644
0.000000 0.840085 0.224720
0.000000 0.840085 0.186959
0.000000 0.840085 0.149380
0.000000 0.840085 0.111989
0.000000 0.840085 0.074805
0.000000 0.840085 0.037839
0.000000 0.840085 0.001106
0.000000 0.840085 0.000000
0.000000 0.840085 0.000000
0.007525 0.840085 0.000000
0.043176 0.840085 0.000000
0.078532 0.840085 0.000000
0.113563 0.840085 0.000000
0.148268 0.840085 0.000000
0.182642 0.840085 0.000000
0.216658 0.840085 0.000000
0.250311 0.840085 0.000000
0.283602 0.840085 0.000000
0.316504 0.840085 0.000000
0.349018 0.840085 0.000000
0.381138 0.840085 0.000000
0.412843 0.840085 0.000000
0.460399 0.871371 0.000000
0.507327 0.902245 0.000000
0.553588 0.932679 0.000000
0.599183 0.962676 0.000000
0.644112 0.992235 0.000000
0.688356 1.000000 0.000000
0.731915 1.000000 0.000000
0.000000 0.871375 0.392260
0.000000 0.871375 0.353936
0.000000 0.871375 0.315736
0.000000 0.871375 0.277663
0.000000 0.871375 0.239740
0.000000 0.871375 0.201979
0.000000 0.871375 0.164400
0.000000 0.871375 0.127008
0.000000 0.871375 0.089824
0.000000 0.871375 0.052858
0.000000 0.871375 0.016125
0.000000 0.871375 0.000000
0.000000 0.871375 0.000000
0.000000 0.871375 0.000000
0.028156 0.871375 0.000000
0.063513 0.871375 0.000000
0.098543 0.871375 0.000000
0.133248 0.871375 0.000000
0.167622 0.871375 0.000000
0.201639 0.871375 0.000000
0.235292 0.871375 0.000000
0.268582 0.871375 0.000000
0.301484 0.871375 0.000000
0.333998 0.871375 0.000000
0.366118 0.871375 0.000000
0.397824 0.871375 0.000000
0.429111 0.871375 0.000000
0.476037 0.902245 0.000000
