luts/atlas_hues.cube
TITLE "Generated by Resolve"
LUT_3D_SIZE 33
0.0275273 0.0270237 0.0251469
0.0275273 0.0270237 0.0251469
0.0275273 0.0270237 0.0251469
0.0275273 0.0270237 0.0251469
0.0275273 0.0270237 0.0251469
0.0275273 0.0270237 0.0251469
0.0312505 0.0269932 0.0251011
0.0512551 0.0267948 0.0249027
0.0732891 0.0265812 0.0246891
0.0933394 0.0263828 0.0244907
0.115099 0.0263676 0.0242771
0.13933 0.0287633 0.0239719
0.166079 0.0302892 0.0236667
0.195178 0.0308843 0.0233616
0.22533 0.0310521 0.0230564
0.256672 0.0327611 0.0229648
0.288975 0.0347448 0.0228122
0.32195 0.0364538 0.0219577
0.355612 0.0380407 0.0215915
0.389853 0.0392157 0.02121
0.42417 0.0398718 0.0208591
0.459556 0.0398108 0.0204929
0.492943 0.0400092 0.0201572
0.526574 0.040238 0.0198062
0.561303 0.0403754 0.0194553
0.594583 0.0408484 0.0191043
0.628199 0.0413214 0.0187533
0.662623 0.0415961 0.0184024
0.697551 0.0417182 0.0180514
0.729747 0.0425269 0.0177005
0.758892 0.0438392 0.01738
0.786419 0.0452735 0.0170748
0.813092 0.0466621 0.0167697
0.0275273 0.0270237 0.0251469
0.0275273 0.0271916 0.0251316
0.027512 0.0280003 0.0251164
0.0274968 0.0287633 0.0251011
0.0274815 0.0294499 0.0250858
0.027451 0.0306859 0.0250706
0.0359808 0.0321813 0.0249485
0.0564584 0.034287 0.0246891
0.0790417 0.0370947 0.0243992
0.101534 0.0403906 0.0241093
0.125109 0.043946 0.0237888
0.150561 0.0481727 0.0234379
0.178164 0.0514992 0.0230869
0.208118 0.0540475 0.0233616
0.239414 0.0560769 0.02327
0.27129 0.0576333 0.0227207
0.303716 0.0588235 0.0220035
0.336919 0.0596323 0.0213321
0.37084 0.0603342 0.0209812
0.405112 0.0608072 0.0205997
0.439353 0.0610971 0.0202487
0.474861 0.0609598 0.0198825
0.507774 0.0613718 0.0195468
0.541634 0.0616922 0.0191958
0.576181 0.0619516 0.0188449
0.609445 0.0625162 0.0184939
0.643122 0.0630655 0.018143
0.67776 0.0634623 0.0177768
0.712764 0.0637522 0.0174258
0.744839 0.0646372 0.0170748
0.774166 0.0658732 0.0167544
0.801999 0.0671702 0.0164492
0.828992 0.0684367 0.016144
0.0273136 0.0369421 0.0249332
0.0272984 0.0376593 0.024918
0.0276341 0.0388037 0.0249485
0.0272526 0.0402075 0.0270085
0.0272221 0.0420691 0.0296178
0.0291295 0.0460822 0.0266575
0.0467384 0.049546 0.026627
0.0677501 0.0542458 0.0274662
0.0903944 0.0591745 0.0284581
0.113558 0.0637675 0.0287022
0.138003 0.0679179 0.0287175
0.163699 0.0715038 0.0288701
0.191318 0.074052 0.0280308
0.22121 0.0758679 0.0263066
0.252201 0.0773938 0.0250553
0.283742 0.0787518 0.0240177
0.315908 0.0799878 0.0226902
0.348867 0.0810712 0.0211948
0.382513 0.0819409 0.0204166
0.41677 0.0825513 0.0200198
0.451148 0.0829175 0.0196536
0.486473 0.0830091 0.0193027
0.51928 0.0835431 0.0189517
0.553399 0.0838788 0.0186007
0.587671 0.0842908 0.0182498
0.621118 0.0849775 0.0178988
0.655192 0.0856641 0.0175326
0.690242 0.0861219 0.0171664
0.72517 0.0865034 0.0168154
0.75729 0.0873732 0.0164645
0.786877 0.0886244 0.016144
0.81503 0.0899519 0.0158236
0.842481 0.0911727 0.0155184
0.032578 0.0581826 0.0274357
0.0316625 0.0598306 0.0304417
0.0303044 0.0611734 0.0342107
0.0292058 0.0625467 0.0374304
0.030045 0.0650492 0.0372931
0.034226 0.068574 0.0328527
0.055436 0.0712596 0.0309758
0.0792859 0.0747845 0.0336919
0.101152 0.0799268 0.0364538
0.124376 0.0845502 0.0378576
0.149203 0.0886397 0.0385901
0.175189 0.0920577 0.0384527
0.203174 0.0946059 0.0371099
0.233249 0.0964828 0.0346075
0.264073 0.0982223 0.0317388
0.295293 0.0999313 0.0292821
0.32726 0.101671 0.0271763
0.360006 0.102968 0.0245518
0.393393 0.104051 0.0227359
0.427253 0.104936 0.0205997
0.461875 0.105516 0.0190585
0.496452 0.105913 0.0187076
0.529381 0.106462 0.0183566
0.563836 0.106813 0.0180056
0.597833 0.107347 0.0176547
0.631449 0.108034 0.0172885
0.665812 0.108736 0.0169375
0.700999 0.109133 0.0165713
0.735882 0.109575 0.0162051
0.768063 0.110536 0.0158541
0.797864 0.11191 0.0155337
0.826001 0.113222 0.0152132
0.853208 0.114275 0.0149233
0.0371862 0.0807507 0.0399939
0.0358587 0.0821698 0.0439002
0.0348211 0.0836957 0.0474708
0.0352941 0.085832 0.0487831
0.0378424 0.0889143 0.0472114
0.0424811 0.0925307 0.0432593
0.0619821 0.0951705 0.040238
0.092958 0.0972457 0.043473
0.114092 0.102846 0.0469062
0.137041 0.107607 0.0495155
0.161547 0.111925 0.0504158
0.187411 0.115373 0.050248
0.215656 0.117861 0.0488441
0.246067 0.119753 0.0464027
0.277241 0.121401 0.0434272
0.308904 0.122927 0.0400244
0.340902 0.124407 0.0362249
0.373388 0.125872 0.0320134
0.406256 0.127321 0.0296483
0.439277 0.128573 0.0267491
0.473762 0.129335 0.0232548
0.507118 0.129946 0.0200046
0.540108 0.13048 0.017731
0.574517 0.130861 0.01738
0.608179 0.131441 0.0170291
0.64181 0.132097 0.0166781
0.676188 0.132631 0.0163119
0.71162 0.133013 0.0159457
0.746334 0.133501 0.0155795
0.778363 0.134615 0.0152438
0.807965 0.136187 0.0149081
0.836057 0.13785 0.0145876
0.863539 0.139315 0.0142672
0.0427558 0.104295 0.0548867
0.0413977 0.10605 0.0592355
0.0414893 0.108171 0.0613413
0.0433051 0.110643 0.0607919
0.0468605 0.113573 0.0576028
0.0514534 0.116793 0.0529793
0.0672618 0.119142 0.0495918
0.100969 0.121065 0.0529488
0.129473 0.125277 0.0569314
0.150591 0.13077 0.059968
0.17435 0.135073 0.0617533
0.199588 0.138643 0.0617838
0.228061 0.141375 0.0605173
0.258885 0.143313 0.0581674
0.290211 0.145006 0.0552834
0.322072 0.146563 0.052018
0.354482 0.148013 0.0484016
0.387503 0.149416 0.0444038
0.420706 0.150759 0.0399329
0.453986 0.151919 0.0348516
0.488319 0.152804 0.0305028
0.5205 0.153628 0.027039
0.553246 0.154269 0.0231174
0.587167 0.154818 0.0194553
0.619928 0.155505 0.0169528
0.653284 0.15613 0.0160372
0.687556 0.156664 0.0156863
0.722866 0.157092 0.0153201
0.757473 0.157794 0.0149538
0.789273 0.159167 0.0146029
0.818524 0.16112 0.0142672
0.84654 0.163195 0.0139315
0.874006 0.165209 0.013611
0.0479286 0.128618 0.0701915
0.0476234 0.130831 0.0728008
0.0489509 0.133349 0.0726482
0.0514839 0.135805 0.0706493
0.055314 0.138491 0.0670024
0.0601816 0.141222 0.061677
0.0712139 0.143267 0.0575875
0.107347 0.145174 0.0616159
0.14287 0.148425 0.0661021
0.164965 0.153948 0.0693675
0.187381 0.158495 0.0720226
0.21239 0.162005 0.0727398
0.24062 0.164843 0.0716411
0.271382 0.16701 0.0694743
0.302846 0.168856 0.066804
0.335027 0.170581 0.0637827
0.367788 0.172076 0.0603799
0.401083 0.173449 0.0566262
0.43444 0.174624 0.0524605
0.46836 0.175601 0.0476844
0.503059 0.176287 0.0422065
0.534844 0.177081 0.0370184
0.567712 0.17763 0.0315099
0.601144 0.17818 0.0266728
0.633341 0.178988 0.021912
0.666346 0.179782 0.0186465
0.70045 0.180545 0.0160067
0.735454 0.181308 0.0146639
0.76965 0.182452 0.0142977
0.800946 0.184375 0.0139467
0.829709 0.186892 0.0135958
0.857542 0.189548 0.0132601
0.88484 0.192111 0.0129244
0.0528725 0.15375 0.0839857
0.0537118 0.156191 0.084596
0.0559396 0.158618 0.0828107
0.0589609 0.160861 0.0796368
0.0627604 0.163287 0.0753338
0.0673381 0.165621 0.0697032
0.0745861 0.167178 0.0641489
0.112398 0.169192 0.0687266
0.152422 0.17229 0.0741588
0.181079 0.176425 0.0780499
0.200595 0.181857 0.0803693
0.225116 0.185245 0.0818952
0.253162 0.187869 0.0815137
0.283543 0.190234 0.0798352
0.315053 0.192447 0.0775769
0.347372 0.194354 0.074876
0.380301 0.195911 0.0716716
0.413809 0.197284 0.0680552
0.447181 0.198505 0.0642557
0.481987 0.19942 0.0597848
0.51635 0.200137 0.0549172
0.548653 0.200885 0.0501106
0.582116 0.201358 0.0445411
0.615183 0.201968 0.03888
0.647578 0.202838 0.0334173
0.680552 0.203876 0.0281224
0.714672 0.204974 0.0225986
0.749371 0.20621 0.018143
0.783062 0.207874 0.0163272
0.813336 0.210376 0.0152743
0.841672 0.21326 0.0145724
0.868986 0.216236 0.0137484
0.895827 0.21915 0.0128328
0.057084 0.178836 0.0975204
0.058732 0.181338 0.0956588
0.0612955 0.183505 0.0921645
0.0645151 0.185489 0.0877546
0.0682536 0.18761 0.0826429
0.0724804 0.18967 0.076463
0.0770275 0.190707 0.0693217
0.116136 0.192859 0.0738231
0.159548 0.196155 0.0806897
0.192584 0.199527 0.0846571
0.215045 0.204181 0.0874647
0.237018 0.208392 0.0889906
0.264546 0.211032 0.0894636
0.294682 0.213413 0.0885786
0.326131 0.215869 0.0869306
0.358526 0.218112 0.0846418
0.391714 0.22005 0.0818799
0.425422 0.221744 0.078645
0.459159 0.223224 0.0752422
0.494514 0.224353 0.0710155
0.52813 0.225345 0.0668193
0.561379 0.226047 0.0622873
0.595544 0.226459 0.0571908
0.628534 0.2271 0.0521859
0.661463 0.227924 0.0470893
0.694911 0.228901 0.0418708
0.72932 0.230015 0.0364691
0.763958 0.231403 0.0312505
0.796948 0.23331 0.0270848
0.826719 0.236042 0.0246891
0.85452 0.239216 0.0236667
0.881346 0.242542 0.0233921
0.907561 0.245823 0.0233158
0.0597238 0.20441 0.108125
0.0619669 0.206638 0.104921
0.0650034 0.208591 0.100053
0.0683299 0.210407 0.0946517
0.0720836 0.212238 0.0886091
0.0762341 0.213993 0.0816358
0.0802319 0.214725 0.0737926
0.118715 0.216953 0.0772259
0.164767 0.220386 0.0852216
0.200183 0.223514 0.0896468
0.228046 0.22707 0.0930343
0.249256 0.231876 0.0946059
0.274968 0.235126 0.095552
0.304463 0.237491 0.0954452
0.335714 0.239994 0.0944533
0.368231 0.242573 0.0927901
0.401648 0.245014 0.0905623
0.435538 0.247135 0.0878462
0.469993 0.248951 0.0847639
0.505714 0.250401 0.0809949
0.538643 0.251575 0.0772717
0.572457 0.252308 0.0728618
0.606836 0.252674 0.06804
0.639826 0.253208 0.0634775
0.673335 0.253834 0.0588998
0.707607 0.254627 0.0541543
0.74258 0.255619 0.0492256
0.777218 0.257084 0.0445869
0.809918 0.259068 0.0408484
0.839521 0.261952 0.0386511
0.867063 0.265278 0.0374456
0.893492 0.268818 0.0368811
0.919264 0.272374 0.0365301
0.0620127 0.230686 0.116258
0.0645914 0.232746 0.111254
0.0676127 0.234562 0.105882
0.0708324 0.236179 0.100313
0.0747082 0.237629 0.09337
0.0788281 0.238819 0.08542
0.0827649 0.239277 0.0770581
0.120424 0.241505 0.0797284
0.167834 0.244923 0.0880598
0.204593 0.248112 0.09337
0.237491 0.250736 0.0970626
0.263508 0.254597 0.0996567
0.284916 0.259373 0.100069
0.313634 0.261692 0.100755
0.344472 0.263966 0.100465
0.376974 0.26659 0.0994736
0.41062 0.269368 0.0979477
0.444541 0.271962 0.0958877
0.480003 0.27422 0.0932174
0.515114 0.276081 0.0901198
0.548257 0.277516 0.0867475
0.582712 0.278416 0.0825971
0.616815 0.278981 0.0781262
0.649973 0.279606 0.0737926
0.683909 0.280262 0.0694133
0.718776 0.280995 0.0649271
0.754116 0.281971 0.0605325
0.788983 0.283375 0.0565194
0.821729 0.28542 0.0534524
0.851301 0.288319 0.0516976
0.878767 0.291737 0.050782
0.905043 0.295384 0.0504005
0.930694 0.299031 0.0501717
0.0637064 0.25687 0.121157
0.0665141 0.258671 0.116075
0.0696269 0.260227 0.110109
0.0727398 0.261494 0.104097
0.0762951 0.262654 0.0971389
0.0805371 0.263386 0.088426
0.0844739 0.263447 0.0795605
0.121981 0.265721 0.0818647
0.169909 0.269108 0.0900587
0.207736 0.272312 0.0963302
0.242008 0.275013 0.100328
0.273915 0.277592 0.103273
0.298558 0.281865 0.104524
0.322988 0.285832 0.104814
0.353124 0.288014 0.105348
0.385245 0.290379 0.105074
0.41883 0.293233 0.104295
0.453422 0.296315 0.103029
0.489372 0.299123 0.101015
0.523339 0.301457 0.0987106
0.557382 0.303243 0.0956741
0.592416 0.304448 0.0918898
0.626093 0.305303 0.0878614
0.659663 0.306096 0.0837262
0.693996 0.306889 0.0794842
0.729305 0.307744 0.0751659
0.764904 0.308797 0.0710155
0.799878 0.310246 0.0673533
0.832441 0.312413 0.0647593
0.861875 0.315373 0.0634012
0.88922 0.318868 0.0628977
0.915511 0.322545 0.0627146
0.94107 0.326268 0.0626535
0.0654917 0.282612 0.123751
0.0682536 0.284184 0.118486
0.0711376 0.285512 0.11281
0.0742199 0.286564 0.106584
0.0775769 0.287419 0.0994736
0.0816205 0.287831 0.0906996
0.0855116 0.287526 0.0816205
0.122972 0.28983 0.083711
0.171054 0.293202 0.0914931
0.210163 0.296361 0.0984207
0.245167 0.299107 0.103044
0.280537 0.301198 0.106233
0.310597 0.304433 0.108248
0.334707 0.308934 0.108873
0.361929 0.31223 0.109346
0.393561 0.314458 0.109758
0.426535 0.317067 0.109575
0.461601 0.32018 0.108904
0.49778 0.323461 0.107774
0.531228 0.326406 0.106325
0.566049 0.328817 0.103899
0.601389 0.330465 0.100572
0.634928 0.33167 0.0969558
0.668879 0.332738 0.09308
0.703716 0.333745 0.0889906
0.739513 0.334798 0.0848096
0.775204 0.33608 0.0807965
0.810086 0.337667 0.0771954
0.842283 0.340032 0.0748455
0.871244 0.343221 0.0737926
0.898375 0.346807 0.0734417
0.924483 0.350591 0.0733349
0.949889 0.354406 0.0733654
0.0671397 0.308232 0.124743
0.0699474 0.309529 0.118959
0.0726177 0.310674 0.113436
0.0753643 0.311559 0.107607
0.0786145 0.312154 0.100572
0.0821546 0.312383 0.0923934
0.0860456 0.311833 0.083238
0.123095 0.314046 0.0849622
0.171389 0.317418 0.092546
0.211551 0.320485 0.0997177
0.247349 0.323293 0.105104
0.284108 0.325261 0.108537
0.32076 0.327184 0.111177
0.346944 0.331655 0.112474
0.371817 0.336126 0.112856
0.401831 0.338857 0.113527
0.434348 0.341283 0.113909
0.469444 0.344228 0.11371
0.503883 0.347494 0.113222
0.538308 0.35082 0.112352
0.574075 0.353811 0.110658
0.60914 0.356176 0.108095
0.643107 0.357977 0.104952
0.677607 0.359472 0.101427
0.7131 0.3608 0.0974899
0.749233 0.362112 0.0934462
0.785122 0.363653 0.0896468
0.819959 0.365469 0.0861982
0.851545 0.36817 0.0840772
0.880034 0.371603 0.0831464
0.90692 0.375357 0.0827955
0.932754 0.379263 0.0827192
0.957839 0.3832 0.0827802
0.0687877 0.333974 0.123873
0.0714275 0.335058 0.118212
0.0740673 0.335973 0.112535
0.0765393 0.33669 0.107042
0.0794232 0.337148 0.100557
0.0827802 0.337209 0.0928054
0.0864118 0.336629 0.084123
0.122591 0.338613 0.0855116
0.17084 0.341939 0.0928969
0.211841 0.345037 0.10016
0.248478 0.347631 0.106233
0.285512 0.349706 0.110231
0.326146 0.351049 0.112718
0.359869 0.354009 0.115251
0.383261 0.359533 0.115816
0.410101 0.363607 0.116167
0.442359 0.365988 0.11696
0.47686 0.368688 0.11725
0.509697 0.371771 0.117235
0.544747 0.375235 0.116854
0.58117 0.378653 0.115801
0.615961 0.381598 0.114046
0.65066 0.384039 0.111513
0.685908 0.386114 0.1084
0.722103 0.387915 0.104738
0.758556 0.389654 0.100954
0.794537 0.391516 0.0973068
0.829267 0.393683 0.0941329
0.860182 0.396704 0.0923018
0.888441 0.40032 0.0914473
0.915068 0.404288 0.0911116
0.940688 0.408408 0.0911116
0.965515 0.412604 0.0912032
0.0704814 0.360113 0.121736
0.0729229 0.361044 0.11635
0.0754406 0.361776 0.110796
0.0777447 0.362341 0.105516
0.0803693 0.362676 0.0994583
0.0835584 0.3626 0.0920729
0.0869001 0.36199 0.0840162
0.121141 0.363745 0.0850385
0.16939 0.366964 0.0922713
0.211063 0.369955 0.0994583
0.248569 0.372427 0.10602
0.286091 0.37438 0.110689
0.327871 0.375723 0.113191
0.367132 0.377737 0.115846
0.396857 0.382086 0.117693
0.420813 0.387625 0.117968
0.450446 0.391394 0.118532
0.482567 0.393729 0.119417
0.515511 0.396582 0.119707
0.550835 0.399847 0.1196
0.586954 0.403372 0.119112
0.621973 0.406744 0.118013
0.657542 0.409781 0.116152
0.693721 0.412528 0.113619
0.730678 0.414984 0.110414
0.767407 0.417319 0.107012
0.803449 0.419654 0.103655
0.837705 0.42237 0.100847
0.86836 0.425772 0.0991684
0.896452 0.429725 0.0984207
0.922942 0.433997 0.098146
0.948272 0.438407 0.098146
0.97258 0.442832 0.0982681
0.0723888 0.38703 0.118807
0.0747082 0.387884 0.113695
0.0770733 0.38851 0.108415
0.0793317 0.388968 0.103258
0.0818036 0.389258 0.0975509
0.0847486 0.389151 0.0906996
0.0879377 0.388571 0.0832074
0.118608 0.389868 0.083238
0.166842 0.392844 0.0903487
0.209125 0.395773 0.0975662
0.247578 0.398032 0.104326
0.28574 0.399741 0.10959
0.328145 0.400931 0.112444
0.370886 0.402426 0.114885
0.406699 0.40557 0.117388
0.434089 0.410956 0.118517
0.460212 0.416266 0.1187
0.488609 0.419623 0.119341
0.521447 0.422049 0.12015
0.556725 0.425086 0.120439
0.591714 0.428428 0.120287
0.627268 0.431952 0.119677
0.663676 0.435477 0.118471
0.701015 0.43888 0.116625
0.738735 0.44213 0.114153
0.775799 0.445274 0.111269
0.81178 0.448371 0.108278
0.845731 0.451759 0.105852
0.876143 0.455756 0.104433
0.90396 0.460197 0.103792
0.930159 0.464881 0.103563
0.955154 0.469627 0.103609
0.978866 0.474403 0.103822
0.0749523 0.415 0.11545
0.0772259 0.415763 0.110567
0.0795453 0.416327 0.105562
0.0817731 0.416678 0.100618
0.084184 0.416953 0.0952773
0.0870375 0.416876 0.0888838
0.0901656 0.416373 0.0818494
0.11487 0.41709 0.0804913
0.16289 0.419623 0.0871443
0.206302 0.422324 0.0942397
0.245289 0.424414 0.100832
0.284169 0.425879 0.106523
0.326741 0.426902 0.109957
0.371221 0.428183 0.112169
0.413184 0.430335 0.114839
0.446403 0.434836 0.116991
0.470848 0.440589 0.117556
0.496406 0.445686 0.117632
0.527733 0.44918 0.118257
0.562188 0.451835 0.118944
0.596567 0.454932 0.119112
0.632212 0.458412 0.118837
0.669306 0.462104 0.118105
0.707683 0.466011 0.116884
0.745968 0.469902 0.115206
0.783459 0.473777 0.11313
0.819699 0.477577 0.110903
0.853269 0.481621 0.109041
0.883192 0.486122 0.107973
0.910674 0.490959 0.1075
0.936522 0.495979 0.107485
0.961242 0.500999 0.107668
0.984222 0.505943 0.108049
0.0787823 0.445197 0.111788
0.0810712 0.445945 0.107118
0.0834058 0.446494 0.102342
0.0856336 0.446891 0.0976883
0.0880598 0.447196 0.0926528
0.0909285 0.447181 0.086656
0.0939956 0.446723 0.0799725
0.109056 0.446601 0.0760967
0.156146 0.448692 0.0821393
0.201816 0.451179 0.0893111
0.24152 0.453056 0.0957504
0.281163 0.454109 0.101564
0.323857 0.454612 0.105547
0.368704 0.455528 0.107713
0.415259 0.456977 0.109987
0.454215 0.459968 0.112734
0.48275 0.465049 0.114412
0.507622 0.47129 0.114733
0.535851 0.476524 0.1149
0.56762 0.479973 0.115587
0.602075 0.482704 0.116213
0.637781 0.485954 0.116304
0.675349 0.48954 0.115938
0.714183 0.493462 0.115236
0.752804 0.497749 0.11426
0.790631 0.502098 0.112993
0.826932 0.506462 0.111528
0.860075 0.511086 0.110369
0.889632 0.516091 0.10988
0.916671 0.521279 0.10988
0.942168 0.526482 0.110155
0.966491 0.53164 0.110658
0.988693 0.536553 0.111345
0.0840009 0.476997 0.108034
0.0862898 0.477623 0.103471
0.0885634 0.47805 0.0988632
0.0907301 0.47837 0.0943923
0.0930495 0.478523 0.0895247
0.0957656 0.47837 0.0837415
0.0987259 0.477852 0.0772412
0.102083 0.476844 0.0704509
0.148699 0.47892 0.0763409
0.197375 0.481483 0.0840162
0.23859 0.483375 0.090547
0.278492 0.484154 0.0962844
0.321447 0.484123 0.100526
0.366979 0.484321 0.102953
0.414481 0.485283 0.104677
0.455955 0.487098 0.107088
0.492439 0.49073 0.109758
0.521294 0.496681 0.111192
0.546731 0.503075 0.111345
0.575113 0.507942 0.111604
0.608606 0.511193 0.112352
0.644846 0.513909 0.113054
0.682704 0.517205 0.113207
0.721569 0.520958 0.113054
0.76022 0.525048 0.112627
0.79794 0.529427 0.111971
0.834134 0.534035 0.111269
0.866773 0.538994 0.110918
0.895644 0.54435 0.111131
0.92221 0.549844 0.111589
0.947356 0.555352 0.112215
0.971023 0.560769 0.112963
0.99266 0.565866 0.113649
0.0897078 0.508186 0.104326
0.0919203 0.508598 0.0999008
0.0941176 0.508873 0.0954757
0.0961929 0.509056 0.0911879
0.098436 0.509056 0.0865034
0.101061 0.508797 0.0809491
0.103853 0.508186 0.0746624
0.106737 0.507073 0.0679484
0.14197 0.508293 0.0708324
0.193378 0.510857 0.079118
0.236637 0.512917 0.0860151
0.277058 0.513954 0.0920272
0.320424 0.513741 0.0966812
0.367376 0.51342 0.0995651
0.410788 0.513954 0.100877
0.456046 0.515038 0.102678
0.498924 0.517357 0.105425
0.533959 0.521965 0.10779
0.560311 0.528252 0.108537
0.586343 0.534401 0.108492
0.617182 0.539025 0.108751
0.653117 0.542168 0.109545
0.691249 0.545129 0.110201
0.729839 0.548669 0.11043
0.7682 0.552666 0.110475
0.805707 0.55697 0.110292
0.841535 0.561639 0.110094
0.873396 0.566873 0.110369
0.901595 0.572427 0.111025
0.927718 0.578164 0.111772
0.952438 0.583886 0.112612
0.975113 0.58938 0.113451
0.99646 0.594675 0.114183
0.0959335 0.539178 0.101137
0.0981155 0.539452 0.0968032
0.100191 0.539666 0.0925765
0.102205 0.539727 0.0883955
0.104402 0.539651 0.0838331
0.106905 0.53933 0.0784466
0.109606 0.538659 0.0722972
0.112398 0.53756 0.0657054
0.133898 0.537743 0.0649424
0.187274 0.540413 0.0735485
0.233356 0.542901 0.081117
0.274784 0.544289 0.0874342
0.319265 0.544198 0.0926833
0.362799 0.543694 0.0958724
0.407385 0.543755 0.0975814
0.454078 0.544381 0.0987869
0.501762 0.545678 0.100847
0.54197 0.548653 0.103471
0.573922 0.553887 0.105211
0.600534 0.560555 0.10547
0.628962 0.566552 0.105257
0.663066 0.570901 0.105547
0.700847 0.57409 0.10634
0.739284 0.577401 0.106966
0.777234 0.58117 0.107225
0.814282 0.585382 0.107301
0.849515 0.589944 0.107454
0.880262 0.595163 0.108125
0.907958 0.600839 0.109102
0.933669 0.606683 0.110185
0.957717 0.612451 0.111162
0.979339 0.61796 0.112047
1 0.623407 0.11284
0.102892 0.571038 0.0985428
0.105013 0.571221 0.0943313
0.107012 0.571344 0.0902419
0.10901 0.571328 0.0861219
0.111131 0.571176 0.0816815
0.113558 0.570809 0.0763867
0.116289 0.570062 0.0701305
0.11899 0.569024 0.0637522
0.122927 0.567834 0.0581369
0.176547 0.570565 0.0667887
0.228168 0.573571 0.0755779
0.271656 0.575372 0.0823529
0.311559 0.575967 0.0877241
0.356619 0.575235 0.0915236
0.403082 0.574868 0.0937667
0.451194 0.575051 0.0947127
0.500206 0.575631 0.0958267
0.546197 0.57731 0.098024
0.585382 0.580941 0.100481
0.616053 0.587152 0.101396
0.644083 0.594156 0.101061
0.675792 0.599878 0.100801
0.711818 0.603998 0.101213
0.749767 0.607233 0.101976
0.78735 0.610727 0.102495
0.823835 0.614694 0.102831
0.857893 0.619165 0.103304
0.888014 0.624338 0.104311
0.915175 0.629908 0.105577
0.940276 0.635523 0.106859
0.963378 0.641108 0.108019
0.984314 0.64651 0.109071
1 0.652003 0.109941
0.111101 0.603586 0.0965133
0.11313 0.603693 0.0924392
0.115145 0.603708 0.0883497
0.117113 0.603616 0.0842451
0.119203 0.603372 0.0798199
0.121599 0.602914 0.0744793
0.124331 0.602121 0.0682078
0.127001 0.601099 0.0618906
0.129458 0.599863 0.0558022
0.162875 0.601038 0.0588083
0.219394 0.604364 0.0686351
0.262257 0.606806 0.0757
0.3037 0.608026 0.0816052
0.349126 0.607675 0.0861982
0.397864 0.606836 0.0890059
0.446769 0.606607 0.0900893
0.496345 0.606851 0.090547
0.546395 0.607584 0.0918593
0.592462 0.609842 0.0941482
0.630671 0.614603 0.0959945
0.661326 0.621759 0.0961929
0.691478 0.628565 0.0956741
0.725109 0.633692 0.0954604
0.761532 0.637491 0.0959335
0.798642 0.640818 0.0966812
0.834363 0.644556 0.097322
0.867628 0.648859 0.0981155
0.896971 0.653849 0.099382
0.923354 0.659159 0.100801
0.947753 0.664607 0.102342
0.969589 0.670039 0.104799
0.990127 0.67538 0.107012
1 0.680964 0.109209
0.120562 0.636332 0.0951705
0.122576 0.636332 0.0911116
0.124575 0.63624 0.0870069
0.126574 0.636042 0.082826
0.128618 0.635737 0.0784161
0.13109 0.635157 0.0728008
0.133745 0.634394 0.0667124
0.136385 0.633417 0.060441
0.138872 0.632197 0.0542458
0.143786 0.631159 0.049546
0.198398 0.63447 0.059144
0.250645 0.637797 0.0682841
0.294881 0.639841 0.0750439
0.34052 0.640269 0.0803693
0.3906 0.639307 0.0837415
0.44033 0.638651 0.0852827
0.491539 0.638498 0.0853437
0.544671 0.638651 0.0857404
0.596796 0.639765 0.0873426
0.642741 0.643122 0.0895552
0.678813 0.649378 0.0905623
0.709026 0.656748 0.0903487
0.74081 0.662943 0.0904555
0.775082 0.667689 0.0914321
0.810666 0.671443 0.0931411
0.845655 0.675105 0.0952316
0.877882 0.679286 0.0974899
0.906142 0.684123 0.10016
0.931655 0.689326 0.103044
0.954955 0.694606 0.105898
0.975814 0.699809 0.108522
0.996414 0.705028 0.110994
1 0.71043 0.113329
0.131441 0.668894 0.0950484
0.133455 0.668772 0.0909133
0.135485 0.668559 0.0867323
0.137469 0.668269 0.0824903
0.139513 0.667872 0.0779431
0.142 0.667247 0.0723125
0.14461 0.666468 0.0663005
0.147158 0.665583 0.0602884
0.149477 0.664668 0.0547494
0.151736 0.663539 0.0491188
0.172656 0.663966 0.0490883
0.234455 0.667811 0.0602121
0.284398 0.670863 0.0683299
0.329442 0.67274 0.0773175
0.378744 0.672496 0.0840009
0.430762 0.671504 0.0878614
0.482948 0.670954 0.0894484
0.538125 0.670863 0.089662
0.595514 0.671183 0.0905013
0.649577 0.673106 0.0926375
0.69308 0.677852 0.094316
0.726436 0.685008 0.0945907
0.757046 0.692134 0.094377
0.789578 0.697749 0.0949264
0.823301 0.702235 0.0964218
0.857099 0.706035 0.0984665
0.888426 0.709957 0.100954
0.915984 0.714458 0.103853
0.940597 0.719417 0.106874
0.962692 0.724422 0.10985
0.98294 0.72932 0.112551
1 0.734386 0.115221
1 0.739605 0.117815
0.144671 0.700389 0.0978408
0.146807 0.70013 0.0937057
0.148898 0.699809 0.0894942
0.150942 0.699397 0.0851759
0.153109 0.698909 0.0805371
0.155367 0.69836 0.0756695
0.157687 0.697734 0.0705272
0.160189 0.696956 0.0648203
0.162737 0.69601 0.0588388
