luts/atlas_hues.cube
TITLE "Generated by Resolve"
LUT_3D_SIZE 9
0.0275273 0.0270237 0.0251469
0.0275273 0.0270237 0.0251469
0.0732891 0.0265812 0.0246891
0.166079 0.0302892 0.0236667
0.288975 0.0347448 0.0228122
0.42417 0.0398718 0.0208591
0.561303 0.0403754 0.0194553
0.697551 0.0417182 0.0180514
0.813092 0.0466621 0.0167697
0.0371862 0.0807507 0.0399939
0.0378424 0.0889143 0.0472114
0.114092 0.102846 0.0469062
0.215656 0.117861 0.0488441
0.340902 0.124407 0.0362249
0.473762 0.129335 0.0232548
0.608179 0.131441 0.0170291
0.746334 0.133501 0.0155795
0.863539 0.139315 0.0142672
0.057084 0.178836 0.0975204
0.0682536 0.18761 0.0826429
0.159548 0.196155 0.0806897
0.264546 0.211032 0.0894636
0.391714 0.22005 0.0818799
0.52813 0.225345 0.0668193
0.661463 0.227924 0.0470893
0.796948 0.23331 0.0270848
0.907561 0.245823 0.0233158
0.0654917 0.282612 0.123751
0.0775769 0.287419 0.0994736
0.171054 0.293202 0.0914931
0.310597 0.304433 0.108248
0.426535 0.317067 0.109575
0.566049 0.328817 0.103899
0.703716 0.333745 0.0889906
0.842283 0.340032 0.0748455
0.949889 0.354406 0.0733654
0.0723888 0.38703 0.118807
0.0818036 0.389258 0.0975509
0.166842 0.392844 0.0903487
0.328145 0.400931 0.112444
0.460212 0.416266 0.1187
0.591714 0.428428 0.120287
0.738735 0.44213 0.114153
0.876143 0.455756 0.104433
0.978866 0.474403 0.103822
0.0897078 0.508186 0.104326
0.098436 0.509056 0.0865034
0.14197 0.508293 0.0708324
0.320424 0.513741 0.0966812
0.498924 0.517357 0.105425
0.617182 0.539025 0.108751
0.7682 0.552666 0.110475
0.901595 0.572427 0.111025
0.99646 0.594675 0.114183
0.120562 0.636332 0.0951705
0.128618 0.635737 0.0784161
0.138872 0.632197 0.0542458
0.294881 0.639841 0.0750439
0.491539 0.638498 0.0853437
0.678813 0.649378 0.0905623
0.810666 0.671443 0.0931411
0.931655 0.689326 0.103044
1 0.71043 0.113329
0.173739 0.760433 0.113832
0.181445 0.758816 0.0978866
0.191852 0.755901 0.0750744
0.209293 0.754574 0.0644388
0.454749 0.763561 0.112718
0.720073 0.762356 0.116625
0.872129 0.787015 0.118868
0.975692 0.804456 0.128115
1 0.821897 0.140673
0.209323 0.874052 0.186542
0.21561 0.87277 0.17438
0.225528 0.870298 0.154131
0.241657 0.864637 0.117952
0.363272 0.868772 0.126207
0.676188 0.86659 0.151644
0.927016 0.881086 0.155261
1 0.904372 0.160784
1 0.921736 0.173541
0.0275883 0.0270848 0.0434272
0.0276036 0.0271 0.0492103
0.0782635 0.0266728 0.0727398
0.174838 0.0339666 0.0758526
0.277073 0.0469062 0.0705425
0.39736 0.0531167 0.0620279
0.523995 0.0562295 0.0499733
0.65536 0.0586709 0.0380865
0.76759 0.0640269 0.0356451
0.0296483 0.0882734 0.0902571
0.0301366 0.0948806 0.0978408
0.104784 0.11107 0.113588
0.206653 0.124697 0.119448
0.329839 0.131609 0.110567
0.466865 0.135622 0.0968795
0.601511 0.137621 0.0809949
0.736629 0.140032 0.0673838
0.847578 0.147814 0.0662089
0.0463264 0.186053 0.141146
0.0461128 0.190417 0.152743
0.128267 0.208652 0.151568
0.256641 0.218524 0.15729
0.384283 0.22562 0.145266
0.520012 0.232334 0.126497
0.655848 0.235615 0.106325
0.795895 0.23917 0.0918288
0.909606 0.250446 0.0920424
0.044831 0.286595 0.184955
0.0458228 0.293614 0.179309
0.141726 0.307439 0.157397
0.301411 0.313909 0.174273
0.420768 0.325307 0.173556
0.561044 0.336156 0.164187
0.699977 0.341085 0.147189
0.837583 0.347463 0.130663
0.94374 0.362509 0.127749
0.0466773 0.394354 0.17847
0.054612 0.398535 0.159243
0.140658 0.405982 0.144747
0.312215 0.412299 0.168521
0.45626 0.424231 0.175235
0.587198 0.437156 0.175921
0.736004 0.452064 0.169436
0.87306 0.464775 0.159518
0.97496 0.483238 0.159609
0.0651408 0.514885 0.155093
0.0736706 0.517617 0.139147
0.112642 0.519631 0.121386
0.29546 0.523247 0.144701
0.482155 0.523766 0.156786
0.610925 0.545678 0.162814
0.763867 0.561349 0.165805
0.897932 0.582376 0.166705
0.992767 0.604562 0.169772
0.0981308 0.644602 0.142992
0.10605 0.645487 0.128725
0.116762 0.644526 0.107424
0.264485 0.65066 0.122271
0.468208 0.645945 0.13611
0.672374 0.654459 0.141604
0.805432 0.678431 0.142962
0.927047 0.696376 0.148363
1 0.717235 0.154238
0.150393 0.770184 0.164675
0.157382 0.76968 0.152712
0.167544 0.768078 0.133806
0.180453 0.763775 0.105867
0.437186 0.76817 0.130312
0.714672 0.76466 0.122728
0.872908 0.788937 0.122988
0.976333 0.806149 0.130282
1 0.823301 0.141161
0.181598 0.884657 0.242267
0.188342 0.883574 0.230671
0.198672 0.881712 0.212482
0.213291 0.877974 0.184237
0.33109 0.875807 0.169375
0.661509 0.866712 0.152941
0.924987 0.881605 0.155673
1 0.905394 0.161089
1 0.922652 0.173831
0.0275425 0.0358892 0.0939956
0.0274968 0.0397192 0.102998
0.0731518 0.0466316 0.130953
0.203204 0.0446021 0.15227
0.317006 0.0505226 0.134951
0.421164 0.0617838 0.121752
0.536904 0.0687724 0.11107
0.659068 0.0745098 0.101518
0.765209 0.081117 0.10074
0.0267338 0.104585 0.137011
0.0315557 0.111894 0.144747
0.106294 0.127947 0.16527
0.232563 0.129854 0.189075
0.339208 0.140673 0.173312
0.457252 0.149752 0.164614
0.577401 0.155734 0.154635
0.705242 0.160021 0.144747
0.813382 0.169223 0.145586
0.045655 0.192996 0.190723
0.06215 0.200031 0.197299
0.15285 0.216922 0.212985
0.255833 0.227085 0.222156
0.374578 0.235279 0.212589
0.513313 0.240894 0.200183
0.652003 0.24445 0.18497
0.789105 0.248981 0.173205
0.898741 0.261463 0.176806
0.0405737 0.295903 0.218494
0.0670176 0.302647 0.229068
0.149203 0.318791 0.24654
0.28957 0.327123 0.236164
0.417105 0.334874 0.234165
0.556695 0.343618 0.221332
0.696391 0.350851 0.203189
0.831922 0.358129 0.185962
0.938003 0.373175 0.185946
0.0279545 0.402106 0.246281
0.0451972 0.409018 0.244053
0.136538 0.423041 0.228122
0.290532 0.428977 0.224353
0.45417 0.434531 0.23682
0.583001 0.448569 0.23595
0.734768 0.464378 0.228702
0.870588 0.476204 0.21799
0.971008 0.494591 0.218311
0.0318456 0.526009 0.230198
0.0387579 0.529366 0.214282
0.10074 0.534325 0.194324
0.262226 0.538338 0.195895
0.462516 0.534798 0.21416
0.606012 0.554894 0.221759
0.760647 0.572763 0.226459
0.89514 0.5953 0.228565
0.989578 0.617441 0.23267
0.0630045 0.656825 0.213077
0.0715343 0.658473 0.198367
0.0843977 0.659678 0.175875
0.225101 0.665476 0.1794
0.436255 0.657404 0.197925
0.660929 0.662043 0.205814
0.798657 0.68864 0.211734
0.919982 0.707942 0.220539
1 0.729717 0.229129
0.110948 0.784894 0.24152
0.118898 0.784726 0.229343
0.130571 0.783993 0.210864
0.146487 0.781598 0.183795
0.388983 0.783566 0.207797
0.67689 0.774044 0.205783
0.862821 0.797192 0.209781
0.964599 0.816175 0.219913
1 0.83389 0.23357
0.13109 0.903517 0.33872
0.138064 0.902419 0.32665
0.14902 0.90045 0.307836
0.165942 0.897093 0.27895
0.274586 0.892927 0.258991
0.598932 0.875837 0.264454
0.90573 0.884962 0.23917
1 0.912322 0.239399
1 0.930983 0.258793
0.0271763 0.0621195 0.15288
0.0270848 0.0677653 0.161624
0.08159 0.0787213 0.189075
0.207446 0.0770733 0.221988
0.357 0.0700389 0.213703
0.464744 0.0797131 0.191485
0.567971 0.0906844 0.178347
0.685573 0.0964523 0.168643
0.7888 0.102373 0.168719
0.025864 0.129183 0.187701
0.0337072 0.136492 0.195895
0.113008 0.15108 0.218875
0.226337 0.154604 0.251316
0.380743 0.149187 0.246006
0.48484 0.161883 0.228168
0.598062 0.17113 0.218708
0.720195 0.178485 0.211475
0.822492 0.189899 0.215427
0.039765 0.207706 0.237354
0.075227 0.217075 0.244465
0.154253 0.233936 0.257115
0.248478 0.243626 0.276829
0.396368 0.242023 0.276234
0.509102 0.254459 0.267262
0.633204 0.263645 0.2607
0.760479 0.270909 0.254582
0.864393 0.284657 0.260624
0.0379797 0.305226 0.271107
0.106203 0.318593 0.283467
0.181003 0.333669 0.297139
0.280171 0.343801 0.305287
0.413642 0.346563 0.299321
0.552026 0.353841 0.283131
0.698314 0.361486 0.270771
0.835233 0.368994 0.260914
0.940368 0.384085 0.264668
0.032166 0.41735 0.285679
0.0944076 0.42826 0.298543
0.16318 0.440894 0.316716
0.264256 0.451514 0.301885
0.451102 0.449378 0.307134
0.577981 0.46305 0.304677
0.73228 0.478553 0.296727
0.867185 0.491081 0.287007
0.965698 0.50927 0.288563
0.0175631 0.538338 0.315007
0.0382696 0.544656 0.314717
0.1196 0.554467 0.302831
0.229877 0.559472 0.276555
0.437034 0.552636 0.285023
0.603113 0.568002 0.295064
0.757397 0.587991 0.300969
0.892348 0.612146 0.304555
0.985672 0.633707 0.309819
0.0171359 0.674632 0.322911
0.0222477 0.677256 0.31014
0.043122 0.680797 0.289631
0.186816 0.686412 0.272358
0.384909 0.675654 0.270237
0.636164 0.671275 0.280491
0.790005 0.700511 0.293355
0.911177 0.721675 0.305669
0.997436 0.744518 0.31667
0.0501564 0.80766 0.369223
0.0565805 0.808133 0.357427
0.0667735 0.808362 0.338506
0.091249 0.80737 0.308598
0.324758 0.803861 0.302586
0.618936 0.783215 0.3037
0.849851 0.804379 0.307378
0.950072 0.826505 0.320241
1 0.84509 0.335485
0.0659342 0.929656 0.495247
0.0704814 0.929534 0.483299
0.078172 0.928893 0.463447
0.0926223 0.926558 0.429877
0.214603 0.921462 0.390341
0.527993 0.889998 0.374319
0.860258 0.886473 0.34905
0.996048 0.919615 0.347707
1 0.940459 0.367117
0.0265049 0.102296 0.214023
0.0263981 0.109148 0.224567
0.0960098 0.12015 0.25095
0.207355 0.121141 0.283803
0.376638 0.110353 0.297719
0.514549 0.106371 0.27805
0.617014 0.116289 0.257603
0.726909 0.124407 0.246799
0.825177 0.130724 0.248646
0.025452 0.156161 0.241321
0.0387427 0.163592 0.251301
0.119585 0.176242 0.274113
0.223743 0.181048 0.304311
0.396704 0.173785 0.324819
0.53257 0.173846 0.306661
0.636469 0.186801 0.291127
0.751919 0.195926 0.284184
0.851087 0.207675 0.290578
0.0274357 0.22739 0.283192
0.0825208 0.238621 0.291249
0.15053 0.25185 0.303899
0.245823 0.260838 0.325612
0.41297 0.25565 0.351995
0.543252 0.260349 0.336065
0.655818 0.274281 0.328023
0.776944 0.28423 0.325673
0.875929 0.298772 0.33521
0.066331 0.323323 0.330907
0.126864 0.335668 0.342184
0.193362 0.349004 0.354009
0.286687 0.358923 0.360449
0.420951 0.357824 0.375906
0.54139 0.366506 0.36669
0.673594 0.379004 0.364691
0.799634 0.391287 0.365209
0.897353 0.407736 0.37496
0.0768597 0.438209 0.35938
0.129931 0.449134 0.369162
0.196841 0.460838 0.379217
0.302602 0.469184 0.384543
0.432822 0.471611 0.390524
0.568887 0.47805 0.388388
0.724025 0.491173 0.37818
0.858763 0.507744 0.37435
0.954498 0.525124 0.379736
0.0438087 0.559777 0.373892
0.0984512 0.567361 0.383291
0.161425 0.57586 0.39765
0.257511 0.581247 0.40679
0.394629 0.581933 0.384207
0.600137 0.585184 0.393729
0.751888 0.606546 0.398672
0.887907 0.631708 0.404135
0.978897 0.651865 0.410254
0.0147555 0.688319 0.434577
0.0257725 0.694255 0.440467
0.0977188 0.704509 0.442741
0.186847 0.712047 0.425238
0.334417 0.699992 0.383185
0.588464 0.68751 0.38201
0.778378 0.714199 0.396551
0.899382 0.737835 0.411154
0.987076 0.76286 0.423941
0.0123598 0.823178 0.526482
0.0124514 0.825238 0.521401
0.013077 0.828321 0.510918
0.114824 0.83772 0.491554
0.279789 0.831495 0.446662
0.546731 0.795926 0.414542
0.828855 0.808057 0.414832
0.931472 0.836194 0.431357
1 0.856626 0.449546
0.0372473 0.940291 0.648829
0.0382391 0.94168 0.64332
0.0399176 0.943694 0.633677
0.0433356 0.946349 0.615228
0.188617 0.954772 0.584482
0.457084 0.917922 0.512016
0.766842 0.886183 0.482582
0.968902 0.921675 0.471611
1 0.947616 0.493339
0.0259861 0.136568 0.281361
0.0293584 0.142733 0.295384
0.101808 0.150881 0.318685
0.205066 0.151339 0.348394
0.377783 0.14345 0.382605
0.542931 0.132708 0.380957
0.680781 0.127749 0.362356
0.794308 0.132525 0.344579
0.885649 0.138491 0.345373
0.0251316 0.180285 0.302495
0.0479438 0.188067 0.316228
0.11725 0.197116 0.336324
0.217365 0.200397 0.363836
0.388113 0.195605 0.402121
0.559167 0.188022 0.405341
0.698131 0.186648 0.389029
0.810758 0.196201 0.375753
0.902617 0.208347 0.381216
0.0265812 0.246723 0.337301
0.0775921 0.255039 0.346059
0.139239 0.264378 0.359625
0.235462 0.270253 0.381994
0.393729 0.269322 0.421576
0.57142 0.265492 0.431174
0.709072 0.269459 0.417319
0.821225 0.28333 0.410986
0.914977 0.298833 0.421378
0.0742962 0.339437 0.391165
0.121279 0.348989 0.398306
0.179339 0.358801 0.405035
0.268391 0.36527 0.411597
0.394263 0.369589 0.438315
0.572366 0.367605 0.457023
0.704417 0.379034 0.446601
0.821698 0.396628 0.450278
0.913542 0.415335 0.463386
0.102739 0.456489 0.441733
0.147799 0.465614 0.45034
0.213169 0.475517 0.459693
0.314977 0.484169 0.468101
0.426352 0.491264 0.474357
0.561364 0.490013 0.484276
0.700648 0.502647 0.483299
0.826978 0.52253 0.493431
0.918395 0.542458 0.507668
0.0952773 0.580728 0.471717
0.139223 0.58761 0.478416
0.20763 0.594675 0.485344
0.309895 0.600793 0.490639
0.434714 0.606424 0.494423
0.583276 0.608011 0.509667
0.741283 0.621439 0.5084
0.872374 0.642542 0.513313
0.963043 0.664729 0.524483
0.0512703 0.713115 0.512123
0.0985122 0.719753 0.520623
0.159564 0.725948 0.531029
0.253437 0.72578 0.540261
0.376196 0.7252 0.546914
0.546731 0.721798 0.521035
0.768963 0.73312 0.52459
0.885634 0.756603 0.538552
0.977661 0.783764 0.554925
0.0123445 0.829282 0.624338
0.0178225 0.831098 0.629114
0.0975814 0.841428 0.64097
0.189288 0.85037 0.646281
0.325933 0.847181 0.624567
0.508888 0.827512 0.56878
0.779324 0.82089 0.553506
0.910933 0.848615 0.567483
0.996109 0.870634 0.587106
0.0339361 0.943648 0.737514
0.034226 0.944732 0.736828
0.0347143 0.946395 0.73492
0.108263 0.955459 0.736263
0.261662 0.963653 0.729473
0.451164 0.946761 0.68275
0.701701 0.913069 0.632136
0.93518 0.924117 0.614191
1 0.956939 0.631159
0.0256962 0.16228 0.3626
0.0341497 0.166339 0.377142
0.0967727 0.170092 0.39588
0.196567 0.16701 0.421805
0.358206 0.158267 0.461494
0.544854 0.149187 0.48687
0.712779 0.132418 0.48069
0.864164 0.116564 0.465919
0.968872 0.106813 0.464195
0.0249485 0.200015 0.379965
0.0448463 0.204181 0.392432
0.106065 0.208408 0.409155
0.203876 0.206897 0.433173
0.361639 0.200855 0.473976
0.553765 0.197665 0.507286
0.728466 0.185473 0.505562
0.881544 0.175662 0.495216
0.986252 0.176196 0.49865
0.0239567 0.259373 0.405203
0.0612039 0.263645 0.413794
0.118242 0.267842 0.426642
0.213001 0.268086 0.447089
0.354818 0.265766 0.484154
0.555367 0.269093 0.528908
0.740978 0.262776 0.533318
0.893782 0.259937 0.528359
0.996551 0.26862 0.536797
0.0542611 0.348791 0.451835
0.0912184 0.353079 0.455634
0.143221 0.356191 0.460166
0.233127 0.356542 0.470603
0.354818 0.359823 0.498238
0.541665 0.366812 0.548089
0.743862 0.36907 0.562585
0.890043 0.375586 0.561807
0.981964 0.392737 0.57261
0.0977035 0.465888 0.52221
0.13576 0.471214 0.526589
0.193698 0.475303 0.528679
0.27921 0.476295 0.525704
0.382101 0.477668 0.529686
0.529015 0.484337 0.565515
0.741756 0.490105 0.591943
0.87303 0.505348 0.595544
0.955245 0.52842 0.609873
0.119234 0.593637 0.580438
0.161013 0.599054 0.585931
0.226566 0.602899 0.590112
0.323369 0.607599 0.595041
0.438743 0.614832 0.601938
0.571069 0.621851 0.605875
0.733989 0.624903 0.623178
0.846387 0.6448 0.63328
0.930175 0.668864 0.650889
0.115846 0.730251 0.628595
0.157382 0.734783 0.633448
0.224033 0.737087 0.636484
0.324239 0.736919 0.637522
0.458518 0.74078 0.642451
0.612268 0.747478 0.648524
0.758572 0.750988 0.661921
0.867979 0.766827 0.668299
0.95584 0.787793 0.679057
0.0919356 0.850217 0.693431
0.138766 0.855406 0.699779
0.206531 0.858518 0.704952
0.316426 0.854963 0.705272
0.449516 0.848096 0.704448
0.599603 0.849851 0.7093
0.754177 0.852369 0.702083
0.89807 0.865492 0.701366
0.981292 0.886091 0.71548
0.0366674 0.951965 0.782635
0.074876 0.955993 0.787045
0.163485 0.964355 0.795743
0.268223 0.966644 0.797864
0.402106 0.960067 0.788922
0.549157 0.950652 0.771206
0.714214 0.946471 0.749355
0.889342 0.947387 0.749264
1 0.972992 0.750515
0.0259861 0.164675 0.473732
0.0285801 0.167193 0.487633
0.0808118 0.167773 0.504646
0.18085 0.159533 0.52694
0.328389 0.14519 0.559304
0.516762 0.131518 0.592859
0.711528 0.113695 0.599191
0.885756 0.0864881 0.583078
1 0.0573129 0.573877
0.0252689 0.200809 0.489311
0.032639 0.20383 0.501823
0.0882582 0.204959 0.517067
0.186526 0.198077 0.537438
0.329122 0.187015 0.568627
0.521462 0.179416 0.608011
0.727321 0.170809 0.62237
0.904265 0.155001 0.612497
1 0.143725 0.610941
0.024094 0.258579 0.508736
0.0383307 0.261906 0.518563
0.0958267 0.263111 0.53048
0.190921 0.257252 0.546212
0.321599 0.249165 0.572808
0.512612 0.248936 0.617258
0.73695 0.25391 0.645823
0.916701 0.248768 0.64361
1 0.24918 0.648951
0.0222934 0.347875 0.538308
0.0535897 0.35082 0.54342
0.106905 0.350958 0.548959
0.196109 0.342657 0.554803
0.311757 0.33669 0.571878
0.484352 0.340978 0.614389
0.732143 0.363272 0.664988
0.911894 0.368551 0.669947
1 0.376654 0.677394
0.0587015 0.463203 0.593271
0.0937514 0.465843 0.593835
0.14641 0.463249 0.589441
0.220935 0.451652 0.579736
0.325933 0.446052 0.584955
0.481407 0.454032 0.619013
0.726329 0.48426 0.682979
0.898482 0.500175 0.693675
1 0.515892 0.70248
0.113817 0.600565 0.666056
0.151919 0.604501 0.668299
0.211749 0.605356 0.666392
0.294087 0.601358 0.657359
0.397436 0.597025 0.645136
0.532219 0.60174 0.652033
0.722194 0.624155 0.701839
0.877928 0.642725 0.716884
0.965682 0.662211 0.726268
0.152331 0.74406 0.717983
0.194827 0.746532 0.720058
0.262959 0.746853 0.72015
0.363851 0.745174 0.718379
0.491646 0.74815 0.72076
0.631922 0.756863 0.727382
0.756161 0.766506 0.734188
0.85803 0.776989 0.745357
0.936019 0.795239 0.758144
0.224247 0.864912 0.766583
0.274907 0.863752 0.765942
0.347494 0.860899 0.763851
0.448554 0.856336 0.760281
0.57409 0.858106 0.762539
0.703304 0.865568 0.769177
0.814237 0.871366 0.773831
0.895827 0.879591 0.788006
0.973922 0.895338 0.798688
0.253101 0.979156 0.829694
0.302342 0.977066 0.82858
0.372305 0.972976 0.826093
0.466896 0.966049 0.821576
0.578622 0.959731 0.818006
0.695338 0.962173 0.822049
0.797726 0.967575 0.826627
0.900465 0.972976 0.832685
1 0.985992 0.835325
0.0276951 0.0981155 0.573571
0.0276493 0.102541 0.585962
0.0520333 0.106737 0.600748
0.163348 0.10248 0.619089
0.312001 0.0929885 0.642527
0.499428 0.0834211 0.668208
0.709758 0.0755627 0.678065
0.891081 0.0686198 0.668742
1 0.0641642 0.665446
0.0264744 0.1579 0.589014
0.0264134 0.162905 0.600656
0.066041 0.16701 0.614282
0.175753 0.163088 0.631601
0.320226 0.155627 0.65539
0.508476 0.150332 0.686137
0.728939 0.150759 0.70489
0.911711 0.154025 0.702327
1 0.160754 0.704601
0.0248875 0.235554 0.605966
0.0247959 0.240986 0.615747
0.0806287 0.244892 0.626764
0.184421 0.242023 0.640543
0.320256 0.236759 0.661479
0.505165 0.235767 0.695644
0.738354 0.246479 0.727779
0.921157 0.257801 0.732189
1 0.26952 0.737697
0.0227512 0.338369 0.620295
0.032578 0.342718 0.626719
0.092607 0.344274 0.633433
0.186801 0.339406 0.640742
0.307942 0.332616 0.653834
0.483146 0.331365 0.686549
0.728038 0.355047 0.738125
0.911864 0.378439 0.754223
1 0.397848 0.76257
0.0294499 0.46273 0.655314
0.0653849 0.465309 0.656352
0.119493 0.463371 0.654108
0.202411 0.453712 0.649058
0.309743 0.440787 0.648737
0.466514 0.439261 0.672328
0.701106 0.472786 0.737819
0.890349 0.512413 0.773663
0.996323 0.537942 0.783978
0.0950637 0.610483 0.728405
0.131441 0.613382 0.728191
0.18851 0.611795 0.721706
0.268681 0.601404 0.704768
0.366003 0.579873 0.681041
0.506218 0.580575 0.693156
0.686946 0.607355 0.743206
0.865919 0.650446 0.791653
0.968521 0.677852 0.801175
0.169726 0.756283 0.791882
0.216861 0.756527 0.791089
0.287892 0.754238 0.787243
0.384878 0.747463 0.777691
0.498131 0.741054 0.765469
0.616205 0.742031 0.757855
0.739055 0.757183 0.77702
0.857023 0.779492 0.811414
0.956695 0.80145 0.822141
0.333394 0.870817 0.831846
0.377584 0.868742 0.829801
0.440055 0.865415 0.826535
0.528908 0.862654 0.823667
0.635752 0.866804 0.826902
0.739971 0.875273 0.833417
0.82565 0.884916 0.839887
0.895674 0.896284 0.847181
0.96791 0.910369 0.856229
0.593713 0.96997 0.856306
0.623957 0.96994 0.856306
0.665232 0.970947 0.85716
0.718349 0.973526 0.859358
0.780194 0.977371 0.862394
0.844511 0.981598 0.865156
0.905394 0.985412 0.867689
0.962997 0.989441 0.877409
1 0.99675 0.888487
