luts/atlas_hues.cube
TITLE "Generated by Resolve"
LUT_3D_SIZE 5
0.0275273 0.0270237 0.0251469
0.0732891 0.0265812 0.0246891
0.288975 0.0347448 0.0228122
0.561303 0.0403754 0.0194553
0.813092 0.0466621 0.0167697
0.057084 0.178836 0.0975204
0.159548 0.196155 0.0806897
0.391714 0.22005 0.0818799
0.661463 0.227924 0.0470893
0.907561 0.245823 0.0233158
0.0723888 0.38703 0.118807
0.166842 0.392844 0.0903487
0.460212 0.416266 0.1187
0.738735 0.44213 0.114153
0.978866 0.474403 0.103822
0.120562 0.636332 0.0951705
0.138872 0.632197 0.0542458
0.491539 0.638498 0.0853437
0.810666 0.671443 0.0931411
1 0.71043 0.113329
0.209323 0.874052 0.186542
0.225528 0.870298 0.154131
0.363272 0.868772 0.126207
0.927016 0.881086 0.155261
1 0.921736 0.173541
0.0275425 0.0358892 0.0939956
0.0731518 0.0466316 0.130953
0.317006 0.0505226 0.134951
0.536904 0.0687724 0.11107
0.765209 0.081117 0.10074
0.045655 0.192996 0.190723
0.15285 0.216922 0.212985
0.374578 0.235279 0.212589
0.652003 0.24445 0.18497
0.898741 0.261463 0.176806
0.0279545 0.402106 0.246281
0.136538 0.423041 0.228122
0.45417 0.434531 0.23682
0.734768 0.464378 0.228702
0.971008 0.494591 0.218311
0.0630045 0.656825 0.213077
0.0843977 0.659678 0.175875
0.436255 0.657404 0.197925
0.798657 0.68864 0.211734
1 0.729717 0.229129
0.13109 0.903517 0.33872
0.14902 0.90045 0.307836
0.274586 0.892927 0.258991
0.90573 0.884962 0.23917
1 0.930983 0.258793
0.0265049 0.102296 0.214023
0.0960098 0.12015 0.25095
0.376638 0.110353 0.297719
0.617014 0.116289 0.257603
0.825177 0.130724 0.248646
0.0274357 0.22739 0.283192
0.15053 0.25185 0.303899
0.41297 0.25565 0.351995
0.655818 0.274281 0.328023
0.875929 0.298772 0.33521
0.0768597 0.438209 0.35938
0.196841 0.460838 0.379217
0.432822 0.471611 0.390524
0.724025 0.491173 0.37818
0.954498 0.525124 0.379736
0.0147555 0.688319 0.434577
0.0977188 0.704509 0.442741
0.334417 0.699992 0.383185
0.778378 0.714199 0.396551
0.987076 0.76286 0.423941
0.0372473 0.940291 0.648829
0.0399176 0.943694 0.633677
0.188617 0.954772 0.584482
0.766842 0.886183 0.482582
1 0.947616 0.493339
0.0256962 0.16228 0.3626
0.0967727 0.170092 0.39588
0.358206 0.158267 0.461494
0.712779 0.132418 0.48069
0.968872 0.106813 0.464195
0.0239567 0.259373 0.405203
0.118242 0.267842 0.426642
0.354818 0.265766 0.484154
0.740978 0.262776 0.533318
0.996551 0.26862 0.536797
0.0977035 0.465888 0.52221
0.193698 0.475303 0.528679
0.382101 0.477668 0.529686
0.741756 0.490105 0.591943
0.955245 0.52842 0.609873
0.115846 0.730251 0.628595
0.224033 0.737087 0.636484
0.458518 0.74078 0.642451
0.758572 0.750988 0.661921
0.95584 0.787793 0.679057
0.0366674 0.951965 0.782635
0.163485 0.964355 0.795743
0.402106 0.960067 0.788922
0.714214 0.946471 0.749355
1 0.972992 0.750515
0.0276951 0.0981155 0.573571
0.0520333 0.106737 0.600748
0.312001 0.0929885 0.642527
0.709758 0.0755627 0.678065
1 0.0641642 0.665446
0.0248875 0.235554 0.605966
0.0806287 0.244892 0.626764
0.320256 0.236759 0.661479
0.738354 0.246479 0.727779
1 0.26952 0.737697
0.0294499 0.46273 0.655314
0.119493 0.463371 0.654108
0.309743 0.440787 0.648737
0.701106 0.472786 0.737819
0.996323 0.537942 0.783978
0.169726 0.756283 0.791882
0.287892 0.754238 0.787243
0.498131 0.741054 0.765469
0.739055 0.757183 0.77702
0.956695 0.80145 0.822141
0.593713 0.96997 0.856306
0.665232 0.970947 0.85716
0.780194 0.977371 0.862394
0.905394 0.985412 0.867689
1 0.99675 0.888487
