luts/blue_noir.cube
TITLE "Generated by Resolve"
LUT_3D_SIZE 9
0.0269932 0.0269932 0.0269932
0.0269932 0.0269932 0.0269932
0.0726177 0.0269932 0.0269932
0.145953 0.0306859 0.0269932
0.243793 0.0331426 0.0269932
0.352728 0.0328222 0.0269932
0.471015 0.0323339 0.0269932
0.599191 0.0311437 0.0269932
0.735668 0.0400854 0.0269932
0.0349126 0.0628367 0.0284733
0.0364996 0.067277 0.0306249
0.0936751 0.0813916 0.0404669
0.174243 0.0944076 0.0417334
0.274189 0.100816 0.0354162
0.385718 0.105272 0.0292821
0.509041 0.10576 0.0269932
0.642756 0.103624 0.0269932
0.774594 0.098558 0.0269932
0.0637369 0.147036 0.0683299
0.0657054 0.152239 0.0695659
0.1337 0.165499 0.0820325
0.212177 0.181201 0.0915694
0.313466 0.189822 0.0876936
0.428565 0.195804 0.0770886
0.552682 0.199145 0.0590829
0.685924 0.201144 0.0360723
0.819684 0.205325 0.0328985
0.078996 0.236164 0.0979019
0.0871595 0.240879 0.0993515
0.162097 0.254368 0.115251
0.248569 0.268299 0.122194
0.340139 0.280903 0.127047
0.45893 0.291691 0.125292
0.591012 0.298436 0.114427
0.73341 0.301076 0.0971389
0.865492 0.310964 0.0880598
0.0799878 0.329671 0.119539
0.107668 0.335561 0.125368
0.177523 0.348348 0.141283
0.255467 0.361761 0.148592
0.371435 0.372564 0.153536
0.477272 0.387976 0.158419
0.618189 0.403082 0.158831
0.771115 0.413504 0.14667
0.902693 0.428824 0.142519
0.0840772 0.437827 0.127123
0.112734 0.442954 0.132586
0.179782 0.45359 0.147417
0.2542 0.465934 0.157015
0.366781 0.474739 0.160998
0.502892 0.490578 0.166415
0.636378 0.510323 0.172549
0.802869 0.530648 0.174044
0.931716 0.554528 0.177096
0.101366 0.562676 0.133715
0.108324 0.56582 0.133379
0.181216 0.575433 0.14963
0.260395 0.587518 0.163317
0.369696 0.594797 0.168673
0.523827 0.603525 0.165484
0.676234 0.629587 0.168597
0.836744 0.650629 0.175479
0.954528 0.677028 0.18584
0.140566 0.70312 0.151797
0.142351 0.705028 0.150668
0.168734 0.709621 0.154849
0.275715 0.721935 0.179934
0.393088 0.727855 0.191653
0.554604 0.73196 0.183474
0.757198 0.74786 0.172534
0.892088 0.777554 0.169833
0.993164 0.799344 0.184649
0.197528 0.836439 0.214817
0.198611 0.837461 0.214191
0.20972 0.83946 0.21529
0.336233 0.849195 0.24683
0.477485 0.848157 0.264652
0.650706 0.847913 0.258366
0.849638 0.8598 0.232776
0.963424 0.888792 0.205722
1 0.911208 0.208057
0.0269932 0.0269932 0.0520333
0.0269932 0.0269932 0.0559701
0.0716716 0.0269932 0.0789502
0.155261 0.0283818 0.0841993
0.231968 0.038056 0.0771954
0.327947 0.0419928 0.0697032
0.436469 0.0438697 0.0594797
0.557702 0.0458686 0.0479744
0.689586 0.0564889 0.0439918
0.0269932 0.0681468 0.0864271
0.0271916 0.0719768 0.0918746
0.0814374 0.0838483 0.108812
0.170153 0.0928511 0.11841
0.25594 0.102754 0.115221
0.360739 0.108873 0.108782
0.479255 0.11162 0.0975509
0.607141 0.110643 0.0827955
0.731029 0.107942 0.0724956
0.0434882 0.153597 0.140795
0.0492714 0.158648 0.146365
0.116472 0.172259 0.159747
0.200275 0.185275 0.167269
0.302922 0.19205 0.158465
0.420356 0.197482 0.146426
0.549645 0.200565 0.132723
0.687495 0.200748 0.116411
0.816876 0.205432 0.112825
0.0516976 0.246067 0.171801
0.0692454 0.252018 0.175219
0.147036 0.264836 0.18529
0.230198 0.277394 0.197818
0.330694 0.286458 0.201465
0.450355 0.295354 0.194049
0.583947 0.302251 0.180056
0.725231 0.306584 0.157031
0.857496 0.316411 0.149386
0.0565805 0.340795 0.177661
0.095964 0.347646 0.183093
0.168612 0.359197 0.197559
0.244999 0.372183 0.211444
0.360632 0.380819 0.218616
0.471 0.394705 0.221668
0.613687 0.410544 0.218936
0.767697 0.419898 0.204257
0.898253 0.434821 0.199374
0.0647746 0.447791 0.172564
0.1037 0.453162 0.179034
0.172503 0.462928 0.19411
0.246891 0.474434 0.20798
0.355123 0.482643 0.216266
0.497169 0.496025 0.221744
0.631266 0.516762 0.227832
0.800259 0.539147 0.230015
0.928985 0.562448 0.233097
0.0840772 0.571801 0.173388
0.099855 0.575372 0.175891
0.17435 0.583856 0.192004
0.252079 0.5944 0.207492
0.358831 0.60029 0.216709
0.505974 0.608408 0.217243
0.67071 0.634394 0.223499
0.831342 0.657923 0.233249
0.949279 0.685496 0.245563
0.123568 0.712322 0.192355
0.124926 0.714214 0.192065
0.164111 0.71931 0.200366
0.268772 0.730083 0.225299
0.385229 0.734157 0.241642
0.54107 0.736553 0.242634
0.747921 0.751919 0.236484
0.883803 0.783978 0.237903
0.989471 0.806577 0.255192
0.176684 0.84625 0.261967
0.177493 0.847288 0.26186
0.204944 0.849912 0.267185
0.32961 0.857298 0.295598
0.472633 0.853544 0.315816
0.641398 0.851148 0.316884
0.837263 0.863554 0.29987
0.95375 0.89369 0.280873
1 0.917723 0.284977
0.0269932 0.0269932 0.10808
0.0269932 0.0269932 0.114183
0.053254 0.0269932 0.137881
0.15613 0.0269932 0.165835
0.270909 0.0269932 0.159548
0.35903 0.033753 0.141207
0.454017 0.0408637 0.127459
0.56759 0.0458686 0.115892
0.691661 0.059556 0.113848
0.0269932 0.0764477 0.140124
0.0272068 0.080354 0.145663
0.0729839 0.0911574 0.167208
0.170138 0.0941634 0.198276
0.288777 0.0920272 0.192691
0.375784 0.103471 0.176898
0.478996 0.111299 0.166888
0.59646 0.113771 0.154772
0.715618 0.113558 0.146426
0.038056 0.157992 0.196033
0.0463417 0.163104 0.201373
0.112673 0.177417 0.213458
0.187152 0.189044 0.235218
0.308186 0.18883 0.237888
0.402899 0.200443 0.229191
0.517906 0.208591 0.222324
0.646403 0.212345 0.211154
0.771939 0.218555 0.207538
0.0469062 0.249577 0.241291
0.0736553 0.25687 0.248371
0.142885 0.271565 0.263066
0.214862 0.284947 0.275639
0.319921 0.290867 0.274723
0.440406 0.297383 0.260227
0.579126 0.304021 0.248859
0.726131 0.308217 0.235065
0.855436 0.318578 0.235447
0.0388647 0.35082 0.256611
0.0887007 0.360952 0.264027
0.153338 0.374044 0.273182
0.232456 0.385351 0.280751
0.344594 0.392157 0.291752
0.463172 0.402884 0.293019
0.606592 0.417044 0.286015
0.76318 0.427054 0.270604
0.891569 0.442512 0.265583
0.0416114 0.463188 0.245533
0.0916609 0.469657 0.25034
0.157671 0.478813 0.259419
0.237842 0.488197 0.272526
0.345159 0.495506 0.286641
0.487816 0.505318 0.29247
0.625589 0.525856 0.298512
0.797818 0.550271 0.300755
0.925429 0.572168 0.303426
0.0562295 0.587259 0.238392
0.084596 0.591287 0.242191
0.158526 0.598321 0.254108
0.23978 0.605615 0.268513
0.347204 0.608331 0.28191
0.485252 0.614755 0.286717
0.663447 0.64007 0.293843
0.824674 0.667552 0.307012
0.943053 0.696803 0.320928
0.0939651 0.728069 0.259678
0.0949569 0.730007 0.260044
0.151537 0.735134 0.270893
0.254994 0.743084 0.292592
0.374853 0.743008 0.31046
0.527062 0.741909 0.318868
0.732906 0.756741 0.3131
0.874098 0.791562 0.3178
0.980316 0.815244 0.336416
0.143572 0.862379 0.334508
0.144045 0.863462 0.334997
0.196887 0.866316 0.344152
0.318837 0.870069 0.366339
0.46598 0.861372 0.386496
0.63006 0.854795 0.39707
0.81799 0.867155 0.385534
0.941665 0.898482 0.370535
1 0.92517 0.376059
0.0269932 0.0334173 0.170901
0.0269932 0.0352178 0.176745
0.0476844 0.0402533 0.200412
0.141695 0.0397345 0.231983
0.273167 0.0327611 0.24448
0.397971 0.0298466 0.228794
0.497063 0.0304875 0.204288
0.596902 0.0382086 0.185763
0.714733 0.0554971 0.183764
0.0269932 0.0894026 0.198779
0.0269932 0.0940719 0.204898
0.0680247 0.104158 0.227024
0.152346 0.109804 0.256977
0.288243 0.102434 0.278401
0.415763 0.0976425 0.263676
0.51284 0.106874 0.24213
0.619776 0.11342 0.226749
0.735744 0.113161 0.218219
0.0274662 0.16643 0.243229
0.036286 0.171298 0.248569
0.101289 0.183825 0.264897
0.175067 0.194781 0.288838
0.305943 0.192004 0.319295
0.43769 0.190738 0.307774
0.537789 0.204181 0.292515
0.657481 0.212116 0.283223
0.777111 0.220218 0.282567
0.0411841 0.254414 0.297978
0.0757153 0.262516 0.305623
0.139727 0.276692 0.317922
0.208103 0.289876 0.328573
0.307286 0.295308 0.347219
0.440345 0.296651 0.344762
0.555856 0.310018 0.3393
0.691539 0.320165 0.334844
0.814008 0.332677 0.3393
0.0433356 0.359457 0.333806
0.0925002 0.370398 0.344198
0.151675 0.384649 0.357458
0.224369 0.398474 0.369848
0.325933 0.407263 0.376226
0.45037 0.411337 0.378439
0.593622 0.421759 0.36434
0.756649 0.434333 0.353628
0.886305 0.449866 0.355734
0.0361334 0.479866 0.344656
0.0836194 0.48864 0.351217
0.142321 0.499931 0.359457
0.220752 0.509789 0.365515
0.336172 0.514076 0.372183
0.468635 0.521233 0.386633
0.618021 0.53753 0.391165
0.793454 0.562264 0.392126
0.918441 0.583124 0.394736
0.0269932 0.608545 0.341253
0.0669108 0.614252 0.345235
0.136004 0.621775 0.351247
0.216358 0.62681 0.356588
0.335454 0.625193 0.366094
0.471565 0.63003 0.384298
0.655634 0.649393 0.389197
0.815824 0.680323 0.403937
0.935943 0.712215 0.419593
0.0531777 0.751476 0.362951
0.0537728 0.75346 0.364065
0.13193 0.759197 0.372396
0.230304 0.764279 0.384039
0.359777 0.757229 0.394675
0.512901 0.749233 0.411612
0.70428 0.761074 0.410864
0.859678 0.799603 0.419623
0.966537 0.825315 0.44094
0.0950484 0.88751 0.453422
0.0951858 0.88864 0.454597
0.179644 0.892012 0.461402
0.298451 0.891127 0.470161
0.453971 0.873899 0.478691
0.614893 0.860243 0.496544
0.784497 0.868574 0.497169
0.923369 0.901045 0.486152
1 0.932509 0.489937
0.0269932 0.0520943 0.238071
0.0269932 0.0548714 0.244907
0.0449531 0.0601358 0.267765
0.128695 0.0611124 0.296956
0.259892 0.0507515 0.324834
0.405447 0.0392004 0.325902
0.538537 0.0332341 0.305745
0.653849 0.0315862 0.277623
0.762173 0.042771 0.267811
0.0269932 0.105653 0.262043
0.0269932 0.109392 0.268956
0.0622873 0.117647 0.290867
0.139178 0.123232 0.317494
0.26717 0.117708 0.351156
0.42121 0.108339 0.360143
0.557351 0.100496 0.341512
0.671672 0.102388 0.315373
0.778653 0.101076 0.301335
0.0269932 0.173632 0.296727
0.027985 0.178302 0.303777
0.0869612 0.18822 0.321996
0.159258 0.197223 0.345495
0.27631 0.197116 0.379263
0.441321 0.192996 0.40061
0.583627 0.189776 0.385321
0.699199 0.199573 0.366049
0.81062 0.209644 0.363867
0.0271458 0.258824 0.348394
0.0609598 0.266758 0.354208
0.11725 0.278416 0.363973
0.184054 0.289067 0.377264
0.284596 0.295796 0.401801
0.447395 0.29482 0.435492
0.592996 0.296849 0.424323
0.716442 0.313344 0.415671
0.833158 0.32874 0.422492
0.0435492 0.367926 0.404959
0.0914321 0.378256 0.414908
0.148074 0.391531 0.427588
0.219898 0.404685 0.43949
0.316762 0.414542 0.44683
0.433082 0.419211 0.463416
0.579812 0.424933 0.461601
0.728145 0.443305 0.464302
0.848539 0.462928 0.475898
0.0358129 0.491768 0.439918
0.0827497 0.500969 0.448829
0.138827 0.513039 0.460487
0.21561 0.525246 0.471839
0.323583 0.535073 0.479866
0.453635 0.541527 0.485542
0.606287 0.548058 0.494804
0.779889 0.567529 0.489616
0.904707 0.592325 0.498985
0.0269932 0.627131 0.460121
0.0577554 0.635401 0.467292
0.121706 0.645869 0.476127
0.200305 0.653559 0.481209
0.31809 0.654627 0.47924
0.466392 0.655833 0.490501
0.642283 0.666896 0.507073
0.806439 0.696513 0.520638
0.929702 0.730465 0.539574
0.0269932 0.774853 0.506111
0.0343023 0.777539 0.509194
0.112917 0.787213 0.517769
0.202716 0.793683 0.522957
0.335409 0.783642 0.513878
0.503182 0.769726 0.520684
0.681132 0.776211 0.545312
0.842481 0.808988 0.545708
0.949355 0.836881 0.570199
0.0564736 0.910185 0.610956
0.0775311 0.912856 0.613764
0.172198 0.920256 0.619532
0.285008 0.918517 0.615839
0.43798 0.897322 0.598932
0.604501 0.876234 0.605219
0.762356 0.88072 0.631769
0.899718 0.903151 0.626108
0.992081 0.939025 0.625757
0.0269932 0.0717327 0.312139
0.0269932 0.0741283 0.320195
0.0396124 0.0778821 0.341741
0.114656 0.0780804 0.367605
0.236149 0.0671397 0.399451
0.394659 0.0512398 0.421485
0.550134 0.0321508 0.414206
0.702251 0.0277256 0.389548
0.834989 0.0269932 0.37937
0.0269932 0.120043 0.332647
0.0269932 0.122789 0.341146
0.0516976 0.128008 0.361196
0.123598 0.130617 0.385245
0.239384 0.124529 0.417655
0.404425 0.115221 0.449332
0.56817 0.100298 0.447883
0.723232 0.0805371 0.425238
0.849424 0.0628672 0.405478
0.0269932 0.179385 0.361166
0.0269932 0.182956 0.369802
0.0679637 0.189487 0.386923
0.137682 0.194873 0.40827
0.246677 0.193393 0.438773
0.415808 0.191272 0.481056
0.593362 0.184497 0.490303
0.755383 0.17435 0.474388
0.879911 0.175036 0.466056
0.0269932 0.261295 0.40267
0.034699 0.266377 0.408194
0.0860304 0.273823 0.418524
0.15198 0.280735 0.433677
0.253559 0.285023 0.458732
0.407324 0.287251 0.503746
0.604898 0.289372 0.530617
0.775662 0.287846 0.521187
0.895903 0.302159 0.523735
0.0314794 0.373449 0.471885
0.0704204 0.381094 0.477806
0.12079 0.390982 0.485496
0.184771 0.39942 0.490837
0.274739 0.403433 0.494911
0.397482 0.410147 0.523247
0.600183 0.415351 0.568215
0.772961 0.422965 0.562966
0.885817 0.446448 0.575143
0.03299 0.499138 0.53402
0.0785992 0.507622 0.542931
0.134264 0.518273 0.554131
0.209766 0.528634 0.56527
0.316625 0.537331 0.574365
0.43769 0.546563 0.581643
0.59585 0.551186 0.604517
0.76051 0.565805 0.608652
0.875532 0.594598 0.630198
0.0269932 0.638148 0.580941
0.0533455 0.64741 0.590738
0.117403 0.658976 0.603006
0.198886 0.66894 0.613855
0.312627 0.674693 0.620493
0.457069 0.684459 0.630564
0.631373 0.691173 0.642008
0.791669 0.706477 0.653468
0.908827 0.733211 0.668101
0.0269932 0.787518 0.644556
0.0393072 0.792676 0.650568
0.117082 0.803769 0.662669
0.20737 0.811872 0.671565
0.338857 0.808988 0.667704
0.499809 0.80473 0.660471
0.684047 0.805951 0.678721
0.832502 0.824277 0.690578
0.934905 0.851652 0.709255
0.0652018 0.923217 0.741619
0.133303 0.930663 0.749081
0.206043 0.937011 0.755261
0.317311 0.9346 0.75082
0.453285 0.922072 0.733989
0.611658 0.907347 0.719783
0.768704 0.909773 0.746105
0.883879 0.923781 0.763302
0.980072 0.95317 0.759915
0.0269932 0.078294 0.403098
0.0269932 0.0793469 0.412741
0.0307774 0.0804761 0.432715
0.09691 0.0773022 0.456352
0.209247 0.0625467 0.485649
0.365667 0.0395666 0.516487
0.539101 0.0273289 0.52517
0.71931 0.0269932 0.516487
0.886336 0.0269932 0.515877
0.0269932 0.122576 0.422187
0.0269932 0.124193 0.432181
0.035996 0.126696 0.45066
0.102998 0.125704 0.472526
0.211307 0.11519 0.50135
0.368658 0.0988022 0.537911
0.552529 0.0759442 0.556115
0.734874 0.0397955 0.539986
0.892561 0.0269932 0.522759
0.0269932 0.179339 0.448951
0.0269932 0.181765 0.459113
0.0451209 0.185412 0.475349
0.112535 0.186313 0.494789
0.216754 0.179309 0.52105
0.372793 0.170962 0.562432
0.573846 0.164355 0.59794
0.769909 0.145083 0.593423
0.925948 0.122362 0.583001
0.0269932 0.258701 0.482506
0.0269932 0.261906 0.490013
0.0525978 0.266377 0.501686
0.116274 0.268223 0.515816
0.213169 0.264302 0.53489
0.35465 0.261967 0.572808
0.574609 0.271153 0.630304
0.794553 0.269047 0.642069
0.95317 0.265476 0.645823
0.0269932 0.369268 0.540795
0.0290074 0.374075 0.544152
0.0699016 0.37937 0.548882
0.128634 0.379965 0.551659
0.218082 0.374151 0.556222
0.344884 0.375769 0.582788
0.554482 0.389792 0.64683
0.798108 0.404654 0.678584
0.947906 0.41323 0.687633
0.0269932 0.497795 0.620645
0.0502022 0.505364 0.626642
0.106355 0.514687 0.633738
0.174121 0.520684 0.636042
0.26479 0.517128 0.625742
0.377142 0.515572 0.622904
0.552804 0.530266 0.666758
0.794766 0.552651 0.713008
0.923339 0.57322 0.725292
0.0269932 0.647318 0.684169
0.0416266 0.655055 0.691691
0.112123 0.667384 0.7037
0.195621 0.677531 0.713558
0.311559 0.680476 0.716136
0.459815 0.687556 0.722286
0.622293 0.699748 0.730236
0.7888 0.710811 0.749935
0.888121 0.736553 0.765072
0.0269932 0.797909 0.743999
0.0576486 0.804959 0.751431
0.134356 0.815717 0.762798
0.233356 0.822156 0.769818
0.370871 0.819638 0.768063
0.52958 0.822354 0.770764
0.694438 0.83212 0.778134
0.828717 0.840009 0.796796
0.927733 0.86305 0.808637
0.162982 0.944488 0.828122
0.209995 0.948287 0.832166
0.283742 0.948394 0.832319
0.391241 0.943481 0.826963
0.514916 0.935332 0.816999
0.653788 0.934127 0.812024
0.784573 0.936294 0.819623
0.891203 0.94725 0.848188
0.979355 0.969635 0.854276
0.0269932 0.0486152 0.514061
0.0269932 0.0492561 0.521218
0.0269932 0.0505837 0.539483
0.0652628 0.0491951 0.560052
0.178058 0.0382544 0.583825
0.332311 0.0269932 0.610758
0.520821 0.0269932 0.629038
0.724941 0.0269932 0.623957
0.904906 0.0269932 0.616754
0.0269932 0.0738842 0.525567
0.0269932 0.0749218 0.532967
0.0269932 0.0765545 0.550256
0.0693828 0.0750591 0.569741
0.182086 0.0627909 0.592599
0.336934 0.0435645 0.619654
0.529198 0.0290532 0.636896
0.733074 0.0269932 0.626078
0.909651 0.0269932 0.61915
0.0269932 0.149813 0.550622
0.0269932 0.15227 0.558434
0.0269932 0.156313 0.574075
0.0830701 0.158312 0.591959
0.191852 0.151736 0.613825
0.344671 0.140948 0.6448
0.550683 0.132189 0.67834
0.770489 0.122026 0.679301
0.938384 0.105715 0.665675
0.0269932 0.24358 0.575891
0.0269932 0.247349 0.582971
0.0277867 0.25333 0.595865
0.0917067 0.257557 0.610071
0.195071 0.25417 0.626322
0.337881 0.248783 0.654246
0.55491 0.253513 0.703319
0.798642 0.263661 0.725505
0.96669 0.265705 0.726314
0.0269932 0.360235 0.608728
0.0269932 0.364858 0.612818
0.03299 0.371221 0.619699
0.0985428 0.37464 0.62594
0.19527 0.367712 0.629908
0.320836 0.360006 0.643549
0.530419 0.371283 0.697612
0.799268 0.407263 0.75172
0.957748 0.421897 0.761242
0.0269932 0.502754 0.680797
0.0269932 0.509361 0.684001
0.0743572 0.518746 0.687984
0.143069 0.524178 0.686687
0.23151 0.514366 0.669856
0.347219 0.502693 0.661189
0.53164 0.51841 0.703807
0.792737 0.563531 0.777539
0.933852 0.586328 0.791836
0.0269932 0.663691 0.751034
0.0368505 0.670695 0.756771
0.109865 0.683162 0.76733
0.194324 0.692576 0.774319
0.315084 0.692317 0.770443
0.458396 0.691188 0.7626
0.610712 0.698848 0.761807
0.792691 0.723522 0.81004
0.911208 0.744991 0.822843
0.0349126 0.814755 0.809308
0.0951247 0.823499 0.818326
0.165972 0.832547 0.827634
0.273991 0.835233 0.830884
0.410849 0.831754 0.828107
0.565545 0.835065 0.832059
0.717494 0.847776 0.844984
0.830198 0.859953 0.856031
0.920089 0.875792 0.869612
0.280018 0.961929 0.890135
0.329519 0.960327 0.888823
0.399084 0.957031 0.885893
0.493324 0.951339 0.880446
0.605936 0.949859 0.878584
0.718044 0.955947 0.882902
0.820844 0.962432 0.887861
0.910491 0.970672 0.905623
0.984573 0.985565 0.924285
0.0269932 0.0590677 0.607126
0.0269932 0.059205 0.608286
0.0269932 0.0605325 0.624582
0.0421454 0.0599374 0.642878
0.157763 0.0487221 0.662882
0.316793 0.0303502 0.686946
0.517968 0.0269932 0.707485
0.738064 0.0269932 0.705089
0.915679 0.0269932 0.693614
0.0269932 0.0594492 0.610391
0.0269932 0.0596323 0.612039
0.0269932 0.0609445 0.628229
0.0439155 0.0601511 0.646265
0.162844 0.0483864 0.666194
0.324346 0.0297093 0.690181
0.527108 0.0269932 0.709911
0.747036 0.0269932 0.705699
0.919615 0.0269932 0.693553
0.0269932 0.0865034 0.619928
0.0269932 0.0913405 0.623087
0.0269932 0.099794 0.639872
0.0531472 0.108873 0.658717
0.172854 0.110094 0.6804
0.335256 0.1066 0.709163
0.549538 0.104265 0.741573
0.782025 0.106569 0.746853
0.949004 0.114565 0.739361
0.0269932 0.221897 0.650996
0.0269932 0.226032 0.654231
0.0269932 0.234333 0.668711
0.0747234 0.242283 0.68423
0.188678 0.241627 0.700862
0.341726 0.237964 0.725338
0.567803 0.241932 0.768399
0.813321 0.26006 0.792401
0.97232 0.281483 0.794446
0.0269932 0.356588 0.670497
0.0269932 0.360784 0.672831
0.0269932 0.368566 0.681193
0.0813001 0.374533 0.689174
0.188952 0.369924 0.694453
0.326635 0.363333 0.707073
0.541619 0.370352 0.753292
0.805966 0.41355 0.810513
0.954818 0.4477 0.822828
0.0269932 0.514427 0.730739
0.0269932 0.519265 0.732754
0.0486763 0.529061 0.735683
0.122301 0.5346 0.7337
0.220523 0.523873 0.717311
0.346029 0.503639 0.703136
0.533181 0.516091 0.741085
0.787701 0.571801 0.823194
0.929656 0.614633 0.846601
0.0269932 0.683253 0.806668
0.0366369 0.690501 0.811963
0.112047 0.702556 0.821027
0.206332 0.709911 0.824155
0.334264 0.704646 0.811719
0.467262 0.69308 0.788067
0.615991 0.70013 0.792493
0.781125 0.731807 0.844007
0.918868 0.767193 0.874083
0.110842 0.842237 0.873274
0.16022 0.848447 0.879286
0.231418 0.852308 0.882872
0.342855 0.850233 0.880446
0.471855 0.845182 0.874723
0.614954 0.849912 0.878141
0.744701 0.862531 0.887617
0.841856 0.876967 0.896651
0.937575 0.895384 0.913909
0.490867 0.969543 0.923659
0.529366 0.967208 0.92137
0.584268 0.96527 0.919707
0.659342 0.96701 0.92163
0.739055 0.972244 0.926665
0.818738 0.978546 0.931868
0.88159 0.983703 0.935653
0.940597 0.988342 0.944839
0.993667 0.995468 0.957656
