luts/blue_noir.cube
TITLE "Generated by Resolve"
LUT_3D_SIZE 5
0.0269932 0.0269932 0.0269932
0.0726177 0.0269932 0.0269932
0.243793 0.0331426 0.0269932
0.471015 0.0323339 0.0269932
0.735668 0.0400854 0.0269932
0.0637369 0.147036 0.0683299
0.1337 0.165499 0.0820325
0.313466 0.189822 0.0876936
0.552682 0.199145 0.0590829
0.819684 0.205325 0.0328985
0.0799878 0.329671 0.119539
0.177523 0.348348 0.141283
0.371435 0.372564 0.153536
0.618189 0.403082 0.158831
0.902693 0.428824 0.142519
0.101366 0.562676 0.133715
0.181216 0.575433 0.14963
0.369696 0.594797 0.168673
0.676234 0.629587 0.168597
0.954528 0.677028 0.18584
0.197528 0.836439 0.214817
0.20972 0.83946 0.21529
0.477485 0.848157 0.264652
0.849638 0.8598 0.232776
1 0.911208 0.208057
0.0269932 0.0269932 0.10808
0.053254 0.0269932 0.137881
0.270909 0.0269932 0.159548
0.454017 0.0408637 0.127459
0.691661 0.059556 0.113848
0.038056 0.157992 0.196033
0.112673 0.177417 0.213458
0.308186 0.18883 0.237888
0.517906 0.208591 0.222324
0.771939 0.218555 0.207538
0.0388647 0.35082 0.256611
0.153338 0.374044 0.273182
0.344594 0.392157 0.291752
0.606592 0.417044 0.286015
0.891569 0.442512 0.265583
0.0562295 0.587259 0.238392
0.158526 0.598321 0.254108
0.347204 0.608331 0.28191
0.663447 0.64007 0.293843
0.943053 0.696803 0.320928
0.143572 0.862379 0.334508
0.196887 0.866316 0.344152
0.46598 0.861372 0.386496
0.81799 0.867155 0.385534
1 0.92517 0.376059
0.0269932 0.0520943 0.238071
0.0449531 0.0601358 0.267765
0.259892 0.0507515 0.324834
0.538537 0.0332341 0.305745
0.762173 0.042771 0.267811
0.0269932 0.173632 0.296727
0.0869612 0.18822 0.321996
0.27631 0.197116 0.379263
0.583627 0.189776 0.385321
0.81062 0.209644 0.363867
0.0435492 0.367926 0.404959
0.148074 0.391531 0.427588
0.316762 0.414542 0.44683
0.579812 0.424933 0.461601
0.848539 0.462928 0.475898
0.0269932 0.627131 0.460121
0.121706 0.645869 0.476127
0.31809 0.654627 0.47924
0.642283 0.666896 0.507073
0.929702 0.730465 0.539574
0.0564736 0.910185 0.610956
0.172198 0.920256 0.619532
0.43798 0.897322 0.598932
0.762356 0.88072 0.631769
0.992081 0.939025 0.625757
0.0269932 0.078294 0.403098
0.0307774 0.0804761 0.432715
0.209247 0.0625467 0.485649
0.539101 0.0273289 0.52517
0.886336 0.0269932 0.515877
0.0269932 0.179339 0.448951
0.0451209 0.185412 0.475349
0.216754 0.179309 0.52105
0.573846 0.164355 0.59794
0.925948 0.122362 0.583001
0.0269932 0.369268 0.540795
0.0699016 0.37937 0.548882
0.218082 0.374151 0.556222
0.554482 0.389792 0.64683
0.947906 0.41323 0.687633
0.0269932 0.647318 0.684169
0.112123 0.667384 0.7037
0.311559 0.680476 0.716136
0.622293 0.699748 0.730236
0.888121 0.736553 0.765072
0.162982 0.944488 0.828122
0.283742 0.948394 0.832319
0.514916 0.935332 0.816999
0.784573 0.936294 0.819623
0.979355 0.969635 0.854276
0.0269932 0.0590677 0.607126
0.0269932 0.0605325 0.624582
0.157763 0.0487221 0.662882
0.517968 0.0269932 0.707485
0.915679 0.0269932 0.693614
0.0269932 0.0865034 0.619928
0.0269932 0.099794 0.639872
0.172854 0.110094 0.6804
0.549538 0.104265 0.741573
0.949004 0.114565 0.739361
0.0269932 0.356588 0.670497
0.0269932 0.368566 0.681193
0.188952 0.369924 0.694453
0.541619 0.370352 0.753292
0.954818 0.4477 0.822828
0.0269932 0.683253 0.806668
0.112047 0.702556 0.821027
0.334264 0.704646 0.811719
0.615991 0.70013 0.792493
0.918868 0.767193 0.874083
0.490867 0.969543 0.923659
0.584268 0.96527 0.919707
0.739055 0.972244 0.926665
0.88159 0.983703 0.935653
0.993667 0.995468 0.957656
