luts/blue_noir.cube
TITLE "Generated by Resolve"
LUT_3D_SIZE 33
0.0269932 0.0269932 0.0269932
0.0269932 0.0269932 0.0269932
0.0269932 0.0269932 0.0269932
0.0269932 0.0269932 0.0269932
0.0269932 0.0269932 0.0269932
0.0269932 0.0269932 0.0269932
0.0335851 0.0269932 0.0269932
0.0540169 0.0269932 0.0269932
0.0726177 0.0269932 0.0269932
0.0890211 0.0269932 0.0269932
0.106294 0.0269932 0.0269932
0.125048 0.028809 0.0269932
0.145953 0.0306859 0.0269932
0.168872 0.0318761 0.0269932
0.193072 0.0325475 0.0269932
0.218128 0.0329442 0.0269932
0.243793 0.0331426 0.0269932
0.270268 0.0332647 0.0269932
0.297307 0.0331884 0.0269932
0.324956 0.0329595 0.0269932
0.352728 0.0328222 0.0269932
0.381231 0.0326085 0.0269932
0.410193 0.0323186 0.0269932
0.440436 0.0323796 0.0269932
0.471015 0.0323339 0.0269932
0.50251 0.0318303 0.0269932
0.534035 0.031281 0.0269932
0.565911 0.0307927 0.0269932
0.599191 0.0311437 0.0269932
0.634089 0.0317845 0.0269932
0.669978 0.0331731 0.0269932
0.703685 0.0360571 0.0269932
0.735668 0.0400854 0.0269932
0.0269932 0.0269932 0.0269932
0.0269932 0.0269932 0.0269932
0.0269932 0.0269932 0.0269932
0.0269932 0.0269932 0.0269932
0.0269932 0.0269932 0.0269932
0.0269932 0.0269932 0.0269932
0.0327001 0.0269932 0.0269932
0.0522927 0.0269932 0.0269932
0.0705882 0.0269932 0.0269932
0.0880903 0.0269932 0.0269932
0.106294 0.0277256 0.0269932
0.126314 0.0312047 0.0269932
0.14818 0.0348058 0.0269932
0.171893 0.0378424 0.0269932
0.19707 0.0403754 0.0269932
0.222995 0.0425422 0.0269932
0.249516 0.0444495 0.0269932
0.276844 0.046128 0.0269932
0.304784 0.0474708 0.0269932
0.333181 0.0485542 0.0269932
0.362112 0.0492866 0.0269932
0.391699 0.0495613 0.0269932
0.421622 0.0494698 0.0269932
0.452033 0.0491188 0.0269932
0.48304 0.0486458 0.0269932
0.515175 0.0479896 0.0269932
0.547326 0.047364 0.0269932
0.579705 0.0466468 0.0269932
0.612558 0.0458534 0.0269932
0.646174 0.04477 0.0269932
0.679652 0.0436255 0.0269932
0.710231 0.0428168 0.0269932
0.738277 0.0421759 0.0269932
0.0269932 0.0314641 0.0269932
0.0269932 0.0318456 0.0269932
0.0269932 0.0323796 0.0269932
0.0269932 0.032929 0.0269932
0.0269932 0.0336004 0.0269932
0.0269932 0.0346227 0.0269932
0.0401923 0.0373236 0.0269932
0.0584726 0.0403906 0.0269932
0.0773938 0.0437171 0.0269932
0.0962081 0.0472725 0.0269932
0.115343 0.050721 0.0269932
0.135393 0.054139 0.0269932
0.156893 0.0572366 0.0271153
0.180316 0.0595865 0.0272679
0.205386 0.061387 0.0271
0.231388 0.0628672 0.0269932
0.258 0.0639811 0.0270085
0.285115 0.0648966 0.0276188
0.312993 0.0655528 0.0276493
0.341695 0.0660868 0.027039
0.371115 0.0664683 0.0269932
0.40087 0.0666361 0.0269932
0.431022 0.0665293 0.0269932
0.461418 0.0662394 0.0269932
0.492699 0.0658122 0.0269932
0.524895 0.0652628 0.0269932
0.55726 0.0647135 0.0269932
0.589853 0.0640574 0.0269932
0.623056 0.0632181 0.0269932
0.657496 0.0619974 0.0269932
0.691691 0.0606394 0.0269932
0.72314 0.059617 0.0269932
0.751766 0.0588083 0.0269932
0.0287938 0.0433356 0.0273289
0.0291447 0.0444343 0.0273899
0.0295109 0.0455787 0.0274662
0.0298772 0.0467689 0.0275273
0.0303197 0.0482032 0.0276188
0.0324865 0.05037 0.0280461
0.0495155 0.0545663 0.030396
0.0663615 0.0583505 0.0318151
0.0847486 0.0622721 0.0331731
0.103731 0.0660258 0.0336004
0.123217 0.0694285 0.033814
0.143664 0.0725109 0.0336309
0.165316 0.0751202 0.0328069
0.188678 0.0769665 0.0312047
0.213565 0.0783703 0.0289921
0.2392 0.0796826 0.028275
0.265354 0.0808576 0.0281071
0.291997 0.0820325 0.0287022
0.319677 0.082948 0.0282139
0.348272 0.0836194 0.0270695
0.377615 0.0841077 0.0269932
0.407568 0.0843671 0.0269932
0.437995 0.0843366 0.0269932
0.468742 0.0841535 0.0269932
0.500648 0.0837415 0.0269932
0.533135 0.0832227 0.0269932
0.566018 0.0826734 0.0269932
0.599191 0.082063 0.0269932
0.633066 0.0812543 0.0269932
0.668284 0.0801404 0.0269932
0.702693 0.0788586 0.0269932
0.734005 0.0778058 0.0269932
0.762692 0.0768597 0.0269932
0.0349126 0.0628367 0.0284733
0.0353552 0.0638285 0.0287938
0.0357214 0.0648966 0.0293278
0.0360266 0.0660258 0.0300603
0.0364996 0.067277 0.0306249
0.041886 0.069337 0.0317082
0.059144 0.0734112 0.0357671
0.076463 0.0771344 0.0382696
0.0936751 0.0813916 0.0404669
0.112413 0.0851606 0.0418708
0.131945 0.0886397 0.0423133
0.152544 0.091783 0.0421607
0.174243 0.0944076 0.0417334
0.19762 0.0964218 0.0407568
0.222553 0.0979782 0.038941
0.248219 0.099382 0.0364691
0.274189 0.100816 0.0354162
0.300771 0.102113 0.034638
0.328328 0.103502 0.0324407
0.356512 0.104555 0.0311894
0.385718 0.105272 0.0292821
0.415457 0.105791 0.0278782
0.445914 0.10605 0.0269932
0.47686 0.106111 0.0269932
0.509041 0.10576 0.0269932
0.541787 0.105379 0.0269932
0.574929 0.104906 0.0269932
0.608377 0.104356 0.0269932
0.642756 0.103624 0.0269932
0.678141 0.102129 0.0269932
0.713115 0.100679 0.0269932
0.745159 0.0995193 0.0269932
0.774594 0.098558 0.0269932
0.0422522 0.0830091 0.0380713
0.0425422 0.0843519 0.0390936
0.0429084 0.0856641 0.0398871
0.0433509 0.0869154 0.0405127
0.043946 0.088304 0.0410163
0.05243 0.0905623 0.0427558
0.0687877 0.0943008 0.045243
0.0872969 0.0977951 0.0464027
0.105486 0.102144 0.0489967
0.122835 0.106432 0.0519417
0.141985 0.110201 0.0538949
0.162249 0.113588 0.0548257
0.183719 0.116335 0.0548714
0.207187 0.118441 0.0540017
0.232288 0.120089 0.0523384
0.258183 0.121508 0.0501717
0.284642 0.122866 0.0477455
0.311528 0.124102 0.0449378
0.338949 0.125353 0.0419318
0.367041 0.126604 0.0394293
0.395789 0.12781 0.036759
0.424857 0.128817 0.0345769
0.455039 0.129412 0.0317235
0.485908 0.129641 0.0291905
0.518044 0.129458 0.0269932
0.550729 0.129168 0.0269932
0.58407 0.128801 0.0269932
0.617746 0.128359 0.0269932
0.652552 0.127733 0.0269932
0.688685 0.126726 0.0269932
0.724056 0.125689 0.0269932
0.756497 0.125109 0.0269932
0.786633 0.124712 0.0269932
0.0496223 0.104189 0.0486763
0.0500496 0.105592 0.049485
0.0505226 0.106935 0.0501259
0.0510262 0.108202 0.0506142
0.0516518 0.10956 0.0510262
0.0620584 0.111894 0.0535592
0.0771496 0.115251 0.0562295
0.0952468 0.118944 0.0578317
0.116915 0.122744 0.0602731
0.134051 0.127581 0.0630808
0.152438 0.131579 0.066041
0.17203 0.135027 0.067628
0.193057 0.137972 0.0679484
0.216541 0.140322 0.067277
0.241871 0.142153 0.0658427
0.267994 0.143694 0.0638743
0.294575 0.145129 0.0616159
0.321736 0.146441 0.0589609
0.349554 0.147692 0.0558785
0.378134 0.148974 0.0523079
0.407126 0.150179 0.0482948
0.436454 0.151202 0.0437476
0.466209 0.152041 0.0398413
0.496803 0.152483 0.0357366
0.528695 0.15256 0.0310826
0.560922 0.152605 0.0289769
0.594003 0.152529 0.0273442
0.62768 0.152407 0.0269932
0.662638 0.152071 0.0270542
0.699107 0.151461 0.0272221
0.734707 0.151064 0.0272679
0.767163 0.1514 0.0270695
0.79765 0.15198 0.0269932
0.0568704 0.125551 0.0588693
0.0573739 0.126986 0.0594797
0.0578927 0.128328 0.0599527
0.0584268 0.129595 0.0603189
0.0590372 0.130938 0.0606241
0.070161 0.133364 0.063508
0.0852674 0.136507 0.0665599
0.103395 0.140215 0.0691539
0.125673 0.144121 0.071458
0.147341 0.148028 0.0742504
0.163134 0.153048 0.0769207
0.182086 0.156588 0.0796826
0.202686 0.159548 0.080705
0.225925 0.162066 0.080293
0.251194 0.164034 0.0789502
0.277409 0.165759 0.0770886
0.304265 0.167346 0.0749371
0.331777 0.168841 0.0724804
0.35996 0.170153 0.0696574
0.388968 0.171435 0.0665141
0.418204 0.172595 0.0628977
0.44799 0.173602 0.058732
0.477958 0.174502 0.054078
0.508705 0.175189 0.0486763
0.540276 0.175616 0.04271
0.57232 0.176043 0.0366369
0.604883 0.176516 0.0310826
0.638407 0.176822 0.0296025
0.673396 0.176944 0.0294957
0.709987 0.176761 0.0285954
0.745861 0.176852 0.0277867
0.778134 0.177752 0.0278782
0.808698 0.17882 0.0281529
0.0637369 0.147036 0.0683299
0.06421 0.148425 0.0687724
0.064683 0.149737 0.0691081
0.065156 0.150942 0.0693523
0.0657054 0.152239 0.0695659
0.0776989 0.154772 0.0728466
0.0933547 0.157809 0.0762798
0.111635 0.161456 0.0793317
0.1337 0.165499 0.0820325
0.156512 0.169375 0.0843977
0.176257 0.173556 0.0871595
0.192401 0.178134 0.0895857
0.212177 0.181201 0.0915694
0.235096 0.183658 0.0919356
0.260166 0.185885 0.0909743
0.286397 0.1879 0.0894636
0.313466 0.189822 0.0876936
0.341283 0.191562 0.0855726
0.369757 0.193088 0.0830854
0.399023 0.194522 0.0801862
0.428565 0.195804 0.0770886
0.458793 0.196887 0.0735485
0.489509 0.197803 0.0694591
0.520958 0.19855 0.0645762
0.552682 0.199145 0.0590829
0.584939 0.199619 0.0531167
0.617517 0.200153 0.0471504
0.650935 0.200687 0.0414282
0.685924 0.201144 0.0360723
0.722133 0.201526 0.0324407
0.757336 0.202228 0.0319982
0.789319 0.203738 0.0323491
0.819684 0.205325 0.0328985
0.0696269 0.168688 0.0772869
0.0700389 0.170047 0.0775158
0.0704356 0.171313 0.0776837
0.0708324 0.172503 0.0778058
0.0712749 0.173739 0.0778515
0.0848402 0.176318 0.0813001
0.101045 0.1794 0.085008
0.119753 0.182956 0.0883955
0.14168 0.187198 0.0912337
0.164538 0.191272 0.0934462
0.186145 0.195163 0.0958724
0.20444 0.199298 0.0983597
0.2215 0.203433 0.100313
0.24358 0.206012 0.10161
0.268284 0.208209 0.101656
0.294469 0.210605 0.100877
0.321584 0.212833 0.0995193
0.349569 0.214862 0.0977493
0.378363 0.216678 0.0955978
0.407889 0.218311 0.0930495
0.437613 0.219791 0.0903944
0.468223 0.221012 0.0871443
0.499519 0.221973 0.0834669
0.531762 0.22266 0.0791028
0.563943 0.223163 0.0742351
0.596658 0.223545 0.0688182
0.629633 0.224094 0.0631876
0.663355 0.224735 0.0573587
0.698543 0.225452 0.0513008
0.734646 0.226184 0.0458686
0.76907 0.227512 0.0428626
0.800595 0.229603 0.0417487
0.830671 0.231754 0.0411078
0.0740978 0.19115 0.0850996
0.074464 0.192447 0.0853437
0.0748455 0.193637 0.0854963
0.0751659 0.194736 0.085481
0.0766155 0.196002 0.0856489
0.0912032 0.19855 0.0890822
0.108034 0.201602 0.0929427
0.127474 0.205234 0.0967269
0.149279 0.209461 0.0998398
0.170932 0.213672 0.101884
0.193301 0.217288 0.1037
0.214435 0.220813 0.106065
0.232303 0.224964 0.108156
0.25153 0.22858 0.109499
0.275547 0.230869 0.11046
0.30132 0.233051 0.110506
0.328466 0.235523 0.109895
0.356619 0.237888 0.108644
0.385718 0.24004 0.106981
0.415503 0.242008 0.104921
0.445731 0.243793 0.102632
0.476585 0.245335 0.0999008
0.508385 0.246525 0.0965591
0.541161 0.247303 0.092607
0.573892 0.247791 0.088304
0.607172 0.248081 0.0835889
0.640818 0.248524 0.0785992
0.675334 0.249134 0.0733043
0.711086 0.249897 0.0675212
0.747265 0.250919 0.0618753
0.781521 0.252613 0.0576486
0.812879 0.2551 0.0555276
0.84239 0.257893 0.0545968
0.0771954 0.213672 0.0916762
0.0774701 0.214862 0.0917372
0.0777447 0.215961 0.0917372
0.0780041 0.216968 0.0916915
0.0818647 0.218326 0.0925002
0.0970779 0.220874 0.0961318
0.114778 0.223941 0.100343
0.134768 0.227619 0.104433
0.156207 0.231815 0.10779
0.176776 0.23595 0.10988
0.197864 0.239734 0.111421
0.220783 0.242893 0.11313
0.242329 0.246235 0.11545
0.261067 0.250355 0.116884
0.282506 0.25359 0.117968
0.307637 0.255802 0.118837
0.334432 0.258045 0.118975
0.362722 0.260639 0.118563
0.392157 0.263249 0.117556
0.422232 0.26566 0.116075
0.452674 0.267842 0.11429
0.484077 0.269718 0.111971
0.516457 0.271199 0.109071
0.549432 0.272312 0.105608
0.582742 0.272953 0.101503
0.616312 0.273365 0.0971389
0.650568 0.273808 0.0925612
0.685969 0.274372 0.0877089
0.722667 0.275105 0.0826276
0.759167 0.276249 0.0778363
0.793469 0.278172 0.0740826
0.824796 0.280995 0.0721141
0.854002 0.28423 0.0712749
0.078996 0.236164 0.0979019
0.0792096 0.237263 0.0978408
0.0794385 0.23827 0.097734
0.0796826 0.2392 0.0975967
0.0871595 0.240879 0.0993515
0.103075 0.243458 0.103105
0.121386 0.246601 0.10753
0.141772 0.25037 0.111955
0.162097 0.254368 0.115251
0.181918 0.258289 0.117372
0.202197 0.262104 0.118959
0.22414 0.265507 0.120409
0.248569 0.268299 0.122194
0.271122 0.271672 0.124147
0.290944 0.275746 0.125093
0.313848 0.278706 0.126177
0.340139 0.280903 0.127047
0.3682 0.283299 0.127337
0.397742 0.286091 0.127184
0.428046 0.289021 0.126558
0.45893 0.291691 0.125292
0.490913 0.294041 0.123537
0.523995 0.295979 0.121157
0.557183 0.29749 0.118181
0.591012 0.298436 0.114427
0.624964 0.299077 0.110369
0.6598 0.299672 0.106081
0.696071 0.300298 0.101595
0.73341 0.301076 0.0971389
0.770275 0.302312 0.0930037
0.804929 0.304417 0.090074
0.836179 0.307454 0.0886549
0.865492 0.310964 0.0880598
0.0797894 0.258946 0.104311
0.0800031 0.259953 0.104158
0.0802319 0.260884 0.103975
0.0804456 0.261738 0.103746
0.0928969 0.263828 0.106661
0.109194 0.266453 0.110567
0.127687 0.269551 0.114961
0.147662 0.273289 0.119371
0.167086 0.277134 0.122652
0.186282 0.280919 0.124712
0.206058 0.284657 0.126223
0.227253 0.288121 0.127703
0.251026 0.291157 0.129198
0.277806 0.293599 0.130831
0.301167 0.297185 0.132464
0.321279 0.301427 0.133318
0.345892 0.304189 0.134539
0.373556 0.306493 0.1355
0.402884 0.309133 0.135958
0.433143 0.312184 0.136065
0.464637 0.315435 0.13576
0.497215 0.318425 0.134691
0.530861 0.320974 0.132967
0.564645 0.322957 0.130465
0.598962 0.324315 0.127153
0.633387 0.325292 0.12343
0.668833 0.326146 0.119341
0.70576 0.327001 0.114961
0.743328 0.328023 0.11075
0.780529 0.329397 0.106981
0.815244 0.331716 0.104555
0.846296 0.334981 0.103716
0.875914 0.338628 0.103563
0.0799725 0.282048 0.110567
0.0801556 0.282979 0.110369
0.0803388 0.283848 0.110124
0.0844129 0.285054 0.110933
0.0984817 0.287251 0.114137
0.114748 0.289876 0.118059
0.133028 0.293004 0.122362
0.152544 0.296651 0.126711
0.171328 0.300359 0.129809
0.190021 0.304021 0.13193
0.209339 0.307591 0.133455
0.229908 0.31104 0.13489
0.252872 0.314214 0.136233
0.2795 0.316854 0.137453
0.308888 0.319112 0.13904
0.331029 0.323369 0.140475
0.352483 0.327596 0.141405
0.378744 0.330297 0.142733
0.407614 0.332753 0.143786
0.437476 0.335637 0.144396
0.469261 0.338979 0.144625
0.502541 0.342504 0.144427
0.536507 0.34583 0.143618
0.571298 0.348577 0.141817
0.606195 0.350545 0.139086
0.641215 0.351995 0.135744
0.677455 0.35317 0.131838
0.714961 0.35436 0.127687
0.752911 0.355703 0.123674
0.790311 0.357366 0.120104
0.824598 0.360021 0.11809
0.85568 0.363546 0.117617
0.885328 0.367391 0.117662
0.0799725 0.305547 0.11577
0.0801556 0.306416 0.115526
0.080354 0.307225 0.115236
0.0898756 0.308904 0.117296
0.103456 0.311116 0.1205
0.119646 0.31368 0.124269
0.137636 0.316808 0.128573
0.15668 0.320455 0.133013
0.174746 0.324071 0.136385
0.19295 0.327688 0.138689
0.211948 0.331151 0.140108
0.232151 0.334493 0.141497
0.254353 0.337652 0.142885
0.280186 0.340459 0.143938
0.310704 0.342611 0.144884
0.339773 0.345418 0.146715
0.361639 0.350256 0.147997
0.384619 0.354528 0.148959
0.412024 0.357198 0.150408
0.441718 0.359869 0.151537
0.473365 0.363058 0.15227
0.507042 0.36672 0.152667
0.541421 0.37055 0.152651
0.577081 0.37406 0.15172
0.61268 0.376913 0.149813
0.648539 0.379034 0.14696
0.685618 0.380758 0.14345
0.723857 0.382422 0.139757
0.762203 0.384131 0.135958
0.799847 0.386145 0.132494
0.833539 0.389227 0.130846
0.864576 0.393072 0.130526
0.894072 0.397223 0.130739
0.0799878 0.329671 0.119539
0.0801556 0.330495 0.119265
0.0820935 0.331456 0.119402
0.094316 0.333379 0.122148
0.107668 0.335561 0.125368
0.12372 0.338109 0.129137
0.141497 0.341222 0.13341
0.15996 0.344778 0.137789
0.177523 0.348348 0.141283
0.195193 0.351919 0.143816
0.213718 0.355367 0.145663
0.2336 0.358663 0.147173
0.255467 0.361761 0.148592
0.280461 0.364569 0.149599
0.310414 0.366827 0.150317
0.34229 0.369223 0.151522
0.371435 0.372564 0.153536
0.393072 0.378027 0.154604
0.41709 0.382254 0.155673
0.445853 0.385092 0.157183
0.477272 0.387976 0.158419
0.510384 0.391424 0.159426
0.545495 0.395361 0.15996
0.58175 0.39942 0.159884
0.618189 0.403082 0.158831
0.655161 0.40618 0.15671
0.693324 0.408774 0.153689
0.732296 0.41117 0.150195
0.771115 0.413504 0.14667
0.808728 0.416159 0.143587
0.842359 0.419837 0.14226
0.873381 0.424201 0.142107
0.902693 0.428824 0.142519
0.0801862 0.354696 0.122316
0.080354 0.355474 0.122011
0.0856794 0.356771 0.123033
0.0975967 0.358663 0.125734
0.110872 0.360769 0.128847
0.12665 0.363241 0.132525
0.14435 0.366354 0.136858
0.162097 0.369802 0.141115
0.17937 0.373327 0.144701
0.196689 0.376867 0.147524
0.214878 0.380285 0.149615
0.234379 0.383566 0.151263
0.255879 0.386648 0.152789
0.280156 0.389471 0.154208
0.309056 0.391928 0.154925
0.341268 0.394385 0.155459
0.374899 0.396948 0.156878
0.402975 0.401007 0.158923
0.424811 0.406867 0.159731
0.450507 0.411368 0.160845
0.480919 0.414511 0.162341
0.513359 0.417639 0.163622
0.548623 0.421378 0.164477
0.585122 0.425559 0.164981
0.622522 0.429877 0.164889
0.660914 0.433829 0.163745
0.700481 0.4374 0.161669
0.74023 0.440604 0.158877
0.779553 0.443519 0.155779
0.817151 0.446815 0.153384
0.850797 0.450996 0.152422
0.881712 0.455695 0.152483
0.910933 0.46067 0.153109
0.0807507 0.381582 0.124239
0.0809491 0.382391 0.123888
0.0872969 0.383734 0.125109
0.0989395 0.38558 0.127825
0.112001 0.38761 0.130739
0.12752 0.390005 0.134279
0.145006 0.393042 0.138506
0.162615 0.396384 0.142657
0.179767 0.399832 0.146273
0.196948 0.403281 0.149279
0.214923 0.406638 0.151583
0.234104 0.409857 0.153368
0.255161 0.412818 0.15491
0.279103 0.415518 0.15639
0.307454 0.417868 0.157458
0.338659 0.420325 0.157931
0.373159 0.422751 0.158572
0.406775 0.42562 0.160357
0.434516 0.430442 0.162234
0.458122 0.436484 0.163088
0.485008 0.441215 0.164218
0.516777 0.444572 0.165774
0.551766 0.447913 0.167147
0.588296 0.451896 0.168139
0.626444 0.456352 0.168704
0.666194 0.460914 0.168536
0.707134 0.465385 0.16759
0.747845 0.469459 0.165743
0.787701 0.473228 0.163485
0.825132 0.477226 0.161791
0.858763 0.481834 0.161288
0.889433 0.486854 0.1617
0.918532 0.492058 0.162554
0.0820172 0.409476 0.125628
0.0822309 0.410239 0.125277
0.0879835 0.41146 0.126238
0.0994888 0.413184 0.128832
0.112245 0.415061 0.131609
0.127428 0.417304 0.135058
0.144778 0.420111 0.139116
0.162448 0.423255 0.143206
0.179538 0.42652 0.146838
0.19675 0.429862 0.149981
0.214603 0.433173 0.152468
0.23357 0.436332 0.154376
0.254276 0.439307 0.155962
0.277943 0.441855 0.157397
0.305882 0.444053 0.158679
0.336507 0.446326 0.159426
0.368963 0.448737 0.159777
0.405371 0.451225 0.160693
0.439979 0.454627 0.162829
0.468009 0.460136 0.164599
0.492409 0.466392 0.165515
0.52163 0.471351 0.166812
0.555657 0.474861 0.168566
0.592294 0.478492 0.170123
0.63093 0.48278 0.171252
0.671794 0.487434 0.171801
0.713756 0.492378 0.171847
0.755276 0.497185 0.170947
0.795468 0.501915 0.169772
0.832837 0.506813 0.168872
0.866117 0.512139 0.16878
0.896529 0.517815 0.169543
0.925414 0.523461 0.17055
0.0840772 0.437827 0.127123
0.0843214 0.43859 0.126787
0.0889601 0.439658 0.127489
0.100282 0.441199 0.12987
0.112734 0.442954 0.132586
0.127703 0.444984 0.135821
0.144945 0.447532 0.139712
0.162661 0.450462 0.143725
0.179782 0.45359 0.147417
0.196994 0.456764 0.150576
0.214847 0.459922 0.153216
0.233738 0.46302 0.155306
0.2542 0.465934 0.157015
0.277638 0.468376 0.158495
0.30515 0.470344 0.15967
0.334554 0.472404 0.160601
0.366781 0.474739 0.160998
0.402609 0.477287 0.161196
0.440635 0.480125 0.162478
0.474876 0.484245 0.164813
0.502892 0.490578 0.166415
0.529473 0.497414 0.167361
0.560845 0.50251 0.168872
0.597238 0.506325 0.170871
0.636378 0.510323 0.172549
0.677867 0.51487 0.173587
0.720333 0.519875 0.174166
0.762356 0.525216 0.174258
0.802869 0.530648 0.174044
0.840055 0.536263 0.174014
0.872862 0.542321 0.174716
0.903059 0.548516 0.175814
0.931716 0.554528 0.177096
0.0872206 0.467658 0.128847
0.0874952 0.468406 0.128481
0.0895247 0.469291 0.128542
0.100786 0.470787 0.130846
0.112947 0.472435 0.133455
0.127779 0.474296 0.136522
0.144732 0.476616 0.1402
0.16286 0.479362 0.144259
0.180179 0.482277 0.14789
0.197589 0.485313 0.151171
0.215534 0.488319 0.153979
0.234363 0.491264 0.156161
0.25478 0.494118 0.158053
0.278065 0.496452 0.159594
0.304692 0.498207 0.160739
0.3337 0.499916 0.1617
0.365698 0.502068 0.162219
0.40061 0.504555 0.162097
0.438849 0.507195 0.162417
0.477546 0.51046 0.164172
0.512551 0.515557 0.166598
0.540825 0.522728 0.167987
0.569207 0.529793 0.168994
0.603662 0.534966 0.170748
0.643214 0.538888 0.172778
0.685008 0.543175 0.17435
0.727642 0.548074 0.175357
0.769696 0.553491 0.176135
0.810285 0.559243 0.176684
0.847227 0.565469 0.177539
0.879301 0.572045 0.178912
0.909239 0.578683 0.180468
0.937331 0.585153 0.182025
0.0911116 0.49839 0.130465
0.0913863 0.499107 0.130098
0.0916915 0.499825 0.129686
0.100542 0.501137 0.131472
0.112688 0.502739 0.134066
0.127489 0.504585 0.137255
0.144579 0.506813 0.140978
0.163302 0.509422 0.145144
0.181262 0.51223 0.148943
0.199084 0.515206 0.152422
0.217273 0.518166 0.155459
0.236255 0.52108 0.157916
0.256565 0.523873 0.159899
0.279423 0.526116 0.161425
0.305547 0.52784 0.162737
0.334752 0.529397 0.163699
0.366384 0.531182 0.164172
0.400687 0.533379 0.163989
0.437217 0.535927 0.163622
0.478431 0.53875 0.164187
0.518761 0.542702 0.166201
0.55285 0.54873 0.168292
0.581552 0.556573 0.169207
0.613062 0.563668 0.170169
0.651484 0.568658 0.171939
0.693355 0.572717 0.173968
0.735821 0.577447 0.175418
0.777676 0.582727 0.176623
0.818158 0.588464 0.177737
0.854154 0.59501 0.179355
0.885878 0.601953 0.181292
0.915404 0.608881 0.183246
0.942473 0.615656 0.185077
0.0957198 0.529854 0.132113
0.096025 0.530541 0.131716
0.0963455 0.531243 0.131273
0.0992752 0.532113 0.131487
0.111437 0.533684 0.134112
0.126116 0.535561 0.13727
0.14342 0.537713 0.141024
0.162905 0.540307 0.145373
0.181857 0.543191 0.149615
0.200351 0.546212 0.153429
0.218982 0.549249 0.156741
0.2383 0.552224 0.159548
0.258427 0.555016 0.1617
0.281193 0.557336 0.163546
0.307332 0.559121 0.164965
0.336568 0.560662 0.165957
0.368246 0.562264 0.166415
0.401312 0.564157 0.166339
0.43769 0.566461 0.16556
0.478737 0.569116 0.16495
0.52195 0.572244 0.165652
0.562188 0.576867 0.167636
0.595972 0.583963 0.169039
0.626612 0.59234 0.16939
0.662028 0.599191 0.17023
0.702861 0.603983 0.172137
0.74519 0.608362 0.174105
0.786786 0.613458 0.175708
0.826902 0.619165 0.177295
0.86186 0.62565 0.1794
0.893156 0.632532 0.181781
0.922026 0.639536 0.184131
0.947951 0.646326 0.186236
0.101366 0.562676 0.133715
0.101686 0.563363 0.133303
0.102052 0.56405 0.132876
0.102419 0.564706 0.132418
0.108324 0.56582 0.133379
0.123018 0.567758 0.136599
0.140505 0.569909 0.140429
0.160403 0.572473 0.1449
0.181216 0.575433 0.14963
0.2009 0.578561 0.153887
0.219989 0.581659 0.157519
0.239658 0.58471 0.160693
0.260395 0.587518 0.163317
0.283238 0.58996 0.165438
0.309178 0.591882 0.166979
0.338598 0.593362 0.168078
0.369696 0.594797 0.168673
0.403159 0.596399 0.168627
0.439536 0.598428 0.167697
0.479454 0.600916 0.166201
0.523827 0.603525 0.165484
0.569085 0.607126 0.166461
0.609827 0.612818 0.168231
0.643305 0.621195 0.168658
0.676234 0.629587 0.168597
0.714412 0.635828 0.169574
0.755978 0.640452 0.17171
0.797421 0.645212 0.173754
0.836744 0.650629 0.175479
0.870848 0.656901 0.177935
0.901442 0.663584 0.180621
0.929473 0.670359 0.183352
0.954528 0.677028 0.18584
0.108598 0.596948 0.135805
0.108965 0.59762 0.135424
0.109331 0.598245 0.135027
0.109712 0.598886 0.134585
0.110124 0.599573 0.134112
0.118578 0.600977 0.135653
0.13611 0.603204 0.139528
0.156573 0.605692 0.144076
0.178912 0.608606 0.149233
0.200244 0.611826 0.154055
0.220768 0.615 0.158373
0.241276 0.618051 0.162081
0.262608 0.62092 0.165133
0.285618 0.623484 0.167575
0.311574 0.625498 0.169421
0.340475 0.626886 0.170718
0.372305 0.628077 0.171481
0.406561 0.62945 0.171435
0.442832 0.631189 0.170443
0.482292 0.633356 0.16849
0.526406 0.635843 0.166567
0.574716 0.638743 0.166033
0.621912 0.643168 0.167147
0.661219 0.650416 0.167666
0.693874 0.659434 0.167025
0.729091 0.66717 0.166964
0.768505 0.673014 0.16849
0.809445 0.677577 0.170672
0.847807 0.682689 0.172946
0.881132 0.68864 0.175708
0.91107 0.695125 0.178744
0.937743 0.70164 0.181781
0.962295 0.708003 0.184482
0.11725 0.632151 0.138964
0.117632 0.632776 0.138582
0.118013 0.633387 0.138186
0.11841 0.633982 0.137774
0.118837 0.634607 0.137301
0.119371 0.635355 0.13669
0.13048 0.637034 0.138827
0.151492 0.639567 0.143587
0.175235 0.642435 0.149126
0.1991 0.645609 0.154788
0.221302 0.648844 0.159701
0.242985 0.651972 0.163928
0.265171 0.654932 0.167529
0.288777 0.657542 0.170489
0.314122 0.659586 0.172824
