luts/Channel X2.cube
TITLE "Generated by Resolve"
LUT_3D_SIZE 33
0.0377203 0 0.0103761
0.0739147 0 0.00794995
0.0866865 0 0.00575265
0.0930495 0 0.0178988
0.106218 0.00645457 0.0201572
0.12636 0.0103609 0.0207828
0.152941 0.0119173 0.019379
0.183215 0.011902 0.0163729
0.217121 0.0104829 0.0104829
0.255177 0.00737011 0.00561532
0.294728 0.00361639 0
0.335714 0 0
0.378454 0 0
0.421363 0 0
0.464347 0 0
0.508247 0 0
0.551797 0 0
0.594675 0 0
0.636439 0.00254826 0
0.675395 0.0182803 0
0.711543 0.0393683 0
0.746136 0.066865 0.0043946
0.786221 0.133486 0.0572061
0.812009 0.148333 0.0635691
0.83772 0.163516 0.0724651
0.863951 0.178759 0.0823682
0.890043 0.193408 0.0918898
0.916808 0.208209 0.101915
0.942885 0.222766 0.111467
0.969192 0.23743 0.121386
0.995575 0.252171 0.131502
1 0.266697 0.141176
1 0.281575 0.151217
0.0294499 0.0314336 0.0383001
0.0654002 0.0350042 0.0399481
0.0808576 0.0155795 0.0286564
0.0930953 0.0146334 0.0270848
0.108125 0.0267185 0.0335699
0.128511 0.0324102 0.0356909
0.155306 0.0359655 0.0345617
0.188739 0.0338293 0.0292973
0.219471 0.0212406 0.0179294
0.256657 0.0157626 0.0108034
0.296834 0.0114443 0.0039826
0.338033 0.00712596 0
0.381109 0.00268559 0
0.424643 0 0
0.468956 0 0
0.513527 0 0
0.558968 0.00408942 0
0.602716 0.0168917 0
0.645548 0.0371862 0
0.691386 0.0894484 0.0263676
0.726909 0.114504 0.0443885
0.755779 0.12578 0.0486915
0.782467 0.138659 0.0554055
0.808454 0.15201 0.0627756
0.834119 0.165667 0.0706951
0.860105 0.17969 0.0797894
0.886488 0.193912 0.08925
0.912963 0.207965 0.0986343
0.9393 0.222339 0.108431
0.965713 0.236713 0.118181
0.991852 0.251041 0.127962
1 0.265553 0.137865
1 0.280262 0.14786
0.0285649 0.0861219 0.0591745
0.053315 0.085893 0.0651865
0.0881361 0.0887465 0.0739757
0.0979782 0.0812848 0.0651408
0.11545 0.0775158 0.062562
0.136736 0.0774853 0.0619669
0.163455 0.0775921 0.0600443
0.196872 0.0778515 0.0574655
0.233524 0.0784161 0.054902
0.272938 0.0802014 0.0527962
0.314 0.0820325 0.0508431
0.356481 0.0842603 0.0488289
0.400214 0.0870832 0.0471656
0.444205 0.0902266 0.045304
0.488014 0.093431 0.0433509
0.531502 0.0973678 0.0420844
0.573434 0.102037 0.0413367
0.613733 0.107683 0.0415808
0.652018 0.114168 0.0426184
0.688396 0.121599 0.0446021
0.721477 0.130007 0.0475929
0.751141 0.139986 0.052369
0.778378 0.150729 0.057908
0.804364 0.161883 0.0639353
0.830182 0.174029 0.0710613
0.856138 0.186816 0.0795911
0.882582 0.199939 0.0885634
0.90898 0.213214 0.0977493
0.935546 0.226673 0.106966
0.961883 0.240391 0.116289
0.988174 0.254124 0.12604
1 0.268025 0.135775
1 0.282002 0.145693
0.0285344 0.111681 0.0677501
0.0476539 0.111711 0.073991
0.0700694 0.112581 0.0773632
0.109987 0.115496 0.0895247
0.121202 0.108995 0.0830701
0.137713 0.105455 0.0757305
0.162432 0.103685 0.0719921
0.194675 0.101915 0.0690776
0.230396 0.101686 0.0666056
0.267704 0.102647 0.0637675
0.307439 0.104341 0.0611734
0.348852 0.106188 0.0585336
0.391562 0.1084 0.0561379
0.435584 0.111009 0.054078
0.479438 0.113573 0.0518196
0.522866 0.116579 0.0497749
0.565255 0.120424 0.0485084
0.60589 0.125109 0.0479744
0.644694 0.130632 0.0482795
0.681605 0.137072 0.0495155
0.716091 0.144213 0.0514992
0.746639 0.152895 0.0552071
0.774395 0.162524 0.0599832
0.800809 0.172869 0.0655833
0.826902 0.184009 0.0722972
0.852949 0.195773 0.0803845
0.879149 0.207965 0.0888685
0.905562 0.220401 0.0976425
0.932403 0.233143 0.106584
0.95874 0.246021 0.115648
0.985107 0.259113 0.125017
1 0.272358 0.134478
1 0.285664 0.144152
0.0254368 0.136309 0.0753338
0.0433509 0.136736 0.0826581
0.0628214 0.137423 0.0861524
0.0951247 0.138857 0.0935836
0.134173 0.142 0.105852
0.147066 0.135286 0.10071
0.164187 0.132311 0.091371
0.192721 0.129625 0.0836805
0.227848 0.127199 0.0793011
0.265553 0.125566 0.0763409
0.305211 0.125231 0.0735027
0.346151 0.125994 0.0705272
0.387655 0.12723 0.0672618
0.430182 0.128908 0.0638743
0.473442 0.131044 0.060853
0.516396 0.133471 0.0579385
0.558724 0.136507 0.0556954
0.599466 0.140261 0.0541238
0.638758 0.145098 0.0538033
0.675975 0.150668 0.0541848
0.711162 0.156924 0.0553597
0.742992 0.164599 0.0581826
0.771542 0.173281 0.0622568
0.79852 0.183001 0.0674449
0.824872 0.193484 0.0739757
0.850828 0.204776 0.0818341
0.877043 0.216449 0.0901503
0.903426 0.228168 0.0985428
0.930068 0.240284 0.107103
0.956405 0.252674 0.115938
0.982818 0.265232 0.125017
1 0.277821 0.134157
1 0.290898 0.143664
0.0187839 0.161074 0.0817121
0.0373846 0.161791 0.0903487
0.0546426 0.162448 0.0937972
0.078706 0.16376 0.0978561
0.12105 0.165423 0.109911
0.160128 0.168856 0.122347
0.174807 0.161379 0.117021
0.195102 0.158572 0.105974
0.225956 0.155886 0.0964065
0.262638 0.153475 0.0903944
0.302083 0.151324 0.0865034
0.343755 0.15024 0.0834974
0.386191 0.149737 0.0804303
0.429099 0.150164 0.0771496
0.47216 0.151049 0.0735637
0.514717 0.152285 0.0697337
0.556588 0.15436 0.0664988
0.597482 0.157519 0.064271
0.636454 0.161227 0.0626535
0.673579 0.165728 0.0618296
0.709117 0.171176 0.0621347
0.742 0.177798 0.0638743
0.771282 0.185733 0.0673228
0.798489 0.194629 0.0718242
0.824628 0.204471 0.0781109
0.850462 0.215091 0.0855268
0.876432 0.2262 0.0934768
0.902571 0.237552 0.101366
0.928923 0.249134 0.109178
0.955108 0.26096 0.117571
0.981567 0.273243 0.126421
1 0.285618 0.135271
1 0.298177 0.144213
0.00631724 0.185901 0.0849012
0.0277867 0.187396 0.0956436
0.0426947 0.187839 0.098558
0.067216 0.189029 0.103532
0.096849 0.190967 0.109529
0.148928 0.192798 0.125933
0.190402 0.196597 0.139025
0.215152 0.19646 0.136004
0.228504 0.185306 0.119509
0.260945 0.183108 0.109438
0.298604 0.180819 0.102129
0.340063 0.178836 0.097612
0.382864 0.17705 0.0939803
0.426566 0.175967 0.0905623
0.470756 0.175402 0.0871443
0.514199 0.175174 0.0832074
0.556527 0.175891 0.0796979
0.59765 0.177829 0.0768292
0.636728 0.180591 0.0743877
0.674098 0.184253 0.0727855
0.709682 0.188754 0.0720836
0.743267 0.194415 0.0726024
0.773037 0.201389 0.0748302
0.800259 0.209628 0.0791028
0.826398 0.219135 0.0853437
0.851804 0.229129 0.0920424
0.877211 0.239628 0.0991684
0.903365 0.250645 0.106783
0.929503 0.261692 0.11429
0.955459 0.273152 0.12221
0.981613 0.284871 0.130419
1 0.296742 0.138689
1 0.308827 0.147082
0 0.211261 0.0880446
0.0229953 0.213321 0.100679
0.034287 0.213672 0.102983
0.0568246 0.214923 0.107881
0.0823224 0.216846 0.112688
0.123262 0.219074 0.124269
0.179416 0.220905 0.141955
0.22414 0.224964 0.155535
0.253346 0.228809 0.15169
0.261677 0.212909 0.13257
0.296132 0.211353 0.122408
0.33518 0.209598 0.114366
0.377829 0.207675 0.108629
0.422065 0.205798 0.104601
0.46688 0.204273 0.100847
0.511086 0.202884 0.0968032
0.554696 0.202411 0.09308
0.596582 0.202762 0.0897688
0.636484 0.20415 0.0869001
0.674525 0.206775 0.0847944
0.710552 0.210376 0.0833906
0.744533 0.215015 0.0830549
0.774792 0.221317 0.0850996
0.802075 0.228962 0.0893263
0.828321 0.238071 0.0950027
0.853574 0.24741 0.100938
0.878798 0.257359 0.107408
0.904112 0.267491 0.114076
0.929839 0.278019 0.121111
0.955795 0.288762 0.128176
0.981552 0.29987 0.1355
1 0.311391 0.143221
1 0.323049 0.150866
0 0.237186 0.0911574
0.0189975 0.239765 0.105592
0.0270237 0.240055 0.107012
0.0458686 0.241184 0.111116
0.0700542 0.243046 0.116167
0.0988022 0.245426 0.121996
0.151858 0.247791 0.139086
0.214023 0.249912 0.158633
0.258869 0.254459 0.170657
0.289616 0.259495 0.165835
0.295415 0.241566 0.145663
0.331609 0.240528 0.13518
0.372137 0.239765 0.126635
0.415137 0.238346 0.119829
0.460197 0.236652 0.114748
0.505196 0.234516 0.110002
0.549615 0.233127 0.105852
0.59202 0.232425 0.1019
0.632715 0.23267 0.098497
0.671763 0.234318 0.0962692
0.708537 0.236866 0.0952163
0.743328 0.240787 0.0955367
0.774655 0.246235 0.0975662
0.802716 0.25333 0.101366
0.828855 0.261219 0.105898
0.853925 0.269764 0.111147
0.87895 0.278965 0.11693
0.904051 0.288457 0.122911
0.929747 0.298604 0.129335
0.955367 0.308675 0.135454
0.980972 0.319066 0.141939
1 0.329686 0.148348
1 0.340688 0.154833
0 0.263508 0.0933242
0.0125887 0.266651 0.109239
0.0187686 0.266957 0.110307
0.0344854 0.267964 0.113771
0.0569924 0.269764 0.118715
0.0823224 0.27219 0.123522
0.123491 0.275181 0.135592
0.184955 0.277378 0.15494
0.254597 0.279606 0.176547
0.294957 0.285039 0.185245
0.326802 0.290715 0.179599
0.330434 0.270924 0.158206
0.368215 0.270832 0.147921
0.409354 0.270756 0.138766
0.45333 0.270314 0.131579
0.497856 0.26862 0.124819
0.542657 0.266941 0.119631
0.585855 0.265629 0.115297
0.62742 0.265248 0.112306
0.667124 0.266377 0.110613
0.704479 0.268147 0.109575
0.739864 0.271031 0.10956
0.772396 0.275761 0.111162
0.801114 0.281651 0.114153
0.827436 0.288594 0.117983
0.852872 0.296376 0.122744
0.877821 0.304768 0.127779
0.902846 0.313756 0.13312
0.928206 0.32285 0.138491
0.953674 0.332052 0.143572
0.978912 0.341756 0.14876
1 0.351522 0.153933
1 0.362051 0.159106
0 0.290593 0.0947585
0.00434882 0.294408 0.112566
0.0093843 0.294484 0.113176
0.022385 0.295491 0.116075
0.0430304 0.297261 0.120638
0.0678569 0.300008 0.126345
0.0964675 0.302815 0.131807
0.152361 0.305577 0.150057
0.226444 0.307469 0.172656
0.297459 0.310735 0.194781
0.333089 0.317067 0.200183
0.366018 0.323507 0.193942
0.366979 0.301762 0.171649
0.405371 0.302144 0.161227
0.447791 0.303105 0.152621
0.491676 0.303181 0.145159
0.535927 0.302541 0.138827
0.579141 0.301442 0.1337
0.621164 0.300923 0.129976
0.661509 0.301274 0.127535
0.699641 0.302388 0.125963
0.735759 0.304463 0.12549
0.769253 0.308156 0.126238
0.798321 0.313176 0.128237
0.825101 0.319387 0.131518
0.850736 0.326482 0.135576
0.875669 0.334203 0.139986
0.900557 0.342168 0.144396
0.925566 0.350271 0.148638
0.950973 0.358846 0.152834
0.976425 0.368032 0.157214
1 0.377035 0.160494
1 0.385855 0.161624
0 0.319417 0.0980087
0 0.323461 0.117311
0 0.323674 0.117952
0.00881972 0.324468 0.120211
0.0282444 0.326238 0.124743
0.0523842 0.328984 0.130541
0.0793622 0.331899 0.135897
0.119753 0.334844 0.14641
0.187121 0.337331 0.167452
0.272328 0.339223 0.193271
0.340749 0.343847 0.215106
0.372885 0.350927 0.21767
0.406867 0.358282 0.211078
0.42118 0.347204 0.193545
0.443595 0.335378 0.177966
0.486198 0.336599 0.169192
0.530251 0.337682 0.161807
0.573098 0.337697 0.155322
0.614694 0.33753 0.149966
0.655329 0.337926 0.14641
0.693812 0.338659 0.143862
0.730541 0.340505 0.142702
0.764691 0.343145 0.142351
0.794598 0.34725 0.143664
0.821805 0.35259 0.146166
0.847684 0.359121 0.14966
0.872572 0.365759 0.153246
0.897337 0.373037 0.156924
0.922286 0.380636 0.160449
0.947768 0.388693 0.16376
0.972961 0.396796 0.166567
0.997757 0.404959 0.167834
1 0.410697 0.15584
0 0.349935 0.102556
0 0.354376 0.123735
0 0.35465 0.124483
0 0.355383 0.126314
0.0128023 0.356847 0.130282
0.036347 0.359442 0.135821
0.0629435 0.362295 0.141329
0.0928817 0.365347 0.1467
0.149645 0.368078 0.163638
0.232242 0.36997 0.188434
0.320439 0.372564 0.215595
0.382925 0.378653 0.234852
0.414679 0.38645 0.236347
0.449363 0.394446 0.229191
0.472724 0.390585 0.214343
0.482307 0.369284 0.194553
0.525048 0.371145 0.186069
0.567498 0.372534 0.178378
0.609232 0.373632 0.172168
0.649531 0.374655 0.167346
0.687663 0.375647 0.163394
0.724483 0.377401 0.161089
0.758984 0.379568 0.159686
0.789609 0.383001 0.15996
0.817258 0.388098 0.161822
0.843137 0.393606 0.164187
0.867918 0.399664 0.166766
0.892607 0.406439 0.169802
0.917769 0.413733 0.172824
0.943114 0.420905 0.175311
0.968124 0.428214 0.177249
0.992798 0.435569 0.177356
1 0.440513 0.163577
0 0.382315 0.107881
0 0.387533 0.131106
0 0.387854 0.132158
0 0.388235 0.133288
0 0.3897 0.137057
0.0207675 0.391989 0.142351
0.0470436 0.394598 0.14786
0.0765545 0.397421 0.153292
0.115587 0.4 0.160678
0.192447 0.402014 0.184253
0.283452 0.403998 0.211658
0.372259 0.407584 0.23946
0.425299 0.414649 0.254078
0.45774 0.422873 0.255085
0.492973 0.431205 0.247044
0.52224 0.432288 0.234226
0.521706 0.403906 0.211292
0.563195 0.405951 0.202884
0.604105 0.408026 0.195499
0.644038 0.410025 0.189502
0.682124 0.411673 0.184527
0.718624 0.413855 0.181018
0.753063 0.41619 0.178546
0.783825 0.419486 0.177508
0.811826 0.424018 0.178332
0.837613 0.429145 0.179843
0.862608 0.434852 0.181857
0.887495 0.441382 0.18436
0.912306 0.447883 0.186526
0.937621 0.454459 0.188403
0.962646 0.461234 0.189776
0.987457 0.468406 0.190112
1 0.472313 0.17557
0 0.414862 0.11046
0 0.422126 0.139071
0 0.422415 0.140276
0 0.422858 0.141314
0 0.424292 0.144915
0.00595102 0.426413 0.14995
0.0319524 0.428931 0.155566
0.0610819 0.431434 0.161028
0.0946059 0.433692 0.165835
0.156283 0.435416 0.181735
0.243153 0.437278 0.207675
0.339803 0.439307 0.236698
0.425742 0.443626 0.26389
0.46894 0.451621 0.273564
0.502083 0.459998 0.273777
0.537209 0.46862 0.265354
0.571313 0.474327 0.254475
0.560815 0.438895 0.228153
0.600488 0.441093 0.219821
0.639826 0.443839 0.213062
0.677485 0.446372 0.207172
0.713771 0.449226 0.202777
0.748012 0.451926 0.199207
0.778973 0.455329 0.197253
0.806867 0.459876 0.197147
0.832532 0.464805 0.197604
0.857389 0.470359 0.198856
0.88188 0.476417 0.200427
0.906661 0.48246 0.201953
0.931609 0.48864 0.203296
0.956924 0.495277 0.204517
0.981643 0.501579 0.204669
1 0.50753 0.201328
0 0.445762 0.107012
0 0.457023 0.146761
0 0.457542 0.148516
0 0.457786 0.149218
0 0.459281 0.152712
0 0.461341 0.157656
0.0172427 0.463828 0.163378
0.0462654 0.466361 0.169024
0.0793774 0.468544 0.174258
0.123323 0.470268 0.180804
0.206195 0.47155 0.205753
0.30071 0.473136 0.233661
0.399298 0.475517 0.263554
0.480064 0.48069 0.289235
0.513726 0.489219 0.29366
0.546883 0.497566 0.292912
0.581018 0.506065 0.284062
0.616327 0.514015 0.27425
0.599191 0.474128 0.245533
0.637064 0.476905 0.237568
0.674067 0.479591 0.230884
0.709895 0.482948 0.225681
0.743709 0.486244 0.221332
0.774975 0.490364 0.218845
0.80267 0.494652 0.217624
0.828199 0.499535 0.21738
0.852964 0.505135 0.218051
0.877089 0.510689 0.218677
0.901335 0.516503 0.219501
0.926162 0.522515 0.220356
0.95111 0.528542 0.220798
0.975647 0.534661 0.220844
1 0.540734 0.219501
0 0.479255 0.111788
0 0.491859 0.154223
0 0.492744 0.156954
0 0.492988 0.157534
0 0.49424 0.160723
0 0.496239 0.165698
0.00289921 0.498772 0.171527
0.0319371 0.501381 0.177371
0.0648966 0.503807 0.183108
0.104265 0.505196 0.187655
0.173053 0.506081 0.204929
0.263066 0.507408 0.231464
0.364126 0.508995 0.261402
0.460945 0.512032 0.291127
0.527031 0.518166 0.309987
0.558892 0.526986 0.313603
0.591455 0.535164 0.312093
0.624491 0.543435 0.302968
0.657664 0.551049 0.293477
0.653193 0.523476 0.269825
0.672236 0.512383 0.255665
0.707378 0.515724 0.249638
0.740917 0.519112 0.244648
0.771984 0.523308 0.24126
0.799344 0.527703 0.239261
0.824643 0.532586 0.238224
0.849058 0.538109 0.238209
0.872908 0.543511 0.23827
0.896757 0.549126 0.238407
0.921187 0.555077 0.238651
0.945861 0.560769 0.238544
0.970291 0.566613 0.238315
0.994766 0.572702 0.237644
0 0.513359 0.117922
0 0.526055 0.160876
0 0.527749 0.165621
0 0.527932 0.16614
0 0.529198 0.16936
0 0.531258 0.174456
0 0.533852 0.180438
0.0189364 0.536721 0.186664
0.0515908 0.538964 0.19237
0.090074 0.540139 0.197131
0.142489 0.540642 0.204944
0.229892 0.541543 0.230945
0.327047 0.542779 0.259236
0.430869 0.544442 0.290074
0.522744 0.548119 0.318547
0.572824 0.555261 0.330098
0.603265 0.564065 0.333257
0.634745 0.571801 0.330861
0.666316 0.579736 0.321599
0.697597 0.587167 0.312505
0.704692 0.571832 0.294713
0.706615 0.547814 0.274311
0.739132 0.551019 0.268238
0.770306 0.555016 0.264149
0.797589 0.559289 0.261555
0.822705 0.564172 0.260105
0.846647 0.56939 0.259297
0.869993 0.574701 0.258701
0.893339 0.580194 0.258274
0.917342 0.585885 0.257923
0.941466 0.591394 0.257267
0.965576 0.597025 0.256641
0.989654 0.602762 0.255711
0 0.546975 0.12488
0 0.556329 0.157992
0 0.562493 0.174609
0 0.562814 0.175341
0 0.563684 0.178103
0 0.565774 0.18349
0 0.568505 0.1897
0.00663767 0.571313 0.196124
0.0392615 0.573541 0.201968
0.0773632 0.574746 0.207111
0.122377 0.574899 0.210849
0.200275 0.575326 0.231739
0.29395 0.576196 0.258991
0.397406 0.577188 0.289021
0.49929 0.579492 0.319677
0.582879 0.583963 0.345647
0.617044 0.591562 0.349645
0.646082 0.599832 0.352026
0.676234 0.607217 0.349447
0.706294 0.61471 0.339773
0.735561 0.621805 0.330953
0.747463 0.612634 0.316289
0.739651 0.58201 0.292592
0.769848 0.585763 0.287297
0.796933 0.589639 0.283833
0.821973 0.59443 0.281971
0.845579 0.599115 0.280568
0.868498 0.604135 0.279484
0.891508 0.609598 0.278737
0.914641 0.614923 0.277668
0.938277 0.620188 0.276448
0.961959 0.625818 0.275456
0.985473 0.631189 0.274006
0 0.58056 0.133135
0 0.589166 0.164294
0 0.595804 0.182193
0 0.596445 0.18378
0 0.597589 0.187076
0 0.600092 0.19324
0 0.602701 0.199634
0 0.605325 0.205905
0.0279698 0.607416 0.21181
0.0655375 0.608606 0.217075
0.110445 0.608469 0.221164
0.173022 0.608377 0.233082
0.264271 0.608728 0.259754
0.363973 0.60943 0.288411
0.470146 0.610758 0.319463
0.565728 0.613352 0.348363
0.62916 0.618601 0.365377
0.659251 0.626535 0.36849
0.687312 0.634348 0.370199
0.715938 0.641321 0.367529
0.744366 0.648371 0.357717
0.77203 0.655314 0.349203
0.787152 0.650813 0.337072
0.771603 0.61529 0.310826
0.797909 0.618967 0.306127
0.822339 0.623346 0.303517
0.84567 0.627832 0.301625
0.868162 0.632364 0.29987
0.8907 0.637461 0.298726
0.913298 0.642344 0.297292
0.936431 0.647379 0.295644
0.959594 0.652766 0.29427
0.982589 0.657984 0.2925
0 0.614038 0.14284
0 0.622705 0.173754
0 0.624887 0.180056
0 0.62591 0.183322
0 0.630457 0.195148
0 0.633112 0.202564
0 0.635843 0.209567
0 0.638468 0.216037
0.0177462 0.64062 0.222065
0.0550851 0.641718 0.227497
0.0996109 0.641413 0.231769
0.147585 0.640879 0.234989
0.237491 0.640742 0.261433
0.334401 0.641199 0.28925
0.439063 0.641657 0.319173
0.541268 0.642985 0.349172
0.627832 0.646174 0.375479
0.671824 0.652323 0.383902
0.699474 0.66009 0.386511
0.726452 0.667369 0.38761
0.753628 0.674113 0.385031
0.780774 0.680781 0.375113
0.806302 0.687236 0.366751
0.823209 0.687175 0.357671
0.800992 0.647044 0.328862
0.824537 0.651118 0.325002
0.846876 0.655177 0.322194
0.868818 0.659648 0.32018
0.890837 0.664302 0.318502
0.912825 0.668818 0.316609
0.935409 0.673655 0.314763
0.958129 0.678447 0.312734
0.980697 0.68336 0.31075
0 0.646448 0.15465
0 0.6551 0.185321
0 0.65655 0.189822
0 0.657221 0.191546
0 0.657923 0.193515
0 0.664668 0.212757
0 0.667659 0.220844
0 0.670359 0.227695
0.0109102 0.67248 0.233783
0.0476844 0.673533 0.239109
0.0915084 0.672999 0.243381
0.138994 0.672053 0.246509
0.215488 0.671656 0.26511
0.309514 0.671397 0.291936
0.410483 0.671534 0.320378
0.51516 0.671992 0.350332
0.610269 0.673854 0.378515
0.681575 0.677943 0.399191
0.712047 0.684703 0.401923
0.737926 0.692088 0.403891
0.763912 0.699031 0.404654
0.789578 0.705287 0.401968
0.815351 0.711528 0.391684
0.838376 0.717845 0.384405
0.857053 0.721691 0.378012
0.840146 0.689357 0.353155
0.849912 0.681514 0.342885
0.871229 0.685878 0.340276
0.892149 0.690059 0.337774
0.913359 0.694362 0.335515
0.935454 0.699001 0.333501
0.957748 0.703471 0.331136
0.97969 0.707927 0.328634
0 0.678111 0.167697
0 0.686702 0.198428
0 0.688167 0.202441
0 0.688533 0.203738
0 0.688518 0.204135
0 0.694148 0.220218
0 0.698207 0.232517
0 0.700801 0.239796
0.00595102 0.702937 0.246159
0.042359 0.704067 0.251545
0.0855268 0.703532 0.25594
0.133333 0.702266 0.259251
0.196246 0.701167 0.26981
0.288716 0.70042 0.296223
0.386679 0.700145 0.323583
0.490349 0.700053 0.352651
0.590082 0.700908 0.381415
0.674357 0.703563 0.406485
0.723644 0.708812 0.417441
0.750668 0.716106 0.419867
0.775448 0.723049 0.421271
0.800259 0.729335 0.421393
0.824643 0.735348 0.418769
0.848493 0.741421 0.408957
0.869596 0.747616 0.402213
0.889479 0.75378 0.397436
0.877821 0.729473 0.376608
0.875166 0.710994 0.360418
0.895125 0.714977 0.357183
0.915404 0.71902 0.354345
0.936721 0.723568 0.351949
0.958251 0.727794 0.349218
0.979934 0.732311 0.346838
0 0.709209 0.180987
0 0.71809 0.212238
0 0.719112 0.215473
0 0.719463 0.216724
0 0.719493 0.216861
0 0.720378 0.219944
0 0.727901 0.243503
0 0.730709 0.251957
0.00114443 0.732586 0.258289
0.0375219 0.733715 0.263844
0.0796826 0.733303 0.268376
0.127321 0.731517 0.271534
0.177478 0.729824 0.274372
0.268849 0.728603 0.300603
0.364721 0.727932 0.327291
0.465782 0.727642 0.355306
0.567987 0.727657 0.384131
0.659419 0.729183 0.410803
0.732204 0.73286 0.432563
0.762768 0.739239 0.435294
0.787472 0.746227 0.43711
0.811566 0.752682 0.438087
0.835721 0.758801 0.437964
0.858183 0.76463 0.435828
0.880034 0.770443 0.426413
0.900008 0.776562 0.419974
0.919219 0.782696 0.415106
0.915526 0.767346 0.399313
0.90045 0.739055 0.377081
0.919966 0.743358 0.373877
0.939803 0.747387 0.370565
0.96051 0.751431 0.36733
0.981567 0.755901 0.364736
0 0.740337 0.19411
0 0.748928 0.225452
0 0.749523 0.228229
0 0.749874 0.22948
0 0.749828 0.22948
0 0.750393 0.231266
0 0.755932 0.250156
0 0.759441 0.262852
0 0.76141 0.269688
0.0319677 0.762463 0.275212
0.072694 0.762097 0.279866
0.120424 0.760021 0.283192
0.169482 0.757885 0.285435
0.248569 0.756252 0.304417
0.343236 0.755108 0.330877
0.441688 0.754574 0.358007
0.544045 0.754086 0.386404
0.640696 0.754803 0.414038
0.722133 0.757259 0.438071
0.773098 0.762097 0.450248
0.799451 0.768826 0.452384
0.823133 0.775494 0.45391
0.846708 0.781521 0.454505
0.869474 0.787152 0.454154
0.889662 0.792813 0.452918
0.910536 0.798688 0.444068
0.929641 0.80441 0.437263
0.948196 0.810178 0.432013
0.948119 0.798962 0.418235
0.926711 0.766552 0.393637
0.94551 0.770489 0.389731
0.965179 0.774578 0.38616
0.985443 0.778759 0.382864
0 0.770764 0.206226
0 0.77911 0.238025
0 0.779721 0.24065
0 0.779736 0.241535
0 0.779644 0.241413
0 0.779873 0.242359
0 0.78085 0.246738
0 0.786908 0.272114
0 0.788968 0.280064
0.0252384 0.790036 0.285893
0.0654612 0.789761 0.290608
0.112398 0.787747 0.294224
0.161715 0.785397 0.296666
0.227619 0.783368 0.30779
0.321096 0.781826 0.333974
0.417624 0.780835 0.360433
0.518166 0.780133 0.388006
0.618524 0.780163 0.416266
0.706752 0.781521 0.44181
0.777188 0.784894 0.462669
0.810346 0.790494 0.466987
0.83444 0.796994 0.468757
0.85742 0.803128 0.469917
0.880262 0.808789 0.470283
0.901183 0.814435 0.470451
0.919829 0.820066 0.470085
0.939574 0.82533 0.460685
0.958282 0.830884 0.453681
0.97673 0.836545 0.448188
0.980682 0.829267 0.436316
0.953033 0.792981 0.4094
0.971969 0.79707 0.40531
0.991318 0.801053 0.401404
0 0.799924 0.217548
0 0.807828 0.249805
0 0.808301 0.252216
0 0.808454 0.253315
0 0.808347 0.253208
0 0.80824 0.253498
0 0.808621 0.256046
0 0.813245 0.278874
0 0.81529 0.289479
0.0174716 0.816403 0.295979
0.0573892 0.816388 0.300984
0.103243 0.814572 0.304784
0.152941 0.811856 0.307362
0.205447 0.809415 0.310292
0.298146 0.807462 0.336477
0.393393 0.806149 0.362631
0.492073 0.805356 0.389593
0.593317 0.804715 0.417533
0.68719 0.805234 0.444236
0.766033 0.807309 0.467292
0.81915 0.811612 0.480949
0.845212 0.817578 0.482872
0.868162 0.823926 0.48452
0.890806 0.829847 0.485603
0.91191 0.835248 0.486137
0.930938 0.84062 0.486519
0.948592 0.846128 0.486717
0.967926 0.851255 0.477058
0.98645 0.856672 0.469703
1 0.862043 0.463676
1 0.858381 0.453666
0.99089 0.828138 0.429847
0.998154 0.822141 0.419959
0 0.828122 0.228489
0 0.835477 0.261082
0 0.835599 0.263066
0 0.835599 0.264027
0 0.835492 0.263981
0 0.835416 0.264073
0 0.835462 0.265599
0 0.836347 0.271504
0 0.840574 0.298039
