luts/Channel X5.cube
TITLE "Generated by Resolve"
LUT_3D_SIZE 9
0.0169223 0 0.00482185
0.0939803 0.0158236 0.0103151
0.215732 0.0346227 0.0111238
0.383322 0.0321965 0
0.554955 0.0444343 0
0.699184 0.0708782 0
0.801297 0.12015 0
0.902892 0.170275 0.0266728
1 0.222248 0.0590524
0.00115969 0.110567 0.062089
0.112566 0.115114 0.0702678
0.193332 0.115801 0.0473335
0.353231 0.113848 0.0328374
0.526879 0.117128 0.0140688
0.682429 0.129519 0
0.801007 0.160403 0.00799573
0.902235 0.202289 0.0329442
1 0.24828 0.0619211
0 0.204044 0.0933242
0.0625925 0.209522 0.11165
0.21532 0.218997 0.11931
0.329305 0.220584 0.0751659
0.500923 0.219486 0.0405432
0.66836 0.220188 0.0274357
0.798154 0.238468 0.0323796
0.897185 0.273075 0.0530556
0.994888 0.313893 0.0786908
0 0.310369 0.125353
0.0104829 0.318013 0.149126
0.137423 0.327184 0.157397
0.355016 0.339971 0.15668
0.475868 0.348852 0.120333
0.639323 0.35671 0.0874495
0.777447 0.370459 0.0785077
0.879057 0.396689 0.0921187
0.976867 0.42884 0.112734
0 0.436164 0.175601
0 0.450294 0.208026
0.0594186 0.460136 0.220432
0.292027 0.466285 0.215488
0.52195 0.483757 0.223163
0.65388 0.510933 0.194202
0.763439 0.506874 0.161181
0.863523 0.530739 0.16228
0.95639 0.558053 0.170138
0 0.569162 0.2383
0 0.585031 0.270771
0.0234073 0.595804 0.286656
0.193576 0.602274 0.285023
0.524559 0.604105 0.284153
0.691127 0.626184 0.29044
0.799832 0.651286 0.266041
0.866728 0.64918 0.240589
0.952041 0.670146 0.239109
0 0.695399 0.312947
0 0.709804 0.342794
0 0.716609 0.353277
0.147189 0.724315 0.357259
0.455268 0.721538 0.351278
0.739895 0.726406 0.351492
0.839979 0.749905 0.353567
0.922911 0.77171 0.336034
0.972915 0.771618 0.310674
0 0.813413 0.383749
0 0.823941 0.410346
0 0.827268 0.4168
0.130739 0.830777 0.41883
0.384649 0.827085 0.413687
0.714137 0.822431 0.406744
0.882612 0.836591 0.409476
0.96553 0.856641 0.411872
1 0.876616 0.397467
0 0.916442 0.439429
0 0.923095 0.465934
0 0.924224 0.471427
0.0604868 0.922179 0.465888
0.310018 0.921675 0.468894
0.632151 0.91429 0.458518
0.912398 0.915999 0.456016
1 0.935332 0.458915
1 0.955627 0.465202
0 0.002121 0.0594949
0.111757 0 0.0625925
0.254765 0 0.0487068
0.373312 0 0.0390326
0.514672 0.0108949 0.0357671
0.64152 0.0440986 0.0440986
0.758984 0.0821088 0.0656291
0.897566 0.159274 0.125841
1 0.236545 0.189181
0.00222782 0.119661 0.123018
0.0851453 0.110536 0.114534
0.187778 0.127245 0.116533
0.353063 0.133593 0.101717
0.534173 0.143938 0.0890669
0.693416 0.162783 0.0854963
0.810849 0.197848 0.102663
0.910811 0.241718 0.131197
1 0.288487 0.16289
0 0.218204 0.144121
0.0529183 0.214862 0.153765
0.187198 0.220325 0.170245
0.323217 0.228992 0.146075
0.509514 0.232059 0.132036
0.679347 0.239628 0.124422
0.809171 0.265126 0.134569
0.909819 0.303639 0.160937
1 0.346166 0.190524
0 0.320409 0.162722
0 0.322835 0.185473
0.10956 0.333959 0.211734
0.334722 0.344091 0.225208
0.469017 0.359792 0.200229
0.647166 0.374487 0.18146
0.792462 0.389944 0.183398
0.896651 0.419547 0.202976
0.996368 0.454658 0.226642
0 0.444953 0.208377
0 0.453742 0.236866
0.0523079 0.465553 0.263996
0.214115 0.47364 0.280247
0.50396 0.487648 0.29395
0.638453 0.517403 0.272465
0.765942 0.526894 0.251881
0.870405 0.554238 0.258274
0.967987 0.583383 0.270558
0 0.577356 0.267323
0 0.588479 0.294942
0.00981155 0.604044 0.328878
0.144381 0.61268 0.347829
0.436088 0.613565 0.354208
0.673457 0.632715 0.367468
0.78555 0.660899 0.347814
0.86276 0.666346 0.329625
0.952071 0.690349 0.331472
0 0.70367 0.339971
0 0.715328 0.366812
0 0.726543 0.392584
0.124407 0.737346 0.417502
0.351446 0.732692 0.422156
0.686534 0.733608 0.424414
0.819867 0.757473 0.434073
0.906645 0.78114 0.419181
0.960693 0.783978 0.396979
0 0.821714 0.410346
0 0.830396 0.434318
0 0.838132 0.456626
0.107332 0.844129 0.478004
0.281285 0.838849 0.484382
0.607645 0.833005 0.481193
0.858793 0.841672 0.487434
0.945068 0.864332 0.495644
1 0.885588 0.485405
0 0.924987 0.466819
0 0.929808 0.490211
0 0.935317 0.512367
0.0276188 0.936934 0.523674
0.239994 0.935439 0.539025
0.512322 0.926314 0.536461
0.832593 0.924025 0.534981
0.984192 0.941634 0.544778
1 0.963836 0.55671
0 0.0203555 0.128481
0.0491646 0.0138399 0.133623
0.23975 0 0.131991
0.460426 0 0.118761
0.573922 0.019501 0.108721
0.67837 0.0489662 0.118914
0.764416 0.0890364 0.146227
0.852445 0.136751 0.18175
0.94548 0.189288 0.221088
0 0.12694 0.180423
0.0555123 0.118791 0.176165
0.191119 0.107347 0.180728
0.383719 0.11368 0.173022
0.521004 0.130068 0.170397
0.658747 0.146777 0.174395
0.763119 0.176257 0.194369
0.865599 0.210025 0.218097
0.978683 0.250324 0.240986
0 0.228397 0.230335
0.0543984 0.228931 0.234073
0.160876 0.227802 0.236576
0.311696 0.246036 0.236133
0.501015 0.258473 0.223346
0.67892 0.271962 0.21294
0.810391 0.297612 0.218311
0.911727 0.334936 0.237842
1 0.375677 0.260273
0 0.344259 0.243732
0 0.343771 0.249561
0.0935225 0.347295 0.263096
0.288472 0.352712 0.285451
0.464271 0.371069 0.265003
0.654917 0.388205 0.255116
0.802533 0.40499 0.256931
0.9066 0.435996 0.272358
1 0.472038 0.291051
0 0.464988 0.271977
0 0.465705 0.274693
0.0282597 0.472221 0.300542
0.187228 0.478492 0.325582
0.487968 0.487739 0.338094
0.620142 0.512657 0.316655
0.769802 0.53933 0.304082
0.876707 0.566873 0.309575
0.976547 0.595972 0.321004
0 0.593194 0.313115
0 0.598367 0.327565
0 0.609201 0.356435
0.131365 0.618463 0.384237
0.38146 0.615641 0.391394
0.662165 0.632395 0.403204
0.777188 0.662623 0.384237
0.862654 0.674067 0.36878
0.954238 0.699657 0.370428
0 0.718029 0.378958
0 0.724147 0.393866
0 0.731548 0.413931
0.110216 0.743496 0.448676
0.304692 0.735592 0.454307
0.64863 0.734691 0.454871
0.809781 0.757702 0.464988
0.898634 0.782086 0.448844
0.959152 0.78999 0.429648
0 0.833936 0.4448
0 0.837598 0.45713
0 0.8421 0.473625
0.0957504 0.850019 0.506767
0.267292 0.84268 0.513512
0.560906 0.834897 0.510689
0.846174 0.841108 0.515465
0.936202 0.864744 0.524193
1 0.886534 0.513313
0 0.934981 0.498726
0 0.935714 0.510201
0 0.938872 0.526513
0.0301518 0.943496 0.552544
0.228016 0.940215 0.566537
0.470253 0.928512 0.565347
0.795209 0.925139 0.562524
0.974578 0.941482 0.572808
1 0.964431 0.584848
0 0.043473 0.206363
0.00233463 0.0338445 0.207263
0.145769 0.0169985 0.209018
0.417609 0 0.194873
0.667399 0 0.18674
0.776608 0.027039 0.190982
0.844816 0.0702373 0.213703
0.915145 0.122637 0.247959
0.995285 0.180926 0.288945
0 0.13344 0.241932
0.00788891 0.114931 0.234989
0.113664 0.0998093 0.236255
0.376776 0.0879683 0.239139
0.617624 0.0960708 0.235843
0.727825 0.128191 0.239429
0.811841 0.165286 0.261616
0.89546 0.206653 0.291112
0.983307 0.249943 0.322499
0 0.244099 0.304723
0.0158846 0.236225 0.295018
0.118822 0.229755 0.2916
0.320806 0.215351 0.301366
0.540063 0.235019 0.302876
0.676463 0.260121 0.309606
0.788327 0.285908 0.325231
0.880369 0.319631 0.349203
0.974441 0.355077 0.37348
0 0.355062 0.340749
0 0.357336 0.345281
0.102251 0.370352 0.360983
0.256123 0.371389 0.365866
0.444389 0.395392 0.35964
0.647288 0.418952 0.361807
0.802441 0.442206 0.363348
0.909651 0.474586 0.376455
1 0.509865 0.392294
0 0.492378 0.366583
0 0.495521 0.370855
0.0104219 0.49926 0.378378
0.145129 0.499092 0.384695
0.423636 0.500435 0.409934
0.612116 0.527626 0.394095
0.772564 0.561196 0.388022
0.88484 0.590051 0.395468
0.986847 0.619135 0.406744
0 0.621592 0.397436
0 0.624964 0.404791
0 0.62858 0.409049
0.0860304 0.631586 0.429648
0.313497 0.62031 0.445975
0.641428 0.631922 0.458701
0.762234 0.66717 0.446372
0.860731 0.688685 0.436912
0.955993 0.71722 0.439017
0 0.742611 0.441398
0 0.746151 0.449454
0 0.748791 0.458717
0.0654154 0.754742 0.48629
0.273014 0.744106 0.502083
0.571633 0.737545 0.501945
0.793469 0.758389 0.512947
0.886168 0.786221 0.501854
0.954376 0.800458 0.48719
0 0.854627 0.498878
0 0.856291 0.506569
0 0.85658 0.513039
0.0519722 0.858518 0.537514
0.241169 0.851682 0.555306
0.491051 0.838254 0.553475
0.811337 0.841459 0.555428
0.923461 0.866072 0.565606
0.998276 0.889265 0.557305
0 0.952331 0.547189
0 0.951644 0.554665
0 0.951034 0.560067
0.00683604 0.951202 0.58024
0.203387 0.949248 0.603784
0.410224 0.932662 0.602762
0.738277 0.927489 0.598932
0.961257 0.941176 0.608087
1 0.965469 0.620142
0 0.0601205 0.272175
0 0.0492714 0.272801
0.0825666 0.0332952 0.274525
0.32488 0.00497444 0.271321
0.606592 0 0.249683
0.826917 0 0.249317
0.937209 0.0480507 0.286976
1 0.0976883 0.314397
1 0.156298 0.349615
0 0.147982 0.307576
0 0.123964 0.300252
0.0667277 0.108171 0.298985
0.279591 0.0841382 0.301152
0.579156 0.0725719 0.292744
0.813077 0.0748608 0.294423
0.914626 0.135744 0.327276
0.992401 0.180591 0.352758
1 0.229343 0.38262
0 0.251377 0.355383
0 0.238773 0.346807
0.0697948 0.220737 0.340444
0.216815 0.191989 0.340032
0.542351 0.197803 0.35903
0.778088 0.213291 0.365652
0.872267 0.259861 0.385458
0.946426 0.302052 0.410864
1 0.344732 0.438682
0 0.389349 0.436072
0 0.383154 0.432242
0.0845655 0.381491 0.431342
0.20943 0.368826 0.417914
0.459998 0.357168 0.43183
0.669398 0.395743 0.445151
0.791699 0.433005 0.465919
0.88716 0.464668 0.488289
0.980957 0.49659 0.510536
0 0.50106 0.462837
0 0.50692 0.470222
0.0268101 0.522942 0.4878
0.155032 0.532647 0.499153
0.378149 0.527901 0.497658
0.594659 0.549554 0.492439
0.764263 0.59559 0.499107
0.887526 0.629404 0.51342
0.991119 0.658061 0.524193
0 0.647562 0.505425
0 0.654108 0.512352
0 0.664683 0.521843
0.0653239 0.665782 0.524926
0.25536 0.644404 0.511376
0.573663 0.643778 0.537087
0.73959 0.67303 0.52784
0.85684 0.711269 0.52813
0.957687 0.743786 0.532631
0 0.778088 0.553399
0 0.782666 0.558328
0 0.784772 0.561395
0.0334173 0.783078 0.564569
0.203983 0.764416 0.557092
0.459983 0.740795 0.564569
0.767483 0.756725 0.577447
0.868132 0.791745 0.573816
0.945998 0.814282 0.564172
0 0.887312 0.602899
0 0.888258 0.605386
0 0.887114 0.604135
0 0.880735 0.596948
0.171145 0.870253 0.604685
0.419242 0.845258 0.611124
0.728817 0.842268 0.611322
0.9028 0.867063 0.62562
0.982193 0.893492 0.620478
0 0.980514 0.625818
0 0.979385 0.628061
0 0.97731 0.628763
0 0.972793 0.630442
0.139925 0.964401 0.645945
0.375586 0.942748 0.655329
0.645457 0.930373 0.651408
0.933471 0.94081 0.658854
1 0.966857 0.672892
0 0.0753948 0.321309
0 0.0632792 0.322362
0.044419 0.0587167 0.329427
0.24123 0.0204166 0.325078
0.536171 0 0.316899
0.775006 0 0.297978
0.945205 0 0.313176
1 0.0757916 0.366583
1 0.143084 0.407355
0 0.164294 0.362448
0 0.135378 0.354192
0.0345159 0.121004 0.354131
0.202426 0.0923171 0.35314
0.505821 0.0717479 0.357229
0.762066 0.0656596 0.343374
0.94612 0.0839094 0.361685
1 0.157626 0.411246
1 0.208774 0.440909
0 0.263462 0.406729
0 0.252781 0.404623
0.0396582 0.23006 0.399954
0.160159 0.197742 0.394095
0.45275 0.181964 0.410498
0.748333 0.188479 0.413443
0.947402 0.208331 0.434806
1 0.269078 0.468559
1 0.316823 0.494209
0 0.397162 0.487297
0 0.39115 0.481666
0.0395361 0.383764 0.473899
0.150546 0.35523 0.453132
0.337026 0.31487 0.449485
0.693629 0.346929 0.491569
0.891325 0.374136 0.510872
0.967224 0.435019 0.542321
1 0.479179 0.568139
0 0.553414 0.572931
0 0.549599 0.572229
0.0416114 0.556939 0.583413
0.165026 0.552163 0.582132
0.354376 0.532403 0.56318
0.608621 0.519417 0.571054
0.774517 0.56994 0.593179
0.875425 0.611551 0.621012
0.97467 0.642145 0.640589
0 0.653529 0.59472
0 0.661219 0.603449
0 0.672847 0.616083
0.0872511 0.691752 0.635981
0.265095 0.685206 0.631357
0.522759 0.674327 0.625391
0.727001 0.691386 0.624262
0.847013 0.745724 0.633158
0.956786 0.784695 0.645624
0 0.795071 0.65565
0 0.802319 0.663203
0 0.808789 0.669505
0.0254215 0.820127 0.677974
0.186267 0.802365 0.659617
0.396048 0.768688 0.632349
0.705242 0.769482 0.657038
0.849424 0.800671 0.657542
0.937209 0.833692 0.655665
0 0.911131 0.708797
0 0.915267 0.712551
0 0.917327 0.713787
0 0.91693 0.709758
0.149767 0.900649 0.696223
0.341512 0.866407 0.668727
0.611673 0.844511 0.676738
0.876112 0.865873 0.694667
0.961105 0.897841 0.697429
0 1 0.74583
0 1 0.74638
0 1 0.745159
0 1 0.740719
0.0775311 0.992645 0.718639
0.294469 0.963775 0.709682
0.552377 0.93521 0.714183
0.849027 0.939055 0.719676
0.9944 0.966781 0.740291
0 0.0902419 0.361151
0 0.076936 0.361654
0.0153964 0.0730755 0.369085
0.178317 0.0341497 0.363195
0.465522 0.00228885 0.361547
0.729778 0 0.347341
0.907897 0 0.342168
1 0.0212253 0.368582
1 0.0952926 0.425315
0 0.181765 0.404578
0 0.147494 0.393942
0.00892653 0.131777 0.393408
0.149645 0.101534 0.390417
0.429374 0.0771954 0.396658
0.719585 0.066392 0.393011
0.90779 0.0738842 0.388952
1 0.104738 0.418814
1 0.181628 0.47483
0 0.278172 0.447349
0 0.268986 0.44889
0.0184482 0.240116 0.442664
0.130892 0.212589 0.438209
0.372839 0.182376 0.444892
0.705623 0.181827 0.462379
0.911925 0.192859 0.46183
1 0.225986 0.49398
1 0.291493 0.534127
0 0.409506 0.525643
0 0.403555 0.520516
0.0156405 0.39646 0.516518
0.123873 0.365515 0.50042
0.281498 0.317403 0.485588
0.626154 0.32224 0.52665
0.874006 0.348562 0.543221
1 0.383993 0.575662
1 0.445487 0.607691
0 0.563622 0.622782
0 0.56022 0.622202
0.0282902 0.566186 0.630198
0.140169 0.557565 0.622385
0.285695 0.508476 0.575418
0.48835 0.46894 0.571344
0.811551 0.51725 0.625711
0.963119 0.549554 0.651118
1 0.616037 0.685771
0 0.718166 0.70753
0 0.715877 0.708095
0 0.717052 0.712657
0.121721 0.727062 0.727504
0.293599 0.708263 0.714748
0.518318 0.691478 0.70309
0.731563 0.674952 0.701198
0.853452 0.719509 0.723491
0.954559 0.760678 0.745876
0 0.798535 0.731014
0 0.806058 0.739651
0 0.813642 0.748348
0.0558328 0.831861 0.768231
0.202808 0.828641 0.765774
0.407492 0.811826 0.748669
0.655329 0.799252 0.741344
0.834363 0.812421 0.746746
0.929107 0.863401 0.757153
0 0.919722 0.797101
0 0.924773 0.802823
0 0.929229 0.807645
0.00590524 0.938369 0.815366
0.142367 0.936034 0.810681
0.33727 0.903761 0.774975
0.545251 0.873365 0.746914
0.826337 0.880232 0.776211
0.944778 0.908019 0.783215
0 1 0.845228
0 1 0.847974
0 1 0.84976
0 1 0.849683
0.0937057 1 0.839719
0.284077 0.994507 0.806928
0.476204 0.956176 0.772213
0.737179 0.943023 0.788388
0.968154 0.966262 0.811292
0 0.104906 0.399908
0 0.0901961 0.399847
0 0.0869459 0.407614
0.133303 0.0732738 0.411933
0.388388 0.0138247 0.400015
0.681956 0 0.393347
0.878416 0 0.384146
1 0.0116274 0.394858
1 0.0467689 0.426047
0 0.197925 0.444724
0 0.160571 0.432944
0 0.143404 0.431724
0.118273 0.133913 0.437522
0.354345 0.0858778 0.431937
0.666987 0.069398 0.436255
0.88159 0.072343 0.432151
1 0.0948501 0.444266
1 0.130297 0.478157
0 0.294362 0.486885
0 0.286778 0.491173
0 0.25095 0.481987
0.102739 0.22388 0.477745
0.308186 0.188754 0.478447
0.643153 0.178866 0.498253
0.888731 0.187884 0.504555
1 0.21181 0.517067
1 0.247135 0.551049
0 0.424247 0.561196
0 0.418936 0.557458
0.000167849 0.412726 0.556909
0.102037 0.377081 0.541344
0.24947 0.329061 0.526207
0.54583 0.309941 0.548714
0.850813 0.33724 0.58349
1 0.364294 0.597009
1 0.399924 0.631251
0 0.576196 0.661646
0 0.5729 0.660395
0.0121767 0.578424 0.665843
0.118791 0.567346 0.654383
0.258366 0.513146 0.606516
0.421271 0.453559 0.58204
0.759884 0.488685 0.648692
0.947478 0.527428 0.676204
1 0.559533 0.706661
0 0.73048 0.754345
0 0.727947 0.75462
0 0.729595 0.759441
0.122164 0.738323 0.772793
0.284596 0.714473 0.753201
0.464347 0.67126 0.709743
0.643 0.637339 0.700725
0.885008 0.676982 0.747311
1 0.701198 0.767895
0 0.863615 0.839155
0 0.861616 0.838758
0 0.859953 0.838941
0.088777 0.868406 0.851575
0.234546 0.858381 0.84448
0.436057 0.8327 0.822293
0.659205 0.823911 0.817761
0.827283 0.809796 0.813031
0.930297 0.843626 0.831373
0 0.922286 0.854902
0 0.927138 0.861128
0 0.93196 0.867262
0.0211795 0.943755 0.881804
0.165179 0.946868 0.886946
0.352438 0.929381 0.870222
0.565408 0.913527 0.853758
0.785855 0.905821 0.853315
0.933837 0.919631 0.865095
0 1 0.916579
0 1 0.920562
0 1 0.924193
0 1 0.928405
0.112428 1 0.934371
0.280751 1 0.916487
0.487434 0.992126 0.875166
0.678645 0.970932 0.856123
0.911025 0.984771 0.892363
0 0.119966 0.440452
0 0.103471 0.438102
0 0.100511 0.444846
0.0954299 0.0907301 0.450874
0.31548 0.025742 0.435599
0.619806 0 0.43386
0.848646 0 0.427878
0.988113 0.00761425 0.432761
1 0.0352026 0.449561
0 0.20911 0.481834
0 0.174319 0.471153
0 0.155596 0.469078
0.0852064 0.149523 0.476661
0.286107 0.0959793 0.466514
0.599603 0.0742657 0.474037
0.849485 0.0728466 0.475837
0.99852 0.0922713 0.484688
1 0.120302 0.502647
0 0.312184 0.526909
0 0.305898 0.533242
0 0.262577 0.520531
0.0753796 0.23592 0.51664
0.268742 0.21767 0.522255
0.567864 0.179568 0.529702
0.851682 0.18471 0.545098
1 0.2065 0.557794
1 0.234241 0.574228
0 0.440162 0.597604
0 0.435554 0.595605
0 0.4309 0.59855
0.080415 0.389502 0.581842
0.217945 0.340505 0.566217
0.474174 0.308644 0.576562
0.800534 0.326085 0.615854
0.985946 0.354376 0.637507
1 0.382773 0.652873
0 0.589837 0.699168
0 0.586999 0.697307
0 0.591928 0.700969
0.099382 0.579293 0.688685
0.229267 0.521477 0.644205
0.380102 0.455802 0.615
0.672389 0.455894 0.653895
0.920775 0.507118 0.708721
1 0.538048 0.727642
0 0.742947 0.798642
0 0.740185 0.79794
0 0.741894 0.802563
0.114717 0.748028 0.811765
0.262425 0.718639 0.783246
0.408042 0.649882 0.714885
0.564675 0.601434 0.694041
0.82829 0.639414 0.760449
1 0.681361 0.795193
0 0.875532 0.888792
0 0.871839 0.886412
0 0.870344 0.8869
0.102785 0.877852 0.899107
0.244678 0.866407 0.890227
0.434348 0.834943 0.860243
0.623743 0.806912 0.830304
0.768658 0.788281 0.822354
0.948837 0.812573 0.858427
0 0.980346 0.95491
0 0.978454 0.954589
0 0.976913 0.954696
0.0419471 0.982971 0.964691
0.193072 0.980087 0.965087
0.379278 0.957168 0.944366
0.588891 0.932845 0.922408
0.787381 0.930861 0.923766
0.916915 0.924224 0.921767
0 1 0.964935
0 1 0.969268
0 1 0.972976
0 1 0.978225
0.132189 1 0.991226
0.296681 1 0.982879
0.496925 1 0.960052
0.702815 1 0.947372
0.892805 1 0.958312
