luts/Channel X1.cube
TITLE "Generated by Resolve"
LUT_3D_SIZE 5
0 0 0
0.210437 0.040177 0.0162051
0.542672 0.0408789 0
0.806622 0.106279 0
1 0.209461 0.0466773
0.0127718 0.191546 0.0755322
0.214389 0.198413 0.097322
0.478798 0.216419 0.038407
0.788922 0.234607 0.0213931
1 0.307057 0.059144
0 0.421622 0.139559
0.199542 0.439353 0.184009
0.48893 0.448814 0.204562
0.747219 0.492073 0.154559
0.952697 0.543679 0.153201
0.0018616 0.679728 0.259785
0.225376 0.698009 0.308415
0.491783 0.700221 0.331029
0.802228 0.705043 0.331487
0.971481 0.742657 0.296117
0.0431678 0.902159 0.383001
0.251789 0.905989 0.416922
0.483787 0.909316 0.444602
0.848188 0.874922 0.430503
1 0.903151 0.435218
0 0.00898756 0.119112
0.306142 0 0.103975
0.55433 0.00584421 0.0677806
0.754879 0.0665141 0.0904707
1 0.200519 0.170947
0 0.214145 0.218387
0.191745 0.226947 0.240589
0.517754 0.258198 0.225208
0.818341 0.295598 0.21915
1 0.372457 0.259754
0 0.456092 0.267155
0.152544 0.462852 0.300862
0.489235 0.469535 0.342077
0.772931 0.52546 0.305348
0.983459 0.581735 0.316411
0 0.711788 0.369406
0.170855 0.722255 0.417304
0.457954 0.719722 0.455207
0.79498 0.722805 0.462394
0.967041 0.764538 0.426673
0 0.930449 0.488472
0.193622 0.927825 0.521172
0.441764 0.925841 0.55729
0.818967 0.891325 0.552743
1 0.920119 0.567056
0 0.0186923 0.252491
0.286015 0 0.249485
0.738048 0 0.187045
0.928206 0.00529488 0.204807
1 0.117601 0.263127
0 0.203067 0.317708
0.128099 0.193423 0.332204
0.64242 0.187594 0.347066
0.85124 0.268208 0.367803
1 0.347036 0.41355
0 0.483055 0.465339
0.102281 0.508263 0.498909
0.473869 0.517311 0.526146
0.797436 0.593866 0.53489
1 0.649683 0.559045
0 0.769192 0.572015
0.0868086 0.773114 0.582544
0.394873 0.741238 0.580133
0.777935 0.739712 0.610361
0.965621 0.796506 0.590372
0 0.981353 0.664561
0.070634 0.968231 0.64715
0.378103 0.947051 0.667536
0.768765 0.906828 0.676265
1 0.935943 0.696437
0 0.0269169 0.340887
0.274327 0 0.336858
0.787289 0 0.293507
1 0 0.282719
1 0.0610208 0.365881
0 0.209247 0.414862
0.123262 0.199023 0.439567
0.669764 0.157702 0.458274
1 0.182376 0.459983
1 0.295476 0.523888
0 0.4766 0.566323
0.0755932 0.487922 0.581842
0.400992 0.448325 0.573861
0.897688 0.511177 0.655283
1 0.618097 0.712856
0 0.781064 0.743358
0.0567636 0.802579 0.776669
0.352041 0.796033 0.785245
0.76643 0.784741 0.800153
0.972 0.867124 0.819715
0 1 0.869642
0.0445258 1 0.876799
0.300572 1 0.863935
0.683436 0.928008 0.821439
0.986893 0.955062 0.869718
0 0.0347448 0.424048
0.265202 0 0.413718
0.806851 0 0.377798
1 0 0.370245
1 0 0.38088
0 0.217258 0.497841
0.129931 0.205249 0.526238
0.66688 0.139803 0.533318
1 0.161547 0.550576
1 0.209125 0.573541
0 0.474952 0.622202
0.0454719 0.478569 0.638239
0.406195 0.429847 0.64126
0.9337 0.473365 0.733257
1 0.524727 0.761807
0 0.782284 0.832074
0.0823072 0.800061 0.861982
0.377584 0.774746 0.851087
0.720455 0.748211 0.846159
1 0.802014 0.906249
0 1 0.97406
0.0420691 1 0.995102
0.294133 1 1
0.671778 0.991745 0.99559
0.987732 1 1
