luts/Channel X5.cube
TITLE "Generated by Resolve"
LUT_3D_SIZE 5
0.0169223 0 0.00482185
0.215732 0.0346227 0.0111238
0.554955 0.0444343 0
0.801297 0.12015 0
1 0.222248 0.0590524
0 0.204044 0.0933242
0.21532 0.218997 0.11931
0.500923 0.219486 0.0405432
0.798154 0.238468 0.0323796
0.994888 0.313893 0.0786908
0 0.436164 0.175601
0.0594186 0.460136 0.220432
0.52195 0.483757 0.223163
0.763439 0.506874 0.161181
0.95639 0.558053 0.170138
0 0.695399 0.312947
0 0.716609 0.353277
0.455268 0.721538 0.351278
0.839979 0.749905 0.353567
0.972915 0.771618 0.310674
0 0.916442 0.439429
0 0.924224 0.471427
0.310018 0.921675 0.468894
0.912398 0.915999 0.456016
1 0.955627 0.465202
0 0.0203555 0.128481
0.23975 0 0.131991
0.573922 0.019501 0.108721
0.764416 0.0890364 0.146227
0.94548 0.189288 0.221088
0 0.228397 0.230335
0.160876 0.227802 0.236576
0.501015 0.258473 0.223346
0.810391 0.297612 0.218311
1 0.375677 0.260273
0 0.464988 0.271977
0.0282597 0.472221 0.300542
0.487968 0.487739 0.338094
0.769802 0.53933 0.304082
0.976547 0.595972 0.321004
0 0.718029 0.378958
0 0.731548 0.413931
0.304692 0.735592 0.454307
0.809781 0.757702 0.464988
0.959152 0.78999 0.429648
0 0.934981 0.498726
0 0.938872 0.526513
0.228016 0.940215 0.566537
0.795209 0.925139 0.562524
1 0.964431 0.584848
0 0.0601205 0.272175
0.0825666 0.0332952 0.274525
0.606592 0 0.249683
0.937209 0.0480507 0.286976
1 0.156298 0.349615
0 0.251377 0.355383
0.0697948 0.220737 0.340444
0.542351 0.197803 0.35903
0.872267 0.259861 0.385458
1 0.344732 0.438682
0 0.50106 0.462837
0.0268101 0.522942 0.4878
0.378149 0.527901 0.497658
0.764263 0.59559 0.499107
0.991119 0.658061 0.524193
0 0.778088 0.553399
0 0.784772 0.561395
0.203983 0.764416 0.557092
0.767483 0.756725 0.577447
0.945998 0.814282 0.564172
0 0.980514 0.625818
0 0.97731 0.628763
0.139925 0.964401 0.645945
0.645457 0.930373 0.651408
1 0.966857 0.672892
0 0.0902419 0.361151
0.0153964 0.0730755 0.369085
0.465522 0.00228885 0.361547
0.907897 0 0.342168
1 0.0952926 0.425315
0 0.278172 0.447349
0.0184482 0.240116 0.442664
0.372839 0.182376 0.444892
0.911925 0.192859 0.46183
1 0.291493 0.534127
0 0.563622 0.622782
0.0282902 0.566186 0.630198
0.285695 0.508476 0.575418
0.811551 0.51725 0.625711
1 0.616037 0.685771
0 0.798535 0.731014
0 0.813642 0.748348
0.202808 0.828641 0.765774
0.655329 0.799252 0.741344
0.929107 0.863401 0.757153
0 1 0.845228
0 1 0.84976
0.0937057 1 0.839719
0.476204 0.956176 0.772213
0.968154 0.966262 0.811292
0 0.119966 0.440452
0 0.100511 0.444846
0.31548 0.025742 0.435599
0.848646 0 0.427878
1 0.0352026 0.449561
0 0.312184 0.526909
0 0.262577 0.520531
0.268742 0.21767 0.522255
0.851682 0.18471 0.545098
1 0.234241 0.574228
0 0.589837 0.699168
0 0.591928 0.700969
0.229267 0.521477 0.644205
0.672389 0.455894 0.653895
1 0.538048 0.727642
0 0.875532 0.888792
0 0.870344 0.8869
0.244678 0.866407 0.890227
0.623743 0.806912 0.830304
0.948837 0.812573 0.858427
0 1 0.964935
0 1 0.972976
0.132189 1 0.991226
0.496925 1 0.960052
0.892805 1 0.958312
