luts/Channel X3.cube
TITLE "Generated by Resolve"
LUT_3D_SIZE 5
0.0377203 0 0.0103761
0.217121 0.0278325 0.0104829
0.551797 0.0314946 0
0.83772 0.220157 0.0724651
1 0.345876 0.151217
0 0.216007 0.0955673
0.258869 0.254841 0.170657
0.549615 0.259709 0.105852
0.828855 0.308904 0.105898
1 0.398764 0.154833
0 0.408423 0.123903
0.0437781 0.489174 0.187106
0.591455 0.539895 0.312093
0.799344 0.55053 0.239261
0.994766 0.608148 0.237644
0 0.624582 0.212055
0 0.709087 0.281941
0.544045 0.754086 0.386404
0.889662 0.800946 0.452918
0.985443 0.796124 0.382864
0 0.802121 0.295933
0 0.826474 0.335149
0.32697 0.946395 0.392172
0.971542 0.953613 0.566796
1 1 0.58294
0 0 0.121035
0.250019 0.0199588 0.161196
0.683635 0.0789197 0.18378
0.87332 0.178698 0.257588
1 0.295689 0.357733
0 0.161486 0.219669
0.180621 0.218112 0.236667
0.548837 0.297368 0.240055
0.839307 0.361975 0.241337
1 0.453376 0.282521
0 0.367712 0.170626
0.0130465 0.442374 0.265141
0.556298 0.518669 0.361975
0.813703 0.572091 0.322316
1 0.638437 0.338842
0 0.592828 0.21593
0 0.67483 0.317708
0.481346 0.740841 0.402838
0.86923 0.78819 0.482551
0.992065 0.809171 0.437598
0 0.778012 0.277134
0 0.801846 0.349905
0.300603 0.935744 0.409934
0.954253 0.942489 0.592172
1 0.997726 0.606851
0 0.0270542 0.249012
0.0362249 0.065095 0.293431
0.593454 0.0583047 0.306325
1 0.131441 0.37377
1 0.289494 0.482216
0 0.178454 0.343069
0.0285191 0.18175 0.31873
0.606928 0.220722 0.377157
0.968688 0.304768 0.441901
1 0.401877 0.512261
0 0.325246 0.393347
0 0.411017 0.450446
0.490852 0.515587 0.500267
0.815824 0.633249 0.523415
1 0.706798 0.548058
0 0.554696 0.391119
0 0.631205 0.443427
0.297856 0.712596 0.500557
0.826139 0.780926 0.599252
0.988769 0.838834 0.58056
0 0.732097 0.397116
0 0.744457 0.422324
0.187152 0.887648 0.544106
0.864317 0.933165 0.656977
1 0.992111 0.694743
0 0.0442664 0.328298
0 0.0788891 0.366644
0.324376 0.0754406 0.396735
0.905272 0.118151 0.420127
1 0.234318 0.54667
0 0.196902 0.424857
0 0.181979 0.403708
0.366232 0.185061 0.446174
0.938277 0.244541 0.485237
1 0.341421 0.580285
0 0.390188 0.593408
0 0.471733 0.619226
0.292668 0.444999 0.53962
0.883604 0.541878 0.639551
1 0.643809 0.715541
0 0.513008 0.612619
0 0.590814 0.656809
0.191897 0.690028 0.695552
0.791638 0.790753 0.752361
0.986358 0.897292 0.779644
0 0.694209 0.646082
0 0.706859 0.668513
0.0100099 0.841306 0.705242
0.647822 0.930907 0.734951
1 0.989822 0.840711
0 0.0605783 0.400839
0 0.0871748 0.425574
0.172137 0.149722 0.492058
0.72813 0.117617 0.500999
1 0.207965 0.565377
0 0.230777 0.508247
0 0.187533 0.470222
0.230213 0.223362 0.5234
0.805661 0.21619 0.551644
1 0.304921 0.610452
0 0.419791 0.680232
0 0.506508 0.700984
0.160983 0.426307 0.58851
0.729885 0.463996 0.663157
1 0.571649 0.7458
0 0.589136 0.837919
0 0.654032 0.851728
0.196612 0.733318 0.849363
0.67071 0.757565 0.798093
1 0.822171 0.867445
0 0.66125 0.812741
0 0.664759 0.813291
0 0.822644 0.88719
0.581613 0.921065 0.903319
1 1 0.971511
