luts/Channel X3.cube
TITLE "Generated by Resolve"
LUT_3D_SIZE 9
0.0377203 0 0.0103761
0.106218 0.0136873 0.0201572
0.217121 0.0278325 0.0104829
0.378454 0.0273747 0
0.551797 0.0314946 0
0.711543 0.0958267 0
0.83772 0.220157 0.0724651
0.942885 0.283253 0.111467
1 0.345876 0.151217
0.012726 0.124437 0.077348
0.134173 0.142 0.105852
0.227848 0.135653 0.0793011
0.387655 0.149111 0.0672618
0.558724 0.171969 0.0556954
0.711162 0.203479 0.0553597
0.824872 0.246509 0.0739757
0.930068 0.298222 0.107103
1 0.353445 0.143664
0 0.216007 0.0955673
0.0619821 0.237461 0.117708
0.258869 0.254841 0.170657
0.372137 0.250889 0.126635
0.549615 0.259709 0.105852
0.708537 0.276493 0.0952163
0.828855 0.308904 0.105898
0.929747 0.351629 0.129335
1 0.398764 0.154833
0 0.315984 0.109834
0 0.335729 0.135409
0.149722 0.368048 0.163714
0.414679 0.388815 0.236347
0.525048 0.38407 0.186069
0.687663 0.401846 0.163394
0.817258 0.424155 0.161822
0.917769 0.456077 0.172824
1 0.488869 0.163577
0 0.408423 0.123903
0 0.452049 0.170077
0.0437781 0.489174 0.187106
0.364126 0.508995 0.261402
0.591455 0.539895 0.312093
0.672236 0.525811 0.255665
0.799344 0.55053 0.239261
0.896757 0.578332 0.238407
0.994766 0.608148 0.237644
0 0.517998 0.158373
0 0.562844 0.208728
0 0.605768 0.230701
0.237598 0.640696 0.26154
0.627832 0.646174 0.375479
0.753628 0.680797 0.385031
0.800992 0.659968 0.328862
0.890837 0.68333 0.318502
0.980697 0.708339 0.31075
0 0.624582 0.212055
0 0.645853 0.246647
0 0.709087 0.281941
0.164782 0.753368 0.287663
0.544045 0.754086 0.386404
0.799451 0.771405 0.452384
0.889662 0.800946 0.452918
0.948119 0.81149 0.418235
0.985443 0.796124 0.382864
0 0.720653 0.258671
0 0.738293 0.29369
0 0.788403 0.320958
0.097322 0.839139 0.333608
0.437186 0.85359 0.391043
0.805386 0.854002 0.493828
0.932342 0.880201 0.514687
1 0.905699 0.518486
1 0.928283 0.486763
0 0.802121 0.295933
0 0.818204 0.332738
0 0.826474 0.335149
0.0178531 0.913039 0.372808
0.32697 0.946395 0.392172
0.713741 0.941115 0.496925
0.971542 0.953613 0.566796
1 0.981308 0.576242
1 1 0.58294
0 0 0.06598
0.129351 0 0.0724498
0.324605 0 0.066041
0.455756 0.00521859 0.05626
0.583795 0.0327611 0.0656748
0.696254 0.11133 0.121798
0.794324 0.172961 0.177447
0.897231 0.23653 0.236362
1 0.296757 0.291249
0 0.109194 0.136355
0.0927749 0.10779 0.116823
0.218463 0.144396 0.130327
0.390784 0.164172 0.115312
0.571923 0.188952 0.102586
0.726253 0.2215 0.10219
0.837629 0.266331 0.123171
0.940841 0.317586 0.152621
1 0.372442 0.185367
0 0.201358 0.121508
0.0608988 0.21294 0.156695
0.234821 0.238376 0.189929
0.371466 0.249882 0.16025
0.556741 0.26688 0.148394
0.716442 0.289967 0.141283
0.835981 0.326192 0.154467
0.938216 0.370687 0.180484
1 0.419974 0.209293
0 0.299886 0.11664
0 0.313146 0.159213
0.135973 0.355062 0.185611
0.397009 0.375021 0.252491
0.529229 0.386374 0.212879
0.697902 0.408713 0.199359
0.827787 0.434943 0.205264
0.929747 0.470939 0.224369
1 0.511955 0.246296
0 0.39527 0.115343
0 0.428977 0.176257
0.0403449 0.469856 0.20824
0.342763 0.49575 0.269245
0.576822 0.527535 0.323064
0.677638 0.528893 0.27834
0.806271 0.558648 0.270008
0.90573 0.590265 0.277836
1 0.623514 0.289845
0 0.501808 0.135454
0 0.540887 0.204044
0 0.589837 0.246342
0.222293 0.630182 0.268833
0.610925 0.636393 0.384375
0.74229 0.671641 0.39646
0.803845 0.663722 0.351858
0.895186 0.690791 0.348882
0.98645 0.719524 0.34995
0 0.606668 0.180606
0 0.624552 0.235538
0 0.696284 0.295811
0.155795 0.740291 0.305028
0.521538 0.746868 0.393042
0.788525 0.763806 0.466026
0.879606 0.794461 0.466758
0.913512 0.783398 0.425818
0.987945 0.803403 0.415351
0 0.704082 0.222614
0 0.719509 0.28098
0 0.780438 0.337011
0.0905165 0.827512 0.351781
0.417639 0.847639 0.399268
0.787091 0.848463 0.504967
0.922026 0.874556 0.532555
0.99469 0.900801 0.535958
1 0.913054 0.504829
0 0.786252 0.255818
0 0.801114 0.318929
0 0.815259 0.349691
0.0130159 0.902388 0.392493
0.309804 0.941543 0.402167
0.688228 0.936461 0.506767
0.960845 0.948379 0.585351
1 0.976532 0.597665
1 1 0.604974
0 0 0.121035
0.0376287 0.0200046 0.146441
0.250019 0.0199588 0.161196
0.539178 0.0337224 0.171832
0.683635 0.0789197 0.18378
0.785245 0.124117 0.211627
0.87332 0.178698 0.257588
0.967742 0.237476 0.307942
1 0.295689 0.357733
0 0.0947585 0.181308
0.0395972 0.106142 0.175601
0.234684 0.11284 0.199008
0.466133 0.132799 0.205402
0.604181 0.162539 0.211643
0.728161 0.19382 0.231556
0.827344 0.233616 0.267597
0.926238 0.278584 0.308507
1 0.328084 0.352575
0 0.161486 0.219669
0.0277562 0.195346 0.233051
0.180621 0.218112 0.236667
0.353979 0.268284 0.25034
0.548837 0.297368 0.240055
0.718212 0.325002 0.232044
0.839307 0.361975 0.241337
0.942138 0.405524 0.260197
1 0.453376 0.282521
0 0.258503 0.185107
0 0.29398 0.216419
0.110582 0.330831 0.26183
0.373358 0.368215 0.305211
0.529183 0.396963 0.280049
0.708049 0.424369 0.275517
0.837995 0.454154 0.279805
0.94023 0.492409 0.294652
1 0.534066 0.311467
0 0.367712 0.170626
0 0.398901 0.20145
0.0130465 0.442374 0.265141
0.277485 0.491279 0.293156
0.556298 0.518669 0.361975
0.680919 0.538354 0.328557
0.813703 0.572091 0.322316
0.915312 0.604929 0.329168
1 0.638437 0.338842
0 0.482414 0.180575
0 0.490089 0.196384
0 0.565209 0.284535
0.18468 0.615335 0.302922
0.571649 0.628824 0.402426
0.728206 0.66453 0.42298
0.805478 0.669612 0.387076
0.899413 0.699443 0.384054
0.99292 0.729641 0.383307
0 0.592828 0.21593
0 0.596521 0.227832
0 0.67483 0.317708
0.131746 0.723186 0.339742
0.481346 0.740841 0.402838
0.775982 0.756207 0.484047
0.86923 0.78819 0.482551
0.910018 0.783215 0.446723
0.992065 0.809171 0.437598
0 0.693446 0.25066
0 0.696315 0.262043
0 0.763195 0.347036
0.0777142 0.81416 0.377325
0.396368 0.841856 0.408469
0.770809 0.842588 0.514244
0.913588 0.868513 0.543877
0.987106 0.894896 0.544152
1 0.890608 0.50454
0 0.778012 0.277134
0 0.781323 0.289158
0 0.801846 0.349905
0.00885023 0.892012 0.410269
0.300603 0.935744 0.409934
0.678431 0.930602 0.513359
0.954253 0.942489 0.592172
1 0.970703 0.603586
1 0.997726 0.606851
0 0.0187533 0.192126
0 0.0344244 0.213016
0.112688 0.0428626 0.22771
0.41265 0.0395666 0.238819
0.747051 0.0565194 0.262455
0.878416 0.111757 0.292515
0.978912 0.173709 0.338399
1 0.229831 0.380911
1 0.287709 0.424765
0 0.0926223 0.229099
0 0.0897231 0.222782
0.121248 0.102296 0.244404
0.413886 0.104204 0.259022
0.700984 0.119646 0.271885
0.835569 0.170565 0.299001
0.931365 0.215305 0.334218
1 0.263737 0.37348
1 0.316106 0.415717
0 0.178546 0.299565
0 0.205585 0.294453
0.108553 0.205676 0.283055
0.39852 0.224765 0.318334
0.634607 0.258732 0.333104
0.762798 0.297749 0.352117
0.863554 0.335103 0.383124
0.959213 0.375891 0.418631
1 0.419959 0.456336
0 0.236149 0.302419
0 0.272999 0.325093
0.0696727 0.312993 0.353002
0.318273 0.355001 0.366857
0.507073 0.420874 0.378134
0.699931 0.45977 0.381689
0.837583 0.495918 0.387274
0.942763 0.535058 0.401129
1 0.576089 0.416068
0 0.344762 0.272877
0 0.357137 0.288991
0 0.422721 0.331746
0.224445 0.475334 0.378683
0.53341 0.516884 0.430869
0.678538 0.556359 0.41004
0.820554 0.595956 0.411261
0.925155 0.631144 0.420661
1 0.665187 0.429938
0 0.46389 0.266255
0 0.467079 0.278233
0 0.537224 0.322271
0.126223 0.583551 0.381613
0.47013 0.625742 0.428428
0.705486 0.659419 0.481117
0.802533 0.681804 0.456077
0.901122 0.716945 0.456016
0.998703 0.749874 0.455879
0 0.567819 0.27422
0 0.568826 0.28394
0 0.645197 0.341543
0.0731365 0.695445 0.409674
0.385367 0.737942 0.423194
0.750301 0.748577 0.530129
0.850797 0.784466 0.531548
0.905303 0.792126 0.504891
0.991608 0.821591 0.498039
0 0.671946 0.304036
0 0.672618 0.313344
0 0.730053 0.356786
0.0155184 0.787823 0.433158
0.324224 0.836149 0.437049
0.704234 0.839292 0.535378
0.896361 0.863737 0.584375
0.972473 0.891752 0.583963
1 0.890455 0.551446
0 0.759686 0.325689
0 0.760784 0.335027
0 0.774609 0.351385
0 0.868482 0.451545
0.257389 0.917357 0.463096
0.613581 0.928084 0.529747
0.934432 0.93727 0.624109
1 0.966567 0.636728
1 0.9944 0.638407
0 0.0270542 0.249012
0 0.0391394 0.264958
0.0362249 0.065095 0.293431
0.247425 0.0497139 0.297246
0.593454 0.0583047 0.306325
0.899092 0.0875105 0.341329
1 0.131441 0.37377
1 0.225452 0.438865
1 0.289494 0.482216
0 0.101091 0.285008
0 0.0872511 0.277501
0.0393072 0.101793 0.30045
0.267506 0.0910506 0.308675
0.604715 0.105318 0.318456
0.889067 0.130434 0.351675
1 0.189563 0.393301
1 0.252369 0.436805
1 0.3084 0.475044
0 0.178454 0.343069
0 0.201434 0.335271
0.0285191 0.18175 0.31873
0.253269 0.193118 0.347555
0.606928 0.220722 0.377157
0.862562 0.246952 0.402853
0.968688 0.304768 0.441901
1 0.352773 0.476829
1 0.401877 0.512261
0 0.27364 0.420462
0 0.308141 0.427665
0.0260319 0.332372 0.425879
0.23183 0.33576 0.403876
0.573449 0.370031 0.448112
0.769192 0.418692 0.474449
0.871046 0.467124 0.508583
0.965209 0.507393 0.542229
1 0.546777 0.575174
0 0.325246 0.393347
0 0.327108 0.397055
0 0.411017 0.450446
0.168933 0.459693 0.477836
0.490852 0.515587 0.500267
0.659358 0.582406 0.508919
0.815824 0.633249 0.523415
0.927443 0.673014 0.538399
1 0.706798 0.548058
0 0.436515 0.379095
0 0.439368 0.390112
0 0.525856 0.439063
0.0470741 0.561959 0.457603
0.385412 0.625437 0.500908
0.684398 0.660563 0.558007
0.797452 0.700389 0.543786
0.903029 0.743877 0.550988
1 0.778988 0.554086
0 0.554696 0.391119
0 0.555047 0.400961
0 0.631205 0.443427
0 0.665843 0.455833
0.297856 0.712596 0.500557
0.659739 0.74522 0.565911
0.826139 0.780926 0.599252
0.896559 0.803983 0.582956
0.988769 0.838834 0.58056
0 0.658259 0.412146
0 0.65803 0.421973
0 0.694499 0.429709
0 0.756893 0.468788
0.247883 0.805158 0.523735
0.584237 0.835523 0.557794
0.869627 0.856687 0.642908
0.950683 0.889006 0.646738
1 0.899672 0.622354
0 0.732097 0.397116
0 0.731395 0.407172
0 0.744457 0.422324
0 0.83769 0.474952
0.187152 0.887648 0.544106
0.509117 0.926482 0.553903
0.864317 0.933165 0.656977
0.994934 0.961883 0.691783
1 0.992111 0.694743
0 0.035584 0.291707
0 0.0441291 0.303807
0 0.0731823 0.336599
0.153719 0.0720226 0.348333
0.431006 0.0611734 0.355901
0.763088 0.0834058 0.36286
1 0.128206 0.410834
1 0.181186 0.458747
1 0.263951 0.516609
0 0.114473 0.334707
0 0.0884108 0.321935
0 0.0994583 0.342779
0.176059 0.102678 0.358801
0.465446 0.0947433 0.368093
0.777752 0.118029 0.373617
1 0.162432 0.423758
1 0.208133 0.457984
1 0.298573 0.520272
0 0.184222 0.386053
0 0.213825 0.38735
0 0.18056 0.368307
0.161212 0.188861 0.39498
0.469291 0.190433 0.41561
0.792172 0.22562 0.433921
1 0.269276 0.481102
1 0.324346 0.516625
1 0.389487 0.557656
0 0.281117 0.47039
0 0.317311 0.475883
0 0.332357 0.463767
0.124834 0.296925 0.42092
0.41561 0.31667 0.46183
0.770871 0.373037 0.507988
0.966384 0.408865 0.545068
1 0.47509 0.585763
1 0.525536 0.617975
0 0.378363 0.543603
0 0.375265 0.535409
0 0.454826 0.570809
0.145693 0.480629 0.564691
0.408438 0.495186 0.543145
0.727459 0.531563 0.583352
0.863386 0.588876 0.621164
0.951614 0.638392 0.658289
1 0.675898 0.688334
0 0.419272 0.496025
0 0.412757 0.49305
0 0.510597 0.554269
0.0215763 0.554528 0.578408
0.32694 0.612818 0.60206
0.664851 0.663264 0.636301
0.786297 0.72343 0.638605
0.895979 0.780758 0.656077
1 0.820996 0.667491
0 0.527489 0.50544
0 0.528572 0.514183
0 0.612329 0.560418
0 0.657084 0.579797
0.221195 0.69424 0.580133
0.557626 0.760098 0.617884
0.807614 0.784772 0.677287
0.889464 0.821424 0.669871
0.989136 0.864103 0.676585
0 0.631189 0.524742
0 0.630808 0.534539
0 0.659541 0.554101
0 0.742321 0.584298
0.096849 0.77499 0.577432
0.484337 0.827176 0.617502
0.816602 0.854047 0.697459
0.92694 0.887022 0.718791
0.994202 0.91133 0.70457
0 0.721691 0.530343
0 0.720851 0.540887
0 0.733639 0.554238
0 0.812299 0.564385
0.0199283 0.853651 0.583597
0.419913 0.902434 0.630671
0.744274 0.92723 0.681758
0.967391 0.954589 0.755428
1 0.98967 0.765408
0 0.0442664 0.328298
0 0.0494545 0.336187
0 0.0788891 0.366644
0.089189 0.109255 0.397833
0.324376 0.0754406 0.396735
0.631022 0.0855116 0.403693
0.905272 0.118151 0.420127
1 0.173114 0.484184
1 0.234318 0.54667
0 0.132555 0.376944
0 0.092668 0.355764
0 0.099855 0.372198
0.115541 0.129747 0.404166
0.36228 0.0976577 0.4056
0.668803 0.112642 0.412772
0.919356 0.14548 0.427634
1 0.200534 0.49279
1 0.254826 0.541436
0 0.196902 0.424857
0 0.232853 0.432029
0 0.181979 0.403708
0.0893873 0.192111 0.428611
0.366232 0.185061 0.446174
0.693492 0.20737 0.467216
0.938277 0.244541 0.485237
1 0.299535 0.55053
1 0.341421 0.580285
0 0.292897 0.510674
0 0.332479 0.516655
0 0.347173 0.505821
0.0666972 0.294682 0.458427
0.321889 0.304311 0.486275
0.670863 0.338308 0.532906
0.921874 0.387564 0.561517
1 0.438117 0.615717
1 0.488945 0.647745
0 0.390188 0.593408
0 0.39089 0.585031
0 0.471733 0.619226
0.107774 0.484306 0.598367
0.292668 0.444999 0.53962
0.606821 0.476875 0.592767
0.883604 0.541878 0.639551
1 0.577493 0.675792
1 0.643809 0.715541
0 0.491569 0.659739
0 0.481132 0.647288
0 0.567529 0.69073
0.00749218 0.595728 0.697017
0.320104 0.630854 0.694392
0.599832 0.658427 0.683452
0.834714 0.683925 0.709255
0.928298 0.739742 0.747585
1 0.784985 0.780774
0 0.513008 0.612619
0 0.503349 0.603342
0 0.590814 0.656809
0 0.644968 0.68629
0.191897 0.690028 0.695552
0.505379 0.751217 0.71487
0.791638 0.790753 0.752361
0.882994 0.841169 0.760174
0.986358 0.897292 0.779644
0 0.604639 0.631128
0 0.604791 0.638911
0 0.630716 0.657847
0 0.728542 0.703059
0.0976272 0.768673 0.703777
0.42649 0.812314 0.701808
0.722866 0.87332 0.743236
0.912291 0.893736 0.79826
0.988739 0.929244 0.792477
0 0.694209 0.646082
0 0.693339 0.655055
0 0.706859 0.668513
0 0.803052 0.70135
0.0100099 0.841306 0.705242
0.271641 0.873091 0.687953
0.647822 0.930907 0.734951
0.924681 0.956069 0.816007
1 0.989822 0.840711
0 0.0524758 0.364584
0 0.0542763 0.368841
0 0.0834974 0.396124
0.00590524 0.115908 0.43328
0.231067 0.0972 0.436484
0.532296 0.0894789 0.447715
0.800397 0.115465 0.453788
1 0.160861 0.490578
1 0.221378 0.560342
0 0.142016 0.413901
0 0.0983749 0.39028
0 0.10135 0.401755
0.0343175 0.132982 0.438865
0.269734 0.113542 0.442512
0.58056 0.110735 0.454902
0.83444 0.138552 0.460456
1 0.183474 0.49572
1 0.243381 0.565194
0 0.212665 0.465446
0 0.255283 0.477211
0 0.184329 0.436973
0.0258946 0.190143 0.456428
0.28307 0.192554 0.478767
0.606317 0.193759 0.500053
0.865827 0.227649 0.512428
1 0.272496 0.546426
1 0.330282 0.613794
0 0.306889 0.549889
0 0.351385 0.557412
0 0.367315 0.54815
0.0180819 0.296971 0.492836
0.244541 0.309575 0.519814
0.572824 0.310964 0.551049
0.858137 0.36228 0.584527
1 0.408911 0.618433
1 0.462974 0.683116
0 0.404715 0.63653
0 0.408453 0.629191
0 0.489418 0.660441
0.0798352 0.496391 0.632242
0.216617 0.425193 0.554147
0.489265 0.435584 0.584802
0.818616 0.507225 0.65597
1 0.557137 0.692607
1 0.599115 0.740322
0 0.49865 0.719478
0 0.492393 0.705806
0 0.582956 0.745235
0.0078584 0.612726 0.744411
0.298238 0.634287 0.722667
0.501122 0.612985 0.673991
0.76585 0.644465 0.72285
0.956466 0.693477 0.759533
1 0.72224 0.791012
0 0.585367 0.777478
0 0.575662 0.764401
0 0.644358 0.793469
0 0.690196 0.807935
0.191516 0.722408 0.800198
0.509026 0.766873 0.803983
0.754849 0.797879 0.80473
0.909911 0.816648 0.819974
1 0.865675 0.857145
0 0.592859 0.720913
0 0.58436 0.713237
0 0.608194 0.728466
0 0.71606 0.786038
0.0948653 0.760327 0.79675
0.39765 0.809461 0.804471
0.682704 0.868376 0.82359
0.90016 0.89984 0.863264
0.984619 0.94583 0.874998
0 0.669886 0.73933
0 0.669734 0.74522
0 0.683696 0.756985
0 0.787869 0.80528
0 0.831113 0.817212
0.29041 0.870939 0.80827
0.610864 0.920867 0.817426
0.851606 0.975265 0.863462
1 0.998535 0.917739
0 0.0605783 0.400839
0 0.0588235 0.401785
0 0.0871748 0.425574
0 0.121843 0.463416
0.172137 0.149722 0.492058
0.42417 0.101656 0.487175
0.72813 0.117617 0.500999
0.93164 0.153521 0.514138
1 0.207965 0.565377
0 0.142061 0.44535
0 0.105058 0.425177
0 0.102861 0.431052
0 0.136797 0.468711
0.207584 0.15874 0.494514
0.476722 0.114076 0.492729
0.770962 0.136767 0.506447
0.958007 0.174075 0.520592
1 0.226688 0.567788
0 0.230777 0.508247
0 0.270085 0.517647
0 0.187533 0.470222
0 0.188602 0.484459
0.230213 0.223362 0.5234
0.504967 0.187701 0.530144
0.805661 0.21619 0.551644
0.984924 0.25481 0.567926
1 0.304921 0.610452
0 0.322454 0.590906
0 0.371618 0.599954
0 0.389227 0.592432
0 0.299886 0.527535
0.168276 0.30518 0.54667
0.476768 0.304463 0.574807
0.794354 0.339666 0.61416
0.977676 0.38468 0.638041
1 0.432486 0.67686
0 0.419791 0.680232
0 0.427405 0.674372
0 0.506508 0.700984
0.0521553 0.509621 0.668101
0.160983 0.426307 0.58851
0.415824 0.438575 0.611673
0.729885 0.463996 0.663157
0.941985 0.525933 0.708721
1 0.571649 0.7458
0 0.512276 0.76556
0 0.508324 0.752926
0 0.599542 0.790021
0 0.626551 0.784421
0.261311 0.633463 0.74548
0.397131 0.566018 0.662821
0.643229 0.582391 0.698344
0.895201 0.656031 0.771954
1 0.701396 0.808362
0 0.589136 0.837919
0 0.581476 0.825559
0 0.654032 0.851728
0 0.701686 0.862638
0.196612 0.733318 0.849363
0.49131 0.763485 0.831891
0.67071 0.757565 0.798093
0.854994 0.778531 0.832654
1 0.822171 0.867445
0 0.661234 0.882902
0 0.651804 0.870893
0 0.664958 0.870146
0 0.765637 0.911192
0.0752575 0.798932 0.909148
0.391287 0.833906 0.899092
0.682658 0.882338 0.911131
0.875319 0.909819 0.914946
1 0.926863 0.928069
0 0.66125 0.812741
0 0.65304 0.805814
0 0.664759 0.813291
0 0.776165 0.869352
0 0.822644 0.88719
0.287312 0.86804 0.890623
0.581613 0.921065 0.903319
0.82739 0.974289 0.926802
1 1 0.971511
