luts/Channel X2.cube
TITLE "Generated by Resolve"
LUT_3D_SIZE 5
0.0377203 0 0.0103761
0.217121 0.0104829 0.0104829
0.551797 0 0
0.83772 0.163516 0.0724651
1 0.281575 0.151217
0 0.237186 0.0911574
0.258869 0.254459 0.170657
0.549615 0.233127 0.105852
0.828855 0.261219 0.105898
1 0.340688 0.154833
0 0.479255 0.111788
0.0648966 0.503807 0.183108
0.591455 0.535164 0.312093
0.799344 0.527703 0.239261
0.994766 0.572702 0.237644
0 0.740337 0.19411
0 0.76141 0.269688
0.544045 0.754086 0.386404
0.889662 0.792813 0.452918
0.985443 0.778759 0.382864
0 0.954589 0.273854
0 0.959289 0.313893
0.326314 0.946639 0.391608
0.971542 0.951965 0.566796
1 0.997925 0.58294
0 0.0236057 0.139971
0.250019 0.0124971 0.161196
0.683635 0.0369268 0.18378
0.87332 0.12697 0.257588
1 0.236164 0.357733
0 0.251942 0.247517
0.193896 0.227985 0.241932
0.548837 0.274311 0.240055
0.839307 0.318196 0.241337
1 0.398962 0.282521
0 0.481483 0.166186
0.0627451 0.489235 0.257496
0.556298 0.515221 0.361975
0.813703 0.549935 0.322316
1 0.603708 0.338842
0 0.731228 0.200107
0 0.750408 0.303334
0.481346 0.740841 0.402838
0.86923 0.780758 0.482551
0.992065 0.792401 0.437598
0 0.943206 0.255451
0 0.951064 0.330343
0.298482 0.936538 0.408316
0.954253 0.941405 0.592172
1 0.988357 0.606851
0 0.0922103 0.293141
0.0486763 0.0704814 0.294362
0.593454 0.0341955 0.306325
1 0.0769513 0.37377
1 0.225742 0.482216
0 0.308248 0.399176
0.0850538 0.218631 0.344198
0.606928 0.201434 0.377157
0.968688 0.260517 0.441901
1 0.348089 0.512261
0 0.525536 0.444617
0.0776379 0.530419 0.480812
0.49247 0.516762 0.499977
0.815824 0.61651 0.523415
1 0.676951 0.548058
0 0.780972 0.409751
0 0.783276 0.44564
0.33669 0.744823 0.493446
0.826139 0.776776 0.599252
0.988769 0.825086 0.58056
0 0.977874 0.396979
0 0.974945 0.421317
0.256092 0.946578 0.531685
0.864317 0.933165 0.656977
1 0.985046 0.694743
0 0.142458 0.391608
0 0.115816 0.390204
0.324376 0.0754406 0.396735
0.905272 0.077409 0.420127
1 0.169848 0.54667
0 0.360449 0.499275
0.0233768 0.242573 0.445411
0.366232 0.185061 0.446174
0.938277 0.206485 0.485237
1 0.283101 0.580285
0 0.6533 0.681086
0.0953689 0.630014 0.677226
0.347158 0.484108 0.563134
0.883604 0.52137 0.639551
1 0.609659 0.715541
0 0.815 0.689403
0 0.819013 0.713222
0.32488 0.806332 0.719478
0.791638 0.790661 0.752361
0.986358 0.889128 0.779644
0 1 0.702937
0 1 0.723934
0.168429 0.997528 0.714824
0.659953 0.939269 0.732616
1 0.986648 0.840711
0 0.193378 0.482612
0 0.157549 0.475395
0.172137 0.149722 0.492058
0.72813 0.0985428 0.500999
1 0.160143 0.565377
0 0.428946 0.598657
0 0.271901 0.527138
0.230213 0.223362 0.5234
0.805661 0.194842 0.551644
1 0.258183 0.610452
0 0.706981 0.783978
0.0810864 0.684642 0.771969
0.255802 0.49456 0.629221
0.729885 0.458396 0.663157
1 0.54049 0.7458
0 0.958099 0.953399
0 0.931914 0.940749
0.386297 0.879759 0.898772
0.701427 0.78056 0.809949
1 0.808454 0.867445
0 1 0.914672
0 1 0.910094
0.233524 1 0.93959
0.662272 0.99501 0.914961
1 1 0.971511
