luts/Channel X2.cube
TITLE "Generated by Resolve"
LUT_3D_SIZE 9
0.0377203 0 0.0103761
0.106218 0.00645457 0.0201572
0.217121 0.0104829 0.0104829
0.378454 0 0
0.551797 0 0
0.711543 0.0393683 0
0.83772 0.163516 0.0724651
0.942885 0.222766 0.111467
1 0.281575 0.151217
0.0254368 0.136309 0.0753338
0.134173 0.142 0.105852
0.227848 0.127199 0.0793011
0.387655 0.12723 0.0672618
0.558724 0.136507 0.0556954
0.711162 0.156924 0.0553597
0.824872 0.193484 0.0739757
0.930068 0.240284 0.107103
1 0.290898 0.143664
0 0.237186 0.0911574
0.0700542 0.243046 0.116167
0.258869 0.254459 0.170657
0.372137 0.239765 0.126635
0.549615 0.233127 0.105852
0.708537 0.236866 0.0952163
0.828855 0.261219 0.105898
0.929747 0.298604 0.129335
1 0.340688 0.154833
0 0.349935 0.102556
0.0128023 0.356847 0.130282
0.149645 0.368078 0.163638
0.414679 0.38645 0.236347
0.525048 0.371145 0.186069
0.687663 0.375647 0.163394
0.817258 0.388098 0.161822
0.917769 0.413733 0.172824
1 0.440513 0.163577
0 0.479255 0.111788
0 0.49424 0.160723
0.0648966 0.503807 0.183108
0.364126 0.508995 0.261402
0.591455 0.535164 0.312093
0.672236 0.512383 0.255665
0.799344 0.527703 0.239261
0.896757 0.549126 0.238407
0.994766 0.572702 0.237644
0 0.614038 0.14284
0 0.630457 0.195148
0.0177462 0.64062 0.222065
0.237491 0.640742 0.261433
0.627832 0.646174 0.375479
0.753628 0.674113 0.385031
0.800992 0.647044 0.328862
0.890837 0.664302 0.318502
0.980697 0.68336 0.31075
0 0.740337 0.19411
0 0.749828 0.22948
0 0.76141 0.269688
0.169482 0.757885 0.285435
0.544045 0.754086 0.386404
0.799451 0.768826 0.452384
0.889662 0.792813 0.452918
0.948119 0.798962 0.418235
0.985443 0.778759 0.382864
0 0.85478 0.238529
0 0.861723 0.274388
0 0.86508 0.304494
0.131716 0.862928 0.327092
0.437186 0.85359 0.391043
0.805386 0.854002 0.493828
0.932342 0.87541 0.514687
1 0.896666 0.518486
1 0.914778 0.486763
0 0.954589 0.273854
0 0.960296 0.311574
0 0.959289 0.313893
0.0804456 0.959228 0.361196
0.326314 0.946639 0.391608
0.713741 0.941115 0.496925
0.971542 0.951965 0.566796
1 0.975265 0.576242
1 0.997925 0.58294
0 0 0.0663157
0.129351 0 0.0724346
0.324605 0 0.066041
0.455756 0 0.05626
0.583795 0 0.0656748
0.696254 0.0630808 0.121798
0.794324 0.121141 0.177447
0.897231 0.181018 0.236362
1 0.237034 0.291249
0.0318151 0.141817 0.147631
0.098146 0.111666 0.119127
0.218463 0.137606 0.130327
0.390784 0.143389 0.115312
0.571923 0.153841 0.102586
0.726253 0.175204 0.10219
0.837629 0.213931 0.123171
0.940841 0.260426 0.152621
1 0.310826 0.185367
0 0.23888 0.118746
0.0800183 0.231708 0.154269
0.234821 0.238376 0.189929
0.371466 0.238727 0.16025
0.556741 0.240299 0.148394
0.716442 0.250858 0.141283
0.835981 0.279438 0.154467
0.938216 0.318654 0.180484
1 0.362921 0.209293
0 0.34461 0.108873
0.0106508 0.345464 0.153048
0.139162 0.35758 0.184634
0.397009 0.373007 0.252491
0.529229 0.373266 0.212879
0.697902 0.382193 0.199359
0.827787 0.398917 0.205264
0.929747 0.42887 0.224369
1 0.464317 0.246296
0 0.469932 0.103258
0 0.479637 0.166323
0.0697032 0.491371 0.202792
0.342763 0.49575 0.269245
0.576822 0.523018 0.323064
0.677638 0.515251 0.27834
0.806271 0.535943 0.270008
0.90573 0.561334 0.277836
1 0.588449 0.289845
0 0.600397 0.119615
0 0.615915 0.190204
0.0192416 0.630869 0.236652
0.221775 0.630381 0.268391
0.610925 0.636393 0.384375
0.74229 0.665156 0.39646
0.803845 0.650874 0.351858
0.895186 0.672038 0.348882
0.98645 0.695048 0.34995
0 0.724758 0.162112
0 0.736889 0.218585
0 0.754681 0.282765
0.170367 0.750607 0.301701
0.521538 0.746868 0.393042
0.788525 0.761532 0.466026
0.879606 0.786648 0.466758
0.913512 0.771466 0.425818
0.987945 0.78648 0.415351
0 0.840635 0.201663
0 0.85153 0.26186
0 0.860548 0.3205
0.133013 0.857572 0.343908
0.417639 0.847639 0.399268
0.787091 0.848463 0.504967
0.922026 0.870207 0.532555
0.99469 0.892195 0.535958
1 0.900298 0.504829
0 0.941436 0.2327
0 0.951965 0.297932
0 0.956542 0.329397
0.0825208 0.955535 0.379568
0.30837 0.942092 0.401022
0.688228 0.936461 0.506767
0.960845 0.947234 0.585351
1 0.971008 0.597665
1 0.994247 0.604974
0 0.0236057 0.139971
0.0376287 0.0200046 0.146441
0.250019 0.0124971 0.161196
0.539178 0.0028687 0.171832
0.683635 0.0369268 0.18378
0.785245 0.0759442 0.211627
0.87332 0.12697 0.257588
0.967742 0.182055 0.307942
1 0.236164 0.357733
0 0.153689 0.208911
0.0646067 0.121599 0.186526
0.234684 0.109834 0.199008
0.466133 0.110903 0.205402
0.604181 0.129564 0.211643
0.728161 0.152117 0.231556
0.827344 0.186603 0.267597
0.926238 0.226688 0.308507
1 0.271366 0.352575
0 0.251942 0.247517
0.0869612 0.241047 0.248783
0.193896 0.227985 0.241932
0.353979 0.260426 0.25034
0.548837 0.274311 0.240055
0.718212 0.288945 0.232044
0.839307 0.318196 0.241337
0.942138 0.356313 0.260197
1 0.398962 0.282521
0 0.3617 0.193774
0 0.358038 0.217533
0.141497 0.362127 0.259327
0.373358 0.367742 0.305211
0.529183 0.384848 0.280049
0.708049 0.398367 0.275517
0.837995 0.418952 0.279805
0.94023 0.451347 0.294652
1 0.487419 0.311467
0 0.481483 0.166186
0 0.48043 0.193683
0.0627451 0.489235 0.257496
0.277394 0.491325 0.29308
0.556298 0.515221 0.361975
0.680919 0.525277 0.328557
0.813703 0.549935 0.322316
0.915312 0.576455 0.329168
1 0.603708 0.338842
0 0.608972 0.168841
0 0.606699 0.184512
0.00276188 0.627451 0.27303
0.198322 0.624781 0.300084
0.571649 0.628824 0.402426
0.728206 0.658701 0.42298
0.805478 0.65716 0.387076
0.899413 0.681117 0.384054
0.99292 0.705486 0.383307
0 0.731228 0.200107
0 0.729793 0.212253
0 0.750408 0.303334
0.165331 0.746899 0.333501
0.481346 0.740841 0.402838
0.775982 0.754391 0.484047
0.86923 0.780758 0.482551
0.910018 0.771588 0.446723
0.992065 0.792401 0.437598
0 0.844541 0.231632
0 0.843168 0.243336
0 0.855695 0.329961
0.131334 0.854185 0.367376
0.396353 0.841856 0.408453
0.770809 0.842588 0.514244
0.913588 0.864378 0.543877
0.987106 0.886427 0.544152
1 0.878233 0.50454
0 0.943206 0.255451
0 0.942245 0.267826
0 0.951064 0.330343
0.0842756 0.951705 0.396323
0.298482 0.936538 0.408316
0.678431 0.930602 0.513359
0.954253 0.941405 0.592172
1 0.965255 0.603586
1 0.988357 0.606851
0 0.0656138 0.224445
0 0.051133 0.222004
0.112688 0.0428626 0.22771
0.41265 0.0249638 0.238819
0.747051 0.0158236 0.262455
0.878416 0.0625467 0.292515
0.978912 0.119905 0.338399
1 0.171405 0.380911
1 0.225055 0.424765
0 0.167208 0.268345
0.0130617 0.11809 0.242863
0.121248 0.102296 0.244404
0.413886 0.0912032 0.259022
0.700984 0.0836042 0.271885
0.835569 0.12549 0.299001
0.931365 0.165133 0.334218
1 0.209003 0.37348
1 0.257069 0.415717
0 0.291844 0.344198
0.0526436 0.269017 0.3234
0.143954 0.229603 0.299046
0.39852 0.218021 0.318334
0.634607 0.233402 0.333104
0.762798 0.263249 0.352117
0.863554 0.294743 0.383124
0.959213 0.33048 0.418631
1 0.369635 0.456336
0 0.380026 0.342245
0.0145113 0.373739 0.353948
0.152987 0.378271 0.372763
0.331212 0.36492 0.371008
0.507073 0.41297 0.378134
0.699931 0.437751 0.381689
0.837583 0.464591 0.387289
0.942763 0.497658 0.401129
1 0.53283 0.416068
0 0.50605 0.292927
0 0.502403 0.306508
0.0375372 0.506813 0.334554
0.255085 0.505013 0.374472
0.53341 0.515373 0.430869
0.678538 0.545159 0.41004
0.820554 0.575357 0.411261
0.925155 0.604181 0.420661
1 0.631952 0.429938
0 0.631525 0.26981
0 0.628183 0.281788
0 0.63447 0.314473
0.176226 0.629145 0.373266
0.47013 0.625742 0.428428
0.705486 0.655192 0.481117
0.802533 0.670726 0.456077
0.901122 0.700069 0.456016
0.998703 0.727062 0.455879
0 0.749279 0.269169
0 0.747204 0.279362
0 0.753994 0.328679
0.138735 0.753948 0.398337
0.384985 0.738079 0.422873
0.750301 0.748409 0.530129
0.850797 0.778393 0.531548
0.905303 0.78175 0.504891
0.991608 0.806012 0.498039
0 0.859281 0.29276
0 0.857618 0.302571
0 0.857221 0.340734
0.0969253 0.86041 0.419089
0.330526 0.841337 0.434882
0.704234 0.839292 0.535378
0.896361 0.860731 0.584375
0.972473 0.884352 0.583963
1 0.879225 0.551446
0 0.955535 0.309926
0 0.954101 0.319661
0 0.951965 0.33492
0.0513161 0.955337 0.434882
0.286519 0.937453 0.457527
0.613581 0.928084 0.529747
0.934432 0.93727 0.624109
1 0.961975 0.636728
1 0.985824 0.638407
0 0.0922103 0.293141
0 0.0737774 0.288457
0.0486763 0.0704814 0.294362
0.247425 0.0497139 0.297246
0.593454 0.0341955 0.306325
0.899092 0.0406653 0.341329
1 0.0769513 0.37377
1 0.166705 0.438865
1 0.225742 0.482216
0 0.191638 0.335225
0 0.129351 0.307271
0.0656443 0.113741 0.305104
0.267506 0.0910506 0.308675
0.604715 0.0812695 0.318456
0.889067 0.0852979 0.351675
1 0.138277 0.393301
1 0.195804 0.436805
1 0.24683 0.475044
0 0.308248 0.399176
0.0102541 0.279911 0.375067
0.0850538 0.218631 0.344198
0.253269 0.193118 0.347555
0.606928 0.201434 0.377157
0.862562 0.208347 0.402853
0.968688 0.260517 0.441901
1 0.303502 0.476829
1 0.348089 0.512261
0 0.455482 0.482399
0.000823987 0.437415 0.474845
0.134005 0.415366 0.45951
0.269123 0.362234 0.420203
0.573449 0.359503 0.448112
0.769192 0.393942 0.474449
0.871046 0.436683 0.508583
0.965209 0.471855 0.542229
1 0.506065 0.575174
0 0.525536 0.444617
0 0.509041 0.445029
0.0776379 0.530419 0.480812
0.253727 0.531075 0.495064
0.49247 0.516762 0.499977
0.659358 0.575341 0.508919
0.815824 0.61651 0.523415
0.927443 0.649683 0.538399
1 0.676951 0.548058
0 0.65536 0.412741
0 0.651392 0.423743
0 0.667704 0.453086
0.137636 0.652888 0.459876
0.407446 0.643549 0.496864
0.684398 0.658381 0.558007
0.797452 0.691478 0.543786
0.903029 0.729274 0.550988
1 0.758297 0.554086
0 0.780972 0.409751
0 0.778454 0.420432
0 0.783276 0.44564
0.0432593 0.775738 0.449729
0.33669 0.744823 0.493446
0.659739 0.74522 0.565911
0.826139 0.776776 0.599252
0.896559 0.795483 0.582956
0.988769 0.825086 0.58056
0 0.887358 0.420005
0 0.885893 0.43093
0 0.881971 0.42858
0.0099794 0.873793 0.457313
0.300862 0.849531 0.514076
0.584237 0.835523 0.557794
0.869627 0.855512 0.642908
0.950683 0.883345 0.646738
1 0.890105 0.622354
0 0.977874 0.396979
0 0.977142 0.40827
0 0.974945 0.421317
0 0.961852 0.459373
0.256092 0.946578 0.531685
0.508659 0.92665 0.553506
0.864317 0.933165 0.656977
0.994934 0.958862 0.691783
1 0.985046 0.694743
0 0.117433 0.345861
0 0.0948348 0.339605
0.00726329 0.0953231 0.347707
0.153719 0.0720226 0.348333
0.431006 0.0548714 0.355901
0.763088 0.0497902 0.36286
1 0.0778821 0.410834
1 0.121706 0.458747
1 0.199298 0.516609
0 0.221408 0.3944
0 0.144335 0.361273
0.0242313 0.125139 0.357626
0.176059 0.102678 0.358801
0.465446 0.0865644 0.368093
0.777752 0.0840925 0.373617
1 0.112184 0.423758
1 0.150301 0.457984
1 0.236301 0.520272
0 0.331914 0.452552
0 0.306004 0.436561
0.0502174 0.230152 0.402716
0.173129 0.194018 0.395911
0.469291 0.185916 0.41561
0.792172 0.195529 0.433921
1 0.22414 0.481102
1 0.273121 0.516625
1 0.3337 0.557656
0 0.474922 0.543175
0 0.45893 0.533089
0.0972915 0.43003 0.507362
0.187015 0.340108 0.448692
0.41561 0.31667 0.46183
0.770871 0.350958 0.507988
0.966384 0.373465 0.545068
1 0.435401 0.585763
1 0.481239 0.617975
0 0.630701 0.621759
0 0.603372 0.608042
0.0993057 0.604898 0.620844
0.26389 0.571801 0.59791
0.439292 0.517784 0.555932
0.727459 0.519463 0.583352
0.863386 0.568521 0.621164
0.951614 0.613764 0.658289
1 0.645853 0.688334
0 0.674495 0.559625
0 0.65507 0.554711
0.0102235 0.683879 0.596002
0.172442 0.683207 0.607919
0.39678 0.676143 0.612757
0.664851 0.663111 0.636286
0.786297 0.717678 0.638605
0.895979 0.770184 0.656077
1 0.804044 0.667491
0 0.797436 0.555062
0 0.794324 0.564248
0 0.812451 0.591287
0.0726787 0.809277 0.597253
0.298054 0.772274 0.579232
0.565621 0.765606 0.616312
0.807614 0.782666 0.677287
0.889464 0.815183 0.669871
0.989136 0.852644 0.676585
0 0.911192 0.562463
0 0.90898 0.573526
0 0.910353 0.586282
0.0211948 0.904768 0.59202
0.196292 0.876188 0.57145
0.50753 0.844129 0.613199
0.816602 0.854047 0.697459
0.92694 0.88336 0.718791
0.994202 0.903731 0.70457
0 1 0.555901
0 1 0.568063
0 1 0.578744
0 0.98996 0.563653
0.134539 0.969238 0.573281
0.4589 0.932616 0.623423
0.744274 0.92723 0.681758
0.967391 0.953414 0.755428
1 0.984543 0.765408
0 0.142458 0.391608
0 0.11548 0.382788
0 0.115816 0.390204
0.0978866 0.112993 0.398215
0.324376 0.0754406 0.396735
0.631022 0.0664073 0.403693
0.905272 0.077409 0.420127
1 0.119326 0.484184
1 0.169848 0.54667
0 0.256199 0.444587
0 0.161364 0.40351
0 0.138216 0.397543
0.121706 0.132387 0.404395
0.36228 0.0976577 0.4056
0.668803 0.0911269 0.412772
0.919356 0.104173 0.427634
1 0.146319 0.49279
1 0.191608 0.541436
0 0.360449 0.499275
0 0.337087 0.488106
0.0233768 0.242573 0.445411
0.131823 0.21236 0.438911
0.366232 0.185061 0.446174
0.693492 0.188373 0.467216
0.938277 0.206485 0.485237
1 0.248585 0.55053
1 0.283101 0.580285
0 0.500832 0.591699
0 0.486748 0.581186
0.0812695 0.457313 0.556848
0.14905 0.351919 0.495186
0.321889 0.304311 0.486275
0.670863 0.326726 0.532906
0.921874 0.35729 0.561517
1 0.39646 0.615717
1 0.441321 0.647745
0 0.6533 0.681086
0 0.628397 0.666423
0.0953689 0.630014 0.677226
0.240497 0.586313 0.639536
0.347158 0.484108 0.563134
0.606821 0.4757 0.592767
0.883604 0.52137 0.639551
1 0.54667 0.675792
1 0.609659 0.715541
0 0.798596 0.749264
0 0.772549 0.733379
0.0435645 0.778393 0.753521
0.211215 0.754543 0.745754
0.429984 0.715679 0.72224
0.620523 0.674037 0.691112
0.834714 0.673381 0.709255
0.928298 0.724559 0.747585
1 0.764935 0.780774
0 0.815 0.689403
0 0.795605 0.678264
0 0.819013 0.713222
0.120607 0.824857 0.728923
0.32488 0.806332 0.719478
0.553765 0.798505 0.718456
0.791638 0.790661 0.752361
0.882994 0.837339 0.760174
0.986358 0.889128 0.779644
0 0.91957 0.697871
0 0.916533 0.70634
0 0.919234 0.719493
0.0504158 0.930587 0.738689
0.243961 0.907118 0.7205
0.48365 0.870481 0.698634
0.722591 0.873426 0.742992
0.912291 0.892027 0.79826
0.988739 0.923796 0.792477
0 1 0.702937
0 1 0.713252
0 1 0.723934
0 1 0.727504
0.168429 0.997528 0.714824
0.356985 0.95964 0.681498
0.659953 0.939269 0.732616
0.924681 0.956069 0.816007
1 0.986648 0.840711
0 0.167605 0.437079
0 0.13608 0.425742
0 0.136294 0.432731
0.0520485 0.137087 0.442252
0.231067 0.0972 0.436484
0.532296 0.0823835 0.447715
0.800397 0.0863508 0.453788
1 0.116472 0.490578
1 0.164141 0.560342
0 0.283375 0.490181
0 0.181109 0.446799
0 0.153353 0.437964
0.0758679 0.151888 0.446387
0.269734 0.113542 0.442512
0.58056 0.100175 0.454902
0.83444 0.107134 0.460456
1 0.138293 0.49572
1 0.185397 0.565194
0 0.392905 0.547753
0 0.372457 0.539956
0 0.256413 0.486137
0.0914015 0.224521 0.478401
0.28307 0.192554 0.478767
0.606317 0.184833 0.500053
0.865827 0.197971 0.512428
1 0.229923 0.546426
1 0.274983 0.613794
0 0.530053 0.638697
0 0.518135 0.628473
0.0728008 0.489128 0.605509
0.118654 0.367239 0.53756
0.271992 0.321996 0.524575
0.572824 0.309133 0.551049
0.858137 0.3393 0.584527
1 0.373587 0.618433
1 0.414969 0.683116
0 0.679133 0.732143
0 0.656168 0.717876
0.0898451 0.657069 0.72488
0.226642 0.608972 0.679606
0.291203 0.478752 0.586282
0.489265 0.435584 0.584802
0.818616 0.493568 0.65597
1 0.531167 0.692607
1 0.562051 0.740322
0 0.820172 0.820798
0 0.796674 0.80264
0.0641184 0.802121 0.816785
0.221622 0.777737 0.80029
0.416785 0.725689 0.756802
0.540871 0.642161 0.690394
0.76585 0.640848 0.72285
0.956466 0.676936 0.759533
1 0.695735 0.791012
0 0.939361 0.8804
0 0.91635 0.864118
0 0.912108 0.871977
0.164309 0.899611 0.86952
0.36849 0.862791 0.841291
0.594644 0.834913 0.823789
0.769482 0.809369 0.808179
0.909911 0.809094 0.819974
1 0.853513 0.857145
0 0.936248 0.810758
0 0.919509 0.801602
0 0.920073 0.810758
0.0947738 0.937255 0.841764
0.286458 0.922545 0.83505
0.503105 0.903288 0.822156
0.712871 0.899001 0.82324
0.90016 0.899809 0.863264
0.984619 0.942275 0.874998
0 1 0.821912
0 1 0.828336
0 1 0.836866
0.0221561 1 0.856886
0.199084 1 0.852842
0.414221 0.988983 0.821378
0.652674 0.962844 0.813306
0.851499 0.975311 0.863371
1 0.997162 0.917739
0 0.193378 0.482612
0 0.156847 0.468605
0 0.157549 0.475395
0.0121309 0.159442 0.485664
0.172137 0.149722 0.492058
0.42417 0.101656 0.487175
0.72813 0.0985428 0.500999
0.93164 0.118441 0.514138
1 0.160143 0.565377
0 0.301976 0.531044
0 0.202991 0.490791
0 0.170626 0.479011
0.0348821 0.171557 0.488746
0.207584 0.15874 0.494514
0.476722 0.114076 0.492729
0.770962 0.114549 0.506447
0.958007 0.137331 0.520592
1 0.177798 0.567788
0 0.428946 0.598657
0 0.400748 0.587625
0 0.271901 0.527138
0.0529793 0.237156 0.517922
0.230213 0.223362 0.5234
0.504967 0.187701 0.530144
0.805661 0.194842 0.551644
0.984924 0.219791 0.567926
1 0.258183 0.610452
0 0.562081 0.687724
0 0.551415 0.677714
0.0650645 0.523156 0.656245
0.0879377 0.383627 0.580331
0.223423 0.333333 0.563851
0.476768 0.304463 0.574807
0.794354 0.324544 0.61416
0.977676 0.356146 0.638041
1 0.392447 0.67686
0 0.706981 0.783978
0 0.686 0.770352
0.0810864 0.684642 0.771969
0.213397 0.632944 0.721782
0.255802 0.49456 0.629221
0.425635 0.442817 0.612436
0.729885 0.458396 0.663157
0.941985 0.50634 0.708721
1 0.54049 0.7458
0 0.842313 0.875212
0 0.8206 0.85771
0.0666972 0.824094 0.868421
0.219593 0.797726 0.846799
0.392493 0.734325 0.786038
0.457282 0.609827 0.688106
0.643229 0.582391 0.698344
0.895201 0.645685 0.771954
1 0.679347 0.808362
0 0.958099 0.953399
0 0.936416 0.937469
0 0.931914 0.940749
0.188098 0.918639 0.933532
0.386297 0.879759 0.898772
0.587366 0.837568 0.8589
0.701427 0.78056 0.809949
0.854994 0.776654 0.832654
1 0.808454 0.867445
0 1 1
0 1 0.98558
0 1 0.976455
0.129793 1 0.986435
0.318608 0.991196 0.966049
0.538994 0.951019 0.93341
0.748989 0.935027 0.926497
0.886854 0.918944 0.917617
1 0.920638 0.928069
0 1 0.914672
0 1 0.906538
0 1 0.910094
0.0528573 1 0.937133
0.233524 1 0.93959
0.45005 1 0.922026
0.662272 0.99501 0.914961
0.847608 0.99469 0.924987
1 1 0.971511
