luts/Channel X1.cube
TITLE "Generated by Resolve"
LUT_3D_SIZE 9
0 0 0
0.0872663 0.0235447 0.0143435
0.210437 0.040177 0.0162051
0.375036 0.0387732 0
0.542672 0.0408789 0
0.691249 0.0626535 0
0.806622 0.106279 0
0.920546 0.156619 0.0131685
1 0.209461 0.0466773
0.0155795 0.0960555 0.0441901
0.10808 0.0980392 0.0513466
0.18996 0.109361 0.0332799
0.341604 0.109133 0.0272984
0.512566 0.111589 0.00437934
0.673136 0.122713 0
0.801175 0.151507 0
0.91075 0.193103 0.0205844
1 0.239811 0.0473793
0.0127718 0.191546 0.0755322
0.116945 0.193393 0.0894484
0.214389 0.198413 0.097322
0.318166 0.211826 0.0700084
0.478798 0.216419 0.038407
0.647745 0.218433 0.021149
0.788922 0.234607 0.0213931
0.895308 0.26746 0.0380713
1 0.307057 0.059144
0 0.297932 0.101488
0.0999771 0.302113 0.1205
0.207507 0.306874 0.132891
0.337118 0.313619 0.144121
0.455573 0.334768 0.121538
0.616281 0.348058 0.0873884
0.762615 0.363485 0.0706035
0.869993 0.389517 0.0768292
0.973938 0.421424 0.0905165
0 0.421622 0.139559
0.0893111 0.429297 0.162722
0.199542 0.439353 0.184009
0.324895 0.444358 0.196201
0.48893 0.448814 0.204562
0.611276 0.472801 0.184405
0.747219 0.492073 0.154559
0.855055 0.516274 0.150332
0.952697 0.543679 0.153201
0 0.553597 0.191409
0.0888838 0.562753 0.216281
0.202457 0.574502 0.241535
0.31693 0.582879 0.259403
0.497902 0.575448 0.262409
0.650904 0.585916 0.270176
0.763653 0.607889 0.252216
0.861479 0.629236 0.23061
0.949844 0.650843 0.22472
0.0018616 0.679728 0.259785
0.111788 0.688334 0.284291
0.225376 0.698009 0.308415
0.338155 0.706661 0.328161
0.491783 0.700221 0.331029
0.686152 0.6878 0.328786
0.802228 0.705043 0.331487
0.895155 0.723751 0.317143
0.971481 0.742657 0.296117
0.0288701 0.796719 0.327947
0.136156 0.801999 0.349096
0.245869 0.807172 0.368887
0.360815 0.813519 0.387915
0.48809 0.809308 0.39324
0.679713 0.791104 0.385275
0.841993 0.788449 0.384787
0.93518 0.807279 0.384649
1 0.825147 0.379568
0.0431678 0.902159 0.383001
0.147601 0.90399 0.400565
0.251789 0.905989 0.416922
0.373342 0.909361 0.434928
0.483787 0.909316 0.444602
0.651484 0.893019 0.437827
0.848188 0.874922 0.430503
0.970047 0.884459 0.431861
1 0.903151 0.435218
0 0.00273136 0.0531472
0.124773 0 0.0558328
0.234089 0.0074464 0.0424048
0.364706 0.0157168 0.0319371
0.52398 0.0190738 0.010132
0.69633 0.0471046 0.012665
0.831083 0.1252 0.0652781
0.950698 0.203342 0.126574
1 0.256168 0.157214
0 0.105272 0.109422
0.0947127 0.109346 0.117159
0.202945 0.125811 0.118761
0.361852 0.132372 0.104326
0.5346 0.141543 0.0896773
0.694011 0.159365 0.0840162
0.815869 0.193439 0.0985275
0.924407 0.237064 0.124025
1 0.283925 0.151843
0 0.209354 0.140475
0.0974746 0.20972 0.154009
0.209796 0.211872 0.169177
0.329305 0.22443 0.144625
0.503929 0.229038 0.127626
0.672999 0.23592 0.117586
0.808713 0.258778 0.122789
0.915114 0.295979 0.142718
1 0.337194 0.165408
0 0.311818 0.156512
0.0753796 0.314565 0.178286
0.190616 0.323323 0.20354
0.336629 0.32575 0.2159
0.465965 0.348379 0.192248
0.635401 0.364645 0.166995
0.782467 0.380652 0.15906
0.890745 0.409506 0.171756
0.996414 0.443259 0.189425
0 0.435172 0.194095
0.0618601 0.441215 0.218433
0.178866 0.450309 0.244846
0.308644 0.455665 0.26334
0.48864 0.459113 0.274372
0.617044 0.485893 0.251987
0.759075 0.507713 0.229664
0.865827 0.5346 0.229984
0.966079 0.563333 0.235996
0 0.567407 0.245472
0.0602121 0.575387 0.271397
0.180026 0.585336 0.299168
0.299626 0.595254 0.323964
0.483589 0.586786 0.329061
0.650187 0.596063 0.339574
0.764462 0.619669 0.318242
0.863355 0.642374 0.302037
0.954284 0.664851 0.298314
0 0.693965 0.312871
0.0809033 0.70132 0.337926
0.199756 0.709346 0.363867
0.316213 0.717159 0.38703
0.473793 0.710536 0.394812
0.675792 0.697383 0.39324
0.798291 0.714382 0.399481
0.890745 0.734051 0.381979
0.968139 0.753918 0.364065
0 0.810162 0.380163
0.104067 0.814023 0.401389
0.219104 0.817838 0.422858
0.336736 0.822019 0.443305
0.470237 0.818936 0.454887
0.660655 0.800687 0.448157
0.835676 0.795758 0.449256
0.928771 0.816083 0.452659
1 0.834531 0.443534
0.00923171 0.915022 0.434577
0.114885 0.915511 0.45214
0.223239 0.91632 0.469749
0.348653 0.917723 0.489204
0.46273 0.919081 0.504143
0.631785 0.901884 0.499977
0.834241 0.883482 0.493111
0.963821 0.891875 0.4972
1 0.912093 0.504097
0 0.00898756 0.119112
0.104982 0 0.124178
0.306142 0 0.103975
0.447227 0 0.0769207
0.55433 0.00584421 0.0677806
0.663767 0.030518 0.0726787
0.754879 0.0665141 0.0904707
0.865324 0.104311 0.101259
1 0.200519 0.170947
0 0.10457 0.156497
0.0756542 0.107744 0.169329
0.246769 0.100664 0.173495
0.379263 0.118624 0.160571
0.521004 0.131106 0.153124
0.67303 0.142519 0.140719
0.820035 0.188098 0.165911
0.94873 0.256489 0.209033
1 0.327672 0.255772
0 0.214145 0.218387
0.078172 0.220661 0.229236
0.191745 0.226947 0.240589
0.3393 0.247593 0.238773
0.517754 0.258198 0.225208
0.687495 0.270298 0.213962
0.818341 0.295598 0.21915
0.924941 0.332372 0.238117
1 0.372457 0.259754
0 0.334524 0.242435
0.048249 0.337209 0.251362
0.17229 0.343084 0.269093
0.337163 0.342885 0.290669
0.481041 0.365972 0.267674
0.658946 0.382315 0.254246
0.804944 0.399313 0.254063
0.912337 0.430259 0.268727
1 0.464805 0.285664
0 0.456092 0.267155
0.0185855 0.45771 0.274769
0.152544 0.462852 0.300862
0.296407 0.467338 0.328008
0.489235 0.469535 0.342077
0.626734 0.500191 0.320089
0.772931 0.52546 0.305348
0.880415 0.55346 0.308965
0.983459 0.581735 0.316411
0 0.585916 0.304341
0.0215457 0.590707 0.326024
0.153079 0.598276 0.35436
0.281285 0.604425 0.38088
0.468544 0.596643 0.392874
0.649729 0.605402 0.404883
0.766888 0.631067 0.379995
0.867613 0.655436 0.369711
0.961273 0.679683 0.368292
0 0.711788 0.369406
0.0427405 0.71632 0.391028
0.170855 0.722255 0.417304
0.292439 0.727382 0.441428
0.457954 0.719722 0.455207
0.663539 0.705913 0.454002
0.79498 0.722805 0.462394
0.887343 0.743664 0.441321
0.967041 0.764538 0.426673
0 0.82707 0.435676
0.0667735 0.828031 0.453483
0.189776 0.82977 0.474968
0.310933 0.831861 0.496376
0.453101 0.826764 0.51136
0.641627 0.809125 0.508171
0.828946 0.80235 0.509972
0.923171 0.82414 0.515175
0.997559 0.843076 0.500435
0 0.930449 0.488472
0.078172 0.928634 0.503334
0.193622 0.927825 0.521172
0.32221 0.927459 0.541619
0.441764 0.925841 0.55729
0.614572 0.909606 0.559396
0.818967 0.891325 0.552743
0.957977 0.898604 0.558724
1 0.920119 0.567056
0 0.0136873 0.188281
0.0780041 0.00129702 0.192294
0.306645 0 0.181659
0.526131 0 0.145022
0.666987 0 0.125765
0.744945 0.00120546 0.125734
0.811826 0.0438544 0.146334
0.892363 0.0924086 0.17409
0.983856 0.147143 0.207248
0 0.102419 0.216083
0.0455329 0.0999161 0.224887
0.218799 0.0868849 0.233524
0.464012 0.0767681 0.218097
0.605676 0.105135 0.207645
0.705882 0.134401 0.210651
0.795651 0.170809 0.230289
0.888808 0.210559 0.253178
0.991028 0.251041 0.274983
0 0.205035 0.263447
0.0422675 0.206729 0.268864
0.161883 0.212833 0.286381
0.401862 0.209033 0.297978
0.541344 0.240558 0.29366
0.679652 0.25919 0.293431
0.794736 0.283238 0.297841
0.923674 0.318791 0.313359
1 0.381781 0.346929
0 0.338247 0.333639
0.0343023 0.34789 0.347402
0.149538 0.361501 0.365805
0.315358 0.365942 0.377966
0.483314 0.398215 0.374197
0.671397 0.418067 0.374411
0.817472 0.439643 0.375875
0.926375 0.471107 0.390311
1 0.504387 0.405768
0 0.480461 0.371603
0 0.486839 0.379675
0.116594 0.491325 0.389441
0.276097 0.49099 0.402975
0.491096 0.488502 0.42887
0.637522 0.522103 0.408698
0.78909 0.551568 0.402838
0.898695 0.579446 0.410285
1 0.606729 0.41944
0 0.614847 0.403891
0 0.617014 0.413703
0.113649 0.618982 0.424826
0.250431 0.618524 0.441566
0.44773 0.606394 0.461402
0.645884 0.614694 0.47718
0.768978 0.646448 0.457374
0.873137 0.673869 0.452949
0.97023 0.699916 0.452506
0 0.739925 0.460716
0 0.739208 0.45655
0.123796 0.740215 0.476188
0.259281 0.740841 0.497551
0.436713 0.727672 0.513832
0.643015 0.714458 0.516991
0.789914 0.731212 0.528359
0.88307 0.755459 0.51017
0.96672 0.778042 0.499458
0 0.850477 0.502892
0.00453193 0.848219 0.513802
0.146014 0.845716 0.530343
0.278248 0.844221 0.549554
0.430243 0.834211 0.564858
0.620539 0.816739 0.568368
0.819165 0.809049 0.57052
0.916899 0.832197 0.578012
0.992752 0.852705 0.561349
0 0.951553 0.550546
0.0220188 0.946868 0.559976
0.151171 0.94226 0.5738
0.290349 0.938994 0.593042
0.416861 0.934203 0.609049
0.596338 0.917311 0.617029
0.800122 0.898817 0.611185
0.951568 0.904845 0.618479
1 0.927703 0.627359
0 0.0186923 0.252491
0.0575418 0.0027924 0.257008
0.286015 0 0.249485
0.547585 0 0.220905
0.738048 0 0.187045
0.855589 0 0.192981
0.928206 0.00529488 0.204807
0.990921 0.0560616 0.227909
1 0.117601 0.263127
0 0.107515 0.282078
0.0269322 0.103212 0.290608
0.191394 0.080766 0.293462
0.472038 0.0609445 0.289876
0.687953 0.0530404 0.261601
0.81915 0.0980087 0.27039
0.889464 0.142458 0.288914
0.959365 0.191211 0.315526
1 0.241169 0.346029
0 0.203067 0.317708
0.0104524 0.198856 0.322881
0.128099 0.193423 0.332204
0.38201 0.182116 0.353124
0.64242 0.187594 0.347066
0.774624 0.227771 0.35021
0.85124 0.268208 0.367803
0.931487 0.3075 0.390433
1 0.347036 0.41355
0 0.331838 0.391501
0.0154116 0.335103 0.395743
0.115465 0.338582 0.400732
0.284794 0.341009 0.417227
0.558083 0.350439 0.440665
0.68545 0.400198 0.453193
0.803159 0.429191 0.4663
0.911665 0.455238 0.474159
1 0.490318 0.488167
0 0.483055 0.465339
0 0.494804 0.480949
0.102281 0.508263 0.498909
0.256092 0.518746 0.516579
0.473869 0.517311 0.526146
0.635142 0.558862 0.52488
0.797436 0.593866 0.53489
0.912947 0.624384 0.549584
1 0.649683 0.559045
0 0.634791 0.518868
0 0.644938 0.530526
0.0707713 0.653666 0.541634
0.214618 0.648127 0.541939
0.423026 0.632395 0.54638
0.644755 0.633448 0.57406
0.770413 0.669017 0.55671
0.880125 0.70277 0.560113
0.982925 0.730343 0.562783
0 0.769192 0.572015
0 0.773342 0.577752
0.0868086 0.773114 0.582544
0.217044 0.765759 0.585016
0.394873 0.741238 0.580133
0.603845 0.723812 0.593011
0.777935 0.739712 0.610361
0.875669 0.770306 0.596216
0.965621 0.796506 0.590372
0 0.882597 0.624979
0 0.880018 0.62594
0.116136 0.873884 0.628305
0.219364 0.866896 0.620493
0.388968 0.847578 0.627558
0.588098 0.825055 0.63711
0.794766 0.816388 0.64094
0.905348 0.840772 0.654002
0.984817 0.864973 0.638453
0 0.981353 0.664561
0 0.977279 0.645243
0.070634 0.968231 0.64715
0.237705 0.957748 0.65687
0.378103 0.947051 0.667536
0.567666 0.92398 0.676371
0.768765 0.906828 0.676265
0.940536 0.910887 0.685145
1 0.935943 0.696437
0 0.0229496 0.299229
0.0485847 0.00605783 0.305241
0.276997 0 0.298314
0.554467 0 0.278111
0.767605 0 0.248997
0.902998 0 0.236652
1 0 0.267781
1 0.0243076 0.289464
1 0.0783856 0.316869
0 0.112016 0.334188
0.0166629 0.107713 0.345647
0.180972 0.0782788 0.346929
0.46154 0.051133 0.346365
0.715373 0.0370031 0.327794
0.877867 0.0412146 0.312978
0.985382 0.107805 0.35082
1 0.158404 0.376272
1 0.211414 0.404211
0 0.205936 0.373266
0 0.202823 0.383108
0.120439 0.196048 0.394278
0.355032 0.169558 0.403525
0.66424 0.168856 0.413993
0.857328 0.175387 0.401129
0.96347 0.227543 0.426062
1 0.274937 0.448386
1 0.322881 0.473075
0 0.327886 0.431968
0 0.327291 0.435813
0.0784466 0.32369 0.440208
0.245655 0.307042 0.446067
0.557687 0.315953 0.49218
0.796231 0.338109 0.498314
0.894041 0.39382 0.520546
0.96173 0.441428 0.545632
1 0.480125 0.567956
0 0.479286 0.529992
0 0.489693 0.54406
0.103792 0.498802 0.556756
0.243351 0.493736 0.554879
0.442817 0.493812 0.567376
0.700999 0.512276 0.594217
0.800855 0.573465 0.622644
0.906935 0.605905 0.639002
1 0.622782 0.637125
0 0.636088 0.605371
0 0.648737 0.62208
0.0676585 0.662913 0.641459
0.203311 0.669551 0.654307
0.403738 0.668193 0.663081
0.633249 0.662654 0.67393
0.769284 0.701122 0.670893
0.883345 0.7467 0.686168
0.995453 0.776684 0.698695
0 0.779767 0.674388
0 0.789395 0.686275
0.0537118 0.798505 0.698283
0.175631 0.800305 0.702007
0.364996 0.771939 0.680552
0.579553 0.753628 0.684047
0.77409 0.758556 0.708186
0.870329 0.791775 0.696101
0.968063 0.824628 0.699367
0 0.901442 0.7355
0 0.905135 0.739513
0.0629892 0.906279 0.741619
0.182925 0.901396 0.738323
0.358602 0.870466 0.719326
0.542535 0.8365 0.704128
0.751644 0.827008 0.720531
0.88954 0.849851 0.741329
0.974273 0.880003 0.730266
0 1 0.776211
0 1 0.774075
0.0747387 0.99913 0.769818
0.198779 0.98941 0.765225
0.311421 0.974533 0.746761
0.521385 0.936934 0.742504
0.725139 0.914061 0.750622
0.915022 0.915984 0.762341
1 0.944442 0.780957
0 0.0269169 0.340887
0.049836 0.0181735 0.351934
0.274327 0 0.336858
0.560845 0 0.319173
0.787289 0 0.293507
0.928374 0 0.282094
1 0 0.282719
1 0 0.328267
1 0.0610208 0.365881
0 0.116213 0.375723
0.0127565 0.111452 0.387793
0.17995 0.073106 0.385122
0.461433 0.0426337 0.384009
0.730724 0.025864 0.371374
0.904326 0.0274662 0.35993
1 0.0469978 0.365576
1 0.129747 0.419364
1 0.191699 0.456489
0 0.209247 0.414862
0 0.206821 0.427024
0.123262 0.199023 0.439567
0.353826 0.166094 0.445045
0.669764 0.157702 0.458274
0.886015 0.161975 0.452796
1 0.182376 0.459983
1 0.242924 0.495995
1 0.295476 0.523888
0 0.327474 0.467399
0 0.327092 0.475731
0.0732738 0.324544 0.48571
0.249348 0.305715 0.494179
0.544091 0.294392 0.525093
0.830427 0.318395 0.551263
0.970184 0.341466 0.559182
1 0.398291 0.589181
1 0.449042 0.614679
0 0.4766 0.566323
0 0.484398 0.576242
0.0755932 0.487922 0.581842
0.203204 0.464103 0.564309
0.400992 0.448325 0.573861
0.724636 0.48127 0.64097
0.897688 0.511177 0.655283
0.976043 0.573068 0.687816
1 0.618097 0.712856
0 0.635676 0.664027
0 0.647944 0.681727
0.0861677 0.6607 0.700877
0.225254 0.66212 0.710018
0.411688 0.649866 0.70721
0.611933 0.651469 0.718975
0.807157 0.668559 0.73872
0.887221 0.725872 0.771176
1 0.747372 0.773648
0 0.781064 0.743358
0 0.791455 0.758679
0.0567636 0.802579 0.776669
0.175051 0.808637 0.788418
0.352041 0.796033 0.785245
0.561715 0.791684 0.790661
0.76643 0.784741 0.800153
0.869688 0.820005 0.802976
0.972 0.867124 0.819715
0 0.905516 0.816052
0 0.91162 0.825635
0.0516976 0.917647 0.836255
0.166125 0.920546 0.842206
0.32462 0.905638 0.831632
0.528527 0.871946 0.805707
0.730922 0.860822 0.815427
0.886625 0.870817 0.838437
0.96997 0.902785 0.82945
0 1 0.869642
0 1 0.873381
0.0445258 1 0.876799
0.159579 1 0.876478
0.300572 1 0.863935
0.500465 0.957702 0.832013
0.683436 0.928008 0.821439
0.877424 0.929183 0.844465
0.986893 0.955062 0.869718
0 0.0307927 0.382452
0.0470893 0.0213779 0.394263
0.27013 0 0.374624
0.562631 0 0.358679
0.799924 0 0.336583
0.94609 0 0.327764
1 0 0.325872
1 0 0.330663
1 0.0171817 0.388495
0 0.120348 0.41709
0.00843824 0.115236 0.430137
0.18088 0.0861982 0.432166
0.459342 0.0340734 0.420447
0.738674 0.0139315 0.411048
0.920424 0.0154726 0.403479
1 0.0317082 0.407874
1 0.0575875 0.418952
1 0.154513 0.484337
0 0.213291 0.456535
0 0.210925 0.469902
0.126787 0.201999 0.482933
0.353445 0.162554 0.483864
0.670817 0.148714 0.49662
0.901671 0.152941 0.497566
1 0.170993 0.505165
1 0.195422 0.516411
1 0.26331 0.558236
0 0.329122 0.504479
0 0.329183 0.51577
0.074403 0.327031 0.52842
0.26125 0.308141 0.539498
0.54641 0.285557 0.561303
0.845731 0.305165 0.592065
1 0.32752 0.60441
1 0.353658 0.616403
1 0.411582 0.646952
0 0.475578 0.59353
0 0.480964 0.601419
0.0572976 0.481483 0.606271
0.198627 0.457023 0.595026
0.393088 0.428473 0.596262
0.710399 0.450706 0.658793
0.928252 0.491814 0.69662
1 0.519509 0.710063
1 0.574289 0.737804
0 0.634791 0.702403
0 0.645884 0.718227
0.0863203 0.655772 0.732876
0.22034 0.649134 0.730861
0.370092 0.60943 0.694652
0.576272 0.608698 0.716701
0.841291 0.643153 0.777493
0.964431 0.670481 0.790402
1 0.730007 0.823026
0 0.78265 0.790951
0 0.792645 0.806378
0.0749371 0.802976 0.824125
0.200748 0.806165 0.834638
0.379095 0.79089 0.830671
0.580926 0.783948 0.836255
0.758755 0.787701 0.848051
0.884169 0.800534 0.860563
0.987884 0.845609 0.883238
0 0.906279 0.865476
0 0.912505 0.876661
0.0555734 0.919738 0.891646
0.167956 0.924086 0.901961
0.326085 0.913497 0.900572
0.516289 0.896132 0.89427
0.718807 0.895308 0.903166
0.883055 0.893233 0.916564
0.970977 0.927565 0.92488
0 1 0.927047
0 1 0.934783
0.0398871 1 0.945556
0.156741 1 0.953231
0.292042 1 0.952163
0.474388 0.994537 0.934508
0.685893 0.96434 0.91632
0.861372 0.964019 0.935882
0.988617 0.977829 0.961578
0 0.0347448 0.424048
0.0440223 0.0244755 0.436454
0.265202 0 0.413718
0.561654 0 0.396597
0.806851 0 0.377798
0.957458 0 0.371756
1 0 0.370245
1 0 0.371603
1 0 0.38088
0 0.124544 0.458488
0.0039826 0.119005 0.472389
0.184131 0.0986191 0.479194
0.456641 0.0247044 0.456062
0.74136 0.00157168 0.44889
0.929335 0.00300603 0.445441
1 0.0180209 0.450492
1 0.038941 0.45864
1 0.0711223 0.47509
0 0.217258 0.497841
0 0.215213 0.512749
0.129931 0.205249 0.526238
0.351751 0.158343 0.522118
0.66688 0.139803 0.533318
0.906752 0.143297 0.539895
1 0.161547 0.550576
1 0.182589 0.560632
1 0.209125 0.573541
0 0.33164 0.543542
0 0.332341 0.557733
0.0767987 0.330098 0.572076
0.272572 0.310567 0.584787
0.549584 0.278843 0.599496
0.849378 0.292363 0.630701
1 0.315648 0.64889
1 0.338964 0.661326
1 0.365164 0.673045
0 0.474952 0.622202
0 0.478874 0.631067
0.0454719 0.478569 0.638239
0.201495 0.455421 0.633829
0.406195 0.429847 0.64126
0.700206 0.431754 0.685512
0.9337 0.473365 0.733257
1 0.500999 0.752117
1 0.524727 0.761807
0 0.633127 0.734188
0 0.642908 0.747158
0.070985 0.649622 0.756512
0.19884 0.633768 0.743389
0.344762 0.582773 0.70251
0.541588 0.565545 0.713863
0.809491 0.602396 0.784863
0.994324 0.647395 0.828168
1 0.671809 0.838743
0 0.782284 0.832074
0 0.791669 0.846983
0.0823072 0.800061 0.861982
0.209613 0.798962 0.867445
0.377584 0.774746 0.851087
0.53666 0.73962 0.819776
0.720455 0.748211 0.846159
0.915633 0.776471 0.895674
1 0.802014 0.906249
0 0.906737 0.911635
0 0.912886 0.923018
0.073579 0.919295 0.937133
0.190127 0.922621 0.946853
0.353796 0.909285 0.943389
0.541192 0.889891 0.935515
0.734127 0.89192 0.948791
0.875654 0.900359 0.962448
0.979706 0.912001 0.972732
0 1 0.97406
0 1 0.982498
0.0420691 1 0.995102
0.159518 1 1
0.294133 1 1
0.476829 1 0.997803
0.671778 0.991745 0.99559
0.857053 0.99382 1
0.987732 1 1
