luts/Channel X5.cube
TITLE "Generated by Resolve"
LUT_3D_SIZE 33
0.0169223 0 0.00482185
0.0422217 0 0.00148013
0.0498512 0.00555428 0.00910964
0.068101 0.0111849 0.0110018
0.0939803 0.0158236 0.0103151
0.118181 0.0246128 0.0133364
0.145388 0.0300145 0.0145266
0.178546 0.0331426 0.0135042
0.215732 0.0346227 0.0111238
0.255924 0.0348821 0.00799573
0.297368 0.0343938 0.00389105
0.339818 0.033402 0
0.383322 0.0321965 0
0.426719 0.0320592 0
0.470176 0.0337377 0
0.513436 0.0377508 0
0.554955 0.0444343 0
0.595071 0.050782 0
0.632197 0.0554665 0
0.666911 0.0622873 0
0.699184 0.0708782 0
0.727657 0.0810712 0
0.753765 0.0935378 0
0.778408 0.11075 0.00241093
0.801297 0.12015 0
0.826246 0.132601 0.00511177
0.851347 0.145022 0.0117647
0.876936 0.157671 0.0191501
0.902892 0.170275 0.0266728
0.928573 0.183017 0.0345006
0.954192 0.195727 0.0424659
0.979995 0.208804 0.050782
1 0.222248 0.0590524
0.00694286 0.0274662 0.0211185
0.0378424 0.0300145 0.0209659
0.0563058 0.027512 0.0198215
0.0746471 0.0299535 0.0212711
0.0948043 0.0369116 0.0239567
0.116503 0.0424048 0.0259403
0.141955 0.0468757 0.0266728
0.174243 0.049836 0.0256962
0.210376 0.0504463 0.0231022
0.25008 0.0488746 0.0193027
0.291188 0.0485389 0.0152743
0.333944 0.047776 0.0105592
0.377264 0.0475319 0.00570687
0.420905 0.0478981 0.00109865
0.464271 0.049073 0
0.506966 0.0521401 0
0.548302 0.0558175 0
0.587625 0.0605631 0
0.625055 0.0667124 0
0.660533 0.074464 0
0.693339 0.0879225 0
0.722683 0.0983902 0
0.748135 0.105699 0
0.773999 0.116411 0
0.799466 0.127779 0
0.824826 0.139422 0.00483711
0.850248 0.151354 0.0115969
0.876188 0.163577 0.0190738
0.902144 0.175875 0.0265354
0.927779 0.188251 0.0342412
0.953429 0.200885 0.0422827
0.978821 0.213352 0.0502785
1 0.22652 0.0585031
0.00622568 0.0635233 0.0391089
0.0331884 0.0637522 0.0423438
0.0657359 0.0653239 0.0428473
0.0789349 0.0649119 0.0378882
0.0949416 0.0641489 0.0333104
0.114992 0.0651865 0.0320439
0.139071 0.0668498 0.0320439
0.169238 0.0677806 0.031281
0.204486 0.068513 0.0294652
0.241627 0.0687419 0.0260166
0.280827 0.0699474 0.0224308
0.32192 0.071519 0.0187686
0.364904 0.0733959 0.0150301
0.407904 0.0752575 0.0109407
0.451026 0.0773632 0.00663767
0.494041 0.0801709 0.00260929
0.536202 0.0836347 0
0.577096 0.0883955 0
0.616053 0.0938582 0
0.652567 0.0994125 0
0.686503 0.10277 0
0.718196 0.109743 0
0.746746 0.118242 0
0.773816 0.128176 0
0.799512 0.138399 0.00102235
0.824872 0.149111 0.00694286
0.850278 0.160281 0.0134585
0.876066 0.171908 0.0205997
0.901793 0.183703 0.0279698
0.927672 0.195636 0.0355383
0.953094 0.207767 0.0432441
0.978439 0.219989 0.0511482
1 0.232593 0.0590982
0.00474556 0.0874189 0.0510872
0.0289616 0.0875715 0.0548104
0.0597391 0.0880751 0.0554055
0.0893111 0.0901961 0.056611
0.103929 0.0913863 0.0539101
0.117296 0.0904402 0.0474403
0.137179 0.0910506 0.0429694
0.163714 0.0911574 0.0390478
0.198276 0.0910048 0.0362707
0.235904 0.0908217 0.0340276
0.275975 0.0912947 0.0317388
0.317372 0.0921798 0.028687
0.359777 0.0934768 0.0250401
0.402197 0.0949264 0.020737
0.445151 0.0965286 0.0161135
0.488258 0.0986496 0.0118105
0.531365 0.101854 0.00819409
0.572488 0.105135 0.00466926
0.611566 0.106889 0
0.648585 0.110689 0
0.684291 0.116106 0
0.717693 0.122896 0
0.747478 0.131029 0
0.774533 0.139879 0
0.800565 0.149584 0.00466926
0.825849 0.159747 0.0103151
0.851133 0.170428 0.0166171
0.876554 0.181399 0.0233616
0.902235 0.192752 0.0304875
0.927855 0.204257 0.0377203
0.953002 0.215961 0.0451057
0.978088 0.227726 0.0526589
1 0.239841 0.0604257
0.00115969 0.110567 0.062089
0.0264591 0.110948 0.0667277
0.0491646 0.111284 0.0678721
0.0855573 0.112123 0.0683757
0.112566 0.115114 0.0702678
0.130999 0.118624 0.0696727
0.141894 0.115892 0.0615854
0.163333 0.115999 0.0543984
0.193332 0.115801 0.0473335
0.229374 0.115084 0.042359
0.268757 0.114351 0.0390173
0.310369 0.114 0.0362402
0.353231 0.113848 0.0328374
0.396521 0.114092 0.0290684
0.439963 0.114595 0.0243076
0.484001 0.115877 0.019913
0.526879 0.117128 0.0140688
0.568399 0.117586 0.00419623
0.608057 0.120378 7.62951e-05
0.646235 0.124498 0
0.682429 0.129519 0
0.716655 0.135485 0
0.747219 0.142748 0
0.77499 0.151278 0.00337224
0.801007 0.160403 0.00799573
0.826215 0.170077 0.0133822
0.851698 0.180682 0.0198215
0.876844 0.191318 0.026215
0.902235 0.202289 0.0329442
0.927443 0.213245 0.0397345
0.952438 0.224598 0.0468452
0.977493 0.236439 0.0543984
1 0.24828 0.0619211
0 0.13344 0.0719768
0.0232242 0.134203 0.0779583
0.0417487 0.134813 0.0796979
0.0727245 0.135668 0.0807202
0.109773 0.136736 0.0814832
0.135897 0.139879 0.0834516
0.15581 0.143481 0.0827802
0.168688 0.140917 0.0744945
0.193835 0.141192 0.0655833
0.225864 0.140902 0.0564889
0.262623 0.140154 0.0495155
0.303334 0.139437 0.0447089
0.346166 0.138277 0.0405585
0.390021 0.137606 0.0367285
0.434424 0.137102 0.0318761
0.477974 0.135592 0.0215
0.521599 0.135424 0.0152438
0.564034 0.136339 0.0107424
0.604959 0.138537 0.00730907
0.643992 0.141817 0.00476081
0.680613 0.145769 0.00337224
0.715175 0.15082 0.00340276
0.746822 0.157092 0.00489815
0.775204 0.164813 0.00814832
0.801648 0.173495 0.0126192
0.827024 0.182956 0.0178378
0.85185 0.192798 0.0234531
0.8766 0.20293 0.0294499
0.901793 0.213519 0.035935
0.926863 0.224292 0.0425574
0.951537 0.235477 0.0494545
0.976272 0.24712 0.056733
1 0.258824 0.0639963
0 0.156573 0.0789502
0.0166781 0.157839 0.0880751
0.0348058 0.158572 0.0901656
0.0588998 0.159228 0.0916915
0.0951553 0.160296 0.0925612
0.133379 0.161639 0.0937362
0.160815 0.165362 0.0961929
0.182773 0.169421 0.0956741
0.198535 0.167041 0.086717
0.225727 0.166552 0.0757305
0.259815 0.166598 0.0658885
0.297963 0.166415 0.057496
0.339696 0.16556 0.0506905
0.3832 0.164431 0.0444648
0.427039 0.162295 0.0333715
0.471427 0.160754 0.0271305
0.51577 0.15993 0.0224765
0.55938 0.160143 0.0185245
0.601083 0.161334 0.0153201
0.640528 0.163287 0.0126345
0.678126 0.166323 0.0108644
0.713466 0.170397 0.0106813
0.746471 0.175952 0.0119173
0.77528 0.182773 0.0146029
0.801984 0.19086 0.018616
0.827405 0.199634 0.0234684
0.852003 0.208927 0.0287022
0.876478 0.21883 0.0344854
0.900969 0.228962 0.0404364
0.926299 0.240055 0.047364
0.950774 0.250904 0.0539864
0.975082 0.261982 0.0607309
0.999405 0.273411 0.0677958
0 0.180194 0.0864881
0.009308 0.181857 0.0969406
0.0275578 0.18262 0.0991531
0.0473487 0.183291 0.100954
0.0793469 0.184573 0.102602
0.117845 0.186236 0.10396
0.157275 0.188159 0.105806
0.187121 0.191806 0.108232
0.210788 0.195804 0.107195
0.235691 0.198093 0.0988632
0.258305 0.193194 0.0855726
0.294652 0.193774 0.0751049
0.334356 0.193805 0.0647898
0.376532 0.192508 0.0492256
0.419669 0.191089 0.0409857
0.464134 0.189502 0.0352789
0.50956 0.18854 0.0307774
0.553628 0.187839 0.0269017
0.595728 0.187945 0.0235752
0.635843 0.189029 0.0208896
0.674128 0.191058 0.0188907
0.710491 0.194537 0.0187228
0.744472 0.199237 0.0196231
0.774273 0.20531 0.0218509
0.800931 0.212467 0.0252079
0.82623 0.22063 0.0295415
0.851011 0.229847 0.0349889
0.875273 0.239246 0.0405585
0.899931 0.249409 0.0467842
0.924285 0.259495 0.052781
0.948714 0.269841 0.0589151
0.973068 0.280598 0.0656901
0.997208 0.291554 0.0724651
0 0.204044 0.0933242
0.000793469 0.206531 0.105364
0.0197147 0.207156 0.107515
0.0375677 0.208087 0.109529
0.0625925 0.209522 0.11165
0.0985733 0.211337 0.113451
0.13933 0.213031 0.1149
0.181369 0.215152 0.11696
0.21532 0.218997 0.11931
0.24123 0.223209 0.117983
0.269932 0.227344 0.109651
0.291203 0.22118 0.0940871
0.329305 0.220584 0.0751659
0.369985 0.22118 0.0635233
0.412222 0.221103 0.0541238
0.455985 0.220325 0.04654
0.500923 0.219486 0.0405432
0.545113 0.218463 0.0357366
0.587976 0.218036 0.0319982
0.629145 0.21857 0.0293889
0.66836 0.220188 0.0274357
0.705333 0.22298 0.0272068
0.739742 0.226658 0.0274052
0.77052 0.231708 0.0290227
0.798154 0.238468 0.0323796
0.823896 0.246281 0.0367895
0.848386 0.254536 0.0415961
0.872892 0.263844 0.047364
0.897185 0.273075 0.0530556
0.921584 0.28275 0.0590219
0.94612 0.292607 0.0651102
0.970459 0.303029 0.0717021
0.994888 0.313893 0.0786908
0 0.228489 0.0999466
0 0.231479 0.113115
0.0104372 0.232425 0.11574
0.0271611 0.233494 0.1178
0.0475319 0.234882 0.119997
0.0796368 0.236698 0.122148
0.117891 0.238758 0.123995
0.162066 0.240665 0.125612
0.207858 0.243076 0.127626
0.246983 0.247333 0.129809
0.274159 0.25182 0.127199
0.305348 0.25507 0.109987
0.326284 0.248829 0.0933547
0.363882 0.249668 0.0823835
0.405447 0.25098 0.0724041
0.448341 0.251667 0.062974
0.492302 0.251591 0.0547951
0.536004 0.251133 0.0481727
0.578866 0.250797 0.0429694
0.620874 0.251469 0.0397498
0.660792 0.252567 0.0372625
0.698192 0.254643 0.0362707
0.733471 0.257664 0.0361791
0.765591 0.262058 0.0375677
0.794095 0.268147 0.0406806
0.820294 0.275364 0.0449683
0.845319 0.283207 0.0499123
0.869688 0.291508 0.0552377
0.893751 0.300221 0.0605783
0.918425 0.309667 0.0666361
0.942916 0.318929 0.0724498
0.967346 0.329061 0.078996
0.99144 0.338918 0.0854047
0 0.254002 0.106828
0 0.257511 0.121096
0 0.258595 0.123934
0.0162203 0.259693 0.126009
0.0354009 0.260975 0.128161
0.0607462 0.26276 0.130571
0.0971389 0.264973 0.132708
0.138674 0.267506 0.134615
0.187732 0.269703 0.136141
0.239872 0.271839 0.136706
0.281422 0.275242 0.131319
0.309865 0.280232 0.128389
0.341436 0.285359 0.119081
0.371283 0.286809 0.106889
0.399542 0.280751 0.0929122
0.441535 0.282338 0.0830854
0.484733 0.283452 0.0735027
0.528252 0.284123 0.0652628
0.571252 0.284932 0.0588083
0.612757 0.285786 0.0538033
0.652674 0.286793 0.0500954
0.69044 0.288624 0.0479744
0.726604 0.291524 0.047425
0.759777 0.295338 0.0482032
0.788968 0.300908 0.050782
0.815641 0.307271 0.0545052
0.84062 0.314382 0.058793
0.86537 0.322332 0.0640574
0.889662 0.330709 0.0694133
0.914137 0.33904 0.0747997
0.938949 0.34818 0.0809644
0.96318 0.357198 0.0869306
0.987549 0.366629 0.0933852
0 0.281361 0.115297
0 0.284779 0.130068
0 0.285924 0.13315
0.00485237 0.287037 0.135241
0.0230259 0.28838 0.137392
0.0444953 0.290013 0.139696
0.0763867 0.292561 0.142321
0.116243 0.295247 0.144289
0.163516 0.297322 0.144594
0.224491 0.297719 0.138552
0.280537 0.300572 0.139681
0.316884 0.306218 0.141817
0.34696 0.312413 0.141161
0.379644 0.318349 0.132647
0.41387 0.323323 0.121386
0.436316 0.31342 0.105241
0.478431 0.315129 0.0953078
0.521828 0.317143 0.0864424
0.564584 0.318959 0.0787518
0.605875 0.320348 0.0722667
0.64567 0.321859 0.0672007
0.68333 0.323827 0.0636912
0.719661 0.32697 0.0620432
0.753491 0.330541 0.0616922
0.783352 0.335317 0.0632029
0.810208 0.341146 0.0661173
0.835462 0.347784 0.0699016
0.860197 0.355154 0.0746014
0.884703 0.363058 0.0798047
0.909026 0.371038 0.0849928
0.933883 0.379217 0.0905013
0.958312 0.387869 0.0962997
0.982681 0.39704 0.102541
0 0.310369 0.125353
0 0.314 0.140871
0 0.315389 0.144503
0 0.316732 0.146899
0.0104829 0.318013 0.149126
0.0315557 0.319661 0.151583
0.0545968 0.322118 0.15433
0.0929732 0.324712 0.156558
0.137423 0.327184 0.157397
0.196872 0.327962 0.151232
0.259663 0.330129 0.152117
0.320043 0.333745 0.154177
0.355016 0.339971 0.15668
0.385443 0.346258 0.156344
0.418799 0.352529 0.147875
0.454078 0.358663 0.136797
0.475868 0.348852 0.120333
0.515953 0.349706 0.10985
0.55848 0.352224 0.101472
0.599496 0.354467 0.0937514
0.639323 0.35671 0.0874495
0.67747 0.35964 0.0831922
0.713436 0.362661 0.0801556
0.74728 0.366003 0.0782483
0.777447 0.370459 0.0785077
0.804593 0.376211 0.0805371
0.830014 0.38233 0.0835737
0.85478 0.389319 0.0876478
0.879057 0.396689 0.0921187
0.903273 0.404227 0.0967575
0.92813 0.412222 0.101839
0.952758 0.420462 0.107271
0.976867 0.42884 0.112734
0 0.340352 0.136385
0 0.344076 0.150652
0 0.346654 0.15758
0 0.348486 0.160632
0 0.349722 0.162692
0.0195773 0.351263 0.165209
0.0426337 0.353719 0.168292
0.0712291 0.356298 0.170855
0.113527 0.358953 0.172427
0.168978 0.360616 0.167376
0.231373 0.362539 0.166995
0.302266 0.364202 0.167803
0.362676 0.368048 0.170031
0.394766 0.374716 0.172564
0.425879 0.381338 0.172412
0.459907 0.38822 0.164111
0.495521 0.394659 0.152773
0.526482 0.393118 0.139681
0.553735 0.385321 0.125338
0.594369 0.387793 0.117082
0.634348 0.390967 0.110277
0.672175 0.394202 0.104753
0.707912 0.397406 0.100481
0.741756 0.400977 0.0975967
0.772335 0.405295 0.0966354
0.799878 0.411109 0.0979934
0.825345 0.417365 0.10045
0.849699 0.423911 0.10341
0.873823 0.430823 0.107042
0.897902 0.438224 0.111131
0.922179 0.445884 0.115434
0.946929 0.453819 0.12015
0.971298 0.461967 0.125216
0 0.371481 0.148592
0 0.375463 0.162768
0 0.379217 0.171572
0 0.38114 0.174945
0 0.382437 0.177188
0.00802625 0.384405 0.180026
0.0308843 0.386496 0.182971
0.0555276 0.389395 0.186252
0.0907454 0.392172 0.18851
0.142443 0.394125 0.184863
0.201938 0.395804 0.182773
0.274174 0.397055 0.182834
0.348074 0.398901 0.18407
0.405951 0.403616 0.186923
0.436164 0.410605 0.189349
0.467872 0.417624 0.189517
0.50193 0.424445 0.180407
0.536965 0.430915 0.168978
0.571008 0.433402 0.157794
0.591165 0.421485 0.141756
0.630274 0.424384 0.133928
0.667887 0.427756 0.127733
0.703593 0.431342 0.122652
0.737301 0.435264 0.118898
0.768475 0.440208 0.117327
0.796063 0.445762 0.117723
0.821363 0.451652 0.119158
0.845579 0.45803 0.121309
0.869474 0.465003 0.124346
0.893217 0.472023 0.127535
0.917327 0.479469 0.131136
0.941802 0.487053 0.134936
0.965621 0.494697 0.138857
0 0.40351 0.161624
0 0.408148 0.176623
0 0.412543 0.186236
0 0.414481 0.189868
0 0.415976 0.192325
0 0.418051 0.195315
0.0195315 0.420386 0.198566
0.0442512 0.423087 0.201831
0.0704967 0.425879 0.204456
0.115434 0.428687 0.205158
0.17467 0.429648 0.199237
0.243015 0.430915 0.198886
0.322042 0.432105 0.19942
0.395712 0.434409 0.201099
0.448478 0.439704 0.204028
0.47863 0.446998 0.20618
0.51017 0.453941 0.206119
0.544152 0.460883 0.196796
0.578515 0.467826 0.186038
0.614603 0.473762 0.176608
0.629786 0.459297 0.159136
0.664714 0.461112 0.151385
0.700206 0.464668 0.145693
0.734432 0.469291 0.141939
0.765484 0.473915 0.139223
0.792966 0.479225 0.13843
0.818051 0.485039 0.138994
0.842176 0.491417 0.140459
0.865812 0.498299 0.142733
0.889387 0.505394 0.145388
0.913024 0.512367 0.147921
0.93698 0.519478 0.150729
0.960647 0.52697 0.154009
0 0.436164 0.175601
0 0.441596 0.191363
0 0.445502 0.199863
0 0.448417 0.205249
0 0.450294 0.208026
0 0.452445 0.211063
0.00802625 0.454505 0.214023
0.0329442 0.457008 0.217258
0.0594186 0.460136 0.220432
0.0932631 0.46273 0.221714
0.150164 0.463951 0.216266
0.213443 0.465537 0.21593
0.292027 0.466285 0.215488
0.373159 0.467521 0.21619
0.446006 0.470268 0.218143
0.491508 0.476005 0.220905
0.52195 0.483757 0.223163
0.553429 0.490806 0.222782
0.586542 0.497734 0.213748
0.619623 0.504631 0.203159
0.65388 0.510933 0.194202
0.676524 0.505577 0.181552
0.698558 0.498299 0.169543
0.732235 0.502495 0.164721
0.763439 0.506874 0.161181
0.791028 0.511955 0.159762
0.816236 0.517678 0.159716
0.840177 0.524071 0.160739
0.863523 0.530739 0.16228
0.886412 0.537362 0.163943
0.90959 0.544015 0.165743
0.933303 0.551186 0.167956
0.95639 0.558053 0.170138
0 0.469154 0.190265
0 0.474891 0.205615
0 0.477974 0.212039
0 0.482506 0.220706
0 0.484962 0.224216
0 0.486763 0.226871
0 0.488762 0.229847
0.0223392 0.491417 0.23328
0.0488899 0.494316 0.236439
0.0770581 0.497215 0.238727
0.128115 0.498207 0.23328
0.187381 0.499916 0.232898
0.262531 0.500923 0.232486
0.345418 0.501442 0.232227
0.426917 0.502892 0.233295
0.497597 0.506539 0.235828
0.535576 0.512917 0.238483
0.565362 0.52047 0.240116
0.596658 0.527718 0.239734
0.628611 0.534554 0.231144
0.660319 0.541222 0.220661
0.692332 0.547707 0.212268
0.718425 0.548074 0.202884
0.731548 0.534997 0.187854
0.762448 0.539223 0.183337
0.79028 0.543999 0.181109
0.815686 0.549966 0.180957
0.839445 0.555764 0.181231
0.862379 0.561746 0.181933
0.884901 0.568002 0.182956
0.907637 0.574502 0.184237
0.930892 0.581155 0.185641
0.95378 0.588067 0.187503
0 0.5028 0.205936
0 0.508141 0.220233
0 0.511696 0.227451
0 0.516716 0.236484
0 0.519005 0.240146
0 0.520806 0.242817
0 0.523201 0.246082
0.0123445 0.525643 0.249439
0.0393378 0.528771 0.253117
0.0674907 0.531502 0.255512
0.108095 0.532418 0.250492
0.165255 0.534356 0.250217
0.236454 0.535149 0.249607
0.317433 0.535821 0.249302
0.402792 0.536477 0.249531
0.483482 0.538262 0.250874
0.54667 0.542336 0.253223
0.579309 0.549386 0.255756
0.608499 0.556771 0.257115
0.63888 0.563836 0.256611
0.669718 0.570489 0.248402
0.699611 0.577096 0.238483
0.729351 0.583368 0.230213
0.757183 0.587671 0.223224
0.766171 0.573114 0.207462
0.791226 0.575555 0.20296
0.816281 0.580911 0.201709
0.839673 0.586206 0.201205
0.862272 0.59176 0.201328
0.884581 0.597681 0.201953
0.906996 0.603754 0.202808
0.929625 0.610193 0.203952
0.952239 0.616358 0.204852
0 0.536049 0.22179
0 0.541695 0.23592
0 0.545449 0.243671
0 0.548363 0.248768
0 0.552834 0.256413
0 0.554711 0.259281
0 0.557229 0.262715
0.0034638 0.559884 0.266438
0.0310216 0.5626 0.269871
0.0594339 0.565347 0.272557
0.0901961 0.566506 0.268635
0.145892 0.568109 0.267552
0.213703 0.569085 0.267384
0.2916 0.569665 0.266835
0.377249 0.569818 0.2663
0.463294 0.570565 0.266697
0.540688 0.573129 0.26862
0.591928 0.577844 0.270924
0.622232 0.585122 0.273152
0.650706 0.592294 0.274235
0.679942 0.598825 0.273228
0.709056 0.605219 0.265644
0.737469 0.611719 0.256138
0.765423 0.618036 0.248325
0.79295 0.624399 0.242985
0.805188 0.616892 0.231632
0.818708 0.61062 0.222629
0.841505 0.615656 0.221332
0.863584 0.620874 0.220813
0.885664 0.626856 0.221378
0.907561 0.632303 0.221439
0.929458 0.637812 0.221622
0.951644 0.643549 0.221942
0 0.569162 0.2383
0 0.574884 0.251926
0 0.578912 0.26038
0 0.581659 0.265064
0 0.585031 0.270771
0 0.58819 0.27599
0 0.590738 0.2795
0 0.593164 0.283177
0.0234073 0.595804 0.286656
0.0522621 0.59855 0.28957
0.082826 0.600443 0.288808
0.128557 0.601465 0.285313
0.193576 0.602274 0.285023
0.268803 0.602579 0.28426
0.351965 0.60267 0.283421
0.44065 0.602899 0.283207
0.524559 0.604105 0.284153
0.596094 0.60705 0.286076
0.635218 0.612451 0.288151
0.663478 0.61941 0.289799
0.691127 0.626184 0.29044
0.718959 0.632456 0.289372
0.74699 0.639078 0.28307
0.773861 0.645274 0.273747
0.799832 0.651286 0.266041
0.823896 0.657328 0.261173
0.839445 0.656184 0.254276
0.845121 0.64387 0.241566
0.866728 0.64918 0.240589
0.887816 0.654429 0.24004
0.908782 0.659541 0.239551
0.930159 0.664714 0.239155
0.952041 0.670146 0.239109
0 0.601694 0.255512
0 0.607355 0.268727
0 0.611688 0.277958
0 0.614282 0.282429
0 0.617121 0.286931
0 0.619501 0.290669
0 0.621668 0.293965
0 0.625498 0.300298
0.0175937 0.628321 0.304204
0.0474098 0.631235 0.307485
0.0778668 0.633585 0.30901
0.114305 0.633631 0.303044
0.176898 0.63444 0.302922
0.25005 0.634607 0.302129
0.3308 0.634836 0.301274
0.418433 0.634577 0.300374
0.505745 0.634897 0.300374
0.584482 0.636332 0.301289
0.645212 0.639826 0.303075
0.676539 0.645747 0.304799
0.703578 0.652674 0.306203
0.730358 0.659312 0.306767
0.756848 0.665339 0.30573
0.782834 0.671122 0.299672
0.808392 0.677043 0.290394
0.831861 0.682933 0.283558
0.853346 0.688884 0.279316
0.870588 0.691539 0.274907
0.873976 0.678676 0.26186
0.891524 0.680766 0.258656
0.911696 0.685649 0.257527
0.932387 0.690623 0.256703
0.953841 0.696101 0.256336
0 0.633555 0.274235
0 0.638911 0.286824
0 0.643397 0.296696
0 0.646174 0.301228
0 0.648676 0.305241
0 0.650645 0.308431
0 0.652171 0.310613
0 0.655344 0.315709
0.013962 0.659525 0.322301
0.0452125 0.662501 0.325917
0.0758526 0.664591 0.327428
0.109224 0.664546 0.32134
0.164706 0.665461 0.321202
0.236637 0.665537 0.320562
0.31487 0.665675 0.319722
0.399969 0.665217 0.318349
0.488441 0.664714 0.317357
0.571298 0.665141 0.317388
0.643458 0.667018 0.318364
0.688518 0.671611 0.320119
0.717037 0.678187 0.321782
0.742412 0.684581 0.322637
0.767834 0.690501 0.322545
0.79292 0.696147 0.321294
0.817563 0.701732 0.315984
0.841474 0.707637 0.307271
0.862943 0.713695 0.301503
0.882856 0.719585 0.297536
0.901656 0.724834 0.294469
0.907439 0.716884 0.28423
0.91632 0.710887 0.275654
0.936385 0.716136 0.274678
0.956527 0.720958 0.273411
0 0.664607 0.293462
0 0.670192 0.305974
0 0.674846 0.316335
0 0.677455 0.320592
0 0.679545 0.324147
0 0.681315 0.327001
0 0.682902 0.329274
0 0.684947 0.332235
0.00849927 0.68957 0.340063
0.0437781 0.692287 0.343771
0.0752422 0.694453 0.345647
0.108675 0.694194 0.339467
0.155764 0.695384 0.339513
0.22536 0.695415 0.339101
0.301701 0.694957 0.337682
0.3841 0.694377 0.336034
0.47219 0.693507 0.334539
0.557305 0.693202 0.333791
0.634974 0.694362 0.334386
0.698024 0.697322 0.335622
0.729397 0.702449 0.336828
0.755108 0.708705 0.337835
0.779614 0.714809 0.338354
0.804242 0.72047 0.338079
0.828397 0.726085 0.336889
0.851759 0.731594 0.332052
0.873472 0.737346 0.324514
0.893156 0.743053 0.318837
0.911986 0.748714 0.314809
0.930556 0.754482 0.311971
0.940826 0.752056 0.304936
0.942626 0.740322 0.292729
0.961807 0.744945 0.290715
0 0.695399 0.312947
0 0.700648 0.324666
0 0.705669 0.335668
0 0.707805 0.339452
0 0.709804 0.342794
0 0.711482 0.345556
0 0.713268 0.348043
0 0.714519 0.349889
0 0.716609 0.353277
0.0410468 0.721355 0.361089
0.0743877 0.723491 0.363241
0.108309 0.723339 0.357321
0.147189 0.724315 0.357259
0.214343 0.724117 0.356558
0.289128 0.723445 0.355108
0.369207 0.722606 0.353201
0.455268 0.721538 0.351278
0.542336 0.720989 0.350347
0.623392 0.721172 0.350072
0.693492 0.722667 0.350484
0.739895 0.726406 0.351492
0.76733 0.732128 0.352544
0.791821 0.738445 0.353491
0.815961 0.744335 0.353948
0.839979 0.749905 0.353567
0.862882 0.755199 0.3523
0.883741 0.760494 0.348959
0.90399 0.766064 0.341604
0.922911 0.77171 0.336034
0.941131 0.777447 0.332067
0.959213 0.783001 0.328878
0.972122 0.783398 0.32314
0.972915 0.771618 0.310674
0 0.725719 0.331884
0 0.730739 0.342885
0 0.735775 0.354269
0 0.737713 0.357687
0 0.739696 0.361013
0 0.741634 0.364034
0 0.742794 0.365896
0 0.743999 0.36762
0 0.745586 0.370077
0.0311589 0.749249 0.376715
0.0723735 0.752178 0.380545
0.107042 0.751873 0.37528
0.141756 0.75227 0.3738
0.202777 0.75201 0.373129
0.275975 0.751125 0.371756
0.354726 0.750195 0.369879
0.438849 0.749401 0.368185
0.525704 0.748119 0.366293
0.608835 0.747494 0.36524
0.683909 0.748104 0.365179
0.746288 0.750561 0.365896
0.778546 0.755322 0.366934
0.803784 0.76141 0.368017
0.827497 0.767437 0.368765
0.85098 0.772915 0.368872
0.873945 0.778058 0.368292
0.895171 0.783337 0.36759
0.914031 0.788769 0.366827
0.933562 0.793957 0.358465
0.951797 0.79939 0.352743
0.969772 0.805051 0.348592
0.987488 0.810346 0.344991
1 0.813291 0.339803
0 0.756054 0.350256
0 0.760388 0.360388
0 0.765545 0.372107
0 0.767422 0.375494
0 0.769299 0.378653
0 0.770687 0.381048
0 0.771695 0.382834
0 0.772717 0.384344
0 0.773816 0.386175
1.5259e-05 0.775631 0.389166
0.0669413 0.779309 0.395865
0.103868 0.779538 0.392416
0.138994 0.779599 0.389609
0.189929 0.779431 0.389044
0.262409 0.778347 0.387732
0.339513 0.777554 0.386236
0.421576 0.776272 0.383963
0.507042 0.774777 0.38172
0.591897 0.773602 0.380133
0.671092 0.77348 0.379568
0.739788 0.77496 0.37998
0.787854 0.778485 0.380926
0.815106 0.783734 0.381903
0.838743 0.789456 0.38262
0.861799 0.79498 0.383169
0.884565 0.800092 0.383139
0.906447 0.805173 0.382956
0.925628 0.8103 0.382925
0.943099 0.815625 0.383352
0.96202 0.820706 0.375021
0.979919 0.82594 0.368917
0.99762 0.831174 0.363653
1 0.83653 0.359121
0 0.785367 0.367544
0 0.789456 0.377249
0 0.794369 0.389258
0 0.796063 0.392432
0 0.797345 0.39501
0 0.798505 0.397238
0 0.799481 0.399069
0 0.800198 0.400336
0 0.801083 0.401877
