luts/Channel X3.cube
TITLE "Generated by Resolve"
LUT_3D_SIZE 33
0.0377203 0 0.0103761
0.0739147 0 0.00794995
0.0866865 0 0.00575265
0.0930495 0.00572213 0.0178988
0.106218 0.0136873 0.0201572
0.12636 0.0192264 0.0207828
0.152941 0.0231327 0.019379
0.183215 0.0259251 0.0163729
0.217121 0.0278325 0.0104829
0.255177 0.0281987 0.00561532
0.294728 0.0280766 0
0.335714 0.0276341 0
0.378454 0.0273747 0
0.421363 0.0270085 0
0.464347 0.0268711 0
0.508247 0.0286107 0
0.551797 0.0314946 0
0.594675 0.0411688 0
0.636439 0.055787 0
0.675395 0.0734875 0
0.711543 0.0958267 0
0.746136 0.123919 0.0043946
0.786221 0.188312 0.0572061
0.812009 0.204089 0.0635691
0.83772 0.220157 0.0724651
0.863951 0.236316 0.0823682
0.890043 0.251926 0.0918898
0.916808 0.267735 0.101915
0.942885 0.283253 0.111467
0.969192 0.298894 0.121386
0.995575 0.314611 0.131502
1 0.330068 0.141176
1 0.345876 0.151217
0.0283818 0.0309453 0.0380865
0.0654002 0.0371405 0.0399481
0.0808576 0.0199588 0.0286564
0.0930953 0.0201877 0.0270848
0.108125 0.0329747 0.0335699
0.128511 0.0402075 0.0356909
0.155306 0.0459907 0.0345617
0.188739 0.0468452 0.0292973
0.219471 0.0378882 0.0179294
0.256672 0.035996 0.0108034
0.296834 0.0354162 0.0039826
0.338033 0.0349126 0
0.381109 0.0344854 0
0.424643 0.0341955 0
0.468956 0.0351263 0
0.513527 0.0383001 0
0.558968 0.0506905 0
0.602716 0.0661021 0
0.645548 0.0882887 0
0.691386 0.140017 0.0263676
0.726909 0.165942 0.0443885
0.755779 0.178698 0.0486915
0.782467 0.192737 0.0554055
0.808454 0.207156 0.0627756
0.834119 0.22182 0.0706951
0.860105 0.236851 0.0797894
0.886488 0.252079 0.08925
0.912963 0.267185 0.0986343
0.9393 0.282567 0.108431
0.965713 0.297948 0.118181
0.991852 0.313268 0.127962
1 0.32874 0.137865
1 0.344396 0.14786
0.0205539 0.0780194 0.0598306
0.0504158 0.0835889 0.0657206
0.0881361 0.0887465 0.0739757
0.0979782 0.0826886 0.0651408
0.11545 0.080705 0.062562
0.136736 0.0824598 0.0619669
0.163455 0.0847944 0.0600443
0.196872 0.0878462 0.0574655
0.233524 0.0914473 0.054902
0.272938 0.0963912 0.0527962
0.314 0.101518 0.0508431
0.356481 0.107118 0.0488289
0.400214 0.11339 0.0471656
0.444205 0.119966 0.045304
0.488014 0.126589 0.0433509
0.531502 0.133837 0.0420844
0.573434 0.141634 0.0413367
0.613733 0.150195 0.0415808
0.652018 0.15935 0.0426184
0.688396 0.169207 0.0446021
0.721477 0.17969 0.0475929
0.751141 0.191318 0.052369
0.778378 0.203449 0.057908
0.804364 0.215854 0.0639353
0.830182 0.229145 0.0710613
0.856138 0.243046 0.0795911
0.882582 0.257282 0.0885634
0.90898 0.271656 0.0977493
0.935546 0.286229 0.106966
0.961883 0.300999 0.116289
0.988174 0.315785 0.12604
1 0.330724 0.135775
1 0.345724 0.145693
0.0184787 0.102007 0.0691844
0.0410163 0.105913 0.0751659
0.0702068 0.11252 0.0774701
0.109987 0.115496 0.0895247
0.121202 0.110018 0.0830701
0.137713 0.108171 0.0757305
0.162432 0.108614 0.0719921
0.194675 0.109712 0.0690776
0.230396 0.112505 0.0666056
0.267704 0.116518 0.0637675
0.307439 0.121401 0.0611734
0.348852 0.126574 0.0585336
0.391562 0.132174 0.0561379
0.435584 0.138277 0.054078
0.479438 0.144305 0.0518196
0.522866 0.150713 0.0497749
0.565255 0.157778 0.0485084
0.60589 0.165499 0.0479744
0.644694 0.173816 0.0482795
0.681605 0.182803 0.0495155
0.716091 0.192248 0.0514992
0.746639 0.202762 0.0552071
0.774395 0.213916 0.0599832
0.800809 0.225605 0.0655833
0.826902 0.23801 0.0722972
0.852949 0.250965 0.0803845
0.879149 0.264347 0.0888685
0.905562 0.277943 0.0976425
0.932403 0.29189 0.106584
0.95874 0.305882 0.115648
0.985107 0.320104 0.125017
1 0.334447 0.134478
1 0.348821 0.144152
0.012726 0.124437 0.077348
0.0334325 0.127901 0.0843824
0.0577249 0.1337 0.0870985
0.0951247 0.138857 0.0935836
0.134173 0.142 0.105852
0.147066 0.136278 0.10071
0.164187 0.134997 0.091371
0.192721 0.13492 0.0836805
0.227848 0.135653 0.0793011
0.265553 0.137331 0.0763409
0.305211 0.140352 0.0735027
0.346151 0.144488 0.0705272
0.387655 0.149111 0.0672618
0.430182 0.154208 0.0638743
0.473442 0.159808 0.060853
0.516396 0.165637 0.0579385
0.558724 0.171969 0.0556954
0.599466 0.178836 0.0541238
0.638758 0.186572 0.0538033
0.675975 0.194797 0.0541848
0.711162 0.203479 0.0553597
0.742992 0.213184 0.0581826
0.771542 0.223529 0.0622568
0.79852 0.234699 0.0674449
0.824872 0.246509 0.0739757
0.850828 0.259037 0.0818341
0.877043 0.271946 0.0901503
0.903426 0.284901 0.0985428
0.930068 0.298222 0.107103
0.956405 0.311788 0.115938
0.982818 0.325505 0.125017
1 0.339254 0.134157
1 0.353445 0.143664
0.00277714 0.146304 0.0843214
0.0239872 0.149767 0.0926375
0.0451362 0.154879 0.095552
0.0766461 0.16228 0.0983291
0.12105 0.165423 0.109911
0.160128 0.168856 0.122347
0.174807 0.162509 0.117021
0.195102 0.161639 0.105974
0.225956 0.161761 0.0964065
0.262638 0.162646 0.0903944
0.302083 0.163989 0.0865034
0.343755 0.166491 0.0834974
0.386191 0.169604 0.0804303
0.429099 0.173602 0.0771496
0.47216 0.178027 0.0735637
0.514717 0.182742 0.0697337
0.556588 0.188144 0.0664988
0.597482 0.194476 0.064271
0.636454 0.201144 0.0626535
0.673579 0.208392 0.0618296
0.709117 0.216358 0.0621347
0.742 0.225193 0.0638743
0.771282 0.234913 0.0673228
0.798489 0.24535 0.0718242
0.824628 0.256565 0.0781109
0.850462 0.268467 0.0855268
0.876432 0.280827 0.0934768
0.902571 0.293416 0.101366
0.928923 0.306233 0.109178
0.955108 0.319265 0.117571
0.981567 0.332738 0.126421
1 0.346303 0.135271
1 0.360006 0.144213
0 0.167636 0.0881971
0.0106355 0.172 0.0985885
0.0288548 0.176333 0.101091
0.059678 0.183642 0.104921
0.0970321 0.190906 0.109682
0.148928 0.192798 0.125933
0.190402 0.196597 0.139025
0.215152 0.198032 0.136004
0.228504 0.188937 0.119509
0.260945 0.189639 0.109438
0.298604 0.190723 0.102129
0.340063 0.192386 0.097612
0.382864 0.194339 0.0939803
0.426566 0.197009 0.0905623
0.470756 0.200214 0.0871443
0.514199 0.203662 0.0832074
0.556527 0.207858 0.0796979
0.59765 0.213092 0.0768292
0.636728 0.218906 0.0743877
0.674098 0.225406 0.0727855
0.709682 0.232517 0.0720836
0.743267 0.240513 0.0726024
0.773037 0.249409 0.0748302
0.800259 0.259251 0.0791028
0.826398 0.270146 0.0853437
0.851804 0.281437 0.0920424
0.877211 0.293187 0.0991684
0.903365 0.30547 0.106783
0.929503 0.3178 0.11429
0.955459 0.330465 0.12221
0.981613 0.343389 0.130434
1 0.356466 0.138689
1 0.369726 0.147082
0 0.191287 0.0919661
0.0034638 0.196338 0.104143
0.0172885 0.199588 0.106096
0.0453193 0.206394 0.110018
0.078996 0.214481 0.113451
0.123262 0.219074 0.124269
0.179416 0.220905 0.141955
0.22414 0.224964 0.155535
0.253346 0.230869 0.15169
0.261677 0.216999 0.13257
0.296132 0.218479 0.122408
0.33518 0.220142 0.114366
0.377829 0.221973 0.108629
0.422065 0.223957 0.104601
0.46688 0.226322 0.100847
0.511086 0.228763 0.0968032
0.554696 0.232013 0.09308
0.596582 0.235843 0.0897688
0.636484 0.240467 0.0869001
0.674525 0.246067 0.0847944
0.710552 0.252399 0.0833906
0.744533 0.259495 0.0830549
0.774792 0.267811 0.0850996
0.802075 0.277104 0.0893263
0.828321 0.287648 0.0950027
0.853574 0.298329 0.100938
0.878798 0.30956 0.107408
0.904112 0.320958 0.114076
0.929839 0.332769 0.121111
0.955795 0.344793 0.128176
0.981552 0.357137 0.1355
1 0.369879 0.143221
1 0.382727 0.150866
0 0.216007 0.0955673
0 0.221561 0.109514
0.00735485 0.223987 0.110643
0.0307927 0.229786 0.113924
0.0619821 0.237461 0.117708
0.0991989 0.245274 0.122301
0.151858 0.247791 0.139086
0.214023 0.249912 0.158633
0.258869 0.254841 0.170657
0.289616 0.262028 0.165835
0.295415 0.246098 0.145663
0.331609 0.248173 0.13518
0.372137 0.250889 0.126635
0.415137 0.253193 0.119829
0.460197 0.255436 0.114748
0.505196 0.257252 0.110002
0.549615 0.259709 0.105852
0.59202 0.262638 0.1019
0.632715 0.26627 0.098497
0.671763 0.271061 0.0962692
0.708537 0.276493 0.0952163
0.743328 0.283009 0.0955367
0.774655 0.290623 0.0975662
0.802716 0.299474 0.101366
0.828855 0.308904 0.105898
0.853925 0.318822 0.111147
0.87895 0.329366 0.11693
0.904051 0.340169 0.122911
0.929747 0.351629 0.129335
0.955367 0.362997 0.135454
0.980972 0.374655 0.141939
1 0.386542 0.148348
1 0.398764 0.154833
0 0.240696 0.0982681
0 0.246983 0.113619
0 0.248936 0.114443
0.0159609 0.253819 0.11722
0.0446021 0.261006 0.121004
0.0785687 0.269444 0.124483
0.123568 0.275151 0.135668
0.184955 0.277378 0.15494
0.254597 0.279606 0.176547
0.294957 0.285878 0.185245
0.326802 0.293751 0.179599
0.330434 0.275914 0.158206
0.368215 0.279011 0.147921
0.409354 0.282399 0.138766
0.45333 0.285679 0.131579
0.497856 0.287877 0.124819
0.542657 0.290105 0.119631
0.585855 0.292515 0.115297
0.62742 0.295659 0.112306
0.667124 0.300038 0.110613
0.704479 0.304799 0.109575
0.739864 0.310414 0.10956
0.772396 0.317479 0.111162
0.801114 0.325292 0.114153
0.827436 0.333852 0.117983
0.852872 0.343114 0.122744
0.877821 0.352911 0.127779
0.902846 0.363226 0.13312
0.928206 0.373693 0.138491
0.953674 0.384268 0.143572
0.978912 0.39527 0.14876
1 0.406363 0.153933
1 0.418143 0.159106
0 0.265751 0.100267
0 0.272831 0.117449
0 0.274357 0.117845
0.000366217 0.278569 0.120165
0.0264744 0.285313 0.123705
0.0587778 0.293751 0.12813
0.0971542 0.302556 0.132326
0.152361 0.305577 0.150057
0.226444 0.307469 0.172656
0.297459 0.310735 0.194781
0.333089 0.31841 0.200183
0.366018 0.327077 0.193942
0.366979 0.30724 0.171649
0.405371 0.310811 0.161227
0.447791 0.315267 0.152621
0.491676 0.31902 0.145159
0.535927 0.322148 0.138827
0.579141 0.324773 0.1337
0.621164 0.327825 0.129976
0.661509 0.331533 0.127535
0.699641 0.33576 0.125963
0.735759 0.340688 0.12549
0.769268 0.346883 0.126238
0.798321 0.353933 0.128237
0.825101 0.361868 0.131518
0.850736 0.37052 0.135576
0.875669 0.37969 0.139986
0.900557 0.389059 0.144396
0.925566 0.398596 0.148638
0.950973 0.408576 0.152834
0.976425 0.419135 0.157214
1 0.429496 0.160494
1 0.439673 0.161624
0 0.290639 0.104311
0 0.298482 0.122927
0 0.300069 0.123354
0 0.303624 0.125154
0.00646983 0.310063 0.128786
0.0372931 0.318395 0.133349
0.0733654 0.327626 0.137301
0.120073 0.334722 0.146685
0.187121 0.337331 0.167452
0.272328 0.339223 0.193271
0.340749 0.343847 0.215106
0.372885 0.352773 0.21767
0.406867 0.362356 0.211078
0.42118 0.353414 0.193545
0.443595 0.344472 0.177966
0.486198 0.349157 0.169192
0.530251 0.353857 0.161807
0.573098 0.357473 0.155322
0.614694 0.360815 0.149966
0.655329 0.364584 0.14641
0.693812 0.36849 0.143862
0.730541 0.373281 0.142702
0.764691 0.378561 0.142351
0.794598 0.384833 0.143664
0.821805 0.392004 0.146166
0.847684 0.400168 0.14966
0.872572 0.408331 0.153246
0.897337 0.417075 0.156924
0.922286 0.426139 0.160449
0.947768 0.43566 0.16376
0.972961 0.445197 0.166567
0.997757 0.454765 0.167834
1 0.462013 0.15584
0 0.315984 0.109834
0 0.324926 0.130251
0 0.326635 0.130785
0 0.329793 0.132235
0 0.335729 0.135409
0.0149386 0.343938 0.139788
0.0496681 0.353155 0.143877
0.0906233 0.36321 0.147738
0.149722 0.368048 0.163714
0.232242 0.36997 0.188434
0.320439 0.372564 0.215595
0.382925 0.379004 0.234852
0.414679 0.388815 0.236347
0.449363 0.399054 0.229191
0.472724 0.397482 0.214343
0.482307 0.378775 0.194553
0.525048 0.38407 0.186069
0.567498 0.388907 0.178378
0.609232 0.393423 0.172168
0.649531 0.397757 0.167346
0.687663 0.401846 0.163394
0.724483 0.406561 0.161089
0.758984 0.411444 0.159686
0.789609 0.417151 0.15996
0.817258 0.424155 0.161822
0.843137 0.431357 0.164187
0.867918 0.439002 0.166766
0.892607 0.447272 0.169802
0.917769 0.456077 0.172824
0.943114 0.464775 0.175311
0.968124 0.473579 0.177249
0.992798 0.482383 0.177356
1 0.488869 0.163577
0 0.342199 0.116228
0 0.353307 0.138537
0 0.35523 0.139361
0 0.357763 0.140185
0 0.36347 0.143252
0 0.371283 0.147494
0.0268101 0.380316 0.151614
0.0661936 0.390249 0.155444
0.11635 0.39971 0.161288
0.192447 0.402014 0.184253
0.283452 0.403998 0.211658
0.372259 0.407584 0.23946
0.425299 0.415549 0.254078
0.45774 0.425803 0.255085
0.492973 0.436393 0.247044
0.52224 0.439841 0.234226
0.521706 0.413794 0.211292
0.563195 0.41915 0.202884
0.604105 0.424491 0.195499
0.644038 0.429679 0.189502
0.682124 0.434394 0.184527
0.718624 0.43946 0.181018
0.753063 0.444495 0.178546
0.783825 0.45008 0.177508
0.811826 0.456596 0.178332
0.837613 0.463462 0.179843
0.862608 0.470787 0.181857
0.887495 0.478859 0.18436
0.912306 0.4869 0.186526
0.937621 0.495048 0.188403
0.962646 0.503365 0.189776
0.987457 0.512001 0.190112
1 0.51754 0.17557
0 0.366064 0.120073
0 0.382803 0.147448
0 0.385122 0.148409
0 0.38732 0.149187
0 0.392798 0.152163
0 0.400443 0.156237
0.00503548 0.409339 0.160555
0.0431525 0.419013 0.164416
0.0892653 0.429572 0.167407
0.156497 0.43534 0.181918
0.243153 0.437278 0.207675
0.339803 0.439307 0.236698
0.425742 0.443626 0.26389
0.46894 0.453086 0.273564
0.502083 0.463539 0.273777
0.537209 0.474372 0.265354
0.571313 0.482475 0.254475
0.560815 0.449134 0.228153
0.600488 0.454475 0.219821
0.639826 0.460304 0.213062
0.677485 0.465782 0.207172
0.713771 0.471443 0.202777
0.748012 0.476799 0.199207
0.778973 0.482521 0.197253
0.806867 0.489036 0.197147
0.832532 0.495689 0.197604
0.857389 0.502876 0.198856
0.88188 0.510475 0.200427
0.906661 0.51809 0.201953
0.931609 0.525856 0.203296
0.956924 0.534066 0.204517
0.981643 0.541909 0.204669
1 0.549401 0.201328
0 0.382437 0.118135
0 0.412284 0.156115
0 0.415381 0.15758
0 0.417136 0.158083
0 0.422492 0.161028
0 0.430076 0.165072
0 0.438987 0.169543
0.0214084 0.448737 0.173632
0.0658427 0.459205 0.177005
0.124376 0.469871 0.181613
0.206195 0.47155 0.205753
0.30071 0.473136 0.233661
0.399298 0.475517 0.263554
0.480064 0.48069 0.289235
0.513726 0.491279 0.29366
0.546883 0.501717 0.292912
0.581018 0.512352 0.284062
0.616327 0.522606 0.27425
0.599191 0.484642 0.245533
0.637064 0.490349 0.237568
0.674067 0.495933 0.230884
0.709895 0.502022 0.225681
0.743709 0.507866 0.221332
0.774975 0.514275 0.218845
0.80267 0.520531 0.217624
0.828199 0.527138 0.21738
0.852964 0.534356 0.218051
0.877089 0.541466 0.218677
0.901335 0.548821 0.219501
0.926162 0.55642 0.220356
0.95111 0.56405 0.220798
0.975647 0.571694 0.220844
1 0.579309 0.219501
0 0.408423 0.123903
0 0.441215 0.164599
0 0.445487 0.166964
0 0.447059 0.167391
0 0.452049 0.170077
0 0.459632 0.174182
0 0.46862 0.178851
0.000427253 0.478492 0.1832
0.0437781 0.489174 0.187106
0.0984512 0.500618 0.189456
0.173327 0.505974 0.205173
0.263066 0.507408 0.231464
0.364126 0.508995 0.261402
0.460945 0.512032 0.291127
0.527031 0.518914 0.309987
0.558892 0.529671 0.313603
0.591455 0.539895 0.312093
0.624491 0.55024 0.302968
0.657664 0.560006 0.293477
0.653193 0.534371 0.269825
0.672236 0.525811 0.255665
0.707378 0.531823 0.249638
0.740917 0.537743 0.244648
0.771984 0.544198 0.24126
0.799344 0.55053 0.239261
0.824643 0.557122 0.238224
0.849058 0.564218 0.238209
0.872908 0.571176 0.238285
0.896757 0.578332 0.238407
0.921187 0.58584 0.238651
0.945861 0.593118 0.238544
0.970291 0.600519 0.238315
0.994766 0.608148 0.237644
0 0.435721 0.130968
0 0.46836 0.172351
0 0.475013 0.176608
0 0.476509 0.176974
0 0.481422 0.179751
0 0.489189 0.184009
0 0.498375 0.188891
0 0.508598 0.193683
0.0235294 0.519142 0.197574
0.0758679 0.530297 0.200092
0.143542 0.540246 0.205783
0.229892 0.541543 0.230945
0.327047 0.542779 0.259236
0.430869 0.544442 0.290074
0.522744 0.548119 0.318547
0.572824 0.556725 0.330098
0.603265 0.567346 0.333257
0.634745 0.577096 0.330861
0.666316 0.587015 0.321599
0.697597 0.596445 0.312505
0.704692 0.582986 0.294713
0.706615 0.561151 0.274311
0.739132 0.566812 0.268238
0.770306 0.573098 0.264149
0.797589 0.579309 0.261555
0.822705 0.585885 0.260105
0.846647 0.592676 0.259297
0.869993 0.599512 0.258701
0.893339 0.606485 0.258274
0.917342 0.613718 0.257923
0.941466 0.620798 0.257267
0.965576 0.627985 0.256641
0.989654 0.635264 0.255711
0 0.462974 0.138796
0 0.482399 0.171054
0 0.503761 0.186587
0 0.505501 0.187167
0 0.510094 0.189517
0 0.518166 0.19411
0 0.527749 0.199207
0 0.538003 0.204288
0.004654 0.548592 0.208377
0.0555734 0.559731 0.211292
0.119188 0.571664 0.212512
0.200504 0.57525 0.231937
0.29395 0.576196 0.258991
0.397406 0.577188 0.289021
0.49929 0.579492 0.319677
0.582879 0.583963 0.345647
0.617044 0.593698 0.349645
0.646082 0.603723 0.352026
0.676234 0.613001 0.349447
0.706294 0.6224 0.339773
0.735561 0.631357 0.330953
0.747463 0.623957 0.316289
0.739651 0.595254 0.292592
0.769848 0.601221 0.287297
0.796933 0.60705 0.283833
0.821973 0.613535 0.281971
0.845579 0.619821 0.280568
0.868498 0.626337 0.279484
0.891508 0.63328 0.278737
0.914641 0.640101 0.277668
0.938277 0.646906 0.276448
0.961959 0.654047 0.275456
0.985473 0.660945 0.274006
0 0.49044 0.14789
0 0.506416 0.178317
0 0.52961 0.195254
0 0.53254 0.196643
0 0.537636 0.199542
0 0.546761 0.204898
0 0.556634 0.210208
0 0.566934 0.215152
0 0.577462 0.219364
0.0368048 0.58854 0.222446
0.0990768 0.60032 0.22388
0.173877 0.608057 0.233783
0.264271 0.608728 0.259754
0.363973 0.60943 0.288411
0.470146 0.610758 0.319463
0.565728 0.613352 0.348363
0.62916 0.619501 0.365377
0.659251 0.629282 0.36849
0.687312 0.638804 0.370199
0.715938 0.647593 0.367529
0.744366 0.656443 0.357717
0.77203 0.665125 0.349203
0.787152 0.662272 0.337072
0.771603 0.628428 0.310826
0.797909 0.633997 0.306127
0.822339 0.64007 0.303517
0.84567 0.646128 0.301625
0.868162 0.652171 0.29987
0.8907 0.658732 0.298726
0.913298 0.66511 0.297292
0.936431 0.671656 0.295644
0.959594 0.678538 0.29427
0.982589 0.685252 0.2925
0 0.517998 0.158373
0 0.532937 0.188571
0 0.541985 0.194659
0 0.547036 0.197742
0 0.562844 0.208728
0 0.573816 0.215244
0 0.584466 0.221164
0 0.595056 0.226337
0 0.605768 0.230701
0.019913 0.616739 0.234012
0.0807202 0.628397 0.235584
0.149325 0.640223 0.236316
0.237598 0.640696 0.26154
0.334401 0.641199 0.28925
0.439063 0.641657 0.319173
0.541268 0.642985 0.349172
0.627832 0.646174 0.375479
0.671824 0.653956 0.383902
0.699474 0.663401 0.386511
0.726452 0.672328 0.38761
0.753628 0.680797 0.385031
0.780774 0.689189 0.375113
0.806302 0.69723 0.366751
0.823209 0.698604 0.357671
0.800992 0.659968 0.328862
0.824537 0.66569 0.325002
0.846876 0.67129 0.322194
0.868818 0.677226 0.32018
0.890837 0.68333 0.318502
0.912825 0.689311 0.316609
0.935409 0.695644 0.314763
0.958129 0.70193 0.312734
0.980697 0.708339 0.31075
0 0.545022 0.170855
0 0.559319 0.200793
0 0.566155 0.205219
0 0.569238 0.206867
0 0.572641 0.208743
0 0.598688 0.22649
0 0.611093 0.233387
0 0.622293 0.238895
0 0.633097 0.243412
0.00677501 0.643992 0.246693
0.0659495 0.655375 0.24828
0.133257 0.667124 0.248676
0.216007 0.671458 0.265553
0.309514 0.671397 0.291936
0.410483 0.671534 0.320378
0.51516 0.671992 0.350332
0.610269 0.673854 0.378515
0.681575 0.678248 0.399191
0.712047 0.686992 0.401923
0.737926 0.695933 0.403891
0.763912 0.704494 0.404654
0.789578 0.712367 0.401968
0.815351 0.720256 0.391684
0.838376 0.727977 0.384405
0.857053 0.733059 0.378012
0.840146 0.702022 0.353155
0.849912 0.695659 0.342885
0.871229 0.701457 0.340276
0.892149 0.707042 0.337774
0.913359 0.712749 0.335515
0.935454 0.718868 0.333501
0.957748 0.724834 0.331136
0.97969 0.730755 0.328634
0 0.571725 0.184482
0 0.585443 0.214496
0 0.59173 0.218463
0 0.594324 0.21973
0 0.595773 0.220096
0 0.617731 0.235218
0 0.63621 0.245975
0 0.648173 0.251881
0 0.659266 0.256703
0 0.670161 0.260105
0.0538186 0.681468 0.261875
0.120668 0.693141 0.262318
0.197375 0.70074 0.27071
0.288716 0.70042 0.296223
0.386679 0.700145 0.323583
0.490349 0.700053 0.352651
0.590082 0.700908 0.381415
0.674357 0.703563 0.406485
0.723644 0.710063 0.417441
0.750668 0.719005 0.419867
0.775448 0.727459 0.421271
0.800259 0.735286 0.421393
0.824643 0.742855 0.418769
0.848493 0.750423 0.408957
0.869596 0.75787 0.402213
0.889479 0.765179 0.397436
0.877821 0.741924 0.376608
0.875166 0.724788 0.360418
0.895125 0.730114 0.357183
0.915404 0.735515 0.354345
0.936721 0.741466 0.351949
0.958251 0.747158 0.349218
0.979934 0.753109 0.346838
0 0.598077 0.198337
0 0.611643 0.22887
0 0.617182 0.232074
0 0.61976 0.23331
0 0.620844 0.233433
0 0.625971 0.236408
0 0.659419 0.257984
0 0.67332 0.264927
0 0.684688 0.269703
0 0.695567 0.27335
0.0420844 0.706767 0.275364
0.107988 0.71812 0.275563
0.179385 0.729107 0.275822
0.269032 0.728542 0.300755
0.364721 0.727932 0.327291
0.465782 0.727642 0.355306
0.567987 0.727657 0.384131
0.659419 0.729183 0.410803
0.732204 0.73286 0.432563
0.762768 0.741222 0.435294
0.787472 0.749691 0.43711
0.811566 0.757641 0.438087
0.835721 0.765255 0.437964
0.858183 0.772488 0.435828
0.880034 0.779644 0.426413
0.900008 0.786923 0.419974
0.919219 0.794156 0.415106
0.915526 0.779782 0.399313
0.90045 0.752621 0.377081
0.919966 0.75819 0.373877
0.939803 0.763546 0.370565
0.96051 0.768994 0.36733
0.981567 0.774868 0.364736
0 0.624582 0.212055
0 0.637507 0.242618
0 0.64239 0.245396
0 0.645014 0.246647
0 0.645853 0.246647
0 0.64918 0.248386
0 0.676387 0.266026
0 0.696834 0.276753
0 0.709087 0.281941
0 0.720134 0.285634
0.0292668 0.730983 0.287907
0.0945144 0.742199 0.288243
0.164782 0.753368 0.287663
0.249165 0.756024 0.304921
0.343236 0.755108 0.330877
0.441688 0.754574 0.358007
0.544045 0.754086 0.386404
0.640696 0.754803 0.414038
0.722133 0.757259 0.438071
0.773098 0.763012 0.450248
0.799451 0.771405 0.452384
0.823133 0.779492 0.45391
0.846708 0.786999 0.454505
0.869474 0.794064 0.454154
0.889662 0.800946 0.452918
0.910536 0.808087 0.444068
0.929641 0.814923 0.437263
0.948196 0.821775 0.432013
0.948119 0.81149 0.418235
0.926711 0.780011 0.393637
0.94551 0.785199 0.389731
0.965179 0.790585 0.38616
0.985443 0.796124 0.382864
0 0.650416 0.22475
0 0.662776 0.255741
0 0.667506 0.258396
0 0.669871 0.259266
0 0.670634 0.259159
0 0.672892 0.260075
0 0.679911 0.264302
0 0.717998 0.287037
0 0.731945 0.293233
0 0.743297 0.297246
0.0165255 0.754162 0.299672
0.079942 0.76527 0.300343
0.149599 0.776471 0.299809
0.22884 0.78291 0.308751
0.321111 0.781826 0.334005
0.417624 0.780835 0.360433
0.518166 0.780133 0.388006
0.618524 0.780163 0.416266
0.706752 0.781521 0.44181
0.777188 0.784894 0.462669
0.810346 0.792157 0.466987
0.83444 0.800153 0.468757
0.85742 0.807691 0.469917
0.880262 0.814801 0.470283
0.901183 0.821729 0.470451
0.919829 0.828443 0.470085
0.939574 0.834928 0.460685
0.958282 0.841596 0.453681
0.97673 0.848325 0.448188
0.980682 0.841978 0.436316
0.953033 0.806424 0.4094
0.971969 0.811765 0.40531
0.991318 0.817029 0.401404
0 0.674998 0.236622
0 0.686625 0.26804
0 0.691127 0.270481
0 0.693614 0.271595
0 0.694392 0.271504
0 0.695842 0.271778
0 0.70042 0.274281
0 0.734722 0.29514
0 0.752987 0.303624
0 0.765057 0.308278
0.00285344 0.776059 0.311101
0.0641184 0.787137 0.312062
0.13344 0.798276 0.311528
0.207477 0.808652 0.311849
0.29839 0.80737 0.33669
0.393393 0.806149 0.362631
0.492073 0.805356 0.389593
0.593317 0.804715 0.417533
0.68719 0.805234 0.444236
0.766033 0.807309 0.467292
0.81915 0.812238 0.480949
0.845212 0.819898 0.482872
0.868162 0.827649 0.48452
0.890806 0.834974 0.485603
0.91191 0.841688 0.486137
0.930938 0.848219 0.486519
0.948592 0.854734 0.486717
0.967926 0.861067 0.477058
0.98645 0.867567 0.469703
1 0.874037 0.463676
1 0.871351 0.453666
0.99089 0.84181 0.429847
0.998154 0.836927 0.419959
0 0.698573 0.248112
0 0.709422 0.279805
0 0.713512 0.281849
0 0.715923 0.282826
0 0.716747 0.28278
0 0.717876 0.282887
0 0.721141 0.284398
0 0.730694 0.290059
0 0.772122 0.313222
