luts/Channel X1.cube
TITLE "Generated by Resolve"
LUT_3D_SIZE 33
0 0 0
0.0206455 0.00471504 0.00271611
0.0418402 0.0103609 0.00619516
0.06392 0.016495 0.0100557
0.0872663 0.0235447 0.0143435
0.112123 0.0298619 0.017792
0.140169 0.0349889 0.0195621
0.17348 0.0382696 0.0187991
0.210437 0.040177 0.0162051
0.249546 0.0410773 0.0123293
0.290318 0.0411231 0.00737011
0.332525 0.0403449 0.00135805
0.375036 0.0387732 0
0.417609 0.0377356 0
0.459998 0.0374304 0
0.502068 0.0383459 0
0.542672 0.0408789 0
0.581994 0.044358 0
0.620203 0.0491493 0
0.65687 0.0552224 0
0.691249 0.0626535 0
0.722057 0.0718242 0
0.750957 0.0825208 0
0.778958 0.0942855 0
0.806622 0.106279 0
0.834455 0.118547 0
0.862837 0.130953 0
0.891554 0.143511 0.00492866
0.920546 0.156619 0.0131685
0.949447 0.169604 0.0213626
0.978317 0.182864 0.0297398
1 0.196078 0.0381628
1 0.209461 0.0466773
0.00396735 0.0237278 0.0107881
0.0265202 0.0240024 0.0123445
0.0441596 0.0273136 0.00907912
0.0645304 0.0293431 0.0120546
0.0871595 0.0329442 0.0171817
0.111192 0.037705 0.0207523
0.137682 0.0423133 0.0226139
0.168963 0.0459297 0.0221561
0.204471 0.0484016 0.0196384
0.242054 0.0500191 0.0159152
0.281575 0.0508736 0.0110933
0.322545 0.0507668 0.00518807
0.364324 0.0510262 0
0.406394 0.0515755 0
0.448432 0.0530251 0
0.490608 0.0549477 0
0.531899 0.0574502 0
0.572198 0.0609598 0
0.611276 0.065568 0
0.648951 0.0712902 0
0.685328 0.078584 0
0.718181 0.0870222 0
0.748211 0.0966812 0
0.776928 0.107256 0
0.804898 0.118273 0
0.832944 0.130022 0
0.861097 0.141726 0.000411994
0.889693 0.153796 0.00782788
0.918425 0.165927 0.0152285
0.947036 0.178332 0.0229648
0.975692 0.190967 0.0308995
1 0.2038 0.0390021
1 0.21677 0.0471199
0.00814832 0.048249 0.0223697
0.0332799 0.0483711 0.0250706
0.0540932 0.0489662 0.0256657
0.069688 0.0523537 0.0224155
0.0884565 0.0553445 0.0191958
0.109422 0.05832 0.0193332
0.133944 0.0592508 0.0264897
0.163607 0.0615702 0.0276036
0.198749 0.0630198 0.0262455
0.236149 0.06421 0.0231937
0.274998 0.0649271 0.0186618
0.315221 0.0661784 0.0135653
0.356542 0.0678874 0.00819409
0.398688 0.0695659 0.00244144
0.440665 0.0709087 0
0.482872 0.072755 0
0.524742 0.075227 0
0.565881 0.078706 0
0.605753 0.0826581 0
0.644343 0.0878614 0
0.681208 0.0938735 0
0.715785 0.101167 0
0.747066 0.109987 0
0.776226 0.119677 0
0.804273 0.130007 0
0.831952 0.14078 0
0.859724 0.151934 0.00347906
0.888014 0.1635 0.0104219
0.916472 0.17525 0.0175174
0.944747 0.187198 0.0247959
0.973022 0.19939 0.0322881
1 0.211872 0.0398718
1 0.224537 0.0476081
0.0122683 0.0723888 0.0336614
0.0377356 0.0725719 0.0370794
0.0632944 0.0716259 0.037232
0.0810559 0.0734264 0.0385443
0.0961471 0.0769665 0.0360723
0.114199 0.0802167 0.0318151
0.135225 0.0831617 0.0284276
0.160266 0.0852979 0.0263676
0.191638 0.0834974 0.0315251
0.228504 0.084184 0.0303044
0.267445 0.0852827 0.0274968
0.308293 0.0866407 0.0234684
0.349996 0.0878462 0.0186618
0.392142 0.0890822 0.0132906
0.434516 0.0901961 0.00732433
0.477028 0.0915389 0.00129702
0.519142 0.0932326 0
0.560632 0.0956588 0
0.600992 0.0988479 0
0.640314 0.103227 0
0.677836 0.108339 0
0.713558 0.11458 0
0.745525 0.122148 0
0.77496 0.130953 0
0.803098 0.140658 0
0.830564 0.150881 0
0.858061 0.161639 0.00604257
0.885771 0.172534 0.0124361
0.914168 0.183993 0.0192569
0.942031 0.195605 0.0261234
0.969955 0.207477 0.0332189
0.997909 0.219638 0.0405127
1 0.231998 0.0478065
0.0155795 0.0960555 0.0441901
0.0415503 0.096376 0.0481117
0.0662699 0.0959182 0.0492714
0.0916609 0.0950332 0.0493019
0.10808 0.0980392 0.0513466
0.123186 0.101717 0.0497292
0.140505 0.104814 0.0445563
0.162478 0.107362 0.0391699
0.18996 0.109361 0.0332799
0.222995 0.11017 0.0291295
0.259907 0.108675 0.0343938
0.300038 0.108736 0.0316014
0.341604 0.109133 0.0272984
0.383978 0.109621 0.022034
0.426596 0.110018 0.0161746
0.46949 0.110475 0.0101167
0.512566 0.111589 0.00437934
0.554665 0.1131 0
0.595499 0.115358 0
0.635035 0.118486 0
0.673136 0.122713 0
0.709545 0.127901 0
0.742885 0.134508 0
0.772992 0.142565 0
0.801175 0.151507 0
0.828733 0.16141 0.002533
0.855955 0.17174 0.00843824
0.883253 0.182284 0.014435
0.91075 0.193103 0.0205844
0.938659 0.204334 0.0270695
0.966247 0.215854 0.033753
0.993637 0.227695 0.040528
1 0.239811 0.0473793
0.0178073 0.119448 0.0538338
0.0441291 0.119844 0.0580148
0.0688334 0.120012 0.0604715
0.0951553 0.11928 0.0607919
0.119051 0.119158 0.0615549
0.134722 0.122469 0.0635386
0.150225 0.126345 0.0624857
0.167803 0.129549 0.0571908
0.191455 0.132006 0.0502785
0.221958 0.133684 0.0422522
0.256077 0.134936 0.035111
0.292821 0.13431 0.0379644
0.333516 0.133989 0.035172
0.37583 0.133852 0.0303349
0.418753 0.133745 0.0245975
0.461906 0.133623 0.0184634
0.504936 0.133669 0.0126802
0.547555 0.134264 0.00720226
0.589212 0.135607 0.0027924
0.629587 0.137774 0
0.668254 0.140795 0
0.705409 0.145037 0
0.740429 0.150805 0
0.771145 0.157824 0
0.79968 0.166155 0.00190738
0.826871 0.175128 0.00650034
0.853742 0.184833 0.01178
0.880568 0.194858 0.0173342
0.90779 0.205219 0.0230869
0.935225 0.216068 0.0291295
0.962173 0.227207 0.0352178
0.989395 0.238956 0.0418555
1 0.250751 0.0483864
0.0184329 0.143084 0.0624247
0.0450904 0.143633 0.0669566
0.0703746 0.144167 0.0703441
0.0957351 0.143771 0.071458
0.122225 0.143023 0.0717937
0.145312 0.143542 0.0731823
0.161242 0.147127 0.0753033
0.177584 0.151415 0.0747845
0.196567 0.154818 0.069337
0.222187 0.15697 0.0607156
0.254154 0.158495 0.0516213
0.289601 0.160021 0.0431678
0.327749 0.160922 0.037644
0.368154 0.160601 0.0384833
0.410681 0.160357 0.0323949
0.453727 0.15964 0.0261387
0.497093 0.159106 0.020325
0.540169 0.158968 0.0153658
0.582361 0.159503 0.0108034
0.623514 0.160937 0.00724804
0.66302 0.163302 0.00450141
0.700801 0.166674 0.00259403
0.73666 0.17116 0.00250248
0.768383 0.177172 0.00419623
0.797391 0.184695 0.00756847
0.824811 0.193179 0.0118563
0.85124 0.202213 0.0165255
0.877562 0.211826 0.0216373
0.904463 0.222126 0.0272221
0.931411 0.23241 0.0327001
0.958251 0.243244 0.0385901
0.984909 0.254246 0.04448
1 0.265553 0.0505379
0.016556 0.167147 0.0694743
0.0432288 0.167742 0.0741436
0.0689708 0.16846 0.0781415
0.0939498 0.16849 0.0803082
0.120424 0.167971 0.0810864
0.147112 0.167758 0.0821393
0.170657 0.168872 0.0842603
0.187854 0.17258 0.086717
0.204822 0.176852 0.0861982
0.226093 0.180285 0.0798657
0.253162 0.182773 0.0707256
0.28632 0.184543 0.0613718
0.323415 0.186389 0.0519417
0.3626 0.187625 0.0426947
0.403082 0.187945 0.0399023
0.445151 0.187671 0.0337682
0.488334 0.18706 0.0280613
0.531655 0.186572 0.0230106
0.574609 0.186709 0.0187839
0.616342 0.187503 0.0153506
0.656535 0.18912 0.0127565
0.694835 0.191852 0.0108339
0.731334 0.195651 0.010071
0.764294 0.200778 0.0111543
0.793667 0.207523 0.0138247
0.821378 0.215702 0.0179294
0.847852 0.224247 0.0223087
0.87396 0.233463 0.0271611
0.900145 0.242924 0.0320897
0.926925 0.252689 0.0371862
0.95349 0.262943 0.0426642
0.980026 0.273518 0.0483253
1 0.284398 0.0542153
0.0127718 0.191546 0.0755322
0.0394446 0.192004 0.0801709
0.0654765 0.192752 0.0843977
0.0908064 0.193561 0.0878309
0.116945 0.193393 0.0894484
0.143862 0.193484 0.0908064
0.170672 0.193561 0.0922255
0.195132 0.19472 0.0945754
0.214389 0.198413 0.097322
0.232715 0.20296 0.0972915
0.256962 0.206439 0.0884108
0.284504 0.209628 0.0793317
0.318166 0.211826 0.0700084
0.356252 0.213733 0.0589456
0.396094 0.215122 0.046891
0.436683 0.216205 0.0442817
0.478798 0.216419 0.038407
0.521996 0.216617 0.0327916
0.56492 0.216693 0.0279545
0.607019 0.217227 0.0241093
0.647745 0.218433 0.021149
0.686778 0.220523 0.0191043
0.723918 0.223636 0.0180667
0.758511 0.228367 0.0189212
0.788922 0.234607 0.0213931
0.816602 0.241672 0.0246281
0.843137 0.249775 0.0287633
0.869123 0.25835 0.0332189
0.895308 0.26746 0.0380713
0.92166 0.276738 0.0428931
0.948302 0.286351 0.0479286
0.974884 0.296666 0.0535134
1 0.307057 0.059144
0.00798047 0.216236 0.0810101
0.0347906 0.216861 0.0859083
0.0609445 0.217685 0.0906844
0.0864729 0.218875 0.0952468
0.112474 0.219272 0.0971847
0.139239 0.219379 0.0988174
0.166476 0.21976 0.100511
0.193942 0.220188 0.102419
0.219715 0.221439 0.104936
0.241825 0.225147 0.107958
0.262211 0.230121 0.109422
0.289601 0.233494 0.0943465
0.317617 0.23711 0.0842298
0.351324 0.239841 0.0747997
0.388693 0.242481 0.0715953
0.429068 0.244709 0.0635691
0.470634 0.24622 0.0552071
0.51284 0.24712 0.0476387
0.555169 0.247791 0.0411536
0.597147 0.248661 0.035874
0.638132 0.249973 0.0319982
0.677668 0.251942 0.0292973
0.715831 0.255039 0.0280919
0.751263 0.258808 0.0278172
0.782467 0.264317 0.0294804
0.810834 0.271031 0.0324712
0.837461 0.278416 0.0360266
0.863615 0.286519 0.0402991
0.889738 0.29514 0.0449073
0.916106 0.304158 0.0496834
0.942779 0.313252 0.0545052
0.969055 0.32256 0.0594492
0.995331 0.332204 0.0645914
0.00303655 0.241917 0.0868238
0.0297856 0.242451 0.0915999
0.0562753 0.243503 0.0963912
0.0823224 0.244633 0.100801
0.107866 0.245609 0.104356
0.134615 0.245945 0.106722
0.161273 0.246555 0.108705
0.188907 0.247211 0.11078
0.217563 0.248096 0.113222
0.245655 0.249439 0.11606
0.270863 0.252888 0.118898
0.293614 0.25832 0.120394
0.32372 0.261738 0.100328
0.352239 0.265888 0.0911574
0.383886 0.270253 0.0929732
0.422477 0.273136 0.0848859
0.46331 0.275517 0.0759899
0.50515 0.277562 0.0671397
0.54725 0.279271 0.0591745
0.588876 0.280812 0.05243
0.629984 0.282841 0.0473182
0.669429 0.285084 0.0433509
0.707362 0.287922 0.0406806
0.743465 0.291386 0.0393225
0.77554 0.296284 0.0399481
0.804242 0.302495 0.0421454
0.831281 0.309529 0.0453803
0.857435 0.317342 0.0492103
0.883391 0.325429 0.0533913
0.909346 0.333608 0.0574502
0.935973 0.342123 0.0618601
0.96231 0.351049 0.0665599
0.988571 0.36022 0.0713817
0 0.269108 0.0935531
0.0250095 0.269734 0.0983749
0.0514687 0.270512 0.103044
0.0777752 0.271687 0.107683
0.103502 0.273213 0.112093
0.129809 0.273762 0.114916
0.156664 0.274388 0.117327
0.18378 0.275669 0.119921
0.21236 0.2766 0.122316
0.242603 0.277455 0.124895
0.273793 0.278599 0.127749
0.302647 0.282155 0.130678
0.326863 0.288106 0.132494
0.355596 0.293339 0.125963
0.385229 0.297993 0.116381
0.419074 0.301915 0.107012
0.457374 0.305043 0.0979171
0.498451 0.307805 0.0889754
0.540261 0.310475 0.0803693
0.582071 0.313283 0.0727703
0.622675 0.31574 0.0663157
0.662089 0.318379 0.0608225
0.699825 0.321386 0.0568704
0.735836 0.324956 0.0542763
0.768658 0.329595 0.0536355
0.797696 0.33547 0.0547341
0.824872 0.342367 0.0572976
0.850843 0.349416 0.0601968
0.876478 0.357046 0.0636606
0.902434 0.364935 0.0673991
0.92874 0.372885 0.0710613
0.954986 0.381384 0.0753185
0.981231 0.390204 0.0798199
0 0.297932 0.101488
0.0210117 0.298589 0.106401
0.0476387 0.299504 0.111269
0.0739757 0.300603 0.115938
0.0999771 0.302113 0.1205
0.126207 0.3037 0.124666
0.153338 0.304479 0.127565
0.17998 0.305577 0.130251
0.207507 0.306874 0.132891
0.237354 0.307958 0.1355
0.270237 0.308721 0.13817
0.305913 0.309514 0.140932
0.337118 0.313619 0.144121
0.362402 0.319921 0.146136
0.391333 0.325383 0.141802
0.42179 0.330343 0.131868
0.455573 0.334768 0.121538
0.493614 0.338308 0.11191
0.534554 0.34168 0.10309
0.575708 0.344793 0.0948196
0.616281 0.348058 0.0873884
0.655421 0.351278 0.0809644
0.693248 0.354726 0.0758984
0.729366 0.358679 0.0723125
0.762615 0.363485 0.0706035
0.791913 0.36907 0.0706645
0.818738 0.375341 0.071931
0.844495 0.382193 0.0740368
0.869993 0.389517 0.0768292
0.895552 0.397147 0.0799115
0.921843 0.404761 0.0829786
0.947997 0.413169 0.0867475
0.973938 0.421424 0.0905165
0 0.327504 0.109957
0.0172427 0.328389 0.115084
0.0440223 0.329503 0.12018
0.0705272 0.330861 0.125124
0.0969863 0.332692 0.13019
0.123339 0.334798 0.135119
0.15053 0.335943 0.138705
0.177447 0.337209 0.141878
0.20441 0.33875 0.144884
0.233005 0.3402 0.147723
0.265248 0.341421 0.150576
0.302312 0.341588 0.152941
0.34168 0.341985 0.155444
0.373236 0.346273 0.158419
0.39942 0.352789 0.160418
0.428855 0.358495 0.157259
0.460075 0.363943 0.147738
0.49366 0.368765 0.136797
0.531029 0.372686 0.126757
0.570703 0.376242 0.117784
0.610773 0.379751 0.10985
0.649927 0.383474 0.102983
0.687633 0.387503 0.0971847
0.723842 0.391867 0.092668
0.757259 0.396536 0.0895857
0.786786 0.40206 0.0887312
0.813672 0.40824 0.089189
0.839353 0.415015 0.0906386
0.864622 0.422141 0.0927291
0.889952 0.429862 0.0953994
0.915602 0.437247 0.0978561
0.941497 0.444938 0.100618
0.967285 0.452873 0.103731
0 0.357946 0.118959
0.0135958 0.359075 0.124331
0.0406653 0.360723 0.129885
0.0674754 0.362356 0.135195
0.0941176 0.364202 0.140444
0.120577 0.366415 0.145647
0.147906 0.368521 0.150454
0.175296 0.369802 0.153948
0.202152 0.371527 0.157427
0.230076 0.373617 0.160922
0.260517 0.37496 0.16376
0.296376 0.37525 0.166049
0.338598 0.374563 0.167849
0.379171 0.375082 0.170428
0.410834 0.379934 0.173419
0.437934 0.386755 0.175494
0.467857 0.392706 0.173175
0.499382 0.398138 0.1635
0.532479 0.403052 0.152056
0.568689 0.407355 0.141939
0.606912 0.411276 0.133104
0.645762 0.415503 0.125856
0.683101 0.419577 0.119554
0.719127 0.423972 0.114336
0.752987 0.428824 0.110384
0.782742 0.434409 0.108659
0.809689 0.44065 0.108522
0.835309 0.447532 0.109468
0.860395 0.454627 0.110964
0.885054 0.461677 0.112566
0.910307 0.468956 0.114397
0.935912 0.476341 0.116396
0.961257 0.48394 0.118746
0 0.389364 0.128817
0.0104982 0.391012 0.13463
0.0376745 0.39263 0.14023
0.0646067 0.39443 0.145739
0.0914931 0.396475 0.151247
0.118318 0.39881 0.156741
0.145785 0.401511 0.16231
0.173571 0.403311 0.166629
0.200671 0.405386 0.170657
0.227893 0.407279 0.174228
0.257069 0.409064 0.177508
0.290547 0.409873 0.180011
0.332097 0.408942 0.181491
0.37702 0.40798 0.18323
0.418036 0.408972 0.186023
0.449592 0.414298 0.188891
0.476997 0.421027 0.190723
0.507012 0.426886 0.188739
0.538842 0.43241 0.179141
0.571511 0.437552 0.167727
0.60676 0.442588 0.157931
0.643259 0.446937 0.149386
0.679789 0.451286 0.142382
0.715465 0.455756 0.136675
0.749569 0.460624 0.132265
0.779919 0.466148 0.129885
0.80708 0.472496 0.129335
0.832395 0.479057 0.129519
0.856947 0.485832 0.13022
0.881392 0.492744 0.131258
0.906111 0.499855 0.132479
0.931258 0.506981 0.13373
0.956344 0.514412 0.135485
0 0.421622 0.139559
0.00781262 0.423316 0.145434
0.0351263 0.425162 0.151278
0.0622873 0.427161 0.157046
0.0893111 0.429297 0.162722
0.116136 0.431907 0.168536
0.144228 0.434867 0.174548
0.172198 0.437613 0.180011
0.199542 0.439353 0.184009
0.226642 0.441337 0.18793
0.254917 0.443214 0.191424
0.286305 0.444526 0.194354
0.324895 0.444358 0.196201
0.371435 0.442695 0.197314
0.417273 0.441688 0.19913
0.457786 0.442847 0.201785
0.48893 0.448814 0.204562
0.516732 0.455634 0.206332
0.546868 0.461677 0.205234
0.579248 0.467475 0.195651
0.611276 0.472801 0.184405
0.644633 0.477836 0.174517
0.679179 0.482551 0.166308
0.713588 0.487175 0.15967
0.747219 0.492073 0.154559
0.778012 0.49749 0.151492
0.805249 0.50341 0.15021
0.83064 0.509728 0.150011
0.855055 0.516274 0.150332
0.879225 0.522942 0.150927
0.903426 0.529702 0.151537
0.928252 0.536767 0.152346
0.952697 0.543679 0.153201
0 0.454368 0.151202
0.00596628 0.456214 0.157198
0.033402 0.458228 0.163195
0.0607156 0.46038 0.169162
0.0880598 0.463004 0.175311
0.115084 0.465446 0.181094
0.143084 0.468299 0.187152
0.171252 0.47126 0.193042
0.199191 0.473594 0.19794
0.226261 0.475593 0.202029
0.254032 0.477531 0.205875
0.284413 0.479347 0.209369
0.319921 0.479744 0.211597
0.364569 0.478157 0.212436
0.412619 0.476097 0.213336
0.45893 0.475349 0.215351
0.498466 0.477195 0.218006
0.529229 0.483696 0.220844
0.557412 0.490578 0.222461
0.587564 0.496635 0.221576
0.619257 0.502129 0.212146
0.650462 0.50753 0.201144
0.682124 0.512749 0.191409
0.714687 0.517815 0.183673
0.747189 0.522957 0.177676
0.777569 0.52813 0.173449
0.804761 0.533761 0.171359
0.830076 0.539712 0.17052
0.854185 0.545907 0.170321
0.87808 0.55227 0.17052
0.902113 0.559014 0.171054
0.926085 0.565347 0.171115
0.950301 0.571801 0.171283
0 0.487419 0.163729
0.00508125 0.489418 0.169879
0.0326543 0.49163 0.176074
0.0601663 0.494057 0.1823
0.0874037 0.496422 0.188296
0.114549 0.498909 0.194202
0.142779 0.501701 0.20032
0.170947 0.504631 0.206317
0.199344 0.507668 0.212146
0.226749 0.50985 0.216648
0.254353 0.512078 0.220874
0.283589 0.513787 0.224506
0.317174 0.514549 0.227146
0.358923 0.513481 0.22829
0.406836 0.511223 0.228779
0.455817 0.509285 0.229831
0.501991 0.50898 0.23209
0.540139 0.51194 0.234913
0.569909 0.51841 0.237324
0.598169 0.525078 0.238636
0.628077 0.53106 0.23769
0.658991 0.536492 0.228992
0.68954 0.542199 0.218509
0.719524 0.547463 0.209018
0.749859 0.55259 0.20148
0.779477 0.557717 0.19585
0.806195 0.563165 0.192737
0.830991 0.568917 0.191196
0.854841 0.57496 0.19057
0.878172 0.580957 0.190188
0.90164 0.586969 0.189944
0.925216 0.592981 0.189578
0.948989 0.599008 0.189227
0 0.520607 0.177234
0.00535592 0.52282 0.183566
0.0328374 0.524956 0.189685
0.0602579 0.527199 0.195773
0.087541 0.52958 0.201816
0.114763 0.532097 0.207797
0.142947 0.534905 0.214008
0.171756 0.538079 0.220432
0.200595 0.54136 0.226658
0.228321 0.544152 0.231998
0.255756 0.546212 0.236271
0.284367 0.548028 0.240162
0.316243 0.549096 0.243229
0.355398 0.54847 0.244755
0.401785 0.546578 0.245335
0.451804 0.543938 0.245716
0.501045 0.542153 0.246967
0.545693 0.542 0.248981
0.581521 0.545876 0.25156
0.610437 0.552407 0.253666
0.638575 0.558862 0.254688
0.668193 0.56492 0.253849
0.69807 0.57026 0.246006
0.727184 0.57557 0.235447
0.755566 0.580804 0.226184
0.783719 0.585962 0.218875
0.809842 0.591287 0.214359
0.834073 0.597009 0.212009
0.857237 0.602777 0.210605
0.879805 0.608408 0.209567
0.902342 0.614069 0.208728
0.925368 0.619699 0.207843
0.948821 0.62533 0.206989
0 0.553597 0.191409
0.00634775 0.555734 0.197681
0.0339666 0.557977 0.203937
0.0614939 0.560311 0.210132
0.0888838 0.562753 0.216281
0.116243 0.565408 0.222477
0.144091 0.568338 0.228794
0.173632 0.571496 0.235401
0.202457 0.574502 0.241535
0.230701 0.577691 0.247486
0.258106 0.579828 0.252018
0.28629 0.581659 0.256031
0.31693 0.582879 0.259403
0.353597 0.58291 0.26157
0.39823 0.581003 0.262058
0.447089 0.578256 0.262089
0.497902 0.575448 0.262409
0.546441 0.5738 0.263722
0.588983 0.574273 0.265751
0.622629 0.579156 0.268132
0.650904 0.585916 0.270176
0.678691 0.59205 0.270817
0.707179 0.597604 0.269642
0.735729 0.602731 0.262715
0.763653 0.607889 0.252216
0.7906 0.613062 0.243198
0.816052 0.618402 0.236835
0.839277 0.623789 0.233051
0.861479 0.629236 0.23061
0.883207 0.634668 0.228855
0.904952 0.640055 0.227405
0.927031 0.645365 0.225986
0.949844 0.650843 0.22472
0 0.586221 0.206561
0.00891127 0.588449 0.212909
0.0365759 0.590723 0.219211
0.0643015 0.593332 0.225696
0.0917372 0.595773 0.231891
0.11899 0.59823 0.237919
0.146395 0.6009 0.244007
0.176318 0.604028 0.250721
0.205402 0.60708 0.257023
0.23415 0.610086 0.263005
0.261723 0.612848 0.268299
0.289555 0.614649 0.272419
0.31957 0.61622 0.276188
0.354009 0.616251 0.278508
0.396277 0.614481 0.279057
0.443488 0.611795 0.278904
0.494148 0.608576 0.278645
0.544732 0.605829 0.278996
0.592004 0.604776 0.280568
0.631861 0.606134 0.282521
0.663066 0.611643 0.284504
0.69012 0.617899 0.285908
0.717281 0.623667 0.286183
0.744732 0.628931 0.284901
0.771832 0.63386 0.278996
0.79881 0.639002 0.26865
0.823651 0.643961 0.26009
0.846189 0.649088 0.254383
0.86743 0.654322 0.250599
0.888289 0.659586 0.248035
0.909133 0.664881 0.245991
0.930434 0.670253 0.244282
0.95201 0.675242 0.242283
0 0.617868 0.223316
0.0142824 0.620188 0.22977
0.0421149 0.62269 0.236301
0.0696727 0.625025 0.242557
0.0971237 0.62742 0.248707
0.124392 0.629862 0.25478
0.151537 0.632364 0.2607
0.181796 0.635355 0.267399
0.211063 0.638392 0.273793
0.240253 0.641428 0.279942
0.268055 0.644633 0.285817
0.295628 0.646403 0.289967
0.324514 0.647654 0.293477
0.357336 0.647852 0.295995
0.397345 0.646387 0.296864
0.44271 0.643717 0.296529
0.492058 0.640421 0.295872
0.54374 0.637186 0.295689
0.593057 0.634775 0.296193
0.637507 0.633967 0.297337
0.673625 0.636774 0.299046
0.702296 0.64242 0.300511
0.728481 0.648341 0.301381
0.755123 0.654002 0.301503
0.781384 0.658976 0.300008
0.807065 0.66363 0.29424
0.832273 0.668269 0.284337
0.854856 0.673213 0.276707
0.875593 0.678325 0.271473
0.895689 0.683528 0.267735
0.915526 0.688762 0.264897
0.935714 0.693736 0.262394
0.95639 0.698604 0.259861
0 0.64921 0.241535
0.0216678 0.651423 0.247883
0.0492714 0.653635 0.254139
0.0767681 0.655879 0.260288
0.104158 0.658198 0.266377
0.131395 0.660548 0.272374
0.158572 0.663188 0.278492
0.188617 0.665965 0.284993
0.218173 0.668757 0.291249
0.247425 0.671473 0.297185
0.275395 0.674342 0.302846
0.3028 0.676478 0.307454
0.331075 0.677668 0.310948
0.362264 0.67808 0.313634
0.400061 0.676753 0.314702
0.44416 0.674357 0.314641
0.491859 0.67097 0.313664
0.542733 0.667109 0.312657
0.593362 0.663844 0.312291
0.640635 0.661891 0.312886
0.681544 0.661875 0.31397
0.713878 0.666117 0.315297
0.740673 0.671931 0.316457
0.766079 0.677455 0.316838
0.791684 0.682506 0.316243
0.816846 0.687282 0.314534
0.840848 0.692073 0.311009
0.864378 0.696452 0.300603
0.885328 0.701305 0.293385
0.905028 0.706386 0.288273
0.924132 0.711299 0.284199
0.943374 0.716152 0.280766
0.963073 0.721004 0.277836
0.0018616 0.679728 0.259785
0.0294957 0.681834 0.266041
0.0570077 0.683909 0.27216
0.0843519 0.685985 0.278141
0.111788 0.688334 0.284291
0.13901 0.690578 0.290211
0.165972 0.692805 0.295918
0.195285 0.695308 0.302113
0.225376 0.698009 0.308415
0.254658 0.700542 0.314229
0.28307 0.70312 0.319738
0.310369 0.705608 0.324773
0.338155 0.706661 0.328161
0.368109 0.707149 0.330907
0.403464 0.706294 0.332464
0.445838 0.703563 0.332082
0.491783 0.700221 0.331029
0.541604 0.696239 0.329641
0.59263 0.692241 0.328542
0.641627 0.689189 0.328283
0.686152 0.6878 0.328786
0.723278 0.689555 0.330022
0.752239 0.694392 0.330953
0.777478 0.699855 0.331487
0.802228 0.705043 0.331487
0.827161 0.709941 0.330709
0.851301 0.714611 0.328893
0.873625 0.719554 0.326787
0.895155 0.723751 0.317143
0.915007 0.728359 0.309804
0.933974 0.733227 0.304433
0.952575 0.737987 0.300008
0.971481 0.742657 0.296117
0.00962844 0.709636 0.277745
0.0371099 0.711589 0.283833
0.0645609 0.713588 0.289876
0.0920729 0.715816 0.296056
0.119219 0.717784 0.301823
0.146197 0.719738 0.307424
0.172976 0.721721 0.312917
0.201266 0.723888 0.318669
0.232319 0.726406 0.324987
0.261479 0.728786 0.330709
0.290211 0.730983 0.335943
0.31754 0.73341 0.341009
0.345052 0.734768 0.344778
0.373999 0.735195 0.347478
0.407004 0.734386 0.349035
0.44712 0.731746 0.348775
0.4916 0.728344 0.347616
0.539803 0.724437 0.34609
0.590738 0.720073 0.344549
0.64123 0.716365 0.343679
0.688182 0.713802 0.343587
0.729305 0.713146 0.344091
0.762158 0.716411 0.344961
0.788754 0.721599 0.345724
0.813107 0.726818 0.345968
0.8374 0.731762 0.345693
0.86157 0.736492 0.344717
0.884535 0.741024 0.342885
0.904723 0.745876 0.341573
0.924712 0.750042 0.333349
0.943832 0.754482 0.325734
0.962234 0.75906 0.31986
0.980774 0.763867 0.315251
0.0168307 0.739208 0.295232
0.044419 0.741268 0.301427
0.0716411 0.743008 0.30721
0.0987411 0.744732 0.312871
0.12575 0.746502 0.318441
0.15259 0.748257 0.323857
0.179202 0.749996 0.329137
0.206821 0.751949 0.33463
0.238056 0.75407 0.340642
0.267582 0.756252 0.346288
0.296681 0.758312 0.351537
0.324086 0.760388 0.356329
0.351049 0.761791 0.360174
0.379065 0.762097 0.362799
0.410315 0.761517 0.364523
0.44799 0.759319 0.364767
0.49102 0.755856 0.363622
0.537697 0.751934 0.361975
0.587823 0.747494 0.360159
0.638712 0.743053 0.358602
0.68751 0.739574 0.357839
0.732006 0.737667 0.35787
0.769436 0.738369 0.358511
0.798779 0.742641 0.359167
0.823987 0.747967 0.359792
0.847684 0.752956 0.359777
0.871336 0.757656 0.359304
0.894453 0.762097 0.358068
0.915633 0.766629 0.356817
0.934234 0.771359 0.3561
0.953201 0.77557 0.349264
0.972137 0.780087 0.341436
0.99028 0.784482 0.335088
0.0233768 0.768429 0.312169
0.0505837 0.770016 0.317876
0.0776684 0.771557 0.323445
0.104555 0.773037 0.328847
0.131304 0.774502 0.334112
0.158068 0.77612 0.339437
0.184619 0.777707 0.344594
0.211429 0.779217 0.349554
0.242603 0.781033 0.355337
