luts/CINECOLOR_SKINTONE_03.cube
TITLE "Generated by Resolve"
LUT_3D_SIZE 5
0 0 0
0.390585 0 0
0.734798 0 0
1 0 0
1 0 0
0 0.356023 0
0.346609 0.332952 0
0.624506 0.335378 0
0.902464 0.332036 0
1 0.319738 0
0 0.632685 0
0.34464 0.590799 0
0.596109 0.58439 0
0.854398 0.572244 0
1 0.549569 0
0 0.877607 0
0.271717 0.818418 0
0.523629 0.796399 0
0.779217 0.771557 0
1 0.738964 0
0 1 0
0.0951705 1 0
0.393774 0.993088 0
0.656794 0.960861 0
0.931075 0.928023 0
0 0 0.278035
0.37702 0 0.356085
0.691554 0 0.406561
1 0 0.433249
1 0 0.427451
0 0.349142 0.341863
0.33637 0.322744 0.315496
0.611246 0.322072 0.314824
0.883772 0.317372 0.310109
1 0.304036 0.296803
0 0.618402 0.352438
0.336629 0.57406 0.315648
0.5794 0.567452 0.291722
0.83827 0.551339 0.25568
1 0.524208 0.206638
0 0.85922 0.29546
0.254948 0.795041 0.234424
0.503304 0.770031 0.195056
0.75285 0.744595 0.129122
1 0.709331 0.0606241
0 1 0.108553
0.0821851 1 0.0658579
0.374945 0.961028 0.0392004
0.631312 0.929397 0
0.901366 0.897459 0
0 0 0.554513
0.395392 0 0.629786
0.689479 0 0.672709
0.979355 0.000167849 0.710842
1 0 0.739559
0 0.352956 0.59855
0.337865 0.324224 0.567102
0.592142 0.327138 0.573632
0.857313 0.320928 0.585229
1 0.303838 0.592844
0 0.616251 0.610117
0.333639 0.571008 0.564569
0.573938 0.561944 0.555489
0.83125 0.542031 0.53547
1 0.511833 0.505089
0 0.852064 0.576989
0.242741 0.785977 0.50695
0.494255 0.758129 0.474571
0.740063 0.731548 0.423972
1 0.69427 0.369192
0 1 0.459648
0.0726635 0.989013 0.381476
0.365057 0.945708 0.344137
0.62153 0.913787 0.306142
0.887739 0.883482 0.241398
0 0 0.881926
0.411414 0 0.902037
0.699504 0 0.937758
0.978454 0.00402838 0.972839
1 0.000701915 1
0 0.356466 0.8551
0.338949 0.325292 0.81886
0.59292 0.326467 0.823377
0.843305 0.323201 0.832898
1 0.307408 0.850446
0 0.615091 0.860517
0.328542 0.568429 0.810987
0.568917 0.556893 0.802991
0.807065 0.539345 0.795972
1 0.506554 0.787869
0 0.846647 0.843366
0.228183 0.777722 0.773617
0.482185 0.747967 0.743542
0.72752 0.718761 0.714015
1 0.680064 0.674907
0 1 0.756176
0.0608377 0.975921 0.669932
0.353109 0.933257 0.628779
0.612497 0.90042 0.595834
0.874968 0.870405 0.544182
0 0 1
0.423194 0 1
0.710674 0 1
0.985718 0.00354009 1
1 0.0009308 1
0 0.358923 1
0.338567 0.32491 1
0.595178 0.323873 1
0.844785 0.318914 1
1 0.303716 1
0 0.614191 1
0.31989 0.565072 1
0.562463 0.550393 1
0.801251 0.529931 1
1 0.499687 1
0 0.841215 1
0.209781 0.769039 1
0.46836 0.736919 1
0.715465 0.706508 0.996719
0.971374 0.67303 0.968307
0 1 1
0.0447089 0.96376 0.962631
0.339284 0.920882 0.919127
0.59997 0.888228 0.886015
0.861448 0.85658 0.853925
