luts/CINECOLOR_SKINTONE_03.cube
TITLE "Generated by Resolve"
LUT_3D_SIZE 9
0 0 0
0.158495 0 0
0.390585 0 0
0.572503 0 0
0.734798 0 0
0.892164 0 0
1 0 0
1 0 0
1 0 0
0 0.184375 0
0.181903 0.170565 0
0.347311 0.175967 0
0.498116 0.180743 0
0.647196 0.183459 0
0.799527 0.182788 0
0.962234 0.176349 0
1 0.149645 0
1 0.136263 0
0 0.356023 0
0.196155 0.332082 0
0.346609 0.332952 0
0.486702 0.334585 0
0.624506 0.335378 0
0.762402 0.334554 0
0.902464 0.332036 0
1 0.327276 0
1 0.319738 0
0 0.500587 0
0.202472 0.471244 0
0.348852 0.467948 0
0.480827 0.467582 0
0.611948 0.466346 0
0.743328 0.46363 0
0.876173 0.459358 0
1 0.453101 0
1 0.444465 0
0 0.632685 0
0.194781 0.599481 0
0.34464 0.590799 0
0.471336 0.58764 0
0.596109 0.58439 0
0.723186 0.579522 0
0.854398 0.572244 0
0.991119 0.562356 0
1 0.549569 0
0 0.755688 0
0.163745 0.721691 0
0.32459 0.706172 0
0.449226 0.699443 0
0.570199 0.693019 0
0.694865 0.685115 0
0.825895 0.674342 0
0.963195 0.66096 0
1 0.645212 0
0 0.877607 0
0.0472114 0.855314 0
0.271717 0.818418 0
0.401175 0.806775 0
0.523629 0.796399 0
0.6486 0.784924 0
0.779217 0.771557 0
0.915419 0.756191 0
1 0.738964 0
0 1 0
0 0.984024 0
0.190249 0.929122 0
0.333257 0.910567 0
0.462211 0.89572 0
0.589837 0.881285 0
0.720348 0.866178 0
0.855558 0.850095 0
0.995651 0.832563 0
0 1 0
0 1 0
0.0951705 1 0
0.256657 1 0
0.393774 0.993088 0
0.525277 0.976745 0
0.656794 0.960861 0
0.791562 0.944762 0
0.931075 0.928023 0
0 0 0.131746
0.139864 0 0.125734
0.37293 0 0.202853
0.545983 0 0.230793
0.708705 0 0.243
0.869123 0 0.239445
1 0 0.173449
1 0 0.139208
1 0 0.119905
0 0.181247 0.175265
0.175891 0.164675 0.158801
0.339757 0.1682 0.162203
0.488243 0.172335 0.166247
0.635157 0.174853 0.168673
0.785718 0.174441 0.168215
0.946548 0.169574 0.163378
1 0.149203 0.143221
1 0.136751 0.130922
0 0.348714 0.196216
0.191623 0.322759 0.173449
0.337163 0.323537 0.165438
0.477684 0.324254 0.159442
0.614694 0.3243 0.155032
0.751736 0.323491 0.147127
0.890837 0.32108 0.13228
1 0.317723 0.104005
1 0.31635 0.0170901
0 0.491447 0.202472
0.197528 0.460349 0.17879
0.341115 0.456428 0.174456
0.470008 0.456687 0.161807
0.601083 0.454643 0.149889
0.73228 0.451225 0.138476
0.864775 0.446616 0.122408
1 0.440604 0.0970016
1 0.433494 0.0501106
0 0.62237 0.191577
0.190112 0.587533 0.171252
0.337667 0.577905 0.167727
0.460914 0.574823 0.158251
0.583597 0.571694 0.13962
0.710872 0.566155 0.118273
0.842527 0.557748 0.0928664
0.979385 0.547005 0.0594949
1 0.53431 0.0131991
0 0.746212 0.15259
0.160327 0.708507 0.142031
0.316655 0.69221 0.134752
0.438621 0.684764 0.123033
0.556481 0.67805 0.0989395
0.679683 0.669642 0.0660258
0.81088 0.657938 0.0294194
0.948547 0.643595 0
1 0.627314 0
0 0.873304 0.027512
0.0730602 0.83537 0.0579843
0.262379 0.803632 0.0536355
0.389487 0.790219 0.0426184
0.509544 0.778958 0.0209964
0.632059 0.767193 0
0.761471 0.753399 0
0.897581 0.737392 0
1 0.719646 0
0 0.996872 0
0 0.975998 0
0.186023 0.918059 0
0.322683 0.89369 0
0.449149 0.876982 0
0.574121 0.861845 0
0.702174 0.846601 0
0.836347 0.830381 0
0.976532 0.812772 0
0 1 0
0 1 0
0.0955673 1 0
0.252613 1 0
0.383902 0.976593 0
0.51165 0.95758 0
0.640314 0.9411 0
0.773175 0.925002 0
0.912001 0.908415 0
0 0 0.278035
0.1579 0 0.285222
0.37702 0 0.356085
0.536873 0 0.384558
0.691554 0 0.406561
0.84593 0 0.423209
1 0 0.433249
1 0 0.435538
1 0 0.427451
0 0.185412 0.321675
0.178637 0.167285 0.30251
0.329961 0.172442 0.309239
0.474754 0.176272 0.321004
0.622217 0.176989 0.332036
0.771725 0.17499 0.342367
0.929244 0.168399 0.357336
1 0.143496 0.413748
1 0.128359 0.43389
0 0.349142 0.341863
0.191959 0.322881 0.315648
0.33637 0.322744 0.315496
0.475776 0.32253 0.315267
0.611246 0.322072 0.314824
0.746471 0.320516 0.313252
0.883772 0.317372 0.310109
1 0.311955 0.304707
1 0.304036 0.296803
0 0.489708 0.352819
0.197086 0.45864 0.323659
0.341146 0.454002 0.32018
0.467338 0.454017 0.312001
0.598627 0.451286 0.303975
0.728725 0.447135 0.298009
0.860151 0.441535 0.289433
0.995056 0.43415 0.277272
1 0.42417 0.260746
0 0.618402 0.352438
0.189242 0.583673 0.322225
0.336629 0.57406 0.315648
0.459052 0.570504 0.309453
0.5794 0.567452 0.291722
0.706966 0.560861 0.273854
0.83827 0.551339 0.25568
0.97438 0.53904 0.233524
1 0.524208 0.206638
0 0.739361 0.338308
0.158221 0.702342 0.305959
0.312627 0.686549 0.291691
0.43505 0.678477 0.279744
0.550912 0.671656 0.258518
0.673045 0.662882 0.227512
0.804135 0.650278 0.196139
0.941787 0.634745 0.165484
1 0.617029 0.13373
0 0.85922 0.29546
0.0734569 0.822354 0.261814
0.254948 0.795041 0.234424
0.383291 0.781521 0.216892
0.503304 0.770031 0.195056
0.624582 0.758358 0.164828
0.75285 0.744595 0.129122
0.88925 0.727962 0.0940566
1 0.709331 0.0606241
0 0.979324 0.215122
0 0.956756 0.202823
0.173388 0.901335 0.154208
0.315175 0.881392 0.137926
0.442237 0.865675 0.119478
0.566293 0.85124 0.0950179
0.693141 0.836744 0.0631723
0.826734 0.820508 0.0275425
0.966659 0.802426 0
0 1 0.108553
0 1 0.11429
0.0821851 1 0.0658579
0.239841 0.979843 0.0525063
0.374945 0.961028 0.0392004
0.503441 0.944625 0.0206912
0.631312 0.929397 0
0.763272 0.913954 0
0.901366 0.897459 0
0 0 0.414939
0.203632 0 0.459083
0.386206 0 0.494545
0.539544 0 0.519509
0.687449 0 0.541802
0.835798 0 0.561547
0.986389 0 0.57818
1 0 0.590326
1 0 0.597482
0 0.189624 0.454566
0.181979 0.17052 0.433631
0.332799 0.174746 0.439231
0.470176 0.180041 0.449516
0.609766 0.182025 0.463706
0.756359 0.179828 0.480125
0.912871 0.172045 0.501427
1 0.14667 0.563577
1 0.130755 0.593027
0 0.350896 0.471763
0.192401 0.323949 0.443473
0.337026 0.323369 0.442527
0.466285 0.325475 0.445686
0.599054 0.324758 0.451225
0.735531 0.321782 0.454002
0.873274 0.317662 0.454658
1 0.311421 0.454124
1 0.302678 0.45275
0 0.489708 0.482658
0.196887 0.458427 0.451286
0.340795 0.453574 0.446418
0.46595 0.452613 0.445472
0.596277 0.449226 0.442084
0.725216 0.444892 0.437736
0.855604 0.438956 0.431785
0.989899 0.430793 0.423621
1 0.419821 0.412619
0 0.616983 0.484031
0.188769 0.581918 0.450858
0.335271 0.572351 0.442039
0.458396 0.568017 0.437964
0.576608 0.564645 0.425422
0.704433 0.556832 0.410956
0.835416 0.546456 0.397208
0.971176 0.533333 0.379995
1 0.517525 0.359182
0 0.736706 0.47425
0.156329 0.699168 0.438193
0.30901 0.683467 0.42211
0.431586 0.674571 0.410971
0.547616 0.666773 0.396048
0.668009 0.657771 0.368063
0.799558 0.644205 0.340749
0.937331 0.627787 0.315633
1 0.609461 0.289647
0 0.8551 0.441932
0.0724041 0.816175 0.402396
0.24889 0.790311 0.37409
0.377966 0.776089 0.357015
0.499031 0.763546 0.339361
0.619089 0.751583 0.313558
0.746258 0.737865 0.2795
0.882887 0.720729 0.247303
1 0.701564 0.218036
0 0.97261 0.380819
0 0.948226 0.359258
0.167514 0.894179 0.307027
0.309422 0.874327 0.288426
0.437476 0.858137 0.270863
0.561395 0.843397 0.249134
0.686717 0.829099 0.219287
0.819516 0.813138 0.184176
0.959579 0.794842 0.150698
0 1 0.301869
0 1 0.290623
0.0771954 0.99646 0.232395
0.234257 0.97142 0.213779
0.370306 0.95259 0.198291
0.498939 0.936172 0.180209
0.626001 0.921157 0.155612
0.756649 0.906279 0.123674
0.894224 0.890135 0.0885023
0 0 0.554513
0.220493 0 0.603632
0.395392 0 0.629786
0.545373 0 0.65185
0.689479 0 0.672709
0.833249 0 0.692348
0.979355 0.000167849 0.710842
1 0 0.726726
1 0 0.739559
0 0.19382 0.585824
0.184894 0.173312 0.562707
0.3364 0.176684 0.567315
0.473335 0.181369 0.577081
0.608316 0.184115 0.589883
0.749203 0.182666 0.607538
0.902266 0.175418 0.633066
1 0.149371 0.699214
1 0.133959 0.731487
0 0.352956 0.59855
0.192432 0.325444 0.568765
0.337865 0.324224 0.567102
0.466651 0.325963 0.56965
0.592142 0.327138 0.573632
0.721584 0.325475 0.579522
0.857313 0.320928 0.585229
0.997559 0.313603 0.589456
1 0.303838 0.592844
0 0.490227 0.608454
0.19588 0.458671 0.575174
0.340337 0.453376 0.569421
0.465354 0.452033 0.567834
0.585885 0.450782 0.567483
0.712489 0.446113 0.568612
0.844892 0.438834 0.56643
0.980606 0.429496 0.561517
1 0.417166 0.554208
0 0.616251 0.610117
0.187366 0.580896 0.574502
0.333639 0.571008 0.564569
0.456504 0.566354 0.559915
0.573938 0.561944 0.555489
0.701198 0.553109 0.546593
0.83125 0.542031 0.53547
0.966918 0.52845 0.521798
1 0.511833 0.505089
0 0.734874 0.602121
0.152972 0.696757 0.56408
0.304967 0.680858 0.547524
0.427298 0.671443 0.536492
0.544427 0.662394 0.525536
0.663172 0.652857 0.504631
0.795499 0.63827 0.482017
0.932876 0.621195 0.461479
1 0.602457 0.439582
0 0.852064 0.576989
0.0681163 0.811704 0.535103
0.242741 0.785977 0.50695
0.372107 0.771435 0.490181
0.494255 0.758129 0.474571
0.614633 0.745159 0.455421
0.740063 0.731548 0.423972
0.877211 0.713893 0.394659
1 0.69427 0.369192
0 0.967468 0.52697
0 0.941176 0.501259
0.161715 0.888182 0.44831
0.303243 0.868391 0.428748
0.432105 0.85185 0.411658
0.557153 0.836347 0.393668
0.681208 0.821988 0.367742
0.812863 0.806317 0.333471
0.953262 0.787808 0.301762
0 1 0.459648
0 1 0.443229
0.0726635 0.989013 0.381476
0.228458 0.964614 0.360372
0.365057 0.945708 0.344137
0.494743 0.928923 0.327672
0.62153 0.913787 0.306142
0.750835 0.899229 0.276158
0.887739 0.883482 0.241398
0 0 0.704646
0.231144 0 0.744915
0.403525 0 0.765011
0.551934 0 0.785046
0.694163 0 0.804379
0.83476 0.000595102 0.822904
0.977447 0.00271611 0.841398
1 0.00210575 0.858549
1 0 0.873549
0 0.197314 0.718624
0.187442 0.175769 0.693858
0.340734 0.177951 0.696742
0.477516 0.181979 0.70605
0.611887 0.184039 0.718425
0.750225 0.182895 0.735851
0.901015 0.175525 0.763806
1 0.15024 0.831662
1 0.135927 0.863432
0 0.354803 0.725734
0.191485 0.327001 0.695109
0.338582 0.324926 0.691966
0.467506 0.326146 0.693919
0.592172 0.327047 0.697475
0.717342 0.326665 0.702281
0.846815 0.323217 0.708522
0.982696 0.316381 0.716014
1 0.306203 0.723644
0 0.490959 0.733944
0.193851 0.459052 0.699535
0.339452 0.45301 0.692149
0.464836 0.451514 0.690486
0.584726 0.449882 0.689448
0.704082 0.447013 0.688945
0.829938 0.440848 0.690517
0.964706 0.430777 0.691447
1 0.416846 0.68954
0 0.61561 0.734752
0.184466 0.580194 0.69778
0.331487 0.569787 0.686793
0.454276 0.564614 0.682185
0.571588 0.559579 0.678309
0.689219 0.552682 0.673899
0.817121 0.540902 0.669978
0.954986 0.525597 0.661707
1 0.50782 0.649409
0 0.733486 0.728634
0.147585 0.694774 0.689555
0.300038 0.678233 0.672862
0.422522 0.668269 0.662821
0.539834 0.658564 0.65304
0.658122 0.64773 0.642115
0.790188 0.632273 0.62652
0.926665 0.614923 0.609018
1 0.595926 0.589853
0 0.849332 0.709636
0.0608988 0.808103 0.667109
0.235904 0.781857 0.639185
0.36582 0.766796 0.623194
0.488396 0.753124 0.608286
0.610224 0.739132 0.593088
0.733852 0.725216 0.568276
0.871763 0.706859 0.542855
1 0.686946 0.52079
0 0.962844 0.668467
0 0.935195 0.640589
0.155215 0.882582 0.58761
0.296773 0.86273 0.567269
0.426017 0.845991 0.550164
0.552102 0.83003 0.533715
0.676432 0.814893 0.513939
0.806302 0.799619 0.481666
0.947311 0.780774 0.452155
0 1 0.609262
0 1 0.58967
0.0673533 0.982254 0.525979
0.222721 0.958282 0.5037
0.359243 0.939391 0.486244
0.489586 0.922515 0.470085
0.617456 0.906798 0.452491
0.745571 0.892302 0.426642
0.881376 0.876966 0.39266
0 0 0.881926
0.237613 0 0.886732
0.411414 0 0.902037
0.558801 0 0.919768
0.699504 0 0.937758
0.838773 0.00163272 0.955657
0.978454 0.00402838 0.972839
1 0.00357061 0.989822
1 0.000701915 1
0 0.199802 0.854337
0.189578 0.177813 0.828092
0.345739 0.178454 0.829053
0.482948 0.181659 0.837919
0.617609 0.183139 0.850767
0.756268 0.181186 0.868849
0.909483 0.172045 0.90135
1 0.148653 0.965255
1 0.136278 0.995041
0 0.356466 0.8551
0.189425 0.328435 0.823484
0.338949 0.325292 0.81886
0.468406 0.325978 0.820157
0.59292 0.326467 0.823377
0.717113 0.325841 0.827756
0.843305 0.323201 0.832898
0.974884 0.317189 0.840635
1 0.307408 0.850446
0 0.491661 0.86096
0.190356 0.459586 0.825513
0.33817 0.452522 0.816861
0.463859 0.450553 0.81416
0.58378 0.448569 0.812818
0.702602 0.445457 0.812634
0.824155 0.440131 0.813397
0.953124 0.430991 0.816144
1 0.417166 0.818921
0 0.615091 0.860517
0.179706 0.579629 0.822782
0.328542 0.568429 0.810987
0.451728 0.562737 0.806287
0.568917 0.556893 0.802991
0.68632 0.549416 0.799756
0.807065 0.539345 0.795972
0.937896 0.525078 0.793088
1 0.506554 0.787869
0 0.732174 0.856275
0.140063 0.693126 0.817426
0.294102 0.67541 0.800626
0.417105 0.664836 0.791302
0.534859 0.654536 0.782956
0.653483 0.64303 0.773617
0.77525 0.629831 0.763226
0.909483 0.612177 0.75346
1 0.591821 0.739193
0 0.846647 0.843366
0.0505226 0.805264 0.801495
0.228183 0.777722 0.773617
0.35903 0.762066 0.757794
0.482185 0.747967 0.743542
0.604395 0.733669 0.729091
0.72752 0.718761 0.714015
0.865019 0.699794 0.694835
1 0.680064 0.674907
0 0.958419 0.809644
0 0.930236 0.78088
0.147814 0.877119 0.727245
0.289921 0.857069 0.706554
0.419593 0.840146 0.689326
0.545937 0.824063 0.672877
0.671778 0.808286 0.656672
0.79968 0.792859 0.630564
0.941527 0.77351 0.604501
0 1 0.756176
0 1 0.734768
0.0608377 0.975921 0.669932
0.216434 0.95198 0.646738
0.353109 0.933257 0.628779
0.483574 0.916426 0.612009
0.612497 0.90042 0.595834
0.741024 0.885359 0.576288
0.874968 0.870405 0.544182
0 0 1
0.240284 0 1
0.417639 0 1
0.565133 0 1
0.705119 0 1
0.843366 0.00198367 1
0.981735 0.00410468 1
1 0.00396735 1
1 0.00117494 1
0 0.200839 0.994415
0.191073 0.179232 0.967178
0.351446 0.178012 0.966094
0.489586 0.180102 0.973846
0.625223 0.180667 0.987121
0.765911 0.1776 1
0.941344 0.158892 1
1 0.145678 1
1 0.134829 1
0 0.357961 0.987533
0.185611 0.329946 0.954986
0.338949 0.325277 0.948592
0.469245 0.325322 0.949172
0.593973 0.325399 0.951858
0.717891 0.324346 0.955901
0.843519 0.321431 0.960967
0.972473 0.315938 0.967865
1 0.306523 0.978637
0 0.492226 0.990387
0.185 0.460166 0.954314
0.336233 0.451911 0.943816
0.462623 0.449317 0.940169
0.582666 0.446845 0.938598
0.70161 0.44329 0.938964
0.82295 0.437522 0.940642
0.948669 0.428565 0.943389
1 0.415274 0.947982
0 0.614618 0.988357
0.173083 0.579263 0.950271
0.324697 0.566857 0.937606
0.448554 0.560479 0.93341
0.565896 0.553857 0.931273
0.683406 0.545525 0.929381
0.804089 0.535027 0.927413
0.930236 0.521691 0.924483
1 0.504433 0.921981
0 0.730755 0.986374
0.129625 0.691814 0.948531
0.287114 0.672511 0.931594
0.410956 0.661036 0.923445
0.529473 0.650172 0.916808
0.648524 0.637995 0.908873
0.770138 0.624414 0.899657
0.896361 0.609018 0.889387
1 0.590295 0.880125
0 0.843976 0.979873
0.0365606 0.802747 0.9393
0.219547 0.773465 0.910796
0.351629 0.757153 0.895613
0.475486 0.74255 0.881987
0.598169 0.727932 0.868208
0.721614 0.712764 0.853956
0.848096 0.696513 0.839323
0.986175 0.676692 0.826505
0 0.954009 0.952483
0 0.926131 0.924208
0.139361 0.871717 0.869032
0.282536 0.851286 0.848325
0.412711 0.83418 0.831006
0.539406 0.81796 0.814572
0.665522 0.802136 0.79855
0.792889 0.785916 0.782132
0.93434 0.76614 0.762112
0 1 0.903761
0 1 0.881193
0.0533455 0.969772 0.815122
0.20943 0.945754 0.791318
0.346471 0.927092 0.772747
0.477195 0.910307 0.755917
0.606378 0.894362 0.739773
0.736431 0.878706 0.723812
0.868315 0.8636 0.697917
0 0 1
0.236698 0 1
0.423194 0 1
0.571084 0 1
0.710674 0 1
0.848341 0.00175479 1
0.985718 0.00354009 1
1 0.00317388 1
1 0.0009308 1
0 0.20032 1
0.191775 0.179873 1
0.358892 0.176272 1
0.498695 0.177127 1
0.636332 0.176562 1
0.783383 0.170352 1
0.958083 0.151553 1
1 0.141726 1
1 0.132204 1
0 0.358923 1
0.179782 0.331472 1
0.338567 0.32491 1
0.469947 0.324224 1
0.595178 0.323873 1
0.719295 0.32224 1
0.844785 0.318914 1
0.973236 0.313069 1
1 0.303716 1
0 0.492607 1
0.177493 0.460853 1
0.333761 0.451194 1
0.461097 0.447791 1
0.581445 0.444724 1
0.700725 0.440543 1
0.822263 0.43415 1
0.947799 0.42446 1
1 0.411154 1
0 0.614191 1
0.163806 0.579232 1
0.31989 0.565072 1
0.444587 0.557778 1
0.562463 0.550393 1
0.680323 0.541192 1
0.801251 0.529931 1
0.927092 0.516182 1
1 0.499687 1
0 0.729229 1
0.115953 0.690745 1
0.278981 0.669413 1
0.40412 0.656962 1
0.523476 0.645335 1
0.643198 0.632593 1
0.765179 0.618555 1
0.890959 0.60296 1
1 0.585763 1
0 0.841215 1
0.017258 0.801251 1
0.209781 0.769039 1
0.343557 0.75201 1
0.46836 0.736919 1
0.591608 0.72192 1
0.715465 0.706508 0.996719
0.841749 0.690242 0.982498
0.971374 0.67303 0.968307
0 0.949477 1
0 0.922774 1
0.129793 0.866331 1
0.274525 0.84538 0.99266
0.405356 0.828077 0.975235
0.532555 0.811704 0.958816
0.658991 0.795804 0.942992
0.786633 0.779538 0.927031
0.916808 0.762783 0.911452
0 1 1
0 1 1
0.0447089 0.96376 0.962631
0.201633 0.939544 0.938064
0.339284 0.920882 0.919127
0.470466 0.904128 0.902129
0.59997 0.888228 0.886015
0.730327 0.872633 0.870192
0.861448 0.85658 0.853925
