luts/CINECOLOR_DYNAMIC_RANGER_03.cube
TITLE "Generated by Resolve"
LUT_3D_SIZE 9
0.0908827 0.0814069 0.0831464
0.235828 0.0853285 0.087068
0.351736 0.0928054 0.0945449
0.458656 0.0997787 0.101518
0.565621 0.104509 0.106172
0.674388 0.106996 0.108522
0.782788 0.107973 0.1093
0.89015 0.108461 0.109514
0.994842 0.108873 0.109529
0.0965744 0.222446 0.0888075
0.233433 0.218387 0.0846876
0.343465 0.21973 0.0859388
0.445731 0.222263 0.0879683
0.54815 0.223911 0.0878462
0.651881 0.224338 0.0848707
0.754864 0.224735 0.0805219
0.855833 0.225422 0.0747997
0.952697 0.22707 0.0681468
0.102312 0.3355 0.0945602
0.235996 0.328252 0.0871748
0.343526 0.327092 0.0859693
0.443687 0.327703 0.0861219
0.544121 0.327977 0.0844739
0.645853 0.327565 0.0803082
0.746899 0.327535 0.0753948
0.845945 0.328069 0.0699321
0.940948 0.329778 0.0652476
0.103563 0.438804 0.0960555
0.237247 0.42977 0.0872816
0.344121 0.427497 0.0855421
0.443656 0.427375 0.0856489
0.54342 0.427298 0.0843671
0.644434 0.426886 0.0809644
0.744778 0.427115 0.0775006
0.843153 0.428183 0.0744793
0.937423 0.430396 0.0729686
0.0965438 0.540856 0.0898756
0.23418 0.530083 0.0804608
0.342397 0.52755 0.0801709
0.442603 0.527443 0.0819257
0.54284 0.527718 0.0825513
0.644099 0.527855 0.0813306
0.744411 0.528634 0.0801099
0.842496 0.530083 0.0791943
0.936233 0.532433 0.079469
0.0839246 0.645319 0.078706
0.229908 0.632761 0.0705119
0.340337 0.630137 0.0730144
0.441627 0.630091 0.0771344
0.542229 0.63032 0.0793011
0.643626 0.630518 0.0794995
0.743755 0.631266 0.0793927
0.841489 0.632624 0.0794842
0.934829 0.634852 0.0807355
0.0727092 0.751629 0.0691997
0.227787 0.736507 0.0624552
0.33962 0.733272 0.0672618
0.44152 0.732845 0.0731212
0.54226 0.732708 0.0762951
0.643702 0.732754 0.0776379
0.743618 0.733242 0.078233
0.840909 0.734218 0.078645
0.933898 0.736202 0.0805219
0.060853 0.858259 0.0598459
0.227741 0.839261 0.0566567
0.34052 0.835294 0.0639811
0.442695 0.834333 0.0711833
0.543481 0.833799 0.075288
0.644709 0.833417 0.0770733
0.744244 0.833448 0.0778363
0.840986 0.83386 0.0780194
0.933516 0.835401 0.079942
0.0558328 0.961501 0.0572213
0.231724 0.939025 0.0590982
0.344579 0.934447 0.0675364
0.446448 0.93286 0.0748913
0.546944 0.931853 0.0792554
0.647639 0.930892 0.0807965
0.746563 0.930312 0.0811322
0.842618 0.930083 0.0806897
0.934417 0.930907 0.0817731
0.0925765 0.0831311 0.221546
0.236744 0.086305 0.224491
0.35169 0.0927901 0.230854
0.457954 0.0990768 0.237491
0.564324 0.103166 0.243168
0.67245 0.104845 0.24802
0.780255 0.105348 0.253132
0.8869 0.105119 0.259251
0.990753 0.104601 0.267491
0.0956893 0.221561 0.224369
0.231998 0.216953 0.21976
0.341756 0.218006 0.220813
0.443717 0.220233 0.223026
0.5458 0.22153 0.224308
0.649088 0.22153 0.224277
0.751583 0.221485 0.224186
0.851972 0.221607 0.224277
0.948058 0.222477 0.225086
0.100206 0.33344 0.228962
0.233524 0.325811 0.221286
0.3411 0.324666 0.220157
0.441123 0.325139 0.220523
0.541329 0.325216 0.220172
0.642771 0.324529 0.218662
0.743481 0.324208 0.217334
0.84213 0.324437 0.216464
0.936584 0.325597 0.216587
0.100938 0.436103 0.231327
0.234333 0.426856 0.222126
0.341405 0.424735 0.220279
0.440879 0.424598 0.220233
0.540398 0.424308 0.219547
0.641413 0.423972 0.218357
0.741588 0.424125 0.217472
0.839765 0.425086 0.217334
0.933791 0.427131 0.218433
0.0938582 0.537606 0.229358
0.231296 0.52697 0.219242
0.339574 0.52459 0.217731
0.439872 0.524636 0.218524
0.539956 0.524849 0.218891
0.641306 0.52517 0.218845
0.741466 0.525887 0.218875
0.839353 0.52723 0.21944
0.932921 0.529473 0.221027
0.0816968 0.641382 0.225742
0.227054 0.629313 0.215183
0.337545 0.626993 0.21474
0.438926 0.627192 0.216556
0.539422 0.627436 0.217563
0.640818 0.627741 0.217975
0.74081 0.628443 0.218372
0.838239 0.629557 0.218936
0.931609 0.631937 0.221088
0.0708324 0.746624 0.224582
0.22475 0.732555 0.213046
0.33669 0.729793 0.213031
0.438697 0.729671 0.21529
0.539437 0.729702 0.216663
0.640803 0.729793 0.217319
0.740597 0.730266 0.217868
0.83769 0.731136 0.218463
0.930648 0.733181 0.220554
0.0617227 0.851453 0.2262
0.224475 0.834775 0.212909
0.337407 0.831449 0.213092
0.439643 0.830823 0.215442
0.540505 0.830533 0.217044
0.641672 0.830228 0.217655
0.741085 0.830259 0.218006
0.837705 0.83064 0.218311
0.930114 0.832151 0.219974
0.0617838 0.952407 0.231006
0.228382 0.934249 0.216846
0.341375 0.930388 0.217029
0.443305 0.929152 0.21912
0.543893 0.92842 0.22063
0.644495 0.927535 0.220829
0.743191 0.926848 0.220462
0.839185 0.92665 0.220218
0.930846 0.927413 0.221088
0.0965591 0.0870832 0.332937
0.239307 0.0889296 0.334569
0.353475 0.0946365 0.340124
0.459129 0.100298 0.346288
0.565011 0.103868 0.351995
0.672709 0.105028 0.357351
0.780163 0.105257 0.363363
0.886473 0.104723 0.370581
0.98999 0.103868 0.37995
0.0967269 0.222583 0.332921
0.232563 0.217502 0.327901
0.342031 0.218296 0.328695
0.443732 0.220233 0.3308
0.545525 0.221271 0.332326
0.648615 0.221088 0.333074
0.750881 0.220844 0.333959
0.851041 0.220798 0.33518
0.946868 0.221439 0.337118
0.10016 0.333379 0.336461
0.233234 0.325521 0.328603
0.340703 0.324285 0.327367
0.44062 0.324651 0.327733
0.540612 0.324514 0.327596
0.642008 0.323857 0.32694
0.742565 0.323445 0.326513
0.841062 0.323568 0.326635
0.935439 0.324773 0.327825
0.100404 0.435462 0.338674
0.233783 0.426215 0.329473
0.34081 0.424109 0.327474
0.440269 0.423987 0.327413
0.539696 0.423682 0.326955
0.640681 0.423362 0.32636
0.74081 0.42356 0.326192
0.838849 0.42446 0.326711
0.932891 0.426657 0.328603
0.09337 0.536614 0.337682
0.230869 0.526238 0.327626
0.339147 0.523964 0.325811
0.439429 0.524117 0.326375
0.539498 0.524407 0.326757
0.640787 0.524758 0.326955
0.740856 0.52549 0.327382
0.838483 0.526619 0.328099
0.932113 0.529046 0.330282
0.0821088 0.640192 0.335821
0.226993 0.62858 0.325139
0.337316 0.626383 0.32401
0.438437 0.626505 0.325017
0.53904 0.626963 0.325978
0.640345 0.627314 0.326406
0.74023 0.628016 0.32697
0.837537 0.629099 0.327764
0.930816 0.631449 0.330007
0.0728466 0.745144 0.336156
0.224842 0.73167 0.324208
0.336522 0.729046 0.323247
0.438193 0.728862 0.324437
0.539055 0.729122 0.325612
0.640299 0.729244 0.326085
0.739971 0.729717 0.326604
0.836942 0.730541 0.327291
0.929793 0.732555 0.329351
0.0656443 0.849271 0.338445
0.224659 0.833707 0.324956
0.33727 0.830564 0.32401
0.439231 0.829938 0.325216
0.540063 0.829786 0.326314
0.641077 0.829496 0.326589
0.740185 0.829313 0.326558
0.836835 0.829847 0.327108
0.929122 0.831312 0.328679
0.0673381 0.94963 0.34316
0.228595 0.932998 0.32903
0.341192 0.92932 0.327932
0.442908 0.928176 0.328923
0.543328 0.927474 0.329686
0.643778 0.926574 0.329488
0.742214 0.925765 0.328847
0.838132 0.925597 0.328679
0.929656 0.926284 0.329427
0.100587 0.0911269 0.436652
0.242084 0.0915694 0.437034
0.355734 0.0967422 0.441993
0.460899 0.101854 0.4477
0.566384 0.104967 0.453269
0.673747 0.10573 0.458839
0.780941 0.105638 0.465278
0.887022 0.104829 0.47306
0.990448 0.103578 0.483085
0.098024 0.224063 0.434073
0.233509 0.218479 0.428595
0.342824 0.219028 0.42916
0.444297 0.220737 0.431098
0.545769 0.221347 0.432578
0.648814 0.221195 0.433814
0.750912 0.220813 0.435203
0.850919 0.220645 0.437034
0.946609 0.22121 0.439567
0.100389 0.333867 0.436591
0.233478 0.325811 0.42858
0.340856 0.324422 0.427161
0.440665 0.324681 0.427466
0.54052 0.324407 0.427436
0.641917 0.323796 0.427253
0.742382 0.323354 0.427329
0.840772 0.3234 0.42797
0.935103 0.324666 0.429725
0.100282 0.435462 0.438529
0.233738 0.426184 0.429252
0.340764 0.424048 0.427115
0.440208 0.423941 0.427008
0.539681 0.423682 0.426764
0.64065 0.423423 0.426505
0.740734 0.423667 0.426734
0.838682 0.424536 0.427604
0.932723 0.426825 0.429908
0.0934615 0.536385 0.43801
0.230976 0.526146 0.427924
0.3393 0.523995 0.425986
0.439521 0.524163 0.426322
0.539681 0.524605 0.426825
0.640894 0.524971 0.427131
0.740871 0.525658 0.42771
0.838453 0.526833 0.428717
0.932021 0.529274 0.431067
0.0833143 0.639918 0.437156
0.227543 0.62858 0.426352
0.337713 0.626474 0.424842
0.438697 0.626596 0.425467
0.539254 0.627131 0.426291
0.640482 0.627482 0.426719
0.740185 0.628077 0.427222
0.837522 0.629282 0.42829
0.930709 0.631617 0.430579
0.0750744 0.744564 0.438102
0.225544 0.731548 0.426032
0.336996 0.72903 0.424552
0.438529 0.728893 0.425299
0.539284 0.729198 0.426169
0.640436 0.729335 0.426551
0.739803 0.72958 0.426795
0.836851 0.730587 0.427771
0.929595 0.73257 0.429786
0.0691234 0.848249 0.44065
0.225467 0.833417 0.427207
0.337545 0.830243 0.425452
0.439551 0.829831 0.426291
0.540246 0.829709 0.427008
0.641123 0.829404 0.4271
0.740078 0.82919 0.426993
0.836606 0.829679 0.427497
0.928786 0.831098 0.428977
0.0715343 0.948241 0.445258
0.229404 0.93254 0.431281
0.34136 0.928801 0.429252
0.443122 0.927871 0.429877
0.543359 0.927184 0.430198
0.643656 0.926268 0.429755
0.741939 0.925399 0.429007
0.837705 0.92517 0.428763
0.929091 0.92578 0.429419
0.10399 0.0946212 0.541482
0.244968 0.0939956 0.540856
0.358099 0.098436 0.545098
0.462867 0.102998 0.550362
0.567956 0.105394 0.555688
0.675212 0.106065 0.561502
0.782269 0.105638 0.568246
0.88835 0.104295 0.576516
0.992035 0.102907 0.587381
0.0984054 0.225223 0.536248
0.234333 0.219333 0.530434
0.343542 0.219577 0.530694
0.444877 0.221027 0.532433
0.546212 0.221439 0.533944
0.649134 0.221103 0.535378
0.751125 0.220584 0.537087
0.850919 0.220111 0.539162
0.946639 0.220859 0.54226
0.0997482 0.334188 0.537728
0.233478 0.326009 0.529564
0.340902 0.324468 0.527977
0.440681 0.32462 0.528191
0.540505 0.324254 0.528237
0.641855 0.323598 0.528298
0.742321 0.32314 0.52874
0.840604 0.323095 0.529686
0.934997 0.324529 0.531929
0.0994888 0.435477 0.539391
0.233478 0.426123 0.529976
0.340597 0.423941 0.527703
0.439918 0.423636 0.527352
0.53962 0.423606 0.527382
0.64065 0.423438 0.527398
0.74078 0.423743 0.527947
0.838697 0.424628 0.529076
0.932677 0.426917 0.531563
0.0930495 0.536339 0.539223
0.230838 0.52607 0.528939
0.3393 0.52398 0.526848
0.439551 0.524178 0.527031
0.539818 0.524758 0.527611
0.641001 0.525139 0.527993
0.740887 0.525765 0.528634
0.838453 0.52697 0.529824
0.931975 0.529412 0.53228
0.083711 0.639826 0.538933
0.227771 0.628595 0.527932
0.337926 0.626535 0.526131
0.438911 0.626719 0.526528
0.539422 0.627253 0.527199
0.640589 0.627619 0.527581
0.740139 0.628107 0.528038
0.837491 0.629374 0.529274
0.930632 0.631708 0.531579
0.0761883 0.744274 0.540246
0.225971 0.731487 0.528008
0.337163 0.728939 0.52604
0.438758 0.728923 0.526543
0.539422 0.729229 0.527184
0.640482 0.729335 0.527428
0.739788 0.729595 0.527703
0.836744 0.730571 0.528664
0.929412 0.732509 0.530632
0.0710765 0.847654 0.542931
0.225971 0.833234 0.529412
0.337774 0.830076 0.527153
0.439719 0.829725 0.527626
0.540307 0.829602 0.528054
0.64097 0.829175 0.527855
0.739925 0.829023 0.52781
0.836347 0.829465 0.528252
0.92842 0.830808 0.529641
0.0738994 0.947372 0.547433
0.229862 0.932174 0.53341
0.341558 0.928496 0.530892
0.443168 0.927581 0.531044
0.543267 0.926863 0.531029
0.643214 0.925719 0.530159
0.741573 0.924987 0.529549
0.837217 0.924681 0.529229
0.928374 0.925109 0.529656
0.106508 0.0973526 0.648386
0.247715 0.0958572 0.64683
0.36051 0.0996262 0.650431
0.464958 0.103593 0.655253
0.569894 0.105638 0.660456
0.677073 0.105943 0.666377
0.784161 0.105165 0.673457
0.890486 0.10338 0.682338
0.995148 0.101442 0.69453
0.0983444 0.226368 0.64065
0.234882 0.219928 0.634302
0.344106 0.219837 0.634226
0.445274 0.22089 0.635676
0.54667 0.221271 0.637263
0.649531 0.220783 0.638819
0.751461 0.220127 0.640757
0.851179 0.219562 0.643122
0.946868 0.220249 0.64651
0.0986648 0.334585 0.641093
0.233173 0.326024 0.632532
0.340734 0.324331 0.630732
0.440421 0.324178 0.630686
0.540444 0.323934 0.630945
0.64181 0.323217 0.631159
0.742168 0.322591 0.631724
0.840574 0.322728 0.633097
0.935012 0.324239 0.635645
0.098085 0.435538 0.642313
0.232914 0.425956 0.632609
0.340261 0.423728 0.630198
0.439689 0.423407 0.62977
0.539467 0.423392 0.629847
0.640589 0.423255 0.629999
0.740627 0.423468 0.630625
0.838727 0.424598 0.632151
0.932692 0.426886 0.63476
0.0919051 0.536355 0.642283
0.230442 0.525979 0.631754
0.339117 0.523919 0.629511
0.439506 0.524147 0.629572
0.539834 0.524758 0.630106
0.641032 0.525139 0.630518
0.740795 0.525658 0.631113
0.838437 0.52697 0.632547
0.931914 0.529397 0.635035
0.0832685 0.639872 0.642405
0.227649 0.628565 0.631083
0.337652 0.626322 0.628824
0.438911 0.626719 0.629191
0.539452 0.627268 0.62974
0.640589 0.627619 0.630091
0.740108 0.628077 0.630549
0.837415 0.629328 0.6318
0.930495 0.631632 0.634104
0.0762188 0.744167 0.6439
0.225971 0.731395 0.631373
0.337057 0.728771 0.628977
0.438758 0.728862 0.629313
0.539406 0.729168 0.629755
0.640345 0.729198 0.629847
0.739635 0.729473 0.630106
0.836545 0.730404 0.631037
0.929137 0.732311 0.632959
0.0716106 0.847303 0.646662
0.226032 0.833021 0.632883
0.337774 0.829877 0.630274
0.439643 0.829526 0.630396
0.540169 0.829389 0.630564
0.64065 0.828824 0.630137
0.739635 0.828717 0.630091
0.835966 0.829099 0.630472
0.927886 0.830304 0.631693
0.0747539 0.946807 0.651011
0.229725 0.931716 0.636683
0.341436 0.928115 0.633844
0.442939 0.927184 0.6336
0.542931 0.926436 0.633295
0.642786 0.925231 0.632288
0.741039 0.924422 0.63154
0.836591 0.924041 0.631144
0.927596 0.924346 0.631434
0.108812 0.0999313 0.754543
0.250477 0.0974746 0.75201
0.363073 0.100603 0.755001
0.467323 0.104021 0.759411
0.572168 0.105699 0.764508
0.679347 0.105638 0.770535
0.786587 0.104494 0.777966
0.893416 0.102266 0.787594
1 0.0985428 0.804105
0.0979629 0.227543 0.744244
0.235386 0.220493 0.737301
0.344701 0.220081 0.736889
0.445823 0.220813 0.738079
0.547265 0.221088 0.739651
0.650095 0.220447 0.741299
0.751949 0.219593 0.743328
0.851728 0.219043 0.745968
0.947372 0.219684 0.749554
0.0972915 0.335088 0.743618
0.232807 0.326085 0.7346
0.340566 0.324163 0.732555
0.440406 0.323949 0.732433
0.54052 0.323674 0.732708
0.641947 0.322927 0.733043
0.74229 0.32224 0.733745
0.840757 0.322423 0.735348
0.935225 0.32401 0.738109
0.0964065 0.435767 0.744381
0.232273 0.425864 0.734295
0.339803 0.423453 0.731624
0.439567 0.423285 0.731258
0.539498 0.423301 0.731365
0.640681 0.423209 0.731624
0.740795 0.423453 0.732387
0.838895 0.424598 0.734051
0.93286 0.426902 0.736751
0.090425 0.536553 0.744366
0.23003 0.526009 0.733547
0.338811 0.523812 0.730999
0.439536 0.524239 0.731106
0.53991 0.524834 0.731548
0.641016 0.525078 0.731838
0.740917 0.525734 0.732631
0.83856 0.527062 0.734127
0.932021 0.529458 0.736645
0.0825055 0.640146 0.744747
0.227527 0.628702 0.733089
0.337636 0.626429 0.730571
0.438956 0.626795 0.730724
0.539513 0.627344 0.731136
0.640467 0.627497 0.731258
0.740169 0.628153 0.731929
0.837446 0.629374 0.733181
0.93048 0.631632 0.735454
0.0758526 0.744305 0.746349
0.225925 0.731441 0.733455
0.337057 0.728801 0.7308
0.438788 0.728893 0.730861
0.539422 0.729183 0.731136
0.640208 0.729061 0.730999
0.73959 0.729427 0.731365
0.836439 0.730312 0.73225
0.928801 0.73196 0.733898
0.0715801 0.847257 0.749096
0.225696 0.832776 0.734829
0.337743 0.829801 0.732082
0.439582 0.829435 0.731899
0.540063 0.829252 0.731853
0.640497 0.828641 0.731304
0.739406 0.828489 0.731167
0.83566 0.828794 0.731472
0.927382 0.829816 0.732494
0.0749371 0.946532 0.753277
0.22948 0.931411 0.738567
0.341283 0.927871 0.73547
0.44271 0.926894 0.734905
0.54258 0.92604 0.734295
0.642405 0.924834 0.733196
0.740566 0.923934 0.732341
0.836011 0.923461 0.731853
0.926879 0.923629 0.732006
0.11107 0.10251 0.858442
0.253361 0.0990158 0.854948
0.36585 0.101518 0.857343
0.469902 0.104326 0.861372
0.574777 0.105776 0.866377
0.682017 0.105333 0.872526
0.789548 0.103517 0.880354
0.897215 0.10103 0.891005
1 0.0961776 0.910124
0.0974594 0.228855 0.845579
0.235966 0.221149 0.837995
0.345449 0.220417 0.837247
0.446601 0.220935 0.838239
0.548058 0.221012 0.839734
0.650889 0.220233 0.841398
0.752697 0.219165 0.843488
0.852537 0.218708 0.846357
0.948196 0.219318 0.850095
0.0958267 0.33579 0.8439
0.232563 0.326314 0.834394
0.340566 0.324163 0.83209
0.440558 0.323888 0.831861
0.540764 0.323537 0.83212
0.642283 0.322789 0.832532
0.742702 0.322118 0.833402
0.841215 0.322377 0.835187
0.935714 0.323995 0.838071
0.0946975 0.436225 0.84416
0.231785 0.425971 0.833661
0.339559 0.423407 0.830777
0.439628 0.423316 0.830396
0.539727 0.423407 0.830533
0.64097 0.423301 0.830839
0.741192 0.423651 0.831754
0.839307 0.424796 0.833478
0.933257 0.4271 0.83624
0.0889601 0.537011 0.844099
0.229694 0.526207 0.832898
0.338872 0.524086 0.830259
0.43978 0.524544 0.830243
0.540215 0.525139 0.83061
0.641306 0.525307 0.830854
0.741238 0.525979 0.831693
0.83888 0.527291 0.833219
0.93225 0.52961 0.835676
0.0816663 0.64065 0.844602
0.227329 0.628916 0.832486
0.337804 0.626734 0.829862
0.439185 0.6271 0.829831
0.539773 0.627634 0.830121
0.640726 0.627741 0.830182
0.740414 0.628382 0.830839
0.837674 0.629587 0.83209
0.93051 0.631632 0.83415
0.0754101 0.744717 0.846235
0.225711 0.731548 0.832837
0.337224 0.729046 0.830076
0.438972 0.729122 0.829923
0.539483 0.729259 0.829923
0.640375 0.729229 0.829816
0.739727 0.729549 0.830121
0.836515 0.730388 0.830961
0.928817 0.731975 0.832547
0.071458 0.847501 0.848936
0.225788 0.832929 0.834348
0.33785 0.829923 0.831312
0.439673 0.829526 0.830869
0.539895 0.829114 0.830442
0.640497 0.828656 0.829969
0.73933 0.828428 0.82974
0.835523 0.828656 0.829969
0.927169 0.829602 0.830915
0.0749371 0.946548 0.852903
0.22948 0.93138 0.837903
0.341238 0.92781 0.834516
0.442618 0.926802 0.833646
0.54226 0.92575 0.832685
0.642161 0.92459 0.831586
0.740246 0.923613 0.830625
0.835416 0.922866 0.829862
0.926375 0.923125 0.830121
0.113405 0.105165 0.957565
0.256458 0.10071 0.953155
0.368765 0.102434 0.954986
0.472816 0.105028 0.958724
0.577661 0.106111 0.963607
0.685039 0.105303 0.969879
0.792935 0.10309 0.978164
0.901976 0.099855 0.990311
1 0.0950179 1
0.0971542 0.230426 0.94226
0.23682 0.22208 0.934035
0.346288 0.220829 0.932845
0.4477 0.221347 0.933776
0.549157 0.221286 0.935164
0.652003 0.220371 0.936843
0.753796 0.219211 0.938994
0.853651 0.218708 0.941985
0.949325 0.219333 0.945846
0.0946365 0.336797 0.939559
0.232654 0.326863 0.929549
0.34081 0.324437 0.92697
0.441077 0.324193 0.926696
0.541375 0.323781 0.926909
0.642786 0.322789 0.927245
0.743435 0.322377 0.928359
0.842039 0.322713 0.930297
0.936584 0.324437 0.933318
0.0933852 0.437034 0.939345
0.231708 0.426444 0.92845
0.339803 0.423835 0.925414
0.44004 0.423728 0.924941
0.540291 0.423865 0.925078
0.641581 0.423743 0.925383
0.741955 0.424231 0.926452
0.84007 0.425376 0.928237
0.933974 0.427619 0.930983
0.0880598 0.53785 0.939193
0.229801 0.526802 0.927626
0.33933 0.524712 0.92488
0.44036 0.52517 0.924743
0.540871 0.52578 0.925048
0.641962 0.525933 0.925261
0.741924 0.526619 0.926131
0.839551 0.527901 0.927657
0.932799 0.530068 0.930022
0.0813306 0.641505 0.939727
0.227573 0.629511 0.927199
0.338323 0.62739 0.924468
0.439796 0.627756 0.924269
0.540322 0.628199 0.924392
0.641337 0.628351 0.924468
0.741024 0.628962 0.925093
0.838239 0.630137 0.926314
0.931014 0.632136 0.928344
0.0753796 0.745434 0.941299
0.226184 0.732174 0.927626
0.337774 0.729656 0.924651
0.439536 0.729702 0.9243
0.539971 0.729763 0.924117
0.640879 0.729732 0.923964
0.740185 0.730022 0.924208
0.836851 0.730724 0.924926
0.929168 0.732357 0.926543
0.0714885 0.848005 0.943862
0.226291 0.833448 0.929076
0.338323 0.830396 0.925795
0.440131 0.829953 0.925124
0.540307 0.829511 0.924544
0.640848 0.828992 0.923949
0.739605 0.828702 0.923629
0.835569 0.828687 0.923629
0.927291 0.829725 0.924651
0.0748302 0.946807 0.947585
0.229862 0.931716 0.932448
0.341558 0.9281 0.928786
0.442741 0.926925 0.927581
0.542443 0.925917 0.926543
0.642267 0.924681 0.925307
0.740246 0.923613 0.924239
0.835325 0.922774 0.9234
0.926207 0.922957 0.923583
