luts/CINECOLOR_DYNAMIC_RANGER_02.cube
TITLE "Generated by Resolve"
LUT_3D_SIZE 5
0.0423743 0.0366369 0.0376745
0.327108 0.0525826 0.0535897
0.616831 0.0450752 0.0442969
0.87361 0.0381933 0.0365454
1 0.037171 0.035111
0.0488289 0.306996 0.0449683
0.312703 0.296498 0.0371862
0.565927 0.295109 0.0196689
0.806836 0.302708 0.00479133
1 0.313664 0.00781262
0 0.572686 0.000671397
0.312352 0.55227 0.0203098
0.565682 0.550896 0.0263218
0.799756 0.554284 0.0242924
1 0.561975 0.0231785
0 0.822843 0
0.317845 0.79678 0.00535592
0.568505 0.7906 0.0193332
0.799207 0.790524 0.0223697
1 0.794553 0.0267948
0.00306706 1 0.0102083
0.328099 1 0.0149386
0.575799 1 0.0294347
0.803128 1 0.0298619
1 1 0.0301366
0.0518349 0.0461433 0.307134
0.328725 0.0536507 0.315541
0.61294 0.0400702 0.342931
0.866423 0.0309453 0.35552
1 0.0294957 0.364004
0.0462043 0.30399 0.307027
0.310765 0.294545 0.297581
0.563607 0.293889 0.29691
0.802274 0.300267 0.303273
1 0.310079 0.313069
0 0.56643 0.310582
0.311543 0.54995 0.29839
0.56347 0.548791 0.297856
0.796445 0.551919 0.300664
1 0.558785 0.307179
0 0.814588 0.317479
0.315251 0.791547 0.302144
0.565393 0.786786 0.29929
0.79527 0.786786 0.299596
1 0.790631 0.303517
0.00410468 1 0.329015
0.324865 1 0.311757
0.572152 1 0.306279
0.798413 1 0.303044
1 1 0.303639
0.0562295 0.0521248 0.575494
0.335637 0.0513161 0.577508
0.617639 0.0352483 0.605447
0.867475 0.0265965 0.619715
1 0.0259861 0.632898
0.0354467 0.304021 0.562432
0.309957 0.293751 0.550851
0.564279 0.294453 0.552316
0.802396 0.300496 0.559548
1 0.309819 0.569986
0 0.566049 0.568887
0.311452 0.549645 0.552422
0.562905 0.548257 0.551034
0.795285 0.550958 0.55375
1 0.557641 0.560418
0 0.812528 0.576471
0.314199 0.789853 0.55613
0.563897 0.785092 0.551995
0.793042 0.784619 0.551614
1 0.788403 0.555459
0.00421149 1 0.58732
0.322789 1 0.56466
0.569665 1 0.557778
0.795361 1 0.554055
1 1 0.554116
0.0538186 0.0559701 0.840696
0.353887 0.0449073 0.833967
0.623606 0.0317235 0.849592
0.871031 0.0239261 0.863111
1 0.0248569 0.877653
0.0138399 0.309163 0.805219
0.310903 0.294743 0.788022
0.566629 0.296345 0.790082
0.804074 0.301579 0.796994
1 0.310765 0.807599
0 0.567758 0.807721
0.312032 0.550469 0.788296
0.563607 0.548943 0.786343
0.79556 0.551202 0.788708
1 0.557717 0.795316
0 0.812604 0.814343
0.314015 0.789654 0.791302
0.563592 0.784741 0.786358
0.792386 0.783963 0.78558
1 0.787213 0.788815
0.00375372 1 0.824094
0.321782 1 0.79881
0.56817 1 0.790845
0.79353 0.999603 0.78674
0.999298 0.999237 0.786328
0.0545968 0.0598917 1
0.364233 0.0425269 1
0.629892 0.0301823 1
0.875807 0.0229648 1
1 0.0262455 1
0.00593576 0.313039 1
0.314015 0.297887 1
0.570352 0.299596 1
0.807416 0.304341 1
1 0.313176 1
0 0.570962 1
0.314305 0.552972 1
0.565789 0.55111 1
0.797436 0.553033 1
1 0.558999 1
0 0.814267 1
0.315419 0.791074 1
0.564508 0.785687 1
0.793194 0.784772 0.999313
1 0.787686 1
0.00396735 1 1
0.322148 1 1
0.567987 1 1
0.793118 0.999191 0.999207
0.99852 0.998444 0.998459
