luts/CINECOLOR_DYNAMIC_RANGER_02.cube
TITLE "Generated by Resolve"
LUT_3D_SIZE 9
0.0423743 0.0366369 0.0376745
0.202518 0.0445869 0.0456397
0.327108 0.0525826 0.0535897
0.467582 0.0514839 0.0520333
0.616831 0.0450752 0.0442969
0.749233 0.0412451 0.0399481
0.87361 0.0381933 0.0365454
0.99176 0.0367132 0.0348211
1 0.037171 0.035111
0.051545 0.189548 0.0467536
0.197299 0.183185 0.0400244
0.313146 0.1832 0.0383154
0.441413 0.180179 0.0240787
0.56878 0.178454 0
0.691585 0.176608 0
0.810758 0.17644 0
0.926238 0.178515 0
1 0.183444 0
0.0488289 0.306996 0.0449683
0.197208 0.2972 0.0368048
0.312703 0.296498 0.0371862
0.440024 0.294591 0.029099
0.565927 0.295109 0.0196689
0.688777 0.298405 0.00714122
0.806836 0.302708 0.00479133
0.920104 0.307713 0.00495918
1 0.313664 0.00781262
0.00198367 0.440513 0.00613413
0.189349 0.422919 0.000396735
0.310201 0.423423 0.0251469
0.439933 0.423606 0.0279698
0.565576 0.424826 0.0275731
0.686168 0.426917 0.0250248
0.802335 0.430335 0.0214694
0.914137 0.434882 0.0158541
1 0.439872 0.0166629
0 0.572686 0.000671397
0.1906 0.55317 0
0.312352 0.55227 0.0203098
0.441169 0.550912 0.025742
0.565682 0.550896 0.0263218
0.684993 0.551949 0.0250095
0.799756 0.554284 0.0242924
0.909972 0.557626 0.023743
1 0.561975 0.0231785
0 0.700328 0
0.191836 0.678691 0
0.314961 0.676951 0.00836194
0.442939 0.673915 0.0207218
0.566552 0.672724 0.0227054
0.685069 0.672938 0.0228275
0.798856 0.674388 0.0231937
0.908019 0.676814 0.024094
1 0.680125 0.0269169
0 0.822843 0
0.193957 0.799619 0
0.317845 0.79678 0.00535592
0.445945 0.793133 0.0129244
0.568505 0.7906 0.0193332
0.686275 0.789944 0.0213474
0.799207 0.790524 0.0223697
0.907423 0.79202 0.0231632
1 0.794553 0.0267948
0 0.940566 0.0027924
0.197681 0.916152 0
0.321828 0.912291 0.00672923
0.449531 0.907744 0.0129397
0.571633 0.90454 0.0176547
0.688441 0.902831 0.0220645
0.800519 0.902541 0.0230411
0.90782 0.90312 0.0228275
1 0.904875 0.0263676
0.00306706 1 0.0102083
0.204746 1 0.000442512
0.328099 1 0.0149386
0.454719 1 0.0219272
0.575799 1 0.0294347
0.69192 1 0.0302281
0.803128 1 0.0298619
0.909529 1 0.0284886
1 1 0.0301366
0.0462654 0.0405585 0.18761
0.203769 0.0460365 0.192264
0.326741 0.0522011 0.199619
0.465644 0.0493172 0.207202
0.612314 0.0403601 0.224216
0.743465 0.0352636 0.229343
0.86717 0.0318761 0.231128
0.98497 0.0302281 0.231357
1 0.0307927 0.231449
0.0499428 0.188083 0.190707
0.195178 0.181079 0.183703
0.310719 0.180758 0.183383
0.438041 0.176883 0.179431
0.5635 0.173434 0.175891
0.685496 0.171054 0.173419
0.804227 0.170871 0.173144
0.919463 0.173342 0.175525
1 0.178714 0.180835
0.0463722 0.304128 0.192538
0.194537 0.294438 0.183124
0.310506 0.294286 0.183307
0.437629 0.292439 0.180713
0.562982 0.292744 0.180133
0.684749 0.295277 0.181888
0.802121 0.299123 0.18497
0.914839 0.303761 0.188846
1 0.309178 0.193622
0.000289921 0.435187 0.188922
0.186557 0.419074 0.175494
0.308705 0.421485 0.180667
0.438087 0.42179 0.181476
0.563088 0.422629 0.181979
0.683284 0.424613 0.183368
0.798764 0.427543 0.18558
0.909682 0.431342 0.188663
1 0.436011 0.192767
0 0.566934 0.190524
0.187716 0.548562 0.176791
0.310262 0.549371 0.181689
0.438972 0.548424 0.181888
0.562936 0.548211 0.18172
0.682063 0.549325 0.182559
0.796399 0.551431 0.184207
0.906172 0.554482 0.186786
1 0.558434 0.190433
0 0.693919 0.192508
0.188617 0.673259 0.177859
0.311788 0.672663 0.182544
0.440223 0.670665 0.18233
0.563546 0.669551 0.181704
0.68188 0.669841 0.182071
0.795361 0.671183 0.183261
0.904051 0.673259 0.184985
1 0.676707 0.18854
0 0.815824 0.194751
0.190555 0.793591 0.17995
0.314244 0.791775 0.184421
0.44239 0.788815 0.183825
0.565148 0.786877 0.182757
0.682795 0.786358 0.182635
0.795514 0.786923 0.183291
0.90338 0.788235 0.184421
1 0.79089 0.18735
0 0.933227 0.198825
0.194171 0.909682 0.183642
0.317952 0.906798 0.187808
0.445548 0.902846 0.186572
0.567803 0.900175 0.185122
0.684703 0.898848 0.18439
0.796613 0.898573 0.184314
0.903655 0.899077 0.18468
1 0.900877 0.18677
0.000823987 1 0.206073
0.201129 1 0.190555
0.324163 1 0.194293
0.450767 1 0.192248
0.572274 1 0.190265
0.688273 1 0.188693
0.799146 1 0.187518
0.905379 1 0.187076
1 1 0.188113
0.0518349 0.0461433 0.307134
0.206851 0.0488136 0.309117
0.328725 0.0536507 0.315541
0.467155 0.0496681 0.324331
0.61294 0.0400702 0.342931
0.743267 0.0344854 0.350439
0.866423 0.0309453 0.35552
0.983749 0.0291142 0.359686
1 0.0294957 0.364004
0.0500343 0.1888 0.305303
0.195285 0.181201 0.29778
0.310689 0.180667 0.297505
0.437797 0.176593 0.294972
0.563088 0.173098 0.293507
0.684977 0.170947 0.293645
0.80354 0.171115 0.295995
0.918532 0.173907 0.300664
1 0.179477 0.307485
0.0462043 0.30399 0.307027
0.194491 0.294331 0.297368
0.310765 0.294545 0.297581
0.438209 0.293233 0.296269
0.563607 0.293889 0.29691
0.685237 0.296559 0.29958
0.802274 0.300267 0.303273
0.914656 0.304707 0.307713
1 0.310079 0.313069
0.00331121 0.434882 0.307164
0.188495 0.419974 0.293355
0.310185 0.422568 0.297017
0.439139 0.422858 0.297505
0.563745 0.423575 0.2981
0.68368 0.425498 0.299825
0.798901 0.428336 0.302403
0.909453 0.431891 0.305684
1 0.436652 0.310277
0 0.56643 0.310582
0.189609 0.548913 0.295354
0.311543 0.54995 0.29839
0.439826 0.549035 0.298054
0.56347 0.548791 0.297856
0.682338 0.549859 0.298817
0.796445 0.551919 0.300664
0.905806 0.55465 0.30312
1 0.558785 0.307179
0 0.692927 0.313817
0.190433 0.673106 0.297246
0.312932 0.672801 0.299794
0.440711 0.670695 0.298634
0.563928 0.669779 0.29807
0.682017 0.670054 0.298421
0.795285 0.671351 0.299641
0.903761 0.673365 0.301472
1 0.676753 0.304936
0 0.814588 0.317479
0.192294 0.793011 0.300008
0.315251 0.791547 0.302144
0.442695 0.788479 0.300374
0.565393 0.786786 0.29929
0.68278 0.786267 0.299016
0.79527 0.786786 0.299596
0.902937 0.788037 0.300755
1 0.790631 0.303517
0 0.931624 0.322148
0.195834 0.908721 0.304051
0.318837 0.906233 0.30573
0.445808 0.902296 0.30338
0.567864 0.899763 0.301656
0.684504 0.898421 0.300664
0.795972 0.897902 0.300175
0.903029 0.898558 0.300847
1 0.900298 0.302754
0.00410468 1 0.329015
0.202655 1 0.310536
0.324865 1 0.311757
0.450996 1 0.308766
0.572152 1 0.306279
0.687877 1 0.304448
0.798413 1 0.303044
0.90454 1 0.302739
1 1 0.303639
0.054612 0.0495155 0.4421
0.209842 0.0490578 0.441428
0.331456 0.0528115 0.447135
0.472786 0.0466773 0.459525
0.615 0.0378119 0.475807
0.744045 0.0322118 0.483665
0.866529 0.0286412 0.489906
0.983429 0.0269627 0.495644
1 0.0274968 0.501579
0.0464332 0.188876 0.434669
0.19408 0.180117 0.426047
0.309895 0.17937 0.425681
0.437171 0.175113 0.423896
0.562417 0.171374 0.423453
0.684535 0.16968 0.425162
0.803265 0.170382 0.429023
0.918288 0.173754 0.434897
1 0.179324 0.442252
0.0420233 0.303685 0.435843
0.19324 0.293492 0.425376
0.310124 0.293904 0.425452
0.43801 0.292958 0.424781
0.563729 0.294026 0.4262
0.685283 0.296742 0.429282
0.802106 0.300298 0.433234
0.914244 0.30454 0.437873
1 0.309834 0.443488
0.00270085 0.434806 0.437888
0.188739 0.420111 0.423194
0.310384 0.422705 0.425772
0.439155 0.422889 0.425956
0.563622 0.423529 0.426596
0.683375 0.425345 0.428412
0.798428 0.428077 0.431144
0.908766 0.431434 0.434516
1 0.43621 0.439292
0 0.565927 0.441718
0.189654 0.548592 0.425254
0.311467 0.549661 0.4271
0.439445 0.548577 0.42623
0.563073 0.548409 0.426093
0.681773 0.549401 0.427039
0.795712 0.551339 0.428916
0.904967 0.55404 0.431525
1 0.558114 0.435569
0 0.691981 0.44535
0.190356 0.672389 0.427405
0.312642 0.67216 0.428641
0.440192 0.670008 0.426963
0.563302 0.669093 0.426246
0.681239 0.669306 0.426505
0.794247 0.670405 0.427558
0.902724 0.672496 0.429572
1 0.675822 0.432944
0 0.81326 0.449348
0.192111 0.791943 0.430365
0.314778 0.790585 0.431067
0.442008 0.787533 0.428779
0.564553 0.785809 0.42742
0.681788 0.785229 0.426993
0.793912 0.785473 0.427207
0.901671 0.786877 0.428626
1 0.78941 0.43125
0 0.929946 0.454139
0.195499 0.907332 0.434424
0.317922 0.904814 0.434409
0.444923 0.901061 0.431678
0.566796 0.898497 0.429618
0.683268 0.897093 0.428458
0.794598 0.896513 0.427878
0.901518 0.897078 0.428458
1 0.898756 0.430228
0.00444038 1 0.460639
0.202121 1 0.440543
0.323674 1 0.439979
0.449866 1 0.436637
0.57084 1 0.433799
0.686397 1 0.431785
0.79678 1 0.43032
0.902754 1 0.429938
1 1 0.430701
0.0562295 0.0521248 0.575494
0.21387 0.0489204 0.572366
0.335637 0.0513161 0.577508
0.481758 0.0424353 0.594888
0.617639 0.0352483 0.605447
0.745617 0.0301061 0.613108
0.867475 0.0265965 0.619715
0.983932 0.0248722 0.626032
1 0.0259861 0.632898
0.0407111 0.189303 0.562051
0.193011 0.179187 0.551995
0.309407 0.17821 0.551385
0.437049 0.173892 0.550088
0.562539 0.17023 0.550393
0.68484 0.168719 0.552895
0.803738 0.169894 0.557595
0.918776 0.173587 0.56405
1 0.179416 0.571756
0.0354467 0.304021 0.562432
0.192187 0.293034 0.550835
0.309957 0.293751 0.550851
0.438346 0.293156 0.550546
0.564279 0.294453 0.552316
0.68571 0.297063 0.555489
0.802396 0.300496 0.559548
0.91426 0.304463 0.564187
1 0.309819 0.569986
0.00169375 0.435447 0.565255
0.189029 0.420569 0.549599
0.310689 0.423056 0.551369
0.43917 0.422889 0.551064
0.56376 0.423667 0.551873
0.683421 0.425391 0.553704
0.798352 0.428016 0.556481
0.908553 0.431281 0.559915
1 0.435966 0.564691
0 0.566049 0.568887
0.189654 0.548623 0.551431
0.311452 0.549645 0.552422
0.439261 0.548394 0.551171
0.562905 0.548257 0.551034
0.681514 0.549157 0.551934
0.795285 0.550958 0.55375
0.904479 0.553643 0.55642
1 0.557641 0.560418
0 0.69163 0.572473
0.190188 0.672053 0.553552
0.312398 0.671824 0.553887
0.439872 0.669627 0.551888
0.56289 0.66865 0.551003
0.68072 0.668803 0.551156
0.79353 0.669718 0.552071
0.901991 0.671839 0.554162
1 0.67509 0.557443
0 0.812528 0.576471
0.191806 0.791287 0.556481
0.314199 0.789853 0.55613
0.441474 0.786877 0.553597
0.563897 0.785092 0.551995
0.68101 0.784436 0.551431
0.793042 0.784619 0.551614
0.900694 0.785946 0.552941
1 0.788403 0.555459
0 0.928893 0.58117
0.195026 0.906386 0.560418
0.317205 0.903853 0.559396
0.444144 0.900114 0.556313
0.565896 0.89749 0.553994
0.682124 0.895918 0.552529
0.793454 0.895369 0.552026
0.900267 0.895857 0.552514
1 0.897444 0.554162
0.00421149 1 0.58732
0.201434 1 0.566171
0.322789 1 0.56466
0.448829 1 0.560876
0.569665 1 0.557778
0.684855 1 0.555352
0.795361 1 0.554055
0.901213 1 0.553597
1 1 0.554116
0.0564584 0.0540627 0.706432
0.219608 0.0479896 0.700496
0.342733 0.0488136 0.706127
0.486885 0.0399329 0.721447
0.620569 0.0332952 0.730068
0.747677 0.028336 0.737346
0.869062 0.0250553 0.74406
0.985183 0.0235142 0.750683
1 0.0250401 0.758038
0.0324559 0.190951 0.686015
0.192218 0.178561 0.67364
0.30927 0.17731 0.672709
0.437293 0.172808 0.671595
0.563287 0.169543 0.672557
0.685893 0.16846 0.6757
0.804944 0.170047 0.680903
0.919997 0.17406 0.687694
1 0.179812 0.69543
0.0235142 0.306554 0.68632
0.191379 0.292927 0.671763
0.310262 0.294072 0.671778
0.439078 0.29369 0.671626
0.565255 0.295232 0.673609
0.68658 0.297704 0.676753
0.802991 0.300801 0.68069
0.91487 0.30486 0.685512
1 0.310124 0.69131
0.0009308 0.436683 0.687678
0.189548 0.421424 0.671061
0.311315 0.423774 0.672206
0.43975 0.423468 0.671641
0.564263 0.424109 0.672328
0.683818 0.425727 0.674128
0.798459 0.428016 0.676692
0.908782 0.431464 0.680369
1 0.436072 0.6851
0 0.56669 0.690837
0.189883 0.549065 0.672541
0.311727 0.549996 0.672892
0.43949 0.548653 0.671382
0.563088 0.548424 0.671107
0.68162 0.549264 0.671962
0.795178 0.550835 0.673594
0.904418 0.553582 0.676387
1 0.557504 0.680323
0 0.691814 0.694194
0.190204 0.672145 0.674479
0.312139 0.671656 0.673945
0.439872 0.669612 0.671885
0.562814 0.668574 0.670848
0.680568 0.66865 0.670924
0.793271 0.66949 0.671763
0.901656 0.671519 0.673793
1 0.674708 0.676982
0 0.812345 0.698024
0.191684 0.791089 0.677272
0.313878 0.789517 0.676143
0.44123 0.786587 0.673411
0.563577 0.784741 0.671641
0.680537 0.783963 0.670878
0.792538 0.784115 0.671046
0.900099 0.785367 0.672297
1 0.787747 0.674693
0 0.928389 0.702556
0.19472 0.905882 0.681025
0.316823 0.903334 0.679316
0.443656 0.89955 0.675883
0.565301 0.896864 0.673381
0.681346 0.895109 0.671687
0.792676 0.894591 0.671183
0.899382 0.894987 0.67158
1 0.896406 0.67303
0.00392157 1 0.708354
0.200717 1 0.686336
0.322148 1 0.68423
0.448066 1 0.680095
0.56878 1 0.676783
0.683879 1 0.67425
0.794278 1 0.672847
0.900023 0.999832 0.672297
1 1 0.672663
0.0538186 0.0559701 0.840696
0.23122 0.0447089 0.829816
0.353887 0.0449073 0.833967
0.491279 0.038117 0.842237
0.623606 0.0317235 0.849592
0.750027 0.0269169 0.856413
0.871031 0.0239261 0.863111
0.986984 0.0228122 0.869963
1 0.0248569 0.877653
0.0172427 0.194827 0.807431
0.19176 0.178286 0.790799
0.30959 0.176776 0.789517
0.438025 0.172152 0.78851
0.564492 0.169223 0.789899
0.687495 0.168719 0.793545
0.806714 0.170748 0.7991
0.921721 0.174914 0.806012
1 0.18056 0.813703
0.0138399 0.309163 0.805219
0.191089 0.29337 0.788159
0.310903 0.294743 0.788022
0.440452 0.294896 0.788174
0.566629 0.296345 0.790082
0.687831 0.29868 0.793149
0.804074 0.301579 0.796994
0.915877 0.305577 0.801831
1 0.310765 0.807599
0.000381476 0.4383 0.805127
0.190326 0.422614 0.787625
0.312047 0.424659 0.788083
0.440681 0.424384 0.787442
0.565133 0.424918 0.788006
0.684611 0.426429 0.789715
0.799161 0.428611 0.792248
0.909377 0.431983 0.795895
1 0.436515 0.80058
0 0.567758 0.807721
0.190387 0.549874 0.788693
0.312032 0.550469 0.788296
0.440085 0.549264 0.786755
0.563607 0.548943 0.786343
0.681926 0.549538 0.786984
0.79556 0.551202 0.788708
0.904723 0.553872 0.79147
1 0.557717 0.795316
0 0.692439 0.810742
0.190539 0.672648 0.790387
0.312505 0.672068 0.789319
0.440177 0.669963 0.786999
0.563073 0.668849 0.785809
0.680537 0.668605 0.785565
0.793393 0.669612 0.786572
0.901686 0.671565 0.78854
1 0.674678 0.791623
0 0.812604 0.814343
0.191821 0.791272 0.792966
0.314015 0.789654 0.791302
0.441321 0.786679 0.788296
0.563592 0.784741 0.786358
0.680308 0.783734 0.785351
0.792386 0.783963 0.78558
0.89987 0.785138 0.78674
1 0.787213 0.788815
0 0.928328 0.818631
0.194293 0.905608 0.796292
0.316732 0.903212 0.794247
0.443488 0.899351 0.790524
0.565057 0.89659 0.787839
0.680995 0.894759 0.786023
0.792248 0.894148 0.785428
0.898863 0.894469 0.785733
0.999924 0.895659 0.786938
0.00375372 1 0.824094
0.200229 1 0.801373
0.321782 1 0.79881
0.447608 1 0.794385
0.56817 1 0.790845
0.683238 1 0.788235
0.79353 0.999603 0.78674
0.899184 0.998993 0.786099
0.999298 0.999237 0.786328
0.0538338 0.0578927 0.962646
0.237446 0.0437324 0.948974
0.359655 0.0433967 0.951553
0.495247 0.0367285 0.957656
0.626719 0.0306706 0.96408
0.752621 0.0259861 0.970489
0.873198 0.0229343 0.976974
0.989136 0.0225223 0.984054
1 0.0252842 0.992035
0.0108186 0.196658 0.921981
0.191623 0.178332 0.903426
0.310353 0.176715 0.901823
0.439353 0.172137 0.900923
0.566186 0.169406 0.902556
0.689494 0.16936 0.906523
0.808881 0.171862 0.912306
0.923827 0.17615 0.919264
1 0.181659 0.926863
0.00895705 0.31107 0.91841
0.191485 0.294423 0.900099
0.312154 0.29601 0.899779
0.442161 0.296422 0.899977
0.568292 0.297749 0.901762
0.689418 0.299977 0.904753
0.805554 0.302739 0.908522
0.91725 0.306661 0.913329
1 0.311742 0.91902
0.00030518 0.440269 0.917693
0.191409 0.42414 0.899382
0.313161 0.425925 0.89929
0.441917 0.42562 0.898497
0.566339 0.426062 0.898939
0.685664 0.427359 0.900496
0.800214 0.429557 0.903044
0.910338 0.432822 0.90663
1 0.437278 0.911254
0 0.569177 0.919676
0.191135 0.550988 0.899962
0.312947 0.551522 0.899153
0.441001 0.550225 0.897398
0.564492 0.549828 0.896864
0.682689 0.550271 0.897353
0.796292 0.551888 0.899077
0.905379 0.554498 0.901762
1 0.55816 0.905455
0 0.693431 0.922316
0.190951 0.673365 0.901289
0.313191 0.672847 0.899886
0.440848 0.670649 0.897353
0.563684 0.669459 0.896025
0.681071 0.669139 0.895689
0.793866 0.670069 0.89662
0.902083 0.671946 0.898512
1 0.674769 0.90132
0 0.813245 0.925658
0.191913 0.791638 0.903563
0.314473 0.790158 0.901625
0.441733 0.787091 0.89839
0.56379 0.78497 0.896178
0.680583 0.784009 0.895201
0.792584 0.784161 0.895338
0.899962 0.785245 0.896422
1 0.787228 0.89839
0 0.928664 0.929671
0.194568 0.905882 0.906828
0.31696 0.903441 0.904311
0.443641 0.899504 0.900359
0.564874 0.896452 0.897307
0.680995 0.894759 0.895598
0.792142 0.894057 0.894896
0.89868 0.89427 0.895125
0.999649 0.895369 0.896223
0.00384527 1 0.934783
0.200259 1 0.911589
0.321736 1 0.908553
0.447486 1 0.903883
0.567773 1 0.900023
0.682918 1 0.897459
0.793118 0.999207 0.895857
0.898482 0.998276 0.894926
0.998688 0.998627 0.895262
0.0545968 0.0598917 1
0.242008 0.0437018 1
0.364233 0.0425269 1
0.499001 0.0361028 1
0.629892 0.0301823 1
0.755428 0.0257267 1
0.875807 0.0229648 1
0.991623 0.0229191 1
1 0.0262455 1
0.0069276 0.198291 1
0.191852 0.178775 1
0.31133 0.176806 1
0.441154 0.172717 1
0.568429 0.170413 1
0.691997 0.170779 1
0.811429 0.173587 1
0.926238 0.177798 1
1 0.18323 1
0.00593576 0.313039 1
0.192493 0.296025 1
0.314015 0.297887 1
0.444282 0.29839 1
0.570352 0.299596 1
0.691173 0.301396 1
0.807416 0.304341 1
0.919005 0.308171 1
1 0.313176 1
0.0010071 0.442573 1
0.192981 0.426078 1
0.314824 0.42771 1
0.443565 0.427253 1
0.567926 0.427588 1
0.687068 0.428656 1
0.801663 0.43093 1
0.911711 0.434134 1
1 0.438437 1
0 0.570962 1
0.192355 0.552499 1
0.314305 0.552972 1
0.442344 0.551598 1
0.565789 0.55111 1
0.683894 0.551446 1
0.797436 0.553033 1
0.906432 0.55555 1
1 0.558999 1
0 0.694804 1
0.191913 0.674525 1
0.314336 0.674022 1
0.441947 0.671763 1
0.564614 0.670405 1
0.682017 0.6701 1
0.794736 0.670954 1
0.902876 0.672755 1
1 0.675471 1
0 0.814267 1
0.192889 0.792615 1
0.315419 0.791074 1
0.442603 0.787945 1
0.564508 0.785687 1
0.681285 0.784695 0.999252
0.793194 0.784772 0.999313
0.900404 0.785687 1
1 0.787686 1
0 0.929305 1
0.195346 0.906569 1
0.317647 0.904067 1
0.444251 0.900069 1
0.565393 0.896941 1
0.681407 0.895171 0.99939
0.792462 0.894377 0.998581
0.898711 0.894316 0.998535
0.999771 0.895506 0.999725
0.00396735 1 1
0.200778 1 1
0.322148 1 1
0.447639 1 1
0.567987 1 1
0.683024 1 1
0.793118 0.999191 0.999207
0.898375 0.998184 0.998199
0.99852 0.998444 0.998459
