luts/CINECOLOR_DYNAMIC_RANGER_02.cube
TITLE "Generated by Resolve"
LUT_3D_SIZE 33
0.0423743 0.0366369 0.0376745
0.0917983 0.0365911 0.0376135
0.132815 0.0387884 0.0398108
0.169162 0.0418708 0.0429084
0.202518 0.0445869 0.0456397
0.23415 0.0471504 0.0482185
0.264897 0.0494087 0.0504768
0.295628 0.0512245 0.0522774
0.327108 0.0525826 0.0535897
0.36025 0.0534676 0.0544289
0.395346 0.0532387 0.0541085
0.431205 0.0525368 0.0532692
0.467582 0.0514839 0.0520333
0.504784 0.0500496 0.0503243
0.545739 0.0475929 0.0472572
0.581979 0.0463264 0.0457313
0.616831 0.0450752 0.0442969
0.650767 0.0439612 0.0430152
0.684031 0.0429084 0.0418402
0.716762 0.0419165 0.0407263
0.749233 0.0412451 0.0399481
0.780972 0.0404059 0.0390021
0.812268 0.0396124 0.038117
0.843137 0.0388647 0.0372931
0.87361 0.0381933 0.0365454
0.903716 0.0377966 0.0360876
0.933425 0.0374609 0.0356909
0.962768 0.0370642 0.0352331
0.99176 0.0367132 0.0348211
1 0.0365301 0.0345922
1 0.0365301 0.0345312
1 0.0368811 0.0348516
1 0.037171 0.035111
0.044007 0.0838788 0.0393378
0.0919661 0.0824445 0.0379187
0.131456 0.0830701 0.0387121
0.166064 0.0840925 0.0397955
0.19823 0.0854047 0.0411383
0.22887 0.0868238 0.0425727
0.258762 0.0881819 0.0438544
0.288808 0.0895705 0.0450752
0.31931 0.0902571 0.045243
0.351217 0.090425 0.0444343
0.384878 0.0899977 0.0424353
0.418982 0.0893721 0.0395666
0.453101 0.0887312 0.0356756
0.486992 0.0884718 0.0299229
0.520821 0.0881819 0.0202335
0.55407 0.0874037 0.016022
0.587137 0.0864729 0.013138
0.620111 0.08542 0.0111238
0.653086 0.0843061 0.00994888
0.686198 0.0831159 0.00955215
0.719905 0.0813916 0.00985733
0.754421 0.0792401 0.0118257
0.792935 0.0754711 0.0183261
0.826749 0.0734874 0.0206302
0.859052 0.0721752 0.021973
0.890486 0.0711223 0.0229191
0.921218 0.0701915 0.0236057
0.951446 0.0695048 0.0242161
0.981186 0.0689708 0.0247959
1 0.0686198 0.0253758
1 0.0686351 0.026154
1 0.0687419 0.0269474
1 0.0690471 0.0278325
0.0470893 0.123323 0.0423438
0.0935683 0.120729 0.0396582
0.131701 0.120027 0.0389105
0.165499 0.120211 0.0391241
0.196963 0.120775 0.0396735
0.226947 0.121492 0.0403296
0.256428 0.122484 0.0412909
0.28574 0.123079 0.041474
0.315694 0.123384 0.0410163
0.347021 0.123232 0.0395361
0.379995 0.122576 0.0367437
0.413397 0.121798 0.03299
0.446876 0.121263 0.0285649
0.480079 0.120912 0.0192721
0.512901 0.120485 0.0111696
0.54522 0.119814 0.00642405
0.577249 0.11902 0.00271611
0.609064 0.118257 0
0.640726 0.117632 0
0.67219 0.116808 0
0.70367 0.115923 0
0.734752 0.115053 0
0.765713 0.114183 0
0.796582 0.113664 0
0.827268 0.112932 0
0.857816 0.1122 0
0.888273 0.111421 0
0.918746 0.110643 0
0.949203 0.110109 0
0.979492 0.109712 0
1 0.10898 0
1 0.107103 0.00573739
1 0.106126 0.0103761
0.0497292 0.157855 0.0449226
0.0952316 0.154528 0.0413977
0.132631 0.15317 0.0399023
0.16585 0.152773 0.0394598
0.196826 0.152834 0.0394751
0.226596 0.153384 0.0401007
0.255482 0.15375 0.0402228
0.284398 0.153994 0.0399939
0.31397 0.154009 0.0391241
0.344884 0.153628 0.037232
0.377584 0.153048 0.0345006
0.410544 0.152178 0.0304723
0.443442 0.151339 0.0252689
0.476081 0.150835 0.0166171
0.508492 0.150469 0.007187
0.540337 0.149844 0.00209049
0.572 0.149432 0
0.603281 0.148745 0
0.634318 0.148058 0
0.665156 0.147402 0
0.69601 0.146792 0
0.726467 0.146349 0
0.756756 0.146075 0
0.78674 0.145632 0
0.81651 0.145312 0
0.846082 0.145159 0
0.87541 0.145129 0
0.90454 0.145251 0
0.933471 0.145495 0
0.961944 0.145846 0
0.990097 0.146456 0
1 0.14728 0
1 0.14818 0
0.051545 0.189548 0.0467536
0.0965744 0.185779 0.04271
0.133577 0.184024 0.0407874
0.166598 0.183398 0.0402228
0.197299 0.183185 0.0400244
0.226535 0.183185 0.0399023
0.255146 0.183291 0.0397803
0.283818 0.183337 0.039353
0.313146 0.1832 0.0383154
0.343938 0.182879 0.0366522
0.376181 0.181994 0.0333257
0.40882 0.181033 0.0291447
0.441413 0.180179 0.0240787
0.473655 0.179614 0.0170901
0.505867 0.17937 0.00628672
0.53753 0.179019 0.0012665
0.56878 0.178454 0
0.599786 0.177951 0
0.630549 0.177493 0
0.661082 0.177035 0
0.691585 0.176608 0
0.721782 0.176562 0
0.75169 0.176455 0
0.781353 0.176425 0
0.810758 0.17644 0
0.839902 0.176577 0
0.86894 0.177218 0
0.897704 0.177813 0
0.926238 0.178515 0
0.954269 0.179339 0
0.981994 0.180331 0
1 0.181704 0
1 0.183444 0
0.0527657 0.219562 0.0480201
0.0975967 0.215427 0.0435798
0.134524 0.213489 0.0415808
0.167254 0.212558 0.0407111
0.197696 0.21207 0.0402228
0.226764 0.211887 0.0399939
0.255192 0.211826 0.0397345
0.28368 0.211719 0.0391852
0.313039 0.211704 0.0385443
0.343511 0.211154 0.0365606
0.375586 0.210254 0.0333104
0.40798 0.209262 0.0292363
0.44033 0.208377 0.0244297
0.472404 0.207935 0.0192874
0.504479 0.207874 0.00900282
0.535943 0.207538 0.00262455
0.56701 0.207095 0
0.597818 0.206729 0
0.628428 0.20647 0
0.658976 0.206577 0
0.689326 0.206455 0
0.719234 0.206424 0
0.748928 0.206531 0
0.778454 0.206882 0
0.807782 0.207431 0
0.836927 0.208301 0
0.86566 0.208988 0
0.894224 0.209873 0
0.922591 0.211002 0
0.95053 0.212375 0
0.978149 0.213916 0
1 0.215641 0
1 0.217243 0
0.0531319 0.248692 0.0485237
0.0983749 0.244404 0.0441138
0.135073 0.242145 0.0417487
0.16759 0.240925 0.0405585
0.197925 0.240284 0.0399939
0.226947 0.239994 0.0397955
0.255451 0.239994 0.0399023
0.28397 0.239963 0.0396582
0.313024 0.239658 0.0386206
0.343389 0.239078 0.0367132
0.375372 0.238224 0.0336919
0.407706 0.237354 0.0301061
0.440055 0.236713 0.0263676
0.471855 0.236149 0.0217746
0.503456 0.235813 0.0156252
0.535134 0.23595 0.0061799
0.566232 0.235859 0.00141909
0.596994 0.235737 0
0.627634 0.235904 0
0.657984 0.236011 0
0.688319 0.236286 0
0.718257 0.236728 0
0.747921 0.237217 0
0.77734 0.237812 0
0.806714 0.238911 0
0.835737 0.239963 0
0.864469 0.241154 0
0.892958 0.24239 0
0.921157 0.243656 0
0.94902 0.245319 0
0.976394 0.246799 0
1 0.248341 0
1 0.249928 0
0.0521706 0.277653 0.0478065
0.0978256 0.272877 0.0428626
0.134752 0.270466 0.0404822
0.167422 0.269169 0.0394293
0.197803 0.268437 0.038941
0.226917 0.268162 0.0390173
0.255436 0.268116 0.0392615
0.283925 0.268025 0.0391241
0.313054 0.267811 0.0384527
0.343404 0.267292 0.0368048
0.375311 0.266468 0.0340124
0.407797 0.265904 0.0313725
0.44004 0.265278 0.0280613
0.471778 0.264866 0.024567
0.503227 0.264576 0.0204318
0.534554 0.264576 0.014847
0.566033 0.265141 0.00770581
0.596994 0.265538 0.00422675
0.627619 0.265919 0.00146487
0.657969 0.266331 0
0.688273 0.266819 0
0.718212 0.267582 0
0.748104 0.268772 0
0.777584 0.269825 0
0.80676 0.270893 0
0.83563 0.272023 0
0.864195 0.273213 0
0.8925 0.274464 0
0.920668 0.27602 0
0.948211 0.277378 0
0.975387 0.278798 0
1 0.280308 0
1 0.28188 0
0.0488289 0.306996 0.0449683
0.0960098 0.301732 0.0396887
0.133364 0.299123 0.0372778
0.166354 0.29778 0.0365148
0.197208 0.2972 0.0368048
0.226398 0.296864 0.0370489
0.254902 0.296696 0.0373236
0.283452 0.296605 0.0374304
0.312703 0.296498 0.0371862
0.343343 0.296269 0.0363928
0.375479 0.29575 0.0345159
0.407797 0.295079 0.0318303
0.440024 0.294591 0.029099
0.471855 0.294408 0.0267185
0.503426 0.294453 0.0244297
0.534829 0.294743 0.0223697
0.565927 0.295109 0.0196689
0.596887 0.295689 0.0159152
0.627832 0.296635 0.0108034
0.658381 0.297536 0.00877394
0.688777 0.298405 0.00714122
0.718822 0.29955 0.00669871
0.74847 0.300572 0.00588998
0.777798 0.30161 0.0052491
0.806836 0.302708 0.00479133
0.835554 0.303838 0.00445563
0.863951 0.304997 0.00427253
0.892241 0.306462 0.00486763
0.920104 0.307713 0.00495918
0.947494 0.309056 0.00529488
0.974517 0.310445 0.00575265
1 0.311894 0.00639353
1 0.313664 0.00781262
0.0416876 0.337697 0.0388495
0.0923171 0.331594 0.0332189
0.130632 0.328801 0.0311589
0.164248 0.327443 0.0310826
0.195224 0.326665 0.0314183
0.224781 0.32639 0.0323491
0.253635 0.326375 0.0334173
0.282445 0.32639 0.0341192
0.311925 0.326406 0.0345006
0.342779 0.32636 0.0343786
0.375067 0.325994 0.0330968
0.40766 0.325673 0.0314946
0.44004 0.325429 0.0296483
0.471916 0.325383 0.0280156
0.503731 0.325826 0.0274662
0.535149 0.326284 0.0265812
0.566308 0.326863 0.0258183
0.597162 0.32752 0.0248569
0.627756 0.328252 0.023682
0.658198 0.329198 0.0229038
0.688563 0.330175 0.0214084
0.718547 0.331319 0.0174716
0.748165 0.332403 0.0147555
0.777401 0.33344 0.0131991
0.806317 0.334508 0.0121309
0.835035 0.335821 0.0121004
0.863325 0.337011 0.0117037
0.89134 0.33817 0.0112764
0.919066 0.339376 0.0110475
0.946319 0.340688 0.0111696
0.973236 0.342046 0.01149
0.999908 0.343709 0.0126955
1 0.345174 0.0133516
0.0236667 0.372778 0.0243839
0.0869612 0.363241 0.0198978
0.12668 0.360098 0.0197299
0.160876 0.35848 0.0208743
0.192325 0.357626 0.0224155
0.222232 0.357305 0.0243534
0.251514 0.357382 0.0266117
0.281041 0.357824 0.0292363
0.310842 0.358022 0.0305943
0.341802 0.357992 0.0308537
0.374258 0.357763 0.0301213
0.40708 0.357656 0.0293431
0.439826 0.357809 0.0289616
0.472084 0.358236 0.0290379
0.503761 0.358587 0.0285649
0.535088 0.359014 0.0280461
0.566125 0.359548 0.027512
0.596872 0.360159 0.0269322
0.62742 0.360937 0.0266575
0.657694 0.361761 0.0261692
0.687785 0.362509 0.0249332
0.717449 0.363378 0.0236667
0.746853 0.36434 0.0218814
0.776165 0.365515 0.0178073
0.805112 0.366751 0.0166323
0.833646 0.36788 0.0155337
0.86183 0.369009 0.0146487
0.889738 0.370153 0.0140383
0.917372 0.371328 0.013611
0.944503 0.372564 0.01355
0.971435 0.374105 0.0145266
0.997879 0.375494 0.0149538
1 0.376928 0.0155795
0.0102541 0.407294 0.0132753
0.0813001 0.39585 0.00331121
0.122896 0.392447 0.00207523
0.15819 0.390845 0.00375372
0.190417 0.390051 0.00784314
0.220554 0.389502 0.015671
0.250324 0.3897 0.020737
0.279896 0.390005 0.0241093
0.310094 0.390402 0.0268559
0.341466 0.390677 0.0285344
0.374197 0.390661 0.0288243
0.407141 0.390677 0.028748
0.439948 0.39089 0.0288853
0.471977 0.391089 0.0286259
0.503594 0.391394 0.0283513
0.534844 0.391775 0.0279698
0.565759 0.392203 0.0274815
0.596567 0.39295 0.0277714
0.626902 0.39353 0.0271916
0.656977 0.394171 0.0264897
0.686946 0.394842 0.025452
0.716442 0.395605 0.0244144
0.745769 0.396551 0.0237125
0.774838 0.397589 0.0228733
0.803647 0.398657 0.0202029
0.832166 0.399817 0.0171359
0.860258 0.400885 0.0158694
0.888075 0.401999 0.0150607
0.915709 0.403281 0.0152132
0.942809 0.404562 0.0153506
0.969497 0.405829 0.0154269
0.995834 0.407141 0.0157626
1 0.40853 0.0163729
0.00198367 0.440513 0.00613413
0.0762493 0.428641 0
0.11986 0.424994 0
0.156069 0.423362 0
0.189349 0.422919 0.000396735
0.220417 0.422843 0.00608835
0.250141 0.422751 0.0163119
0.279942 0.423072 0.0216526
0.310201 0.423423 0.0251469
0.341573 0.423606 0.0271153
0.374533 0.423743 0.0283818
0.40737 0.423651 0.0283055
0.439933 0.423606 0.0279698
0.47187 0.423713 0.0277104
0.50338 0.423926 0.0274662
0.534585 0.424277 0.0273136
0.565576 0.424826 0.0275731
0.596094 0.425254 0.0270848
0.626322 0.425742 0.0265202
0.656291 0.426322 0.0258946
0.686168 0.426917 0.0250248
0.715633 0.427695 0.024567
0.744854 0.42858 0.0241703
0.773724 0.429404 0.0229953
0.802335 0.430335 0.0214694
0.830808 0.431479 0.018143
0.858839 0.432532 0.0164645
0.886641 0.433722 0.0161593
0.914137 0.434882 0.0158541
0.941115 0.436057 0.015671
0.967742 0.437278 0.0157778
0.993988 0.438544 0.0161135
1 0.439872 0.0166629
0 0.473503 0.0021973
0.0729686 0.461601 0
0.118608 0.457862 0
0.1561 0.456535 0
0.189548 0.45597 0
0.220813 0.455863 0.00343328
0.250721 0.455787 0.0122377
0.280385 0.455863 0.0200504
0.310643 0.456092 0.024094
0.342199 0.456367 0.0270542
0.374838 0.456184 0.0276036
0.407614 0.455985 0.0276036
0.440116 0.455879 0.0273747
0.471962 0.455894 0.0271763
0.503426 0.456046 0.0270237
0.534676 0.456458 0.027451
0.565423 0.456748 0.0271458
0.59585 0.45713 0.0267643
0.625986 0.457557 0.026276
0.655863 0.45803 0.0256809
0.685802 0.458778 0.025803
0.715114 0.459403 0.0251621
0.744152 0.460105 0.0244297
0.7729 0.460853 0.0235142
0.801389 0.461677 0.0224155
0.829664 0.462669 0.0215457
0.857694 0.463813 0.0206912
0.885481 0.464958 0.0180209
0.912856 0.466011 0.0169528
0.939757 0.467124 0.0166171
0.966293 0.468299 0.0166629
0.992554 0.469657 0.0176089
1 0.471031 0.018616
0 0.506798 0.00114443
0.0719158 0.494881 0
0.118883 0.491035 0
0.156329 0.489403 0
0.189929 0.488731 0
0.221302 0.488533 0.00172427
0.251423 0.488533 0.00799573
0.281117 0.488457 0.0190127
0.31136 0.488594 0.023743
0.342641 0.488563 0.0261692
0.375204 0.488273 0.0268254
0.407919 0.487984 0.0268406
0.440345 0.48777 0.0266423
0.472358 0.487953 0.0273594
0.503716 0.487999 0.0272221
0.534707 0.488136 0.0269627
0.565362 0.48835 0.0266575
0.595712 0.488655 0.0263371
0.625803 0.489036 0.0260319
0.655756 0.489662 0.0263676
0.685435 0.490105 0.0256657
0.714641 0.490669 0.0250858
0.743587 0.491295 0.0244755
0.772274 0.491997 0.0238041
0.800702 0.492805 0.0233463
0.828901 0.493767 0.023331
0.856703 0.494667 0.0223545
0.884337 0.495689 0.0207065
0.911757 0.496803 0.0184024
0.938598 0.497902 0.0178683
0.965118 0.499123 0.0184024
0.991287 0.500389 0.0192416
1 0.50164 0.0198215
0 0.53994 0.000885023
0.0716716 0.528038 0
0.118868 0.52372 0
0.156527 0.52192 0
0.19028 0.521111 0
0.221759 0.520836 0.000213626
0.252186 0.520928 0.00654612
0.281743 0.520653 0.0165866
0.311833 0.520562 0.0222019
0.343069 0.520409 0.024979
0.375616 0.520043 0.0258488
0.40827 0.519677 0.0259709
0.440848 0.519585 0.0266423
0.472572 0.519463 0.0265812
0.503868 0.519448 0.0265202
0.534813 0.519524 0.0263981
0.565393 0.519677 0.0261692
0.595682 0.51989 0.025864
0.625849 0.520394 0.0263828
0.655573 0.520775 0.0260166
0.685176 0.521172 0.0254215
0.714305 0.52166 0.024918
0.743175 0.522225 0.0243687
0.771908 0.523049 0.0248417
0.800214 0.523735 0.0243229
0.828229 0.524498 0.0237736
0.85594 0.525338 0.0231174
0.883421 0.526223 0.0222629
0.910704 0.527245 0.0214542
0.937575 0.528435 0.0219425
0.964065 0.52961 0.0206912
0.990112 0.530755 0.0207065
1 0.53196 0.0211795
0 0.572686 0.000671397
0.0706493 0.560723 0
0.118807 0.556085 0
0.156741 0.554116 0
0.1906 0.55317 0
0.222461 0.552987 0
0.252735 0.552865 0.00479133
0.282521 0.552712 0.0114748
0.312352 0.55227 0.0203098
0.343526 0.55198 0.0235599
0.376181 0.551659 0.0252384
0.408865 0.551263 0.0257725
0.441169 0.550912 0.025742
0.472847 0.550698 0.0257572
0.504082 0.550607 0.0257115
0.534951 0.550607 0.0256352
0.565682 0.550896 0.0263218
0.595911 0.55108 0.0261692
0.625818 0.551308 0.0258793
0.655467 0.551614 0.0255283
0.684993 0.551949 0.0250095
0.714076 0.552392 0.0246281
0.743023 0.553094 0.0251774
0.771527 0.553658 0.0247349
0.799756 0.554284 0.0242924
0.827695 0.554986 0.0238651
0.855329 0.555764 0.0234531
0.88275 0.556619 0.0231785
0.909972 0.557626 0.023743
0.936645 0.558602 0.0235142
0.962997 0.55964 0.0234226
0.988998 0.560769 0.0233921
1 0.561975 0.0231785
0 0.60502 0.000274662
0.0694591 0.593088 0
0.118624 0.588083 0
0.157031 0.586053 0
0.191241 0.585107 0
0.222858 0.584619 0
0.253193 0.584421 0.0030518
0.283085 0.584253 0.00868238
0.312947 0.583749 0.0175479
0.344182 0.583413 0.0225834
0.376699 0.58291 0.0241703
0.409262 0.582376 0.0245518
0.441535 0.581949 0.0246586
0.473152 0.581674 0.0247959
0.504341 0.581521 0.0248569
0.535332 0.581628 0.0255741
0.56582 0.581674 0.0256046
0.595987 0.581781 0.0254826
0.625849 0.581964 0.0252995
0.655436 0.582208 0.0250095
0.684901 0.582483 0.024506
0.714076 0.583062 0.0251164
0.742794 0.583505 0.0248112
0.771237 0.584024 0.0244907
0.79939 0.584604 0.0241398
0.827253 0.585229 0.0237888
0.854963 0.58613 0.0246433
0.882277 0.586892 0.0244144
0.909331 0.587701 0.0241855
0.935927 0.588602 0.0242008
0.962173 0.589563 0.0243839
0.988083 0.590616 0.0250248
1 0.591836 0.0271458
0 0.637018 0
0.0681468 0.625208 0
0.118608 0.619852 0
0.157351 0.617685 0
0.191501 0.616541 0
0.223239 0.615976 0
0.253651 0.615702 0.00161746
0.283604 0.615473 0.00663767
0.313924 0.615259 0.013901
0.344793 0.614542 0.0209201
0.377188 0.61387 0.0226291
0.409705 0.61326 0.023209
0.441917 0.612741 0.0234073
0.473625 0.612512 0.0242161
0.50486 0.61236 0.0247807
0.535622 0.612238 0.0248569
0.566033 0.612207 0.0248264
0.596124 0.612238 0.0247196
0.625925 0.61236 0.024567
0.655619 0.612711 0.0251469
0.685054 0.61297 0.0249027
0.713985 0.613291 0.0246281
0.742641 0.613687 0.0243381
0.771023 0.614145 0.0240635
0.79913 0.614664 0.0238193
0.82707 0.615442 0.0246738
0.854551 0.616083 0.024506
0.881804 0.616785 0.0243381
0.908782 0.617533 0.0242313
0.935317 0.618387 0.024445
0.961501 0.619303 0.0248875
0.987442 0.620417 0.0267491
1 0.621439 0.0276493
0 0.668696 0
0.0673533 0.65716 0
0.1187 0.651408 0
0.157458 0.648966 0
0.19176 0.6477 0
0.223575 0.647044 0
0.25417 0.646754 0.000534066
0.284367 0.646601 0.00587472
0.314534 0.64622 0.0109255
0.345403 0.645426 0.017731
0.377707 0.644602 0.0205386
0.410193 0.6439 0.0215457
0.442466 0.643412 0.0225223
0.474098 0.643076 0.0233616
0.50518 0.642771 0.023621
0.535897 0.642588 0.0237888
0.566278 0.642496 0.0238804
0.596323 0.642481 0.0238651
0.626215 0.64268 0.0244755
0.655726 0.642847 0.0245518
0.685084 0.64303 0.0242008
0.71397 0.643305 0.0240177
0.742565 0.643641 0.0237736
0.770886 0.644038 0.0234989
0.799069 0.644678 0.0243534
0.82681 0.645212 0.0242313
0.854231 0.645823 0.0241703
0.881422 0.646464 0.0240787
0.908339 0.647166 0.0240024
0.93492 0.648112 0.0254978
0.961044 0.648966 0.0260319
0.986801 0.649882 0.0267948
1 0.650858 0.0277562
0 0.700328 0
0.0651255 0.688945 0
0.118196 0.682658 0
0.157351 0.680079 0
0.191836 0.678691 0
0.22385 0.677974 0
0.254643 0.677684 0
0.284718 0.677363 0.00389105
0.314961 0.676951 0.00836194
0.346075 0.67631 0.012314
0.378317 0.67538 0.0155795
0.410803 0.674586 0.0199588
0.442939 0.673915 0.0207218
0.474418 0.673426 0.0213626
0.50547 0.67306 0.0217746
0.536126 0.672801 0.022034
0.566552 0.672724 0.0227054
0.596643 0.67274 0.0233158
0.626352 0.672755 0.0233005
0.655772 0.672831 0.0231785
0.685069 0.672938 0.0228275
0.713893 0.673152 0.0226596
0.742565 0.673564 0.0232242
0.770886 0.673976 0.0233768
0.798856 0.674388 0.0231937
0.82652 0.674861 0.0230564
0.853895 0.67541 0.0230106
0.881025 0.676005 0.0229801
0.908019 0.676814 0.024094
0.934432 0.677546 0.0245212
0.960479 0.67834 0.0250706
0.986191 0.67921 0.025864
1 0.680125 0.0269169
0 0.73138 0
0.0632486 0.720348 0
0.118044 0.713512 0
0.157504 0.710765 0
0.192523 0.709453 0
0.224537 0.708629 0
0.255146 0.708125 0
0.285252 0.707729 0.00276188
0.315541 0.707271 0.00689708
0.346746 0.706645 0.0105745
0.379232 0.705837 0.0139467
0.41149 0.704829 0.0171359
0.443519 0.704021 0.0187381
0.474937 0.703441 0.0197757
0.505943 0.702998 0.0204776
0.536629 0.702754 0.0213779
0.56701 0.702617 0.0222629
0.596963 0.70248 0.0224002
0.626612 0.702434 0.0224613
0.655985 0.702464 0.0224155
0.685237 0.702525 0.0221103
0.714122 0.702785 0.0226444
0.742672 0.70309 0.0229038
0.770886 0.70338 0.0227817
0.79881 0.703746 0.0226749
0.826429 0.704173 0.0225834
0.853742 0.704662 0.0225528
0.880949 0.705364 0.023743
0.907744 0.705974 0.0238193
0.934096 0.706645 0.0242313
0.960098 0.707393 0.0248264
0.985733 0.708186 0.0256352
1 0.709194 0.0277409
0 0.762127 0
0.0610666 0.751583 0
0.117983 0.744091 0
0.158145 0.74136 0
0.192905 0.739773 0
0.22501 0.738872 0
0.255695 0.738293 0
0.285847 0.737835 0.00192264
0.316197 0.737346 0.00590524
0.347585 0.736782 0.00993362
0.379919 0.735821 0.0119173
0.412299 0.73489 0.0134279
0.444297 0.73402 0.0150301
0.475547 0.733242 0.0178073
0.506645 0.73286 0.0203098
0.537224 0.732479 0.0209201
0.567452 0.732189 0.0213169
0.597345 0.731991 0.0215305
0.626947 0.731884 0.0216373
0.656321 0.731914 0.0220493
0.685634 0.732021 0.0225223
0.714351 0.732143 0.0224308
0.742794 0.732311 0.0223087
0.770947 0.732555 0.0221866
0.79881 0.73286 0.0220951
0.826474 0.733333 0.0227359
0.853788 0.733837 0.02327
0.880796 0.734325 0.0233005
0.907546 0.734874 0.0233921
0.933837 0.7355 0.0238193
0.959777 0.736187 0.0244602
0.985473 0.737072 0.0262913
1 0.737911 0.0275731
0 0.792569 0
0.059266 0.78265 0
0.118517 0.774548 0
0.158495 0.771527 0
0.193378 0.769833 0
0.225559 0.768841 0
0.256291 0.768185 0
0.286793 0.767849 0.00207523
0.317113 0.767285 0.00587472
0.348287 0.766506 0.00888075
0.380621 0.765515 0.0105898
0.412985 0.764538 0.0117952
0.445029 0.763684 0.0129702
0.476417 0.762966 0.0171359
0.507256 0.762341 0.0188449
0.537758 0.761868 0.0197299
0.567941 0.761517 0.0202945
0.597787 0.761257 0.020676
0.62739 0.761135 0.0212253
0.656779 0.761151 0.0220951
0.685924 0.761105 0.0218662
0.714595 0.761166 0.0218357
0.742992 0.761288 0.0217594
0.771099 0.761486 0.0216678
0.798978 0.761822 0.0222019
0.826566 0.762219 0.0227512
0.853773 0.7626 0.022797
0.88072 0.763043 0.0228733
0.907423 0.763531 0.0229648
0.933654 0.764111 0.0234073
0.95967 0.764904 0.0252537
0.985214 0.765606 0.0261234
1 0.766369 0.0272068
0 0.822843 0
0.0541238 0.814206 0
0.118654 0.804547 0
0.158923 0.801404 0
0.193957 0.799619 0
0.226215 0.798535 0
0.257298 0.798001 0
0.287495 0.797406 0.00167849
0.317845 0.79678 0.00535592
0.349035 0.795972 0.00823987
0.381369 0.794919 0.00979629
0.413733 0.793896 0.0108339
0.445945 0.793133 0.0129244
0.477241 0.792355 0.0142977
0.508019 0.791638 0.0164034
0.538399 0.791028 0.0184939
0.568505 0.7906 0.0193332
0.598474 0.790417 0.021149
0.62797 0.790188 0.0214389
0.657191 0.790051 0.021561
0.686275 0.789944 0.0213474
0.7149 0.789944 0.0213169
0.743282 0.790051 0.021561
0.77145 0.790311 0.0224155
0.799207 0.790524 0.0223697
0.826658 0.790784 0.0223545
0.853819 0.791119 0.0224002
0.88072 0.791501 0.0224765
0.907423 0.79202 0.0231632
0.933669 0.792615 0.0242771
0.959503 0.79321 0.0249027
0.984985 0.793851 0.0257267
1 0.794553 0.0267948
0 0.85272 0.000427253
0.0518044 0.844709 0
0.11899 0.834272 0
0.159487 0.830991 0
0.194888 0.829236 0
0.227298 0.828138 0
0.258091 0.827359 0
0.288319 0.826703 0.0016022
0.318669 0.826017 0.00512703
0.349859 0.825147 0.00788891
0.382406 0.824201 0.0102693
0.414755 0.823133 0.011368
0.446723 0.822171 0.0122225
0.478019 0.821347 0.0133364
0.508812 0.820645 0.0146334
0.539178 0.820005 0.0164645
0.569299 0.819547 0.0200961
0.599054 0.819165 0.0206455
0.628489 0.818875 0.0209659
0.657664 0.818677 0.0211337
0.686702 0.818524 0.0209964
0.715297 0.818494 0.0212253
0.743709 0.818631 0.0221866
0.77171 0.818723 0.0221256
0.79942 0.818875 0.0220798
0.826825 0.819089 0.0220798
0.853925 0.819364 0.0221256
0.880827 0.81976 0.0226749
0.9075 0.820233 0.0235142
0.933623 0.820706 0.0239567
0.959396 0.821241 0.0245823
0.984833 0.821836 0.0254063
1 0.822492 0.0264439
0 0.882246 0.00105287
0.050782 0.874601 0
0.119509 0.863691 0
0.16051 0.860395 0
0.195819 0.858503 0
0.228153 0.857267 0
0.258976 0.856428 0
0.289219 0.855711 0.00180056
0.319585 0.854978 0.00526436
0.350988 0.854185 0.00866712
0.383307 0.853056 0.0102388
0.415625 0.851926 0.0112001
0.447578 0.850904 0.0120089
0.478843 0.85005 0.0130159
0.509606 0.849302 0.0140993
0.540063 0.848692 0.0178531
0.570016 0.848096 0.0196078
0.599695 0.847639 0.0203708
0.629084 0.847303 0.0208133
0.658198 0.847028 0.0210117
0.687358 0.846967 0.0221561
0.715877 0.84686 0.0221714
0.744106 0.84683 0.0221408
0.772045 0.84686 0.0220645
0.799695 0.846952 0.0219883
0.82707 0.847135 0.0221256
0.854246 0.847501 0.0232395
0.881041 0.847776 0.0233005
0.907561 0.848112 0.0233768
0.933639 0.848524 0.0237736
0.959365 0.849012 0.0243687
0.984787 0.849607 0.0255741
1 0.850309 0.0273136
0 0.911528 0.00178531
0.050309 0.904112 0
0.120638 0.892973 0
0.161456 0.889494 0
0.196719 0.887465 0
0.229099 0.886168 0
0.259937 0.885252 0
0.290364 0.884581 0.00256352
0.320821 0.883848 0.00630198
