luts/CINECOLOR_DYNAMIC_RANGER_03.cube
TITLE "Generated by Resolve"
LUT_3D_SIZE 33
0.0908827 0.0814069 0.0831464
0.131609 0.0809644 0.0826886
0.168963 0.0819257 0.08365
0.20354 0.0836805 0.08542
0.235828 0.0853285 0.087068
0.266438 0.087129 0.0888685
0.295735 0.0890059 0.0907454
0.324086 0.0908827 0.0926223
0.351736 0.0928054 0.0945449
0.378973 0.0949111 0.0966506
0.405676 0.0966659 0.0984054
0.432135 0.0983139 0.100053
0.458656 0.0997787 0.101518
0.485084 0.101152 0.102876
0.511696 0.102464 0.104173
0.538598 0.10367 0.105348
0.565621 0.104509 0.106172
0.592691 0.105226 0.106859
0.619821 0.105837 0.107439
0.646983 0.106355 0.107912
0.674388 0.106996 0.108522
0.701534 0.107332 0.108827
0.728664 0.107607 0.109041
0.755749 0.10782 0.109194
0.782788 0.107973 0.1093
0.80975 0.108248 0.109514
0.836606 0.108446 0.109651
0.863416 0.108476 0.109606
0.89015 0.108461 0.109514
0.916594 0.108492 0.109453
0.94287 0.108522 0.109392
0.968902 0.108782 0.10956
0.994842 0.108873 0.109529
0.0915694 0.121019 0.0838483
0.132067 0.120348 0.0831922
0.168811 0.12076 0.08365
0.202335 0.121386 0.0842908
0.233936 0.122316 0.0852216
0.263951 0.123476 0.0864118
0.292729 0.124804 0.0877394
0.320806 0.126452 0.0894484
0.347967 0.127855 0.090837
0.374624 0.129244 0.0922103
0.400916 0.130602 0.0935378
0.426993 0.131914 0.0947738
0.453147 0.133104 0.0958572
0.479316 0.134417 0.0970779
0.505486 0.135363 0.0978408
0.531899 0.136141 0.0983902
0.55848 0.136812 0.0987564
0.585122 0.137362 0.09897
0.611811 0.137926 0.0991684
0.63856 0.138491 0.0993362
0.665385 0.138781 0.0991226
0.691997 0.139071 0.0988785
0.718563 0.13933 0.0985122
0.745052 0.139528 0.0980545
0.771481 0.139849 0.097673
0.797787 0.140139 0.0971847
0.823911 0.140307 0.0964523
0.849912 0.140475 0.095613
0.875776 0.140658 0.0946517
0.901274 0.140887 0.0936294
0.926528 0.14136 0.0928054
0.951461 0.141772 0.0916762
0.976089 0.142184 0.0902724
0.0933394 0.157549 0.0856031
0.13315 0.156252 0.0843214
0.169009 0.155779 0.0838331
0.202014 0.155886 0.0839399
0.233143 0.156313 0.0843671
0.262699 0.157015 0.085069
0.291295 0.15816 0.0862898
0.318776 0.159136 0.0872816
0.345602 0.160189 0.088304
0.371939 0.161242 0.0893263
0.39791 0.162295 0.0903029
0.423697 0.163317 0.0912032
0.449699 0.164462 0.092256
0.475425 0.165301 0.0928817
0.501305 0.166033 0.0933242
0.527413 0.166629 0.0935378
0.553689 0.167117 0.0935683
0.580056 0.167575 0.0935378
0.606485 0.168109 0.0935531
0.632837 0.168399 0.0931716
0.659327 0.168597 0.0926223
0.685603 0.168795 0.0920119
0.711818 0.168963 0.0912947
0.738064 0.16936 0.0908217
0.764096 0.169512 0.0899062
0.78999 0.169665 0.0888991
0.815732 0.169818 0.0877852
0.841352 0.16997 0.0865339
0.86685 0.170275 0.0853742
0.891981 0.170672 0.0841993
0.916793 0.170993 0.0827192
0.941299 0.171374 0.0810864
0.965499 0.171847 0.0792706
0.095079 0.191028 0.0873121
0.134295 0.189212 0.0854658
0.16968 0.188296 0.0845045
0.202274 0.187991 0.084184
0.233036 0.188052 0.0842298
0.262486 0.188647 0.0849165
0.290532 0.189197 0.0854658
0.317723 0.189883 0.0861372
0.344274 0.190646 0.0868544
0.370336 0.19144 0.087602
0.396246 0.192477 0.0886244
0.421775 0.193271 0.0892805
0.447364 0.193957 0.0897536
0.472862 0.194614 0.0901198
0.498482 0.195163 0.0903182
0.524361 0.195605 0.0902876
0.550546 0.19617 0.0904097
0.576623 0.196445 0.0900435
0.602716 0.196674 0.0895552
0.628824 0.196841 0.0889296
0.655055 0.196963 0.0881361
0.681117 0.197131 0.0873579
0.707179 0.197406 0.0866865
0.733059 0.197513 0.0856336
0.758831 0.197604 0.0844739
0.784466 0.197711 0.083238
0.809949 0.197848 0.0819104
0.83534 0.198093 0.0806134
0.860578 0.198383 0.0792706
0.885405 0.198642 0.0776837
0.909957 0.198978 0.0760052
0.934203 0.199374 0.0742351
0.958144 0.199863 0.0723125
0.0965744 0.222446 0.0888075
0.135424 0.220279 0.0865949
0.170474 0.219013 0.0852827
0.202914 0.21854 0.0848402
0.233433 0.218387 0.0846876
0.262394 0.218463 0.0847486
0.290181 0.218753 0.0850385
0.317143 0.219196 0.0854505
0.343465 0.21973 0.0859388
0.369482 0.220508 0.0867323
0.39501 0.221149 0.0872663
0.42034 0.221744 0.0876936
0.445731 0.222263 0.0879683
0.471046 0.222751 0.0881514
0.496483 0.223163 0.0881361
0.522316 0.223682 0.0882582
0.54815 0.223911 0.0878462
0.574029 0.224079 0.0872969
0.599924 0.224201 0.0866255
0.625834 0.224292 0.0858167
0.651881 0.224338 0.0848707
0.677836 0.224582 0.0841688
0.703609 0.224643 0.0830549
0.72929 0.224689 0.0818494
0.754864 0.224735 0.0805219
0.780301 0.224811 0.079118
0.805692 0.225132 0.0780346
0.830839 0.225254 0.0764782
0.855833 0.225422 0.0747997
0.880461 0.225666 0.073106
0.904799 0.225971 0.0713359
0.928893 0.226444 0.0697032
0.952697 0.22707 0.0681468
0.0981003 0.252262 0.0903334
0.136645 0.249805 0.0878157
0.171572 0.248417 0.0864118
0.203677 0.247639 0.0856336
0.23389 0.247166 0.0851148
0.262623 0.247013 0.0849317
0.290196 0.247089 0.0849928
0.31696 0.247333 0.0852064
0.343297 0.247898 0.085832
0.368963 0.24831 0.0861677
0.394308 0.248753 0.0864881
0.419455 0.249195 0.0867475
0.444678 0.249577 0.0868544
0.469963 0.250126 0.0871595
0.495277 0.250446 0.087068
0.52079 0.250645 0.0867018
0.546456 0.250751 0.0861372
0.572183 0.250828 0.0854505
0.59791 0.250889 0.0846571
0.623804 0.251118 0.0840772
0.649683 0.251087 0.0829786
0.675349 0.251087 0.0818189
0.700954 0.251072 0.0805829
0.726482 0.251087 0.0792706
0.751904 0.251133 0.0779126
0.777295 0.251362 0.0767834
0.802411 0.251438 0.075227
0.82739 0.251545 0.0735943
0.852232 0.251698 0.0719005
0.876707 0.251942 0.070222
0.900923 0.252308 0.0686198
0.92488 0.252827 0.0671702
0.94847 0.2533 0.0653849
0.0997024 0.280903 0.0919203
0.138186 0.278355 0.0893873
0.172686 0.276616 0.0875563
0.204486 0.275547 0.0864271
0.234501 0.274876 0.0857099
0.26305 0.274556 0.085359
0.290578 0.274586 0.0854353
0.317266 0.274754 0.0856184
0.343236 0.274937 0.085771
0.36875 0.275212 0.0859541
0.393957 0.275517 0.0861372
0.418967 0.275837 0.0862745
0.44419 0.276265 0.0865187
0.46923 0.27657 0.0864881
0.494377 0.276768 0.0862287
0.519753 0.276875 0.0857557
0.545312 0.276921 0.0851148
0.570886 0.276921 0.0843214
0.596628 0.277104 0.0837568
0.622248 0.277073 0.0827497
0.64799 0.276997 0.0815747
0.673533 0.276967 0.0803693
0.699001 0.276921 0.0790723
0.724392 0.27689 0.0776837
0.749798 0.277089 0.0766155
0.774945 0.277119 0.0751354
0.799939 0.277195 0.0735943
0.824796 0.277287 0.0719615
0.849485 0.277409 0.0702373
0.873945 0.277852 0.0690471
0.898009 0.278172 0.0674449
0.921782 0.278569 0.0658427
0.945235 0.279042 0.06421
0.101228 0.308644 0.0934462
0.139315 0.305776 0.0905013
0.173663 0.303853 0.0884871
0.205295 0.302617 0.0871901
0.235142 0.301793 0.086305
0.263661 0.301396 0.0859541
0.291035 0.301274 0.085893
0.317494 0.301228 0.0858167
0.343343 0.301289 0.0858473
0.368734 0.301442 0.0859236
0.39382 0.30164 0.0859998
0.418906 0.302068 0.0863661
0.443885 0.302251 0.0862745
0.468772 0.302419 0.0861067
0.493797 0.302541 0.0857557
0.519066 0.302571 0.0851911
0.54461 0.302693 0.0847181
0.570138 0.302708 0.0839857
0.595621 0.302647 0.0830243
0.621118 0.302571 0.0819562
0.646738 0.302449 0.080705
0.672175 0.302373 0.0794842
0.697673 0.30251 0.0785229
0.722972 0.30248 0.0771801
0.748135 0.302449 0.0757153
0.773175 0.302464 0.0742199
0.798047 0.302525 0.0727092
0.822812 0.302632 0.0711681
0.847532 0.302983 0.0699779
0.871748 0.303212 0.0684215
0.89572 0.303517 0.0669108
0.919387 0.303929 0.0654765
0.942748 0.304433 0.0641031
0.102312 0.3355 0.0945602
0.140291 0.332464 0.0914473
0.174502 0.330388 0.0892805
0.206073 0.329046 0.0879072
0.235996 0.328252 0.0871748
0.264271 0.327642 0.0865492
0.291432 0.327291 0.0861982
0.317784 0.327123 0.0860151
0.343526 0.327092 0.0859693
0.368917 0.327245 0.0861219
0.394003 0.327474 0.0863203
0.418814 0.327611 0.0862898
0.443687 0.327703 0.0861219
0.468498 0.32781 0.085893
0.493446 0.327886 0.0855116
0.51873 0.327993 0.0851453
0.544121 0.327977 0.0844739
0.569512 0.327901 0.0836042
0.594903 0.32781 0.0826276
0.620325 0.327718 0.0815595
0.645853 0.327565 0.0803082
0.671321 0.327642 0.0793774
0.696605 0.327581 0.0781109
0.721813 0.32755 0.0767834
0.746899 0.327535 0.0753948
0.771847 0.32755 0.0739452
0.796643 0.327596 0.0724651
0.821439 0.327901 0.0714122
0.845945 0.328069 0.0699321
0.8701 0.328344 0.0685588
0.89398 0.328664 0.0672007
0.917556 0.329076 0.065919
0.940948 0.329778 0.0652476
0.103136 0.361776 0.0954147
0.14107 0.358602 0.0921645
0.17525 0.35642 0.0899214
0.206882 0.355077 0.0886397
0.23653 0.354009 0.0875563
0.264729 0.353307 0.0868544
0.291814 0.352865 0.0864424
0.318074 0.352605 0.086183
0.343816 0.35256 0.086183
0.369162 0.352651 0.0863355
0.39408 0.352712 0.0863203
0.41883 0.352789 0.0862745
0.443626 0.352834 0.0860609
0.46836 0.35288 0.0857862
0.4934 0.353079 0.0857252
0.518517 0.353048 0.0851301
0.543801 0.352941 0.0843671
0.5691 0.352834 0.0834669
0.594415 0.352697 0.082475
0.619852 0.352697 0.0816205
0.645396 0.352651 0.0805829
0.670665 0.35256 0.0793774
0.695857 0.352468 0.0780957
0.720974 0.352407 0.0767834
0.745998 0.352407 0.0754559
0.771008 0.352605 0.074464
0.795758 0.352728 0.0731975
0.82034 0.352834 0.071809
0.84477 0.353002 0.0704356
0.868864 0.353307 0.0692302
0.892699 0.353674 0.0681163
0.916335 0.35433 0.0675517
0.939544 0.354849 0.0666056
0.103639 0.387625 0.095964
0.141878 0.384482 0.0929122
0.175982 0.382177 0.0905318
0.207355 0.380575 0.0889143
0.236942 0.3794 0.0877394
0.26508 0.378607 0.0869612
0.292119 0.378103 0.0865187
0.318532 0.377951 0.0865644
0.344152 0.377768 0.0864118
0.369314 0.377691 0.0863203
0.394171 0.377676 0.0862593
0.41886 0.377707 0.0861982
0.443687 0.377768 0.0861067
0.468498 0.37792 0.0860914
0.493294 0.37789 0.0856641
0.518349 0.377813 0.0850538
0.543572 0.377707 0.0843061
0.568841 0.377584 0.0834669
0.594202 0.377569 0.0827039
0.619547 0.377523 0.0818189
0.644953 0.377371 0.0806439
0.670176 0.377295 0.07953
0.695354 0.377234 0.0783551
0.720409 0.377203 0.0771344
0.74548 0.37734 0.0761578
0.770352 0.377432 0.0750286
0.795026 0.377569 0.0738537
0.819593 0.377737 0.0726635
0.843976 0.377935 0.071458
0.867994 0.378241 0.0703899
0.891905 0.378836 0.0699168
0.915389 0.379339 0.0691539
0.938567 0.37995 0.0685435
0.104097 0.413352 0.0964828
0.142092 0.409903 0.0929885
0.176211 0.407477 0.0905318
0.207599 0.405783 0.0888533
0.237171 0.404547 0.0876478
0.265293 0.403677 0.0868544
0.292485 0.403265 0.0866712
0.318669 0.402884 0.0863661
0.344259 0.402655 0.0862287
0.369406 0.402533 0.0861677
0.394232 0.402472 0.0861067
0.418936 0.402502 0.0861067
0.443793 0.402625 0.086183
0.468467 0.402625 0.0859693
0.493263 0.402609 0.0856031
0.518273 0.402502 0.0850233
0.543435 0.402365 0.0842756
0.568841 0.402441 0.0838331
0.594079 0.402335 0.0829633
0.619333 0.402228 0.0820172
0.644694 0.402075 0.0809033
0.669871 0.401999 0.0798199
0.695064 0.402045 0.0789197
0.720195 0.402167 0.0780652
0.745129 0.402197 0.0769665
0.769909 0.402274 0.0758526
0.794537 0.402411 0.0747692
0.819074 0.402609 0.0737469
0.843534 0.403037 0.073106
0.867582 0.403464 0.0724346
0.89131 0.403891 0.0717021
0.914748 0.404425 0.0711223
0.937911 0.405066 0.0707713
0.103563 0.438804 0.0960555
0.141802 0.435218 0.0924697
0.176013 0.4327 0.0899367
0.207416 0.430915 0.0881971
0.237247 0.42977 0.0872816
0.265385 0.428855 0.0865034
0.292378 0.428214 0.0860151
0.318547 0.427771 0.0857099
0.344121 0.427497 0.0855421
0.369268 0.427329 0.0854963
0.394293 0.427451 0.0858473
0.418936 0.42742 0.085832
0.443656 0.427375 0.0856489
0.468284 0.427344 0.0854505
0.493065 0.427314 0.0851453
0.51812 0.427268 0.0847181
0.54342 0.427298 0.0843671
0.568612 0.427176 0.0836042
0.593835 0.427054 0.0827802
0.619074 0.426978 0.0819257
0.644434 0.426886 0.0809644
0.669657 0.426917 0.0801709
0.69485 0.427008 0.079408
0.71986 0.427024 0.0784161
0.744778 0.427115 0.0775006
0.769574 0.427268 0.0766155
0.794186 0.427451 0.0757153
0.818769 0.427817 0.0751049
0.843153 0.428183 0.0744793
0.867155 0.428626 0.07393
0.890883 0.429145 0.0735027
0.914321 0.429725 0.073167
0.937423 0.430396 0.0729686
0.102647 0.464118 0.0952926
0.141192 0.460395 0.0916152
0.17557 0.457786 0.0890516
0.207294 0.456077 0.087602
0.236957 0.454719 0.0863813
0.265126 0.453742 0.0855726
0.292149 0.453056 0.0851148
0.318364 0.452598 0.0848859
0.343954 0.452293 0.0847639
0.369299 0.452277 0.0850843
0.394125 0.452171 0.0851148
0.418784 0.452155 0.0851759
0.443534 0.45211 0.0851148
0.468162 0.452079 0.0849775
0.492958 0.452064 0.0847486
0.51812 0.45214 0.0846418
0.543297 0.452064 0.0841077
0.568521 0.451972 0.0834974
0.593729 0.451881 0.0827649
0.618936 0.451804 0.0819867
0.644465 0.451926 0.0815137
0.669627 0.451942 0.0807507
0.694743 0.451987 0.0799573
0.719738 0.452049 0.0791333
0.74464 0.452155 0.0783093
0.769467 0.452415 0.0777295
0.794202 0.452811 0.0773632
0.818692 0.453117 0.0767529
0.843 0.453468 0.0761425
0.866957 0.45391 0.0757
0.890654 0.454444 0.0753948
0.914137 0.455177 0.0755169
0.93727 0.455955 0.0757
0.101167 0.489509 0.0939956
0.140124 0.485603 0.0901808
0.17499 0.483055 0.0879225
0.206622 0.481132 0.0861982
0.236378 0.479713 0.0849928
0.264591 0.478691 0.0841993
0.291661 0.477958 0.0837568
0.318105 0.477623 0.0838636
0.343786 0.477333 0.0839094
0.368978 0.47715 0.0839857
0.39382 0.477028 0.0840772
0.418494 0.476982 0.084184
0.443259 0.476936 0.0841993
0.468132 0.477134 0.084596
0.492927 0.477119 0.0844587
0.517937 0.477043 0.0841077
0.543114 0.476951 0.0836347
0.568353 0.476905 0.0831464
0.593622 0.47689 0.0826429
0.619028 0.477043 0.0823987
0.644373 0.476997 0.081651
0.66952 0.477028 0.0809796
0.694636 0.477134 0.0803693
0.719676 0.477272 0.0797742
0.74464 0.477516 0.0793011
0.769512 0.477867 0.078996
0.79411 0.478141 0.0784466
0.81857 0.478462 0.0779583
0.842863 0.478843 0.0775158
0.866804 0.479316 0.0772106
0.890517 0.479942 0.0772259
0.913939 0.480644 0.0773785
0.936996 0.481361 0.0775006
0.0991684 0.515114 0.0922103
0.138827 0.511116 0.0884871
0.173678 0.508293 0.085832
0.205493 0.506294 0.0840925
0.235386 0.504829 0.0829328
0.263752 0.503777 0.0822461
0.291081 0.503166 0.0821851
0.317449 0.502678 0.0821241
0.343145 0.502342 0.0821698
0.368399 0.502159 0.0823529
0.393332 0.502068 0.0826123
0.418067 0.502022 0.0828412
0.44303 0.502159 0.083299
0.46775 0.502174 0.0834211
0.492607 0.50219 0.0834363
0.517693 0.50219 0.083299
0.542901 0.502144 0.0829786
0.568139 0.502098 0.0825666
0.593576 0.502281 0.0825513
0.61886 0.502327 0.0821393
0.644266 0.502358 0.0816205
0.669444 0.502434 0.081117
0.69453 0.502541 0.0805829
0.719722 0.502892 0.0804913
0.744625 0.50309 0.0800183
0.769375 0.503349 0.0795758
0.793942 0.503624 0.079118
0.818357 0.503944 0.0786908
0.842664 0.504372 0.0784314
0.866682 0.504997 0.078584
0.890318 0.505547 0.0785077
0.913619 0.506157 0.0785229
0.936629 0.506859 0.0786908
0.0965438 0.540856 0.0898756
0.136812 0.536599 0.0859083
0.172076 0.533684 0.083299
0.20412 0.531609 0.08159
0.23418 0.530083 0.0804608
0.262898 0.529168 0.0802167
0.290196 0.52842 0.0800031
0.31664 0.527901 0.0800336
0.342397 0.52755 0.0801709
0.367712 0.527337 0.0804456
0.392859 0.527382 0.0811017
0.417731 0.527443 0.0816358
0.442603 0.527443 0.0819257
0.467369 0.527474 0.0821546
0.492241 0.527489 0.0822766
0.517372 0.52752 0.0822766
0.54284 0.527718 0.0825513
0.568154 0.527749 0.0823987
0.593423 0.527779 0.0821088
0.618708 0.52781 0.0817578
0.644099 0.527855 0.0813306
0.669291 0.527962 0.0809644
0.69456 0.528298 0.0809796
0.719554 0.528435 0.0805371
0.744411 0.528634 0.0801099
0.769146 0.528893 0.0797284
0.793698 0.529183 0.0793927
0.818143 0.529549 0.0791333
0.842496 0.530083 0.0791943
0.866361 0.530556 0.0790723
0.889952 0.531106 0.0790723
0.913252 0.531731 0.0792096
0.936233 0.532433 0.079469
0.0935225 0.56669 0.0871748
0.134615 0.562173 0.0830549
0.170306 0.559152 0.0804608
0.202792 0.557107 0.079057
0.233204 0.555642 0.0782788
0.261814 0.554528 0.0777447
0.289219 0.553735 0.0776226
0.315785 0.553231 0.0778058
0.341711 0.552911 0.078172
0.367254 0.55285 0.0789044
0.392401 0.552819 0.0795453
0.417273 0.552834 0.0800793
0.442222 0.552865 0.0805676
0.467079 0.552956 0.0810407
0.492042 0.553033 0.0813458
0.517357 0.553216 0.0818036
0.542672 0.553262 0.0818189
0.567987 0.553292 0.0817426
0.593301 0.553353 0.08159
0.618585 0.553399 0.0813458
0.643946 0.553429 0.0809644
0.669291 0.553719 0.0810712
0.694392 0.553872 0.0807507
0.719387 0.55404 0.0804303
0.744228 0.554238 0.0800793
0.768933 0.554467 0.0797284
0.793622 0.554955 0.0798962
0.818006 0.555291 0.0796674
0.842222 0.555688 0.079469
0.866056 0.556146 0.079408
0.889616 0.55668 0.0794537
0.912902 0.557321 0.0796979
0.935988 0.558206 0.0804608
0.0903487 0.59266 0.0843519
0.132433 0.5879 0.0801404
0.168673 0.584802 0.0776989
0.201495 0.582727 0.076463
0.232013 0.581155 0.075639
0.260853 0.580041 0.0753338
0.288396 0.579263 0.0753796
0.315068 0.578729 0.0756847
0.341299 0.578592 0.0766308
0.366842 0.578454 0.0773327
0.392035 0.578408 0.0780804
0.416983 0.578439 0.0787976
0.441978 0.57847 0.0793774
0.466987 0.578653 0.0801862
0.492058 0.57882 0.0808118
0.517235 0.578866 0.0810407
0.542535 0.578882 0.0810864
0.567849 0.578897 0.0810559
0.593149 0.578943 0.0809644
0.618601 0.579156 0.081178
0.644007 0.579232 0.0809644
0.669154 0.579324 0.080705
0.694224 0.579446 0.0804303
0.719203 0.579614 0.0801556
0.744045 0.579828 0.0799115
0.768902 0.58027 0.0800946
0.793408 0.580545 0.0798657
0.817761 0.58088 0.0796674
0.841947 0.581262 0.0795453
0.865766 0.581735 0.0795758
0.889311 0.582284 0.0797284
0.912703 0.583062 0.0803998
0.935622 0.583749 0.0807965
0.0870375 0.618799 0.0814221
0.130617 0.613916 0.0775921
0.167269 0.610681 0.0751507
0.200198 0.608454 0.0737621
0.230915 0.606821 0.0730602
0.259937 0.605692 0.0729381
0.28777 0.60499 0.0733959
0.314748 0.604608 0.0742504
0.340856 0.604288 0.0749371
0.366445 0.60412 0.0757305
0.391699 0.604089 0.0766155
0.416724 0.60412 0.0774853
0.441871 0.604242 0.0784314
0.466865 0.604395 0.0792706
0.491875 0.604471 0.0797742
0.517067 0.604501 0.0800946
0.542397 0.604532 0.0802625
0.567727 0.604547 0.0803082
0.593164 0.604715 0.0805982
0.618479 0.604807 0.0805982
0.643854 0.604852 0.0803998
0.669017 0.604959 0.0802472
0.694087 0.605081 0.0800336
0.71902 0.605219 0.0797894
0.744015 0.605615 0.0800183
0.768688 0.605859 0.0798505
0.793194 0.606149 0.0797131
0.817517 0.60647 0.0795758
0.841672 0.606836 0.079469
0.865629 0.607477 0.0800031
0.889158 0.608011 0.0802014
0.912367 0.608621 0.0805371
0.935256 0.609293 0.0809796
0.0839246 0.645319 0.078706
0.128359 0.639994 0.0743877
0.165591 0.636667 0.0721141
0.198932 0.634409 0.0710002
0.229908 0.632761 0.0705119
0.259159 0.631632 0.0706493
0.287205 0.630976 0.0714275
0.314122 0.630457 0.0721447
0.340337 0.630137 0.0730144
0.366003 0.629953 0.0739452
0.391272 0.629877 0.0749065
0.416541 0.63006 0.0762951
0.441627 0.630091 0.0771344
0.466575 0.630152 0.0779126
0.4916 0.630213 0.0784924
0.516808 0.630213 0.0788586
0.542229 0.63032 0.0793011
0.567681 0.630426 0.0796674
0.592981 0.630472 0.0797284
0.618265 0.630503 0.0796826
0.643626 0.630518 0.0794995
0.668772 0.63061 0.0793927
0.693965 0.630869 0.0795911
0.718959 0.631083 0.0795605
0.743755 0.631266 0.0793927
0.768399 0.631479 0.0792554
0.792874 0.631769 0.0791638
0.817197 0.63209 0.0791028
0.841489 0.632624 0.0794842
0.865278 0.633082 0.0796216
0.888762 0.633585 0.0798505
0.911955 0.63418 0.0802167
0.934829 0.634852 0.0807355
0.0809949 0.671794 0.0761578
0.12668 0.666148 0.0717937
0.16437 0.662699 0.0695811
0.197971 0.660349 0.068574
0.229435 0.658824 0.0687572
0.258778 0.657633 0.0689708
0.286717 0.656809 0.0695354
0.31371 0.656245 0.0703441
0.339986 0.655894 0.0713359
0.365759 0.655741 0.0725261
0.391287 0.655787 0.0739757
0.416358 0.655772 0.0750134
0.441459 0.655772 0.0759136
0.466438 0.655818 0.0767834
0.491493 0.655879 0.0774853
0.516808 0.655955 0.0781262
0.542245 0.656046 0.0786603
0.567575 0.656046 0.0788434
0.592889 0.656062 0.0789654
0.618189 0.656107 0.0790265
0.643549 0.656123 0.0789197
0.668788 0.656306 0.079118
0.693904 0.656489 0.0791943
0.718837 0.656626 0.0791028
0.743633 0.656809 0.0790112
0.768261 0.657023 0.0789197
0.792706 0.657282 0.0788434
0.817166 0.657771 0.0792706
0.841291 0.658122 0.0793011
0.865049 0.658564 0.079469
0.888502 0.659068 0.0797436
0.911665 0.659632 0.0801251
0.934646 0.660441 0.0810712
0.0780499 0.698344 0.07364
0.125124 0.692363 0.0692302
0.163287 0.688762 0.0671397
0.197436 0.686473 0.066743
0.228763 0.684733 0.0665599
0.258228 0.683497 0.0669261
0.286305 0.682643 0.067689
0.313375 0.682048 0.0686351
0.339727 0.681682 0.0697795
0.365698 0.681605 0.0713664
0.391089 0.681498 0.0726024
0.41622 0.681483 0.0737774
0.441352 0.681453 0.0747692
0.466331 0.681483 0.0756847
0.491615 0.681682 0.0769055
0.516854 0.681682 0.0774701
0.542214 0.681666 0.0778363
0.567544 0.681651 0.0780804
0.592844 0.681651 0.0782483
0.618189 0.681727 0.0784924
0.643671 0.681865 0.0787518
0.668803 0.681926 0.0787518
0.693828 0.682017 0.0786908
0.71873 0.682124 0.0786145
0.743511 0.682292 0.0785534
0.768246 0.682612 0.0787976
0.792737 0.682948 0.0789807
0.817014 0.683223 0.0789807
0.841093 0.683543 0.0790112
0.86482 0.68397 0.0792096
0.888273 0.684459 0.07953
0.911543 0.685161 0.0803388
0.934386 0.685817 0.0809796
0.0751354 0.724956 0.0711833
0.123949 0.718654 0.0670634
0.162615 0.714961 0.0652018
0.196719 0.712459 0.0645151
0.228214 0.710643 0.0644694
0.257786 0.709346 0.0649577
0.285954 0.708446 0.0658427
0.313359 0.707988 0.0674601
0.339742 0.707576 0.0686961
0.365545 0.707317 0.0699779
0.390967 0.707179 0.0712749
0.416129 0.707134 0.0725567
0.441321 0.707103 0.0737011
0.466529 0.707286 0.0751659
0.4916 0.707286 0.0759747
0.516838 0.707256 0.076585
0.542199 0.70721 0.0770123
0.567544 0.707195 0.077348
0.59292 0.707225 0.0777142
0.618311 0.707362 0.0781567
0.643656 0.707347 0.0781567
0.668772 0.707393 0.0782025
0.693797 0.707469 0.0782025
0.7187 0.707576 0.0781872
0.743542 0.70782 0.0783856
0.768215 0.70808 0.078584
0.79263 0.708324 0.0786145
0.816892 0.708583 0.0786603
0.840955 0.708904 0.0787213
0.864637 0.709285 0.0789349
0.888228 0.709941 0.0797284
0.91133 0.710475 0.0801862
0.934127 0.711086 0.0807813
0.0727092 0.751629 0.0691997
0.122713 0.744839 0.064622
0.161746 0.740963 0.0627909
0.196094 0.738369 0.0622721
0.227787 0.736507 0.0624552
0.257465 0.735164 0.0631266
0.285954 0.734371 0.0646372
0.313161 0.7337 0.0658885
0.33962 0.733272 0.0672618
0.365484 0.732982 0.0687114
0.390951 0.732815 0.0701305
0.416129 0.732738 0.0714733
0.44152 0.732845 0.0731212
0.46656 0.73283 0.0742351
0.491661 0.732815 0.0751659
0.516915 0.732769 0.0758373
0.54226 0.732708 0.0762951
0.567803 0.73283 0.0771344
0.593103 0.732815 0.0774243
0.618372 0.732799 0.0776226
0.643702 0.732754 0.0776379
0.668803 0.732784 0.0776989
0.693858 0.732876 0.0778515
0.718868 0.73312 0.078233
0.743618 0.733242 0.078233
0.768185 0.733394 0.078233
0.792569 0.733608 0.0782635
0.816785 0.733852 0.0783246
0.840909 0.734218 0.078645
0.864668 0.734691 0.0791485
0.88806 0.735134 0.079469
0.911131 0.735637 0.0799268
0.933898 0.736202 0.0805219
0.0699626 0.778256 0.0669413
0.121614 0.770947 0.0621958
0.161074 0.766934 0.0605325
0.195636 0.764233 0.0601816
0.227665 0.762402 0.0609293
0.257527 0.761059 0.0619516
0.285863 0.760067 0.0631571
0.313115 0.759365 0.0645304
0.339605 0.758877 0.0660105
0.365515 0.758556 0.0675517
0.391226 0.758541 0.0695659
0.416449 0.758434 0.0710613
0.441642 0.758343 0.0723125
0.466682 0.758297 0.0734722
0.491783 0.758267 0.074464
0.517052 0.758206 0.0752117
0.542611 0.758297 0.0762188
0.567941 0.758221 0.0766155
0.593225 0.75816 0.0769207
0.618494 0.758114 0.0771496
0.643809 0.758068 0.0772259
0.66894 0.758114 0.077409
0.694072 0.758282 0.0778363
0.718929 0.758343 0.0778668
0.743648 0.75845 0.0778973
0.7682 0.758587 0.0779431
0.792554 0.75877 0.0779889
0.816815 0.75906 0.078233
0.84094 0.759426 0.0786145
0.864576 0.759777 0.0788739
0.887938 0.760189 0.0792248
0.910979 0.760662 0.0796826
0.9337 0.761212 0.0802777
0.0670787 0.804852 0.0646372
0.120714 0.796963 0.0598154
0.160601 0.792798 0.0584421
0.19559 0.790097 0.0587472
0.227604 0.788144 0.0594644
0.257481 0.786694 0.0604715
0.285878 0.785672 0.0618296
0.313207 0.784924 0.063386
