luts/CINECOLOR_SKINTONE_03.cube
TITLE "Generated by Resolve"
LUT_3D_SIZE 33
0 0 0
0 0 0
0.0425269 0 0
0.105776 0 0
0.158495 0 0
0.208453 0 0
0.259098 0 0
0.316838 0 0
0.390585 0 0
0.440574 0 0
0.486458 0 0
0.530282 0 0
0.572503 0 0
0.613779 0 0
0.654566 0 0
0.694865 0 0
0.734798 0 0
0.774441 0 0
0.813855 0 0
0.853071 0 0
0.892164 0 0
0.931167 0 0
0.970092 0 0
1 0 0
1 0 0
1 0 0
1 0 0
1 0 0
1 0 0
1 0 0
1 0 0
1 0 0
1 0 0
0 0 0
0 0 0
0.049485 0 0
0.120928 0 0
0.20412 0 0
0.26717 0 0
0.31899 0 0
0.367086 0 0
0.412009 0.000228885 0
0.455344 0.00479133 0
0.497627 0.00862135 0
0.539284 0.011841 0
0.580118 0.0147097 0
0.620478 0.0172122 0
0.66041 0.0193332 0
0.700282 0.0212253 0
0.739864 0.0228122 0
0.779171 0.0242008 0
0.818357 0.0253605 0
0.85742 0.0263371 0
0.896437 0.0271 0
0.935393 0.0277104 0
0.974334 0.0281682 0
1 0.0284581 0
1 0.0289006 0
1 0.0288853 0
1 0.0287327 0
1 0.0284581 0
1 0.0280613 0
1 0.0279545 0
1 0.0272526 0
1 0.0264897 0
1 0.0256352 0
0 0.023682 0
0 0.0573587 0
0.0607767 0.0547189 0
0.129 0.0583963 0
0.183688 0.06215 0
0.232975 0.0660105 0
0.279393 0.0693523 0
0.32343 0.0719463 0
0.366903 0.0743572 0
0.41004 0.0762036 0
0.45362 0.0773022 0
0.499062 0.0771344 0
0.555322 0.0723125 0
0.601373 0.0712139 0
0.644526 0.0709239 0
0.686671 0.0708019 0
0.728405 0.0710765 0
0.769329 0.070985 0
0.809903 0.0708476 0
0.850187 0.070634 0
0.890242 0.0703593 0
0.930114 0.0699931 0
0.970001 0.0696727 0
1 0.0693065 0
1 0.0686961 0
1 0.0679942 0
1 0.0671855 0
1 0.066392 0
1 0.0656291 0
1 0.0647288 0
1 0.0635233 0
1 0.0621958 0
1 0.0610819 0.000106813
0 0.128069 0
0 0.131456 0
0.0692912 0.120363 0
0.129824 0.120211 0
0.180346 0.121645 0
0.226307 0.123552 0
0.269688 0.125566 0
0.311269 0.127565 0
0.351675 0.129458 0
0.391455 0.131151 0
0.430564 0.132753 0
0.469352 0.134142 0
0.507988 0.135302 0
0.54667 0.136217 0
0.585595 0.136812 0
0.625147 0.13724 0
0.665095 0.13727 0
0.705547 0.136721 0
0.747417 0.135454 0
0.791714 0.13312 0
0.844495 0.12726 0
0.902403 0.119631 0
0.947936 0.116609 0
0.991318 0.114107 0
1 0.112032 0
1 0.110018 0
1 0.1084 0
1 0.106569 0
1 0.104692 0
1 0.102831 0
1 0.101274 0
1 0.0993515 0
1 0.097322 0
0 0.184375 0
0 0.184833 0
0.0764782 0.171939 0
0.134218 0.170123 0
0.181903 0.170565 0
0.226291 0.171923 0
0.268055 0.173205 0
0.308232 0.174594 0
0.347311 0.175967 0
0.385595 0.17731 0
0.42359 0.178515 0
0.46096 0.17969 0
0.498116 0.180743 0
0.535424 0.181567 0
0.572931 0.182559 0
0.609979 0.183108 0
0.647196 0.183459 0
0.684764 0.183597 0
0.722606 0.183474 0
0.760922 0.183322 0
0.799527 0.182788 0
0.83859 0.181842 0
0.878584 0.180468 0
0.919646 0.178576 0
0.962234 0.176349 0
1 0.172747 0
1 0.166491 0
1 0.154513 0
1 0.149645 0
1 0.145876 0
1 0.142504 0
1 0.139193 0
1 0.136263 0
0 0.232136 0
0 0.231189 0
0.0821851 0.217273 0
0.13901 0.214679 0
0.185138 0.214649 0
0.22768 0.21529 0
0.268421 0.216434 0
0.307561 0.217487 0
0.345693 0.218509 0
0.383337 0.219486 0
0.420218 0.220462 0
0.456733 0.221378 0
0.493355 0.222095 0
0.529824 0.223133 0
0.56585 0.223789 0
0.602106 0.224231 0
0.638132 0.224582 0
0.674449 0.22475 0
0.711162 0.225086 0
0.747692 0.224979 0
0.784482 0.224659 0
0.821759 0.224063 0
0.859419 0.22356 0
0.897261 0.222629 0
0.935409 0.221454 0
0.974319 0.219898 0
1 0.21825 0
1 0.21593 0
1 0.213092 0
1 0.209766 0
1 0.205402 0
1 0.199359 0
1 0.18468 0
0 0.275837 0
0 0.274205 0
0.0866102 0.259724 0
0.143679 0.256153 0
0.188861 0.255619 0
0.230243 0.25594 0
0.269917 0.256855 0
0.308095 0.257633 0
0.345373 0.258412 0
0.382269 0.259129 0
0.418448 0.259892 0
0.454475 0.260578 0
0.490425 0.261509 0
0.525872 0.262058 0
0.561517 0.262425 0
0.596857 0.262806 0
0.632578 0.263203 0
0.66804 0.263493 0
0.703685 0.263447 0
0.739269 0.26331 0
0.775097 0.263142 0
0.811521 0.262882 0
0.8477 0.262303 0
0.884062 0.26154 0
0.920806 0.260746 0
0.958251 0.259663 0
0.995758 0.258289 0
1 0.256672 0
1 0.255055 0
1 0.252842 0
1 0.250309 0
1 0.247517 0
1 0.244511 0
0 0.316884 0
0 0.314794 0
0.0895247 0.300053 0
0.147784 0.295506 0
0.192691 0.294636 0
0.233417 0.294774 0
0.271901 0.295171 0
0.309209 0.29575 0
0.345739 0.296361 0
0.381949 0.29691 0
0.417777 0.297765 0
0.453269 0.298238 0
0.488289 0.298726 0
0.523278 0.299123 0
0.558389 0.299687 0
0.593271 0.299916 0
0.628031 0.300038 0
0.662913 0.300069 0
0.697795 0.300008 0
0.732998 0.300114 0
0.7682 0.299733 0
0.803357 0.299275 0
0.838972 0.29868 0
0.8748 0.298238 0
0.910582 0.297353 0
0.946822 0.296223 0
0.983337 0.295186 0
1 0.293828 0
1 0.292241 0
1 0.29044 0
1 0.28867 0
1 0.286412 0
1 0.283879 0
0 0.356023 0
0 0.353689 0
0.0906539 0.338964 0
0.151263 0.333425 0
0.196155 0.332082 0
0.236255 0.331731 0
0.274037 0.331884 0
0.310582 0.332265 0
0.346609 0.332952 0
0.382269 0.333455 0
0.417227 0.333898 0
0.452155 0.334203 0
0.486702 0.334585 0
0.521508 0.334997 0
0.555779 0.33521 0
0.590234 0.335271 0
0.624506 0.335378 0
0.659129 0.335424 0
0.69337 0.335241 0
0.727947 0.33492 0
0.762402 0.334554 0
0.797498 0.334279 0
0.832166 0.333623 0
0.867079 0.33283 0
0.902464 0.332036 0
0.937881 0.331151 0
0.973602 0.329915 0
1 0.328542 0
1 0.327276 0
1 0.325597 0
1 0.323766 0
1 0.321721 0
1 0.319738 0
0 0.393668 0
0 0.391348 0
0.0899672 0.377264 0
0.153887 0.370153 0
0.198871 0.368109 0
0.238575 0.367483 0
0.275868 0.367422 0
0.312139 0.367941 0
0.34728 0.368231 0
0.382193 0.36849 0
0.416587 0.368795 0
0.451301 0.369299 0
0.485283 0.369497 0
0.519387 0.369543 0
0.55314 0.369558 0
0.587427 0.369772 0
0.621225 0.369665 0
0.655268 0.369406 0
0.689326 0.369192 0
0.723461 0.368887 0
0.757397 0.368383 0
0.791714 0.367742 0
0.825971 0.367147 0
0.8607 0.366461 0
0.895094 0.365499 0
0.929931 0.364324 0
0.965042 0.363394 0
1 0.362051 0
1 0.36051 0
1 0.358968 0
1 0.357259 0
1 0.355261 0
1 0.353079 0
0 0.430488 0
0.000808728 0.428077 0
0.084123 0.415229 0
0.155398 0.405768 0
0.200824 0.403357 0
0.240864 0.402472 0
0.277882 0.402106 0
0.31339 0.402106 0
0.348043 0.402258 0
0.382712 0.402701 0
0.416495 0.402853 0
0.45034 0.402899 0
0.483848 0.402975 0
0.5178 0.40322 0
0.551171 0.403143 0
0.58471 0.402899 0
0.618143 0.402655 0
0.651865 0.402518 0
0.685496 0.40206 0
0.718959 0.401556 0
0.752972 0.40116 0
0.786557 0.400412 0
0.820493 0.399512 0
0.854337 0.398596 0
0.888869 0.397803 0
0.923018 0.396643 0
0.957443 0.3953 0
0.992081 0.393942 0
1 0.392554 0
1 0.39086 0
1 0.389029 0
1 0.387274 0
1 0.385138 0
0 0.466026 0
0.00132753 0.4636 0
0.0669871 0.4551 0
0.155886 0.440894 0
0.202304 0.437751 0
0.242298 0.436301 0
0.279072 0.435676 0
0.314443 0.435721 0
0.348623 0.435676 0
0.382498 0.435676 0
0.415824 0.435737 0
0.44947 0.435981 0
0.482444 0.435889 0
0.515602 0.435676 0
0.548516 0.435477 0
0.581964 0.435447 0
0.615091 0.435019 0
0.648066 0.434531 0
0.681514 0.43415 0
0.714565 0.433509 0
0.747936 0.432731 0
0.78117 0.431937 0
0.814984 0.431205 0
0.848371 0.430137 0
0.882139 0.428901 0
0.915923 0.427726 0
0.950225 0.426505 0
0.984314 0.425025 0
1 0.423301 0
1 0.421729 0
1 0.41976 0
1 0.417609 0
1 0.415351 0
0 0.500587 0
0.00128176 0.498558 0
0.0607309 0.491478 0
0.155245 0.474968 0
0.202472 0.471244 0
0.243076 0.469673 0
0.279973 0.468711 0
0.314977 0.468208 0
0.348852 0.467948 0
0.382544 0.468009 0
0.415366 0.467887 0
0.448264 0.467735 0
0.480827 0.467582 0
0.513832 0.467552 0
0.546273 0.467201 0
0.578973 0.466682 0
0.611948 0.466346 0
0.644587 0.465843 0
0.677455 0.46511 0
0.710109 0.464332 0
0.743328 0.46363 0
0.776165 0.462654 0
0.809339 0.461555 0
0.842725 0.460426 0
0.876173 0.459358 0
0.90985 0.457877 0
0.943526 0.456336 0
0.977768 0.454932 0
1 0.453101 0
1 0.451194 0
1 0.449256 0
1 0.446937 0
1 0.444465 0
0 0.534768 0
0 0.532525 0
0.0551919 0.526238 0
0.153536 0.508721 0
0.202289 0.504341 0
0.24303 0.502007 0
0.280003 0.500664 0
0.315053 0.500221 0
0.348653 0.499779 0
0.381781 0.499413 0
0.414374 0.49929 0
0.446906 0.499062 0
0.478965 0.498726 0
0.511254 0.498314 0
0.543511 0.49807 0
0.575906 0.497581 0
0.60824 0.496864 0
0.640375 0.496117 0
0.673121 0.495506 0
0.70544 0.494621 0
0.738125 0.493599 0
0.771145 0.492699 0
0.803876 0.491463 0
0.837018 0.490059 0
0.870161 0.488655 0
0.904097 0.487327 0
0.937758 0.485664 0
0.971939 0.483757 0
1 0.481987 0
1 0.479805 0
1 0.477516 0
1 0.475059 0
1 0.472496 0
0 0.567987 0
0 0.566033 0
0.0497292 0.560464 0
0.149828 0.541772 0
0.200946 0.5364 0
0.242237 0.534066 0
0.279469 0.532403 0
0.314351 0.531304 0
0.347921 0.530648 0
0.380957 0.53019 0
0.413092 0.529778 0
0.445167 0.529305 0
0.477104 0.529122 0
0.508919 0.528542 0
0.54052 0.527932 0
0.572427 0.52723 0
0.604669 0.526711 0
0.6365 0.525887 0
0.66865 0.52488 0
0.700938 0.524071 0
0.733394 0.522866 0
0.766064 0.521584 0
0.798703 0.520272 0
0.832044 0.51899 0
0.86511 0.517372 0
0.898695 0.515557 0
0.932647 0.513924 0
0.966964 0.511879 0
1 0.509697 0
1 0.507286 0
1 0.504814 0
1 0.501945 0
1 0.499001 0
0 0.600717 0
0 0.598596 0
0.0442054 0.593484 0
0.145037 0.57467 0
0.198459 0.568353 0
0.240421 0.565103 0
0.277974 0.563165 0
0.313069 0.562051 0
0.346517 0.561059 0
0.379202 0.56022 0
0.411292 0.559792 0
0.443 0.559121 0
0.474311 0.558541 0
0.505791 0.557885 0
0.53727 0.557458 0
0.56878 0.556603 0
0.600366 0.555657 0
0.632151 0.554971 0
0.664103 0.553887 0
0.695979 0.552758 0
0.728405 0.551522 0
0.761044 0.550164 0
0.793561 0.548638 0
0.826642 0.54696 0
0.860029 0.545419 0
0.893675 0.54342 0
0.927337 0.541238 0
0.961654 0.538888 0
0.996231 0.536507 0
1 0.533791 0
1 0.530953 0
1 0.528008 0
1 0.524697 0
0 0.632685 0
0 0.630732 0
0.0386664 0.62591 0
0.137438 0.607034 0
0.194781 0.599481 0
0.237842 0.596017 0
0.275792 0.593545 0
0.310933 0.591806 0
0.34464 0.590799 0
0.377264 0.589746 0
0.40882 0.588952 0
0.44033 0.588312 0
0.471336 0.58764 0
0.502403 0.586816 0
0.533303 0.586038 0
0.564767 0.585397 0
0.596109 0.58439 0
0.627359 0.583307 0
0.659144 0.582132 0
0.690974 0.580972 0
0.723186 0.579522 0
0.755657 0.57792 0
0.788357 0.57641 0
0.821286 0.57438 0
0.854398 0.572244 0
0.888014 0.570062 0
0.922087 0.567803 0
0.956405 0.565194 0
0.991119 0.562356 0
1 0.559533 0
1 0.556329 0
1 0.552987 0
1 0.549569 0
0 0.664195 0
0 0.662058 0
0.0324712 0.657801 0
0.126436 0.639887 0
0.190021 0.630274 0
0.234333 0.62591 0
0.272725 0.623484 0
0.30811 0.621454 0
0.341619 0.619898 0
0.374136 0.618753 0
0.405692 0.617823 0
0.436912 0.616861 0
0.467643 0.616022 0
0.49868 0.615335 0
0.529229 0.614389 0
0.560128 0.613306 0
0.591302 0.612284 0
0.622522 0.611261 0
0.654032 0.609873 0
0.685542 0.608347 0
0.717678 0.60679 0
0.74995 0.604868 0
0.782361 0.602914 0
0.815457 0.600824 0
0.848905 0.598596 0
0.882338 0.596048 0
0.916335 0.593271 0
0.950805 0.590616 0
0.985763 0.587564 0
1 0.584405 0
1 0.58114 0
1 0.577554 0
1 0.573739 0
0 0.695155 0
0 0.692958 0
0.0254368 0.68867 0
0.0984207 0.676249 0
0.183886 0.660838 0
0.229419 0.655863 0
0.268376 0.652628 0
0.30399 0.650507 0
0.337713 0.64889 0
0.369894 0.647501 0
0.401221 0.646265 0
0.432441 0.645335 0
0.462928 0.644282 0
0.493523 0.643229 0
0.52398 0.642283 0
0.554757 0.641199 0
0.585504 0.639811 0
0.616205 0.638331 0
0.647684 0.636927 0
0.679103 0.635218 0
0.710964 0.633341 0
0.743389 0.631434 0
0.775677 0.629175 0
0.808576 0.626673 0
0.841932 0.624063 0
0.875715 0.621576 0
0.909895 0.618647 0
0.944198 0.615564 0
0.9794 0.612421 0
1 0.608988 0
1 0.605371 0
1 0.601663 0
1 0.597879 0
0 0.725353 0
0 0.723232 0
0.0172885 0.719493 0
0.0774853 0.710262 0
0.175128 0.691035 0
0.222736 0.685496 0
0.26244 0.682078 0
0.298344 0.679438 0
0.331991 0.677394 0
0.364446 0.67599 0
0.395773 0.674601 0
0.426703 0.673274 0
0.457206 0.672221 0
0.487495 0.670848 0
0.51754 0.669474 0
0.547921 0.668025 0
0.578714 0.666758 0
0.609293 0.665156 0
0.640345 0.663294 0
0.671778 0.661509 0
0.703426 0.659358 0
0.735607 0.657053 0
0.767956 0.654673 0
0.801144 0.652232 0
0.834501 0.649393 0
0.867979 0.646433 0
0.902388 0.643458 0
0.936782 0.640238 0
0.971817 0.63679 0
1 0.633356 0
1 0.629557 0
1 0.62565 0
1 0.621546 0
0 0.755688 0
0 0.753613 0
0.00723278 0.749935 0
0.0612802 0.742489 0
0.163745 0.721691 0
0.213794 0.715084 0
0.254307 0.711055 0
0.290929 0.7084 0
0.32459 0.706172 0
0.356847 0.704173 0
0.388357 0.702602 0
0.419028 0.700938 0
0.449226 0.699443 0
0.479484 0.697902 0
0.509651 0.696574 0
0.539818 0.694865 0
0.570199 0.693019 0
0.600824 0.691402 0
0.631846 0.689387 0
0.663096 0.687251 0
0.694865 0.685115 0
0.727016 0.682597 0
0.759274 0.679957 0
0.792248 0.677119 0
0.825895 0.674342 0
0.859449 0.671244 0
0.89366 0.667887 0
0.928145 0.664576 0
0.963195 0.66096 0
0.998337 0.657237 0
1 0.653315 0
1 0.649454 0
1 0.645212 0
0 0.78587 0
0 0.784024 0
0 0.780621 0
0.0443885 0.773907 0
0.148501 0.752529 0
0.20238 0.744945 0
0.243778 0.740337 0
0.280644 0.736858 0
0.314961 0.734386 0
0.347433 0.732143 0
0.379004 0.730083 0
0.409613 0.728435 0
0.439704 0.72665 0
0.469856 0.724758 0
0.499901 0.722942 0
0.530144 0.721325 0
0.56054 0.719341 0
0.590906 0.717281 0
0.621973 0.715175 0
0.653239 0.71284 0
0.684794 0.710369 0
0.716945 0.707698 0
0.749432 0.705119 0
0.782361 0.702068 0
0.815717 0.698863 0
0.849378 0.695735 0
0.883635 0.692302 0
0.917937 0.688731 0
0.952895 0.684962 0
0.988083 0.681224 0
1 0.677134 0
1 0.672999 0
1 0.668788 0
0 0.816495 0
0 0.814542 0
0 0.811399 0
0.0256199 0.805341 0
0.128481 0.783886 0
0.187472 0.774365 0
0.230854 0.769329 0
0.268223 0.765545 0
0.302693 0.762463 0
0.335653 0.759915 0
0.3673 0.757549 0
0.398077 0.755413 0
0.428534 0.753338 0
0.458839 0.751492 0
0.489036 0.749355 0
0.51902 0.747219 0
0.549584 0.745174 0
0.580056 0.742977 0
0.611048 0.740551 0
0.64239 0.738018 0
0.673976 0.735485 0
0.70605 0.732601 0
0.738354 0.729641 0
0.771405 0.726635 0
0.804776 0.723354 0
0.838209 0.719921 0
0.872312 0.716289 0
0.906676 0.712734 0
0.941527 0.708843 0
0.976532 0.704875 0
1 0.700893 0
1 0.696605 0
1 0.692241 0
0 0.846998 0
0 0.845182 0
0 0.841886 0
0.00444038 0.836347 0
0.0997482 0.816999 0
0.169375 0.804273 0
0.214435 0.798138 0
0.253269 0.793912 0
0.288579 0.790463 0
0.321767 0.787503 0
0.353552 0.784939 0
0.38471 0.782559 0
0.415503 0.780102 0
0.445792 0.777798 0
0.476341 0.775631 0
0.506569 0.773327 0
0.537118 0.77084 0
0.567681 0.768353 0
0.59881 0.76585 0
0.630198 0.763088 0
0.661707 0.760266 0
0.69398 0.757397 0
0.726314 0.754223 0
0.759091 0.750896 0
0.792386 0.747433 0
0.825971 0.74406 0
0.860044 0.740322 0
0.894163 0.736492 0
0.929091 0.732616 0
0.964065 0.728496 0
0.999359 0.724285 0
1 0.719921 0
1 0.715663 0
0 0.877607 0
0 0.876081 0
0 0.872816 0
0 0.867323 0
0.0472114 0.855314 0
0.147692 0.834394 0
0.195804 0.827314 0
0.235523 0.822385 0
0.271717 0.818418 0
0.30573 0.815152 0
0.338231 0.812116 0
0.369818 0.809323 0
0.401175 0.806775 0
0.431724 0.804135 0
0.462318 0.801495 0
0.492729 0.798947 0
0.523629 0.796399 0
0.554482 0.793637 0
0.585504 0.790784 0
0.61709 0.787961 0
0.6486 0.784924 0
0.68072 0.78172 0
0.71313 0.778424 0
0.745998 0.775174 0
0.779217 0.771557 0
0.812543 0.76788 0
0.846677 0.764187 0
0.880751 0.760281 0
0.915419 0.756191 0
0.950515 0.752117 0
0.985656 0.74786 0
1 0.74342 0
1 0.738964 0
0 0.908278 0
0 0.906844 0
0 0.903853 0
0 0.898756 0
0.0119631 0.888762 0
0.122332 0.864622 0
0.173999 0.856413 0
0.215976 0.850904 0
0.253315 0.846403 0
0.287953 0.842618 0
0.321263 0.839338 0
0.353674 0.836057 0
0.385199 0.833021 0
0.416327 0.830137 0
0.447562 0.827314 0
0.478309 0.824399 0
0.509331 0.821378 0
0.540597 0.81854 0
0.571679 0.815518 0
0.60325 0.81236 0
0.634974 0.809339 0
0.667109 0.805951 0
0.69955 0.802472 0
0.732143 0.798932 0
0.765499 0.795407 0
0.798779 0.791653 0
0.83267 0.787701 0
0.866758 0.783825 0
0.901381 0.779706 0
0.936294 0.775433 0
0.971267 0.77113 0
1 0.766827 0
1 0.76231 0
0 0.939116 0
0 0.937881 0
0 0.934997 0
0 0.929793 0
0 0.920989 0
0.0932784 0.895644 0
0.150515 0.885618 0
0.194446 0.879133 0
0.233402 0.874235 0
0.269154 0.869947 0
0.303502 0.865995 0
0.336583 0.862593 0
0.368704 0.859159 0
0.400351 0.855863 0
0.431601 0.852674 0
0.46305 0.849668 0
0.494194 0.846479 0
0.525567 0.843214 0
0.556924 0.840146 0
0.588602 0.836774 0
0.620249 0.833417 0
0.652461 0.829923 0
0.6851 0.82649 0
0.717632 0.822858 0
0.750759 0.819043 0
0.78407 0.81532 0
0.81796 0.811368 0
0.851926 0.807309 0
0.886351 0.803128 0
0.921324 0.798962 0
0.956176 0.794614 0
0.991638 0.790127 0
1 0.785641 0
0 0.969955 0
0 0.968505 0
0 0.965942 0
0 0.961181 0
0 0.95259 0
0.0594186 0.927016 0
0.125063 0.914839 0
0.171878 0.907439 0
0.212345 0.901671 0
