luts/CINECOLOR_DYNAMIC_RANGER_03.cube
TITLE "Generated by Resolve"
LUT_3D_SIZE 5
0.0908827 0.0814069 0.0831464
0.351736 0.0928054 0.0945449
0.565621 0.104509 0.106172
0.782788 0.107973 0.1093
0.994842 0.108873 0.109529
0.102312 0.3355 0.0945602
0.343526 0.327092 0.0859693
0.544121 0.327977 0.0844739
0.746899 0.327535 0.0753948
0.940948 0.329778 0.0652476
0.0965438 0.540856 0.0898756
0.342397 0.52755 0.0801709
0.54284 0.527718 0.0825513
0.744411 0.528634 0.0801099
0.936233 0.532433 0.079469
0.0727092 0.751629 0.0691997
0.33962 0.733272 0.0672618
0.54226 0.732708 0.0762951
0.743618 0.733242 0.078233
0.933898 0.736202 0.0805219
0.0558328 0.961501 0.0572213
0.344579 0.934447 0.0675364
0.546944 0.931853 0.0792554
0.746563 0.930312 0.0811322
0.934417 0.930907 0.0817731
0.0965591 0.0870832 0.332937
0.353475 0.0946365 0.340124
0.565011 0.103868 0.351995
0.780163 0.105257 0.363363
0.98999 0.103868 0.37995
0.10016 0.333379 0.336461
0.340703 0.324285 0.327367
0.540612 0.324514 0.327596
0.742565 0.323445 0.326513
0.935439 0.324773 0.327825
0.09337 0.536614 0.337682
0.339147 0.523964 0.325811
0.539498 0.524407 0.326757
0.740856 0.52549 0.327382
0.932113 0.529046 0.330282
0.0728466 0.745144 0.336156
0.336522 0.729046 0.323247
0.539055 0.729122 0.325612
0.739971 0.729717 0.326604
0.929793 0.732555 0.329351
0.0673381 0.94963 0.34316
0.341192 0.92932 0.327932
0.543328 0.927474 0.329686
0.742214 0.925765 0.328847
0.929656 0.926284 0.329427
0.10399 0.0946212 0.541482
0.358099 0.098436 0.545098
0.567956 0.105394 0.555688
0.782269 0.105638 0.568246
0.992035 0.102907 0.587381
0.0997482 0.334188 0.537728
0.340902 0.324468 0.527977
0.540505 0.324254 0.528237
0.742321 0.32314 0.52874
0.934997 0.324529 0.531929
0.0930495 0.536339 0.539223
0.3393 0.52398 0.526848
0.539818 0.524758 0.527611
0.740887 0.525765 0.528634
0.931975 0.529412 0.53228
0.0761883 0.744274 0.540246
0.337163 0.728939 0.52604
0.539422 0.729229 0.527184
0.739788 0.729595 0.527703
0.929412 0.732509 0.530632
0.0738994 0.947372 0.547433
0.341558 0.928496 0.530892
0.543267 0.926863 0.531029
0.741573 0.924987 0.529549
0.928374 0.925109 0.529656
0.108812 0.0999313 0.754543
0.363073 0.100603 0.755001
0.572168 0.105699 0.764508
0.786587 0.104494 0.777966
1 0.0985428 0.804105
0.0972915 0.335088 0.743618
0.340566 0.324163 0.732555
0.54052 0.323674 0.732708
0.74229 0.32224 0.733745
0.935225 0.32401 0.738109
0.090425 0.536553 0.744366
0.338811 0.523812 0.730999
0.53991 0.524834 0.731548
0.740917 0.525734 0.732631
0.932021 0.529458 0.736645
0.0758526 0.744305 0.746349
0.337057 0.728801 0.7308
0.539422 0.729183 0.731136
0.73959 0.729427 0.731365
0.928801 0.73196 0.733898
0.0749371 0.946532 0.753277
0.341283 0.927871 0.73547
0.54258 0.92604 0.734295
0.740566 0.923934 0.732341
0.926879 0.923629 0.732006
0.113405 0.105165 0.957565
0.368765 0.102434 0.954986
0.577661 0.106111 0.963607
0.792935 0.10309 0.978164
1 0.0950179 1
0.0946365 0.336797 0.939559
0.34081 0.324437 0.92697
0.541375 0.323781 0.926909
0.743435 0.322377 0.928359
0.936584 0.324437 0.933318
0.0880598 0.53785 0.939193
0.33933 0.524712 0.92488
0.540871 0.52578 0.925048
0.741924 0.526619 0.926131
0.932799 0.530068 0.930022
0.0753796 0.745434 0.941299
0.337774 0.729656 0.924651
0.539971 0.729763 0.924117
0.740185 0.730022 0.924208
0.929168 0.732357 0.926543
0.0748302 0.946807 0.947585
0.341558 0.9281 0.928786
0.542443 0.925917 0.926543
0.740246 0.923613 0.924239
0.926207 0.922957 0.923583
