luts/CLASSIC_NOIR.cube
TITLE "Generated by Resolve"
LUT_3D_SIZE 5
0 0 0
0.0106966 0.0106966 0.0106966
0.0359808 0.0359808 0.0359808
0.0750591 0.0750591 0.0750591
0.12694 0.12694 0.12694
0.0913252 0.0913252 0.0913252
0.148043 0.148043 0.148043
0.219333 0.219333 0.219333
0.303044 0.303044 0.303044
0.393973 0.393973 0.393973
0.332509 0.332509 0.332509
0.42385 0.42385 0.42385
0.517296 0.517296 0.517296
0.613077 0.613077 0.613077
0.706615 0.706615 0.706615
0.645014 0.645014 0.645014
0.736385 0.736385 0.736385
0.818341 0.818341 0.818341
0.876829 0.876829 0.876829
0.919051 0.919051 0.919051
0.892454 0.892454 0.892454
0.932662 0.932662 0.932662
0.97026 0.97026 0.97026
1 1 1
1 1 1
0 0 0
0.0194095 0.0194095 0.0194095
0.0516518 0.0516518 0.0516518
0.0953231 0.0953231 0.0953231
0.152255 0.152255 0.152255
0.113436 0.113436 0.113436
0.175326 0.175326 0.175326
0.251713 0.251713 0.251713
0.338811 0.338811 0.338811
0.430655 0.430655 0.430655
0.368597 0.368597 0.368597
0.460655 0.460655 0.460655
0.555413 0.555413 0.555413
0.650889 0.650889 0.650889
0.742473 0.742473 0.742473
0.682307 0.682307 0.682307
0.771145 0.771145 0.771145
0.84596 0.84596 0.84596
0.895628 0.895628 0.895628
0.935576 0.935576 0.935576
0.91014 0.91014 0.91014
0.949187 0.949187 0.949187
0.986572 0.986572 0.986572
1 1 1
1 1 1
0.00894179 0.00894179 0.00894179
0.033875 0.033875 0.033875
0.0709544 0.0709544 0.0709544
0.119387 0.119387 0.119387
0.181643 0.181643 0.181643
0.139208 0.139208 0.139208
0.206821 0.206821 0.206821
0.287846 0.287846 0.287846
0.3776 0.3776 0.3776
0.470039 0.470039 0.470039
0.407904 0.407904 0.407904
0.50074 0.50074 0.50074
0.596338 0.596338 0.596338
0.690929 0.690929 0.690929
0.77998 0.77998 0.77998
0.721614 0.721614 0.721614
0.807263 0.807263 0.807263
0.870665 0.870665 0.870665
0.914763 0.914763 0.914763
0.954284 0.954284 0.954284
0.928847 0.928847 0.928847
0.96762 0.96762 0.96762
1 1 1
1 1 1
1 1 1
0.0185245 0.0185245 0.0185245
0.0499886 0.0499886 0.0499886
0.0911879 0.0911879 0.0911879
0.144656 0.144656 0.144656
0.212497 0.212497 0.212497
0.166415 0.166415 0.166415
0.239414 0.239414 0.239414
0.324514 0.324514 0.324514
0.415915 0.415915 0.415915
0.509071 0.509071 0.509071
0.446006 0.446006 0.446006
0.540246 0.540246 0.540246
0.636042 0.636042 0.636042
0.729152 0.729152 0.729152
0.81471 0.81471 0.81471
0.758892 0.758892 0.758892
0.838773 0.838773 0.838773
0.891508 0.891508 0.891508
0.933028 0.933028 0.933028
0.972045 0.972045 0.972045
0.946777 0.946777 0.946777
0.985138 0.985138 0.985138
1 1 1
1 1 1
1 1 1
0.0305638 0.0305638 0.0305638
0.066392 0.066392 0.066392
0.111803 0.111803 0.111803
0.170214 0.170214 0.170214
0.243305 0.243305 0.243305
0.193927 0.193927 0.193927
0.271855 0.271855 0.271855
0.359899 0.359899 0.359899
0.45211 0.45211 0.45211
0.546487 0.546487 0.546487
0.482383 0.482383 0.482383
0.577905 0.577905 0.577905
0.673289 0.673289 0.673289
0.764324 0.764324 0.764324
0.843458 0.843458 0.843458
0.792935 0.792935 0.792935
0.862776 0.862776 0.862776
0.909392 0.909392 0.909392
0.949691 0.949691 0.949691
0.988205 0.988205 0.988205
0.963409 0.963409 0.963409
1 1 1
1 1 1
1 1 1
1 1 1
