luts/CLASSIC_NOIR.cube
TITLE "Generated by Resolve"
LUT_3D_SIZE 9
0 0 0
0 0 0
0.0106966 0.0106966 0.0106966
0.0208591 0.0208591 0.0208591
0.0359808 0.0359808 0.0359808
0.0541695 0.0541695 0.0541695
0.0750591 0.0750591 0.0750591
0.0992142 0.0992142 0.0992142
0.12694 0.12694 0.12694
0.0258793 0.0258793 0.0258793
0.042237 0.042237 0.042237
0.0613565 0.0613565 0.0613565
0.0833143 0.0833143 0.0833143
0.108476 0.108476 0.108476
0.137316 0.137316 0.137316
0.169772 0.169772 0.169772
0.205966 0.205966 0.205966
0.245716 0.245716 0.245716
0.0913252 0.0913252 0.0913252
0.117998 0.117998 0.117998
0.148043 0.148043 0.148043
0.18175 0.18175 0.18175
0.219333 0.219333 0.219333
0.259983 0.259983 0.259983
0.303044 0.303044 0.303044
0.348196 0.348196 0.348196
0.393973 0.393973 0.393973
0.193576 0.193576 0.193576
0.232334 0.232334 0.232334
0.274098 0.274098 0.274098
0.317983 0.317983 0.317983
0.363043 0.363043 0.363043
0.408652 0.408652 0.408652
0.454719 0.454719 0.454719
0.501869 0.501869 0.501869
0.549813 0.549813 0.549813
0.332509 0.332509 0.332509
0.378042 0.378042 0.378042
0.42385 0.42385 0.42385
0.470069 0.470069 0.470069
0.517296 0.517296 0.517296
0.565148 0.565148 0.565148
0.613077 0.613077 0.613077
0.660471 0.660471 0.660471
0.706615 0.706615 0.706615
0.485466 0.485466 0.485466
0.533227 0.533227 0.533227
0.581247 0.581247 0.581247
0.628885 0.628885 0.628885
0.675624 0.675624 0.675624
0.721004 0.721004 0.721004
0.764446 0.764446 0.764446
0.805585 0.805585 0.805585
0.841123 0.841123 0.841123
0.645014 0.645014 0.645014
0.691585 0.691585 0.691585
0.736385 0.736385 0.736385
0.778866 0.778866 0.778866
0.818341 0.818341 0.818341
0.850965 0.850965 0.850965
0.876829 0.876829 0.876829
0.898848 0.898848 0.898848
0.919051 0.919051 0.919051
0.793194 0.793194 0.793194
0.831037 0.831037 0.831037
0.860899 0.860899 0.860899
0.884916 0.884916 0.884916
0.905928 0.905928 0.905928
0.925628 0.925628 0.925628
0.944732 0.944732 0.944732
0.96379 0.96379 0.96379
0.982422 0.982422 0.982422
0.892454 0.892454 0.892454
0.913069 0.913069 0.913069
0.932662 0.932662 0.932662
0.951537 0.951537 0.951537
0.97026 0.97026 0.97026
0.988647 0.988647 0.988647
1 1 1
1 1 1
1 1 1
0 0 0
0.00299077 0.00299077 0.00299077
0.0148318 0.0148318 0.0148318
0.0270237 0.0270237 0.0270237
0.0433967 0.0433967 0.0433967
0.0626993 0.0626993 0.0626993
0.0847181 0.0847181 0.0847181
0.11017 0.11017 0.11017
0.13904 0.13904 0.13904
0.0324865 0.0324865 0.0324865
0.0501259 0.0501259 0.0501259
0.0702678 0.0702678 0.0702678
0.09337 0.09337 0.09337
0.119905 0.119905 0.119905
0.149844 0.149844 0.149844
0.183703 0.183703 0.183703
0.221256 0.221256 0.221256
0.262135 0.262135 0.262135
0.1019 0.1019 0.1019
0.1299 0.1299 0.1299
0.161288 0.161288 0.161288
0.196231 0.196231 0.196231
0.23505 0.23505 0.23505
0.276722 0.276722 0.276722
0.320531 0.320531 0.320531
0.36614 0.36614 0.36614
0.412024 0.412024 0.412024
0.208484 0.208484 0.208484
0.248447 0.248447 0.248447
0.291127 0.291127 0.291127
0.335409 0.335409 0.335409
0.381048 0.381048 0.381048
0.426642 0.426642 0.426642
0.472984 0.472984 0.472984
0.520516 0.520516 0.520516
0.568643 0.568643 0.568643
0.350317 0.350317 0.350317
0.396078 0.396078 0.396078
0.441779 0.441779 0.441779
0.488487 0.488487 0.488487
0.536141 0.536141 0.536141
0.583963 0.583963 0.583963
0.631708 0.631708 0.631708
0.67863 0.67863 0.67863
0.7243 0.7243 0.7243
0.504143 0.504143 0.504143
0.552087 0.552087 0.552087
0.600092 0.600092 0.600092
0.647288 0.647288 0.647288
0.693706 0.693706 0.693706
0.738552 0.738552 0.738552
0.781247 0.781247 0.781247
0.82063 0.82063 0.82063
0.853086 0.853086 0.853086
0.66331 0.66331 0.66331
0.709361 0.709361 0.709361
0.753735 0.753735 0.753735
0.795316 0.795316 0.795316
0.832776 0.832776 0.832776
0.862242 0.862242 0.862242
0.886244 0.886244 0.886244
0.907362 0.907362 0.907362
0.927306 0.927306 0.927306
0.809186 0.809186 0.809186
0.844068 0.844068 0.844068
0.871214 0.871214 0.871214
0.893904 0.893904 0.893904
0.914366 0.914366 0.914366
0.933776 0.933776 0.933776
0.952911 0.952911 0.952911
0.971801 0.971801 0.971801
0.990356 0.990356 0.990356
0.901305 0.901305 0.901305
0.92134 0.92134 0.92134
0.940566 0.940566 0.940566
0.959655 0.959655 0.959655
0.978225 0.978225 0.978225
0.996567 0.996567 0.996567
1 1 1
1 1 1
1 1 1
0 0 0
0.00924697 0.00924697 0.00924697
0.0194095 0.0194095 0.0194095
0.0342412 0.0342412 0.0342412
0.0516518 0.0516518 0.0516518
0.0720531 0.0720531 0.0720531
0.0953231 0.0953231 0.0953231
0.122103 0.122103 0.122103
0.152255 0.152255 0.152255
0.0399939 0.0399939 0.0399939
0.0587015 0.0587015 0.0587015
0.0800641 0.0800641 0.0800641
0.104448 0.104448 0.104448
0.132067 0.132067 0.132067
0.1635 0.1635 0.1635
0.198672 0.198672 0.198672
0.237522 0.237522 0.237522
0.279454 0.279454 0.279454
0.113436 0.113436 0.113436
0.142535 0.142535 0.142535
0.175326 0.175326 0.175326
0.211917 0.211917 0.211917
0.251713 0.251713 0.251713
0.294102 0.294102 0.294102
0.338811 0.338811 0.338811
0.384497 0.384497 0.384497
0.430655 0.430655 0.430655
0.224399 0.224399 0.224399
0.265476 0.265476 0.265476
0.30901 0.30901 0.30901
0.353841 0.353841 0.353841
0.399512 0.399512 0.399512
0.445319 0.445319 0.445319
0.492058 0.492058 0.492058
0.539849 0.539849 0.539849
0.588022 0.588022 0.588022
0.368597 0.368597 0.368597
0.414725 0.414725 0.414725
0.460655 0.460655 0.460655
0.507668 0.507668 0.507668
0.555413 0.555413 0.555413
0.603326 0.603326 0.603326
0.650889 0.650889 0.650889
0.697505 0.697505 0.697505
0.742473 0.742473 0.742473
0.523293 0.523293 0.523293
0.571389 0.571389 0.571389
0.619333 0.619333 0.619333
0.666453 0.666453 0.666453
0.712291 0.712291 0.712291
0.756329 0.756329 0.756329
0.798291 0.798291 0.798291
0.835492 0.835492 0.835492
0.864652 0.864652 0.864652
0.682307 0.682307 0.682307
0.727794 0.727794 0.727794
0.771145 0.771145 0.771145
0.811826 0.811826 0.811826
0.84596 0.84596 0.84596
0.872801 0.872801 0.872801
0.895628 0.895628 0.895628
0.916106 0.916106 0.916106
0.935576 0.935576 0.935576
0.824704 0.824704 0.824704
0.856352 0.856352 0.856352
0.881468 0.881468 0.881468
0.903029 0.903029 0.903029
0.923049 0.923049 0.923049
0.942214 0.942214 0.942214
0.96141 0.96141 0.96141
0.980179 0.980179 0.980179
0.998657 0.998657 0.998657
0.91014 0.91014 0.91014
0.929976 0.929976 0.929976
0.949187 0.949187 0.949187
0.968093 0.968093 0.968093
0.986572 0.986572 0.986572
1 1 1
1 1 1
1 1 1
1 1 1
0.00204471 0.00204471 0.00204471
0.0146334 0.0146334 0.0146334
0.0262913 0.0262913 0.0262913
0.0423285 0.0423285 0.0423285
0.0610208 0.0610208 0.0610208
0.0825971 0.0825971 0.0825971
0.10692 0.10692 0.10692
0.135042 0.135042 0.135042
0.166629 0.166629 0.166629
0.0486 0.0486 0.0486
0.0682994 0.0682994 0.0682994
0.0909438 0.0909438 0.0909438
0.116518 0.116518 0.116518
0.145754 0.145754 0.145754
0.178515 0.178515 0.178515
0.215 0.215 0.215
0.2551 0.2551 0.2551
0.297993 0.297993 0.297993
0.125994 0.125994 0.125994
0.156481 0.156481 0.156481
0.190738 0.190738 0.190738
0.228565 0.228565 0.228565
0.269413 0.269413 0.269413
0.312901 0.312901 0.312901
0.35819 0.35819 0.35819
0.40412 0.40412 0.40412
0.45005 0.45005 0.45005
0.241611 0.241611 0.241611
0.283742 0.283742 0.283742
0.327794 0.327794 0.327794
0.373327 0.373327 0.373327
0.419059 0.419059 0.419059
0.464927 0.464927 0.464927
0.512337 0.512337 0.512337
0.560189 0.560189 0.560189
0.60827 0.60827 0.60827
0.388159 0.388159 0.388159
0.434043 0.434043 0.434043
0.480583 0.480583 0.480583
0.528008 0.528008 0.528008
0.575921 0.575921 0.575921
0.623514 0.623514 0.623514
0.670787 0.670787 0.670787
0.716915 0.716915 0.716915
0.761364 0.761364 0.761364
0.54374 0.54374 0.54374
0.591775 0.591775 0.591775
0.639475 0.639475 0.639475
0.686213 0.686213 0.686213
0.731548 0.731548 0.731548
0.774975 0.774975 0.774975
0.815396 0.815396 0.815396
0.849287 0.849287 0.849287
0.875944 0.875944 0.875944
0.701869 0.701869 0.701869
0.746715 0.746715 0.746715
0.789456 0.789456 0.789456
0.827939 0.827939 0.827939
0.858854 0.858854 0.858854
0.883604 0.883604 0.883604
0.905333 0.905333 0.905333
0.925444 0.925444 0.925444
0.94493 0.94493 0.94493
0.839933 0.839933 0.839933
0.868101 0.868101 0.868101
0.891676 0.891676 0.891676
0.91249 0.91249 0.91249
0.932326 0.932326 0.932326
0.951492 0.951492 0.951492
0.970504 0.970504 0.970504
0.989166 0.989166 0.989166
1 1 1
0.919509 0.919509 0.919509
0.938979 0.938979 0.938979
0.958389 0.958389 0.958389
0.977142 0.977142 0.977142
0.995544 0.995544 0.995544
1 1 1
1 1 1
1 1 1
1 1 1
0.00894179 0.00894179 0.00894179
0.0191958 0.0191958 0.0191958
0.033875 0.033875 0.033875
0.051133 0.051133 0.051133
0.0709544 0.0709544 0.0709544
0.093492 0.093492 0.093492
0.119387 0.119387 0.119387
0.148638 0.148638 0.148638
0.181643 0.181643 0.181643
0.0578317 0.0578317 0.0578317
0.0786603 0.0786603 0.0786603
0.102419 0.102419 0.102419
0.129473 0.129473 0.129473
0.159869 0.159869 0.159869
0.194064 0.194064 0.194064
0.231952 0.231952 0.231952
0.273182 0.273182 0.273182
0.31696 0.31696 0.31696
0.139208 0.139208 0.139208
0.171252 0.171252 0.171252
0.206821 0.206821 0.206821
0.245838 0.245838 0.245838
0.287846 0.287846 0.287846
0.332097 0.332097 0.332097
0.3776 0.3776 0.3776
0.423819 0.423819 0.423819
0.470039 0.470039 0.470039
0.259403 0.259403 0.259403
0.30222 0.30222 0.30222
0.347189 0.347189 0.347189
0.392798 0.392798 0.392798
0.438804 0.438804 0.438804
0.485084 0.485084 0.485084
0.532616 0.532616 0.532616
0.580758 0.580758 0.580758
0.628855 0.628855 0.628855
0.407904 0.407904 0.407904
0.453864 0.453864 0.453864
0.50074 0.50074 0.50074
0.548379 0.548379 0.548379
0.596338 0.596338 0.596338
0.644022 0.644022 0.644022
0.690929 0.690929 0.690929
0.736461 0.736461 0.736461
0.77998 0.77998 0.77998
0.564141 0.564141 0.564141
0.612284 0.612284 0.612284
0.659846 0.659846 0.659846
0.706157 0.706157 0.706157
0.750774 0.750774 0.750774
0.793194 0.793194 0.793194
0.831724 0.831724 0.831724
0.862119 0.862119 0.862119
0.886687 0.886687 0.886687
0.721614 0.721614 0.721614
0.765728 0.765728 0.765728
0.807263 0.807263 0.807263
0.842954 0.842954 0.842954
0.870665 0.870665 0.870665
0.893889 0.893889 0.893889
0.914763 0.914763 0.914763
0.934813 0.934813 0.934813
0.954284 0.954284 0.954284
0.853315 0.853315 0.853315
0.879347 0.879347 0.879347
0.901564 0.901564 0.901564
0.921981 0.921981 0.921981
0.941421 0.941421 0.941421
0.960784 0.960784 0.960784
0.979644 0.979644 0.979644
0.998215 0.998215 0.998215
1 1 1
0.928847 0.928847 0.928847
0.948409 0.948409 0.948409
0.96762 0.96762 0.96762
0.986236 0.986236 0.986236
1 1 1
1 1 1
1 1 1
1 1 1
1 1 1
0.014435 0.014435 0.014435
0.0259098 0.0259098 0.0259098
0.0419318 0.0419318 0.0419318
0.0601816 0.0601816 0.0601816
0.0812238 0.0812238 0.0812238
0.104982 0.104982 0.104982
0.13196 0.13196 0.13196
0.16286 0.16286 0.16286
0.197055 0.197055 0.197055
0.0671397 0.0671397 0.0671397
0.0893568 0.0893568 0.0893568
0.114397 0.114397 0.114397
0.14255 0.14255 0.14255
0.174334 0.174334 0.174334
0.209995 0.209995 0.209995
0.24918 0.24918 0.24918
0.291463 0.291463 0.291463
0.335744 0.335744 0.335744
0.153002 0.153002 0.153002
0.186343 0.186343 0.186343
0.223224 0.223224 0.223224
0.263462 0.263462 0.263462
0.306416 0.306416 0.306416
0.351171 0.351171 0.351171
0.397162 0.397162 0.397162
0.443214 0.443214 0.443214
0.489754 0.489754 0.489754
0.277378 0.277378 0.277378
0.321065 0.321065 0.321065
0.366537 0.366537 0.366537
0.412406 0.412406 0.412406
0.458167 0.458167 0.458167
0.505058 0.505058 0.505058
0.552758 0.552758 0.552758
0.600977 0.600977 0.600977
0.648905 0.648905 0.648905
0.427253 0.427253 0.427253
0.473426 0.473426 0.473426
0.52076 0.52076 0.52076
0.568719 0.568719 0.568719
0.616495 0.616495 0.616495
0.663966 0.663966 0.663966
0.71043 0.71043 0.71043
0.755322 0.755322 0.755322
0.798215 0.798215 0.798215
0.58436 0.58436 0.58436
0.632395 0.632395 0.632395
0.679652 0.679652 0.679652
0.725444 0.725444 0.725444
0.769345 0.769345 0.769345
0.81091 0.81091 0.81091
0.845945 0.845945 0.845945
0.873457 0.873457 0.873457
0.896651 0.896651 0.896651
0.740673 0.740673 0.740673
0.784146 0.784146 0.784146
0.823941 0.823941 0.823941
0.856153 0.856153 0.856153
0.881697 0.881697 0.881697
0.903731 0.903731 0.903731
0.924178 0.924178 0.924178
0.943923 0.943923 0.943923
0.963455 0.963455 0.963455
0.865599 0.865599 0.865599
0.889754 0.889754 0.889754
0.911116 0.911116 0.911116
0.931304 0.931304 0.931304
0.950729 0.950729 0.950729
0.969879 0.969879 0.969879
0.988617 0.988617 0.988617
1 1 1
1 1 1
0.937911 0.937911 0.937911
0.957626 0.957626 0.957626
0.976654 0.976654 0.976654
0.995178 0.995178 0.995178
1 1 1
1 1 1
1 1 1
1 1 1
1 1 1
0.0185245 0.0185245 0.0185245
0.0328222 0.0328222 0.0328222
0.0499886 0.0499886 0.0499886
0.0692607 0.0692607 0.0692607
0.0911879 0.0911879 0.0911879
0.116121 0.116121 0.116121
0.144656 0.144656 0.144656
0.176669 0.176669 0.176669
0.212497 0.212497 0.212497
0.0765698 0.0765698 0.0765698
0.0996719 0.0996719 0.0996719
0.125994 0.125994 0.125994
0.155612 0.155612 0.155612
0.188647 0.188647 0.188647
0.225711 0.225711 0.225711
0.266087 0.266087 0.266087
0.3093 0.3093 0.3093
0.354223 0.354223 0.354223
0.166415 0.166415 0.166415
0.201175 0.201175 0.201175
0.239414 0.239414 0.239414
0.280735 0.280735 0.280735
0.324514 0.324514 0.324514
0.369711 0.369711 0.369711
0.415915 0.415915 0.415915
0.462058 0.462058 0.462058
0.509071 0.509071 0.509071
0.294713 0.294713 0.294713
0.339376 0.339376 0.339376
0.385031 0.385031 0.385031
0.43122 0.43122 0.43122
0.477211 0.477211 0.477211
0.524376 0.524376 0.524376
0.572381 0.572381 0.572381
0.620584 0.620584 0.620584
0.668269 0.668269 0.668269
0.446006 0.446006 0.446006
0.492622 0.492622 0.492622
0.540246 0.540246 0.540246
0.58822 0.58822 0.58822
0.636042 0.636042 0.636042
0.683192 0.683192 0.683192
0.729152 0.729152 0.729152
0.773327 0.773327 0.773327
0.81471 0.81471 0.81471
0.603967 0.603967 0.603967
0.65185 0.65185 0.65185
0.698711 0.698711 0.698711
0.743923 0.743923 0.743923
0.78706 0.78706 0.78706
0.826627 0.826627 0.826627
0.858366 0.858366 0.858366
0.883833 0.883833 0.883833
0.905959 0.905959 0.905959
0.758892 0.758892 0.758892
0.801373 0.801373 0.801373
0.838773 0.838773 0.838773
0.867582 0.867582 0.867582
0.891508 0.891508 0.891508
0.912779 0.912779 0.912779
0.933028 0.933028 0.933028
0.952712 0.952712 0.952712
0.972045 0.972045 0.972045
0.876387 0.876387 0.876387
0.89929 0.89929 0.89929
0.920058 0.920058 0.920058
0.939849 0.939849 0.939849
0.959426 0.959426 0.959426
0.978408 0.978408 0.978408
0.997024 0.997024 0.997024
1 1 1
1 1 1
0.946777 0.946777 0.946777
0.966262 0.966262 0.966262
0.985138 0.985138 0.985138
1 1 1
1 1 1
1 1 1
1 1 1
1 1 1
1 1 1
0.0242161 0.0242161 0.0242161
0.0398871 0.0398871 0.0398871
0.0580453 0.0580453 0.0580453
0.078294 0.078294 0.078294
0.101259 0.101259 0.101259
0.127504 0.127504 0.127504
0.157092 0.157092 0.157092
0.190478 0.190478 0.190478
0.227726 0.227726 0.227726
0.0859846 0.0859846 0.0859846
0.110246 0.110246 0.110246
0.13785 0.13785 0.13785
0.168658 0.168658 0.168658
0.20322 0.20322 0.20322
0.241352 0.241352 0.241352
0.282811 0.282811 0.282811
0.326635 0.326635 0.326635
0.372274 0.372274 0.372274
0.180011 0.180011 0.180011
0.215991 0.215991 0.215991
0.255467 0.255467 0.255467
0.297795 0.297795 0.297795
0.342275 0.342275 0.342275
0.387854 0.387854 0.387854
0.433982 0.433982 0.433982
0.48043 0.48043 0.48043
0.527901 0.527901 0.527901
0.312032 0.312032 0.312032
0.357305 0.357305 0.357305
0.40325 0.40325 0.40325
0.449149 0.449149 0.449149
0.495796 0.495796 0.495796
0.543297 0.543297 0.543297
0.591394 0.591394 0.591394
0.639338 0.639338 0.639338
0.686656 0.686656 0.686656
0.464118 0.464118 0.464118
0.511345 0.511345 0.511345
0.559228 0.559228 0.559228
0.607233 0.607233 0.607233
0.654658 0.654658 0.654658
0.701396 0.701396 0.701396
0.746792 0.746792 0.746792
0.790417 0.790417 0.790417
0.829831 0.829831 0.829831
0.622889 0.622889 0.622889
0.67039 0.67039 0.67039
0.716747 0.716747 0.716747
0.761456 0.761456 0.761456
0.8038 0.8038 0.8038
0.840558 0.840558 0.840558
0.869261 0.869261 0.869261
0.893202 0.893202 0.893202
0.914672 0.914672 0.914672
0.776104 0.776104 0.776104
0.817273 0.817273 0.817273
0.85124 0.85124 0.85124
0.877821 0.877821 0.877821
0.900633 0.900633 0.900633
0.92137 0.92137 0.92137
0.941268 0.941268 0.941268
0.961044 0.961044 0.961044
0.980179 0.980179 0.980179
0.886168 0.886168 0.886168
0.90811 0.90811 0.90811
0.928618 0.928618 0.928618
0.948318 0.948318 0.948318
0.967666 0.967666 0.967666
0.986481 0.986481 0.986481
1 1 1
1 1 1
1 1 1
0.955154 0.955154 0.955154
0.974441 0.974441 0.974441
0.993179 0.993179 0.993179
1 1 1
1 1 1
1 1 1
1 1 1
1 1 1
1 1 1
0.0305638 0.0305638 0.0305638
0.0473335 0.0473335 0.0473335
0.066392 0.066392 0.066392
0.0876783 0.0876783 0.0876783
0.111803 0.111803 0.111803
0.139101 0.139101 0.139101
0.170214 0.170214 0.170214
0.20473 0.20473 0.20473
0.243305 0.243305 0.243305
0.0957656 0.0957656 0.0957656
0.121248 0.121248 0.121248
0.149859 0.149859 0.149859
0.18201 0.18201 0.18201
0.217975 0.217975 0.217975
0.257343 0.257343 0.257343
0.299809 0.299809 0.299809
0.344289 0.344289 0.344289
0.390387 0.390387 0.390387
0.193927 0.193927 0.193927
0.231205 0.231205 0.231205
0.271855 0.271855 0.271855
0.315068 0.315068 0.315068
0.359899 0.359899 0.359899
0.406027 0.406027 0.406027
0.45211 0.45211 0.45211
0.498756 0.498756 0.498756
0.546487 0.546487 0.546487
0.329549 0.329549 0.329549
0.375311 0.375311 0.375311
0.421424 0.421424 0.421424
0.467338 0.467338 0.467338
0.514183 0.514183 0.514183
0.561959 0.561959 0.561959
0.610101 0.610101 0.610101
0.65803 0.65803 0.65803
0.705028 0.705028 0.705028
0.482383 0.482383 0.482383
0.52987 0.52987 0.52987
0.577905 0.577905 0.577905
0.625895 0.625895 0.625895
0.673289 0.673289 0.673289
0.719615 0.719615 0.719615
0.764324 0.764324 0.764324
0.806806 0.806806 0.806806
0.843458 0.843458 0.843458
0.64152 0.64152 0.64152
0.688853 0.688853 0.688853
0.734722 0.734722 0.734722
0.778576 0.778576 0.778576
0.819501 0.819501 0.819501
0.852918 0.852918 0.852918
0.879515 0.879515 0.879515
0.902266 0.902266 0.902266
0.923339 0.923339 0.923339
0.792935 0.792935 0.792935
0.832181 0.832181 0.832181
0.862776 0.862776 0.862776
0.887495 0.887495 0.887495
0.909392 0.909392 0.909392
0.929839 0.929839 0.929839
0.949691 0.949691 0.949691
0.969238 0.969238 0.969238
0.988205 0.988205 0.988205
0.895445 0.895445 0.895445
0.916716 0.916716 0.916716
0.936797 0.936797 0.936797
0.956664 0.956664 0.956664
0.975799 0.975799 0.975799
0.994476 0.994476 0.994476
1 1 1
1 1 1
1 1 1
0.963409 0.963409 0.963409
0.982513 0.982513 0.982513
1 1 1
1 1 1
1 1 1
1 1 1
1 1 1
1 1 1
1 1 1
