luts/CLASSIC_NOIR.cube
TITLE "Generated by Resolve"
LUT_3D_SIZE 33
0 0 0
0 0 0
0 0 0
0 0 0
0 0 0
0.00030518 0.00030518 0.00030518
0.00399786 0.00399786 0.00399786
0.00749218 0.00749218 0.00749218
0.0106966 0.0106966 0.0106966
0.0135195 0.0135195 0.0135195
0.0150759 0.0150759 0.0150759
0.0178531 0.0178531 0.0178531
0.0208591 0.0208591 0.0208591
0.0244297 0.0244297 0.0244297
0.0280003 0.0280003 0.0280003
0.0320134 0.0320134 0.0320134
0.0359808 0.0359808 0.0359808
0.0403906 0.0403906 0.0403906
0.0447242 0.0447242 0.0447242
0.049485 0.049485 0.049485
0.0541695 0.0541695 0.0541695
0.0590982 0.0590982 0.0590982
0.0643626 0.0643626 0.0643626
0.0696117 0.0696117 0.0696117
0.0750591 0.0750591 0.0750591
0.0809491 0.0809491 0.0809491
0.0868238 0.0868238 0.0868238
0.0929122 0.0929122 0.0929122
0.0992142 0.0992142 0.0992142
0.105989 0.105989 0.105989
0.112734 0.112734 0.112734
0.119722 0.119722 0.119722
0.12694 0.12694 0.12694
0 0 0
0 0 0
0.00155642 0.00155642 0.00155642
0.00520333 0.00520333 0.00520333
0.00862135 0.00862135 0.00862135
0.0117342 0.0117342 0.0117342
0.0143435 0.0143435 0.0143435
0.0159762 0.0159762 0.0159762
0.0189364 0.0189364 0.0189364
0.0221103 0.0221103 0.0221103
0.0257877 0.0257877 0.0257877
0.0294194 0.0294194 0.0294194
0.0335241 0.0335241 0.0335241
0.0375525 0.0375525 0.0375525
0.0420081 0.0420081 0.0420081
0.0464179 0.0464179 0.0464179
0.0511025 0.0511025 0.0511025
0.0559854 0.0559854 0.0559854
0.060914 0.060914 0.060914
0.0662699 0.0662699 0.0662699
0.0715648 0.0715648 0.0715648
0.0770581 0.0770581 0.0770581
0.0829633 0.0829633 0.0829633
0.0889601 0.0889601 0.0889601
0.0951095 0.0951095 0.0951095
0.101488 0.101488 0.101488
0.10808 0.10808 0.10808
0.115129 0.115129 0.115129
0.122225 0.122225 0.122225
0.129519 0.129519 0.129519
0.137041 0.137041 0.137041
0.144793 0.144793 0.144793
0.152789 0.152789 0.152789
0.00637827 0.00637827 0.00637827
0.00968948 0.00968948 0.00968948
0.0126802 0.0126802 0.0126802
0.0148318 0.0148318 0.0148318
0.0169528 0.0169528 0.0169528
0.0198672 0.0198672 0.0198672
0.0233768 0.0233768 0.0233768
0.0269932 0.0269932 0.0269932
0.0308843 0.0308843 0.0308843
0.0348516 0.0348516 0.0348516
0.0391699 0.0391699 0.0391699
0.0434424 0.0434424 0.0434424
0.0481422 0.0481422 0.0481422
0.052781 0.052781 0.052781
0.057847 0.057847 0.057847
0.0628367 0.0628367 0.0628367
0.0679942 0.0679942 0.0679942
0.0736095 0.0736095 0.0736095
0.0791638 0.0791638 0.0791638
0.0849317 0.0849317 0.0849317
0.0910353 0.0910353 0.0910353
0.0973831 0.0973831 0.0973831
0.103822 0.103822 0.103822
0.110491 0.110491 0.110491
0.117403 0.117403 0.117403
0.124529 0.124529 0.124529
0.131899 0.131899 0.131899
0.139498 0.139498 0.139498
0.147539 0.147539 0.147539
0.155566 0.155566 0.155566
0.16376 0.16376 0.16376
0.172305 0.172305 0.172305
0.181125 0.181125 0.181125
0.0151369 0.0151369 0.0151369
0.0179599 0.0179599 0.0179599
0.0210117 0.0210117 0.0210117
0.0246281 0.0246281 0.0246281
0.0282444 0.0282444 0.0282444
0.0323186 0.0323186 0.0323186
0.0363165 0.0363165 0.0363165
0.0407568 0.0407568 0.0407568
0.0451209 0.0451209 0.0451209
0.049897 0.049897 0.049897
0.0545968 0.0545968 0.0545968
0.0594797 0.0594797 0.0594797
0.0647746 0.0647746 0.0647746
0.0700084 0.0700084 0.0700084
0.0754406 0.0754406 0.0754406
0.0813153 0.0813153 0.0813153
0.0871595 0.0871595 0.0871595
0.0932174 0.0932174 0.0932174
0.0994888 0.0994888 0.0994888
0.106233 0.106233 0.106233
0.112978 0.112978 0.112978
0.119936 0.119936 0.119936
0.127138 0.127138 0.127138
0.134569 0.134569 0.134569
0.142245 0.142245 0.142245
0.150164 0.150164 0.150164
0.158328 0.158328 0.158328
0.166751 0.166751 0.166751
0.175402 0.175402 0.175402
0.184298 0.184298 0.184298
0.193454 0.193454 0.193454
0.202853 0.202853 0.202853
0.212436 0.212436 0.212436
0.0258793 0.0258793 0.0258793
0.029572 0.029572 0.029572
0.0337072 0.0337072 0.0337072
0.0377966 0.0377966 0.0377966
0.042237 0.042237 0.042237
0.0467536 0.0467536 0.0467536
0.0513924 0.0513924 0.0513924
0.0563973 0.0563973 0.0563973
0.0613565 0.0613565 0.0613565
0.0666209 0.0666209 0.0666209
0.0720378 0.0720378 0.0720378
0.0775311 0.0775311 0.0775311
0.0833143 0.0833143 0.0833143
0.0894179 0.0894179 0.0894179
0.095552 0.095552 0.095552
0.1019 0.1019 0.1019
0.108476 0.108476 0.108476
0.115404 0.115404 0.115404
0.12256 0.12256 0.12256
0.129824 0.129824 0.129824
0.137316 0.137316 0.137316
0.145068 0.145068 0.145068
0.153048 0.153048 0.153048
0.161288 0.161288 0.161288
0.169772 0.169772 0.169772
0.1785 0.1785 0.1785
0.187503 0.187503 0.187503
0.19649 0.19649 0.19649
0.205966 0.205966 0.205966
0.215656 0.215656 0.215656
0.225574 0.225574 0.225574
0.235676 0.235676 0.235676
0.245716 0.245716 0.245716
0.0392615 0.0392615 0.0392615
0.0435798 0.0435798 0.0435798
0.0483406 0.0483406 0.0483406
0.0530251 0.0530251 0.0530251
0.0581369 0.0581369 0.0581369
0.0631723 0.0631723 0.0631723
0.0683909 0.0683909 0.0683909
0.0740368 0.0740368 0.0740368
0.0796216 0.0796216 0.0796216
0.08542 0.08542 0.08542
0.0914168 0.0914168 0.0914168
0.0978866 0.0978866 0.0978866
0.104326 0.104326 0.104326
0.110979 0.110979 0.110979
0.117861 0.117861 0.117861
0.124956 0.124956 0.124956
0.132296 0.132296 0.132296
0.139864 0.139864 0.139864
0.147799 0.147799 0.147799
0.155795 0.155795 0.155795
0.164034 0.164034 0.164034
0.172595 0.172595 0.172595
0.181399 0.181399 0.181399
0.190463 0.190463 0.190463
0.199771 0.199771 0.199771
0.209323 0.209323 0.209323
0.219104 0.219104 0.219104
0.228855 0.228855 0.228855
0.239002 0.239002 0.239002
0.249363 0.249363 0.249363
0.259907 0.259907 0.259907
0.270344 0.270344 0.270344
0.281193 0.281193 0.281193
0.0546578 0.0546578 0.0546578
0.0595865 0.0595865 0.0595865
0.0649424 0.0649424 0.0649424
0.070222 0.070222 0.070222
0.0757153 0.0757153 0.0757153
0.0816358 0.0816358 0.0816358
0.087541 0.087541 0.087541
0.0936294 0.0936294 0.0936294
0.0999466 0.0999466 0.0999466
0.106584 0.106584 0.106584
0.113466 0.113466 0.113466
0.120424 0.120424 0.120424
0.127611 0.127611 0.127611
0.135027 0.135027 0.135027
0.142687 0.142687 0.142687
0.150591 0.150591 0.150591
0.158724 0.158724 0.158724
0.167102 0.167102 0.167102
0.175723 0.175723 0.175723
0.184588 0.184588 0.184588
0.193729 0.193729 0.193729
0.203098 0.203098 0.203098
0.212634 0.212634 0.212634
0.222293 0.222293 0.222293
0.232334 0.232334 0.232334
0.242573 0.242573 0.242573
0.252949 0.252949 0.252949
0.263325 0.263325 0.263325
0.274083 0.274083 0.274083
0.284993 0.284993 0.284993
0.295766 0.295766 0.295766
0.30692 0.30692 0.30692
0.318151 0.318151 0.318151
0.0720226 0.0720226 0.0720226
0.0775769 0.0775769 0.0775769
0.0833906 0.0833906 0.0833906
0.0895705 0.0895705 0.0895705
0.0957656 0.0957656 0.0957656
0.102174 0.102174 0.102174
0.108797 0.108797 0.108797
0.115679 0.115679 0.115679
0.122927 0.122927 0.122927
0.130251 0.130251 0.130251
0.137758 0.137758 0.137758
0.145495 0.145495 0.145495
0.153475 0.153475 0.153475
0.1617 0.1617 0.1617
0.170153 0.170153 0.170153
0.178866 0.178866 0.178866
0.187793 0.187793 0.187793
0.19678 0.19678 0.19678
0.20621 0.20621 0.20621
0.215885 0.215885 0.215885
0.225757 0.225757 0.225757
0.235843 0.235843 0.235843
0.245884 0.245884 0.245884
0.256352 0.256352 0.256352
0.266987 0.266987 0.266987
0.277729 0.277729 0.277729
0.288472 0.288472 0.288472
0.29955 0.29955 0.29955
0.310597 0.310597 0.310597
0.321767 0.321767 0.321767
0.33315 0.33315 0.33315
0.34435 0.34435 0.34435
0.355856 0.355856 0.355856
0.0913252 0.0913252 0.0913252
0.0978408 0.0978408 0.0978408
0.104341 0.104341 0.104341
0.111055 0.111055 0.111055
0.117998 0.117998 0.117998
0.125154 0.125154 0.125154
0.132555 0.132555 0.132555
0.140154 0.140154 0.140154
0.148043 0.148043 0.148043
0.156085 0.156085 0.156085
0.164401 0.164401 0.164401
0.172946 0.172946 0.172946
0.18175 0.18175 0.18175
0.190799 0.190799 0.190799
0.200076 0.200076 0.200076
0.209598 0.209598 0.209598
0.219333 0.219333 0.219333
0.229007 0.229007 0.229007
0.239155 0.239155 0.239155
0.24947 0.24947 0.24947
0.259983 0.259983 0.259983
0.270405 0.270405 0.270405
0.281239 0.281239 0.281239
0.29221 0.29221 0.29221
0.303044 0.303044 0.303044
0.31426 0.31426 0.31426
0.325582 0.325582 0.325582
0.336736 0.336736 0.336736
0.348196 0.348196 0.348196
0.359472 0.359472 0.359472
0.371038 0.371038 0.371038
0.38262 0.38262 0.38262
0.393973 0.393973 0.393973
0.113252 0.113252 0.113252
0.120272 0.120272 0.120272
0.127535 0.127535 0.127535
0.135012 0.135012 0.135012
0.142733 0.142733 0.142733
0.150683 0.150683 0.150683
0.158877 0.158877 0.158877
0.1673 0.1673 0.1673
0.175952 0.175952 0.175952
0.184848 0.184848 0.184848
0.193988 0.193988 0.193988
0.203372 0.203372 0.203372
0.212802 0.212802 0.212802
0.222507 0.222507 0.222507
0.232517 0.232517 0.232517
0.24271 0.24271 0.24271
0.253025 0.253025 0.253025
0.263386 0.263386 0.263386
0.274098 0.274098 0.274098
0.284947 0.284947 0.284947
0.295689 0.295689 0.295689
0.306813 0.306813 0.306813
0.318044 0.318044 0.318044
0.329107 0.329107 0.329107
0.34052 0.34052 0.34052
0.351751 0.351751 0.351751
0.363302 0.363302 0.363302
0.374868 0.374868 0.374868
0.386206 0.386206 0.386206
0.397803 0.397803 0.397803
0.409125 0.409125 0.409125
0.420676 0.420676 0.420676
0.432013 0.432013 0.432013
0.137453 0.137453 0.137453
0.145251 0.145251 0.145251
0.153292 0.153292 0.153292
0.161578 0.161578 0.161578
0.170108 0.170108 0.170108
0.178866 0.178866 0.178866
0.187839 0.187839 0.187839
0.196887 0.196887 0.196887
0.206363 0.206363 0.206363
0.216037 0.216037 0.216037
0.225925 0.225925 0.225925
0.235996 0.235996 0.235996
0.246006 0.246006 0.246006
0.256443 0.256443 0.256443
0.267048 0.267048 0.267048
0.277745 0.277745 0.277745
0.288441 0.288441 0.288441
0.299474 0.299474 0.299474
0.310491 0.310491 0.310491
0.321584 0.321584 0.321584
0.332921 0.332921 0.332921
0.344091 0.344091 0.344091
0.355566 0.355566 0.355566
0.366934 0.366934 0.366934
0.378393 0.378393 0.378393
0.389975 0.389975 0.389975
0.401312 0.401312 0.401312
0.412894 0.412894 0.412894
0.424216 0.424216 0.424216
0.435752 0.435752 0.435752
0.447395 0.447395 0.447395
0.4589 0.4589 0.4589
0.470726 0.470726 0.470726
0.164019 0.164019 0.164019
0.172625 0.172625 0.172625
0.181491 0.181491 0.181491
0.1906 0.1906 0.1906
0.199954 0.199954 0.199954
0.209522 0.209522 0.209522
0.219303 0.219303 0.219303
0.229038 0.229038 0.229038
0.2392 0.2392 0.2392
0.249546 0.249546 0.249546
0.260044 0.260044 0.260044
0.270451 0.270451 0.270451
0.281254 0.281254 0.281254
0.292195 0.292195 0.292195
0.302998 0.302998 0.302998
0.314168 0.314168 0.314168
0.325429 0.325429 0.325429
0.336522 0.336522 0.336522
0.347936 0.347936 0.347936
0.359197 0.359197 0.359197
0.370657 0.370657 0.370657
0.382208 0.382208 0.382208
0.393515 0.393515 0.393515
0.405081 0.405081 0.405081
0.416403 0.416403 0.416403
0.427909 0.427909 0.427909
0.43949 0.43949 0.43949
0.450935 0.450935 0.450935
0.462715 0.462715 0.462715
0.474327 0.474327 0.474327
0.486244 0.486244 0.486244
0.497993 0.497993 0.497993
0.510033 0.510033 0.510033
0.193576 0.193576 0.193576
0.202991 0.202991 0.202991
0.212573 0.212573 0.212573
0.222263 0.222263 0.222263
0.232334 0.232334 0.232334
0.242588 0.242588 0.242588
0.252979 0.252979 0.252979
0.263355 0.263355 0.263355
0.274098 0.274098 0.274098
0.284962 0.284962 0.284962
0.295689 0.295689 0.295689
0.306798 0.306798 0.306798
0.317983 0.317983 0.317983
0.32903 0.32903 0.32903
0.340398 0.340398 0.340398
0.351568 0.351568 0.351568
0.363043 0.363043 0.363043
0.374548 0.374548 0.374548
0.385824 0.385824 0.385824
0.39736 0.39736 0.39736
0.408652 0.408652 0.408652
0.420157 0.420157 0.420157
0.431601 0.431601 0.431601
0.443015 0.443015 0.443015
0.454719 0.454719 0.454719
0.46627 0.46627 0.46627
0.478157 0.478157 0.478157
0.48986 0.48986 0.48986
0.501869 0.501869 0.501869
0.51368 0.51368 0.51368
0.52578 0.52578 0.52578
0.537667 0.537667 0.537667
0.549813 0.549813 0.549813
0.225498 0.225498 0.225498
0.23563 0.23563 0.23563
0.245701 0.245701 0.245701
0.256214 0.256214 0.256214
0.266865 0.266865 0.266865
0.277653 0.277653 0.277653
0.288365 0.288365 0.288365
0.299428 0.299428 0.299428
0.310475 0.310475 0.310475
0.321569 0.321569 0.321569
0.332906 0.332906 0.332906
0.34403 0.34403 0.34403
0.355474 0.355474 0.355474
0.366842 0.366842 0.366842
0.378225 0.378225 0.378225
0.389746 0.389746 0.389746
0.401022 0.401022 0.401022
0.412528 0.412528 0.412528
0.423896 0.423896 0.423896
0.435264 0.435264 0.435264
0.446876 0.446876 0.446876
0.458335 0.458335 0.458335
0.470146 0.470146 0.470146
0.481788 0.481788 0.481788
0.493751 0.493751 0.493751
0.505516 0.505516 0.505516
0.517586 0.517586 0.517586
0.529442 0.529442 0.529442
0.541588 0.541588 0.541588
0.553491 0.553491 0.553491
0.565667 0.565667 0.565667
0.577569 0.577569 0.577569
0.589731 0.589731 0.589731
0.259648 0.259648 0.259648
0.2701 0.2701 0.2701
0.28098 0.28098 0.28098
0.291966 0.291966 0.291966
0.302831 0.302831 0.302831
0.314061 0.314061 0.314061
0.325368 0.325368 0.325368
0.336492 0.336492 0.336492
0.347921 0.347921 0.347921
0.359182 0.359182 0.359182
0.370642 0.370642 0.370642
0.382162 0.382162 0.382162
0.393423 0.393423 0.393423
0.404959 0.404959 0.404959
0.416266 0.416266 0.416266
0.427665 0.427665 0.427665
0.4392 0.4392 0.4392
0.450568 0.450568 0.450568
0.462303 0.462303 0.462303
0.473854 0.473854 0.473854
0.48574 0.48574 0.48574
0.497459 0.497459 0.497459
0.509468 0.509468 0.509468
0.521279 0.521279 0.521279
0.533394 0.533394 0.533394
0.545266 0.545266 0.545266
0.557427 0.557427 0.557427
0.56936 0.56936 0.56936
0.581506 0.581506 0.581506
0.593408 0.593408 0.593408
0.605524 0.605524 0.605524
0.617365 0.617365 0.617365
0.629404 0.629404 0.629404
0.295308 0.295308 0.295308
0.306462 0.306462 0.306462
0.317723 0.317723 0.317723
0.328817 0.328817 0.328817
0.340246 0.340246 0.340246
0.351461 0.351461 0.351461
0.362982 0.362982 0.362982
0.374517 0.374517 0.374517
0.385809 0.385809 0.385809
0.39736 0.39736 0.39736
0.408606 0.408606 0.408606
0.420096 0.420096 0.420096
0.431525 0.431525 0.431525
0.442893 0.442893 0.442893
0.454551 0.454551 0.454551
0.466041 0.466041 0.466041
0.477882 0.477882 0.477882
0.489509 0.489509 0.489509
0.501472 0.501472 0.501472
0.513222 0.513222 0.513222
0.525277 0.525277 0.525277
0.537179 0.537179 0.537179
0.549233 0.549233 0.549233
0.561135 0.561135 0.561135
0.573281 0.573281 0.573281
0.585184 0.585184 0.585184
0.597314 0.597314 0.597314
0.609171 0.609171 0.609171
0.621241 0.621241 0.621241
0.633021 0.633021 0.633021
0.644999 0.644999 0.644999
0.656657 0.656657 0.656657
0.668482 0.668482 0.668482
0.332509 0.332509 0.332509
0.343694 0.343694 0.343694
0.3552 0.3552 0.3552
0.366674 0.366674 0.366674
0.378042 0.378042 0.378042
0.389624 0.389624 0.389624
0.400946 0.400946 0.400946
0.412467 0.412467 0.412467
0.42385 0.42385 0.42385
0.435233 0.435233 0.435233
0.44683 0.44683 0.44683
0.458274 0.458274 0.458274
0.470069 0.470069 0.470069
0.481651 0.481651 0.481651
0.493568 0.493568 0.493568
0.505318 0.505318 0.505318
0.517296 0.517296 0.517296
0.529107 0.529107 0.529107
0.541176 0.541176 0.541176
0.553033 0.553033 0.553033
0.565148 0.565148 0.565148
0.57702 0.57702 0.57702
0.589136 0.589136 0.589136
0.600992 0.600992 0.600992
0.613077 0.613077 0.613077
0.624872 0.624872 0.624872
0.636881 0.636881 0.636881
0.648585 0.648585 0.648585
0.660471 0.660471 0.660471
0.672007 0.672007 0.672007
0.683726 0.683726 0.683726
0.695109 0.695109 0.695109
0.706615 0.706615 0.706615
0.37023 0.37023 0.37023
0.381796 0.381796 0.381796
0.393133 0.393133 0.393133
0.4047 0.4047 0.4047
0.416098 0.416098 0.416098
0.427512 0.427512 0.427512
0.439094 0.439094 0.439094
0.450507 0.450507 0.450507
0.462272 0.462272 0.462272
0.473838 0.473838 0.473838
0.48571 0.48571 0.48571
0.497398 0.497398 0.497398
0.509377 0.509377 0.509377
0.521141 0.521141 0.521141
0.533211 0.533211 0.533211
0.545052 0.545052 0.545052
0.557137 0.557137 0.557137
0.569024 0.569024 0.569024
0.581079 0.581079 0.581079
0.59292 0.59292 0.59292
0.60499 0.60499 0.60499
0.616785 0.616785 0.616785
0.628809 0.628809 0.628809
0.640513 0.640513 0.640513
0.65243 0.65243 0.65243
0.664027 0.664027 0.664027
0.675792 0.675792 0.675792
0.687236 0.687236 0.687236
0.698802 0.698802 0.698802
0.710048 0.710048 0.710048
0.721401 0.721401 0.721401
0.732387 0.732387 0.732387
0.743496 0.743496 0.743496
0.408301 0.408301 0.408301
0.41973 0.41973 0.41973
0.431266 0.431266 0.431266
0.442664 0.442664 0.442664
0.454383 0.454383 0.454383
0.46595 0.46595 0.46595
0.477806 0.477806 0.477806
0.489494 0.489494 0.489494
0.501472 0.501472 0.501472
0.513222 0.513222 0.513222
0.525277 0.525277 0.525277
0.537163 0.537163 0.537163
0.549187 0.549187 0.549187
0.561028 0.561028 0.561028
0.573129 0.573129 0.573129
0.58497 0.58497 0.58497
0.59704 0.59704 0.59704
0.60882 0.60882 0.60882
0.620844 0.620844 0.620844
0.632563 0.632563 0.632563
0.644465 0.644465 0.644465
0.656092 0.656092 0.656092
0.667887 0.667887 0.667887
0.679362 0.679362 0.679362
0.69099 0.69099 0.69099
0.702281 0.702281 0.702281
0.713726 0.713726 0.713726
0.724788 0.724788 0.724788
0.735973 0.735973 0.735973
0.746792 0.746792 0.746792
0.757687 0.757687 0.757687
0.768429 0.768429 0.768429
0.77879 0.77879 0.77879
0.446494 0.446494 0.446494
0.458 0.458 0.458
0.469841 0.469841 0.469841
0.481498 0.481498 0.481498
0.493477 0.493477 0.493477
0.505287 0.505287 0.505287
0.517311 0.517311 0.517311
0.529152 0.529152 0.529152
0.541253 0.541253 0.541253
0.553109 0.553109 0.553109
0.565209 0.565209 0.565209
0.57705 0.57705 0.57705
0.589136 0.589136 0.589136
0.600946 0.600946 0.600946
0.61297 0.61297 0.61297
0.62472 0.62472 0.62472
0.636652 0.636652 0.636652
0.64828 0.64828 0.64828
0.66009 0.66009 0.66009
0.67158 0.67158 0.67158
0.683253 0.683253 0.683253
0.694591 0.694591 0.694591
0.70605 0.70605 0.70605
0.717189 0.717189 0.717189
0.728435 0.728435 0.728435
0.73933 0.73933 0.73933
0.750332 0.750332 0.750332
0.761166 0.761166 0.761166
0.771618 0.771618 0.771618
0.782162 0.782162 0.782162
0.792264 0.792264 0.792264
0.802441 0.802441 0.802441
0.812238 0.812238 0.812238
0.485466 0.485466 0.485466
0.497215 0.497215 0.497215
0.509255 0.509255 0.509255
0.521096 0.521096 0.521096
0.533227 0.533227 0.533227
0.545098 0.545098 0.545098
0.557244 0.557244 0.557244
0.569131 0.569131 0.569131
0.581247 0.581247 0.581247
0.593088 0.593088 0.593088
0.605142 0.605142 0.605142
0.616907 0.616907 0.616907
0.628885 0.628885 0.628885
0.640543 0.640543 0.640543
0.652399 0.652399 0.652399
0.663935 0.663935 0.663935
0.675624 0.675624 0.675624
0.687007 0.687007 0.687007
0.698512 0.698512 0.698512
0.709682 0.709682 0.709682
0.721004 0.721004 0.721004
0.731929 0.731929 0.731929
0.742992 0.742992 0.742992
0.753918 0.753918 0.753918
0.764446 0.764446 0.764446
0.775082 0.775082 0.775082
0.785306 0.785306 0.785306
0.79559 0.79559 0.79559
0.805585 0.805585 0.805585
0.815061 0.815061 0.815061
0.824262 0.824262 0.824262
0.833097 0.833097 0.833097
0.841123 0.841123 0.841123
0.52517 0.52517 0.52517
0.537118 0.537118 0.537118
0.549187 0.549187 0.549187
0.561105 0.561105 0.561105
0.573251 0.573251 0.573251
0.585153 0.585153 0.585153
0.597269 0.597269 0.597269
0.609094 0.609094 0.609094
0.621118 0.621118 0.621118
0.632837 0.632837 0.632837
0.644724 0.644724 0.644724
0.656321 0.656321 0.656321
0.66807 0.66807 0.66807
0.679484 0.679484 0.679484
0.691081 0.691081 0.691081
0.702296 0.702296 0.702296
0.713664 0.713664 0.713664
0.724666 0.724666 0.724666
0.735759 0.735759 0.735759
0.746517 0.746517 0.746517
0.757366 0.757366 0.757366
0.768063 0.768063 0.768063
0.778363 0.778363 0.778363
0.788739 0.788739 0.788739
0.798779 0.798779 0.798779
0.808682 0.808682 0.808682
0.818112 0.818112 0.818112
0.827039 0.827039 0.827039
0.835721 0.835721 0.835721
0.843626 0.843626 0.843626
0.850996 0.850996 0.850996
0.857939 0.857939 0.857939
0.864576 0.864576 0.864576
0.56524 0.56524 0.56524
0.577127 0.577127 0.577127
0.589273 0.589273 0.589273
0.60116 0.60116 0.60116
0.61323 0.61323 0.61323
0.625025 0.625025 0.625025
0.637003 0.637003 0.637003
0.648661 0.648661 0.648661
0.660502 0.660502 0.660502
0.671977 0.671977 0.671977
0.683635 0.683635 0.683635
0.694926 0.694926 0.694926
0.706355 0.706355 0.706355
0.717433 0.717433 0.717433
0.728634 0.728634 0.728634
0.739452 0.739452 0.739452
0.750378 0.750378 0.750378
0.761151 0.761151 0.761151
0.771527 0.771527 0.771527
0.781979 0.781979 0.781979
0.792035 0.792035 0.792035
0.802167 0.802167 0.802167
0.811917 0.811917 0.811917
0.820981 0.820981 0.820981
0.829999 0.829999 0.829999
0.838437 0.838437 0.838437
0.845945 0.845945 0.845945
0.853208 0.853208 0.853208
0.860197 0.860197 0.860197
0.866682 0.866682 0.866682
0.87274 0.87274 0.87274
0.878752 0.878752 0.878752
0.884504 0.884504 0.884504
0.60531 0.60531 0.60531
0.617121 0.617121 0.617121
0.62916 0.62916 0.62916
0.640879 0.640879 0.640879
0.652796 0.652796 0.652796
0.664378 0.664378 0.664378
0.676112 0.676112 0.676112
0.68751 0.68751 0.68751
0.699031 0.699031 0.699031
0.710201 0.710201 0.710201
0.721477 0.721477 0.721477
0.732387 0.732387 0.732387
0.743404 0.743404 0.743404
0.754192 0.754192 0.754192
0.764736 0.764736 0.764736
0.775296 0.775296 0.775296
0.785443 0.785443 0.785443
0.795666 0.795666 0.795666
0.805585 0.805585 0.805585
0.815 0.815 0.815
0.82414 0.82414 0.82414
0.832975 0.832975 0.832975
0.84094 0.84094 0.84094
0.848402 0.848402 0.848402
0.855619 0.855619 0.855619
0.862425 0.862425 0.862425
0.868605 0.868605 0.868605
0.874769 0.874769 0.874769
0.880705 0.880705 0.880705
0.886366 0.886366 0.886366
0.891783 0.891783 0.891783
0.897063 0.897063 0.897063
0.902296 0.902296 0.902296
0.645014 0.645014 0.645014
0.656657 0.656657 0.656657
0.668467 0.668467 0.668467
0.679942 0.679942 0.679942
0.691585 0.691585 0.691585
0.702846 0.702846 0.702846
0.714244 0.714244 0.714244
0.725261 0.725261 0.725261
0.736385 0.736385 0.736385
0.747143 0.747143 0.747143
0.757946 0.757946 0.757946
0.768566 0.768566 0.768566
0.778866 0.778866 0.778866
0.789181 0.789181 0.789181
0.799115 0.799115 0.799115
0.808972 0.808972 0.808972
0.818341 0.818341 0.818341
0.827176 0.827176 0.827176
0.835798 0.835798 0.835798
0.843641 0.843641 0.843641
0.850965 0.850965 0.850965
0.857877 0.857877 0.857877
0.864485 0.864485 0.864485
0.870741 0.870741 0.870741
0.876829 0.876829 0.876829
0.882628 0.882628 0.882628
0.88809 0.88809 0.88809
0.893523 0.893523 0.893523
0.898848 0.898848 0.898848
0.904021 0.904021 0.904021
0.909087 0.909087 0.909087
0.914092 0.914092 0.914092
0.919051 0.919051 0.919051
0.684016 0.684016 0.684016
0.695369 0.695369 0.695369
0.706844 0.706844 0.706844
0.717983 0.717983 0.717983
0.729213 0.729213 0.729213
0.740078 0.740078 0.740078
0.751049 0.751049 0.751049
0.761685 0.761685 0.761685
0.772213 0.772213 0.772213
0.782666 0.782666 0.782666
0.792691 0.792691 0.792691
0.802777 0.802777 0.802777
0.812467 0.812467 0.812467
0.821469 0.821469 0.821469
0.830411 0.830411 0.830411
0.838773 0.838773 0.838773
0.846159 0.846159 0.846159
0.853407 0.853407 0.853407
0.860319 0.860319 0.860319
0.866743 0.866743 0.866743
0.87277 0.87277 0.87277
0.878752 0.878752 0.878752
0.884474 0.884474 0.884474
0.889982 0.889982 0.889982
0.895369 0.895369 0.895369
0.900633 0.900633 0.900633
0.90573 0.90573 0.90573
0.910658 0.910658 0.910658
0.915648 0.915648 0.915648
0.920607 0.920607 0.920607
0.925521 0.925521 0.925521
0.930404 0.930404 0.930404
0.935225 0.935225 0.935225
0.721935 0.721935 0.721935
0.732891 0.732891 0.732891
0.743954 0.743954 0.743954
0.75465 0.75465 0.75465
0.765393 0.765393 0.765393
0.775921 0.775921 0.775921
0.786175 0.786175 0.786175
0.796399 0.796399 0.796399
0.80618 0.80618 0.80618
0.815702 0.815702 0.815702
0.824811 0.824811 0.824811
0.833432 0.833432 0.833432
0.841459 0.841459 0.841459
0.848859 0.848859 0.848859
0.856016 0.856016 0.856016
0.862669 0.862669 0.862669
0.868879 0.868879 0.868879
0.874983 0.874983 0.874983
0.880858 0.880858 0.880858
0.886473 0.886473 0.886473
0.891844 0.891844 0.891844
0.897108 0.897108 0.897108
0.902312 0.902312 0.902312
0.907378 0.907378 0.907378
0.912383 0.912383 0.912383
0.917357 0.917357 0.917357
0.922301 0.922301 0.922301
0.927199 0.927199 0.927199
0.932067 0.932067 0.932067
0.936584 0.936584 0.936584
0.941466 0.941466 0.941466
