luts/Cosmic Trip.cube
TITLE "Generated by Resolve"
LUT_3D_SIZE 33
0 0 0
0 0 0
0 0 0
0 0 0
0 0 0
0 0 0
0 0 0
0 0 0
0 0 0
0 0.0165103 0.0107576
0 0.038407 0.0241855
0 0.0571298 0.0378729
0 0.0682841 0.0520943
0 0.0760204 0.0665293
0 0.0839399 0.0808881
0 0.0920272 0.0951553
0 0.100282 0.109346
0 0.10869 0.12343
0 0.117235 0.137423
0 0.125933 0.151278
0 0.134768 0.165042
0 0.143725 0.178668
0 0.152789 0.192172
0 0.16199 0.205554
0 0.171298 0.218814
0 0.180713 0.231952
0 0.190234 0.244968
0 0.199863 0.257877
0 0.209583 0.270665
0 0.219394 0.283345
0 0.229297 0.295918
0 0.239292 0.3084
0 0.249378 0.320806
0 0 0
0 0 0
0 0 0
0 0 0
0 0 0
0 0 0.0075227
0 0 0.0277104
0 0 0.0485847
0 0 0.0697948
0 0 0.0907301
0 0.00628672 0.111574
0 0.0250706 0.132845
0 0.0357214 0.154726
0 0.0438087 0.176806
0 0.0520638 0.198856
0 0.0604868 0.220859
0 0.0690623 0.242786
0 0.0777752 0.264637
0 0.0866255 0.286397
0 0.095613 0.308064
0 0.104723 0.329625
0 0.113954 0.351064
0 0.123293 0.372396
0 0.132753 0.393622
0 0.142321 0.41471
0 0.15198 0.435691
0 0.161761 0.45655
0 0.171618 0.477287
0 0.181598 0.497932
0 0.191653 0.518456
0 0.201801 0.538888
0 0.212039 0.559228
0 0.22237 0.579477
0.0184787 0 0
0 0 0
0 0 0.00265507
0 0 0.0153811
0 0 0.0282444
0 0 0.0437171
0 0 0.0621195
0 0 0.0817426
0 0 0.101991
0 0 0.122194
0 0 0.142458
0 0 0.163287
0 0.00334173 0.184787
0 0.0114443 0.206531
0 0.0198825 0.228305
0 0.0286259 0.250065
0 0.0376593 0.271794
0 0.0469062 0.293477
0 0.0563516 0.315084
0 0.0659342 0.336599
0 0.0756542 0.358038
0 0.0855116 0.37937
0 0.095491 0.400595
0 0.105592 0.421714
0 0.115801 0.442725
0 0.126131 0.463615
0 0.136553 0.484398
0 0.147082 0.505074
0 0.157702 0.525628
0 0.168429 0.546105
0 0.179248 0.566461
0 0.190173 0.58674
0 0.201175 0.606928
0.0710765 0 0.0202182
0.00883497 0 0.0333867
0 0 0.0466773
0 0 0.0601663
0 0 0.0730144
0 0 0.0859998
0 0 0.0991531
0 0 0.115053
0 0 0.134264
0 0 0.153704
0 0 0.173449
0 0 0.193912
0 0 0.215061
0 0 0.236423
0 0 0.257862
0 0 0.279347
0 0.00662242 0.300832
0 0.0152438 0.322301
0 0.0242161 0.343725
0 0.0335088 0.365103
0 0.0431067 0.386389
0 0.0529641 0.407599
0 0.0630961 0.428717
0 0.0734722 0.449744
0 0.0840772 0.470665
0 0.0948806 0.491478
0 0.105837 0.512184
0 0.116945 0.532784
0 0.128161 0.553292
0 0.139513 0.573693
0 0.150988 0.594003
0 0.16257 0.614237
0 0.174258 0.634363
0.125719 0 0.0642252
0.0679789 0 0.0773938
0.0229648 0 0.0906844
0.0612345 0 0.104158
0.0394598 0 0.117876
0.0227207 0 0.130846
0.0043183 0 0.143969
0 0 0.157244
0 0 0.170291
0 0 0.18526
0 0 0.2047
0 0 0.224918
0 0 0.245655
0 0 0.266606
0 0 0.287694
0 0 0.308858
0 0 0.330083
0 0 0.351308
0 0 0.372534
0 0.0062562 0.393713
0 0.0148318 0.414847
0 0.0238041 0.43592
0 0.0331273 0.456901
0 0.0427863 0.477806
0 0.0527657 0.498619
0 0.0630503 0.519341
0 0.0736095 0.539971
0 0.0844434 0.560494
0 0.0955367 0.580926
0 0.106889 0.601282
0 0.118486 0.62153
0 0.130327 0.641703
0 0.142382 0.661784
0.183444 0 0.108202
0.128969 0 0.121386
0.0876326 0.00698863 0.134661
0.125475 0.0203861 0.148119
0.100496 0.0261845 0.161807
0.0701915 0.0310521 0.175769
0.0509499 0.0368811 0.188891
0.0294347 0.0409857 0.202029
0.00430304 0.0464942 0.215061
0 0.050248 0.228138
0 0.0500801 0.241382
0 0.0483253 0.256397
0 0.0488136 0.276616
0 0.0434424 0.297108
0 0 0.317815
0 0 0.338643
0 0 0.359564
0 0 0.380545
0 0 0.401526
0 0 0.422507
0 0 0.443458
0 0.00308232 0.464363
0 0.0108339 0.485206
0 0.0191196 0.505974
0 0.0278782 0.52668
0 0.0370489 0.547295
0 0.0466316 0.567819
0 0.0565652 0.588266
0 0.0668345 0.608606
0 0.0774395 0.628885
0 0.0883345 0.649073
0 0.0995499 0.669184
0 0.11104 0.689219
0.247272 0.00283818 0.152209
0.197009 0.0163577 0.165393
0.193393 0.0298161 0.178668
0.187716 0.043061 0.192126
0.164172 0.0527352 0.205875
0.13257 0.0548867 0.219989
0.0991684 0.0562142 0.234501
0.074876 0.0624247 0.247684
0.0506447 0.0666819 0.260884
0.0270695 0.0693675 0.274113
0.00407416 0.0708019 0.287312
0 0.071107 0.300481
0 0.0703746 0.313619
0 0.0697795 0.327901
0 0.0740673 0.348196
0 0.0771191 0.368688
0 0.0783246 0.389303
0 0.0761425 0.409995
0 0.0635996 0.430732
0 0.00563058 0.451499
0 0.000183108 0.472251
0 0.000640879 0.492973
0 0.0037995 0.513649
0 0.00860609 0.534279
0 0.0146029 0.554833
0 0.0214847 0.575326
0 0.0291142 0.595743
0 0.0373693 0.616098
0 0.0461433 0.636362
0 0.0554208 0.65655
0 0.0651255 0.676661
0 0.0752422 0.696712
0 0.0857404 0.716686
0.388281 0.016083 0.197223
0.339193 0.0294957 0.210452
0.293141 0.0428626 0.223713
0.259602 0.055848 0.237232
0.232334 0.0682994 0.251057
0.198413 0.0725261 0.265187
0.159655 0.0740063 0.27953
0.121767 0.0754559 0.294041
0.0979324 0.0810101 0.307149
0.0745861 0.0848859 0.320272
0.0516365 0.0875563 0.333379
0.0290684 0.0892805 0.346456
0.0068513 0.0902113 0.359487
0 0.090425 0.372457
0 0.0899672 0.385351
0 0.0896468 0.398947
0 0.0954604 0.419242
0 0.100786 0.439643
0 0.105501 0.460136
0 0.109422 0.480659
0 0.112291 0.501198
0 0.113558 0.521721
0 0.112062 0.542229
0 0.103746 0.562692
0 0.0430915 0.583108
0 0.0341192 0.603479
0 0.0336461 0.623774
0 0.0364538 0.644007
0 0.0411994 0.664164
0 0.0472877 0.684276
0 0.0543679 0.704295
0 0.0622568 0.724269
0 0.0708476 0.744183
0.459327 0.0285344 0.242542
0.410208 0.0419318 0.255787
0.361135 0.0553292 0.269032
0.321324 0.0685435 0.28249
0.288167 0.0816052 0.296193
0.257725 0.0931258 0.310155
0.218967 0.0938735 0.324361
0.181521 0.0944686 0.338781
0.1449 0.0949569 0.353384
0.121874 0.0997635 0.36643
0.0991226 0.103273 0.379477
0.0766308 0.105821 0.392477
0.0543984 0.107607 0.405432
0.0324102 0.108766 0.418326
0.0106508 0.109392 0.431128
0 0.109529 0.443854
0 0.109224 0.456474
0 0.108934 0.469444
0 0.115602 0.489662
0 0.122057 0.509957
0 0.128237 0.530266
0 0.134096 0.550607
0 0.13962 0.570932
0 0.144701 0.591226
0 0.149264 0.61149
0 0.15317 0.631708
0 0.156146 0.651881
0 0.157809 0.671992
0 0.157229 0.692042
0 0.151751 0.712047
0 0.0967727 0.731991
0 0.0833448 0.751873
0 0.0825208 0.77171
0.506081 0.0425879 0.28748
0.458961 0.0559854 0.30074
0.40972 0.069398 0.313954
0.369833 0.0826734 0.327352
0.337697 0.0957809 0.340978
0.309941 0.108721 0.354849
0.277928 0.114992 0.368948
0.240925 0.114916 0.383276
0.204669 0.114733 0.397787
0.168887 0.114473 0.412467
0.14641 0.118685 0.425467
0.124086 0.121843 0.438422
0.101946 0.124208 0.451331
0.0799573 0.125948 0.464164
0.0581674 0.127184 0.476905
0.0365454 0.127993 0.48957
0.0150912 0.12842 0.502129
0 0.128496 0.514565
0 0.128267 0.526894
0 0.127977 0.53933
0 0.13521 0.559426
0 0.142336 0.579568
0 0.14934 0.599695
0 0.156222 0.619821
0 0.162951 0.639933
0 0.169528 0.659998
0 0.175937 0.680034
0 0.182162 0.700038
0 0.188174 0.719982
0 0.193957 0.739864
0 0.199481 0.759716
0 0.204685 0.779507
0 0.209491 0.799268
0.551064 0.0568246 0.332036
0.506645 0.0701762 0.345296
0.457481 0.0835737 0.358511
0.417853 0.0968795 0.371862
0.386587 0.110018 0.385428
0.359884 0.123018 0.399222
0.335485 0.135866 0.41323
0.300053 0.1364 0.427466
0.264149 0.135668 0.441886
0.228656 0.134874 0.456489
0.193469 0.134035 0.471244
0.171374 0.137743 0.484184
0.149371 0.140581 0.497063
0.127489 0.142748 0.509865
0.105715 0.144396 0.522576
0.0840772 0.145617 0.535195
0.062562 0.146487 0.547692
0.0411841 0.147036 0.560082
0.0199435 0.147326 0.572351
0 0.147356 0.584497
0 0.147173 0.596506
0 0.146929 0.60853
0 0.154559 0.628489
0 0.162142 0.648447
0 0.16968 0.668406
0 0.177172 0.688334
0 0.184619 0.708232
0 0.192004 0.728099
0 0.199359 0.747921
0 0.206653 0.767712
0 0.213916 0.787457
0 0.221149 0.807157
0 0.228336 0.82678
0.595743 0.071107 0.376181
0.554513 0.0844434 0.389456
0.505486 0.0978408 0.402655
0.465766 0.111147 0.415976
0.435096 0.124331 0.42948
0.409247 0.137362 0.443198
0.385733 0.150256 0.45713
0.358968 0.158633 0.471275
0.323415 0.157473 0.485618
0.288212 0.156237 0.500145
0.253254 0.15494 0.514824
0.218463 0.153613 0.529656
0.196658 0.156878 0.542519
0.174914 0.159426 0.555322
0.153216 0.16141 0.568017
0.131624 0.162951 0.580621
0.110109 0.164126 0.593103
0.0887007 0.164981 0.605463
0.0673991 0.165591 0.617685
0.0461891 0.165957 0.629786
0.0251011 0.166125 0.641749
0.00411994 0.166125 0.653574
0 0.165942 0.665263
0 0.165835 0.677043
0 0.17377 0.696849
0 0.181689 0.716625
0 0.189593 0.7364
0 0.197513 0.756146
0 0.205432 0.77586
0 0.213336 0.795529
0 0.221256 0.815106
0 0.229191 0.834562
0 0.23714 0.853895
0.640131 0.0854505 0.419883
0.602716 0.0987716 0.433158
0.553994 0.112154 0.446357
0.513893 0.125475 0.459648
0.483513 0.138674 0.473106
0.458289 0.151751 0.486763
0.435477 0.164691 0.500618
0.413855 0.177523 0.514687
0.382513 0.179919 0.528939
0.347585 0.178317 0.543389
0.312856 0.176638 0.557992
0.278264 0.174929 0.572732
0.243778 0.173205 0.587625
0.222202 0.176104 0.600427
0.200641 0.178393 0.613138
0.17911 0.180194 0.625742
0.157641 0.181598 0.638224
0.136248 0.182696 0.650584
0.114916 0.18352 0.662806
0.0936904 0.184115 0.674891
0.0725261 0.184527 0.686839
0.0514687 0.184756 0.698634
0.0305028 0.184848 0.710292
0.00961318 0.184787 0.721798
0 0.184604 0.733181
0 0.184756 0.744839
0 0.192905 0.764431
0 0.201083 0.783948
0 0.209277 0.803403
0 0.217502 0.822766
0 0.225742 0.842039
0 0.234012 0.861204
0 0.242313 0.880278
0.68426 0.099855 0.463096
0.651469 0.113161 0.476387
0.603311 0.126543 0.489586
0.562478 0.139864 0.502861
0.532052 0.153079 0.516274
0.50721 0.166186 0.52987
0.484932 0.179171 0.543664
0.463874 0.192035 0.557641
0.441505 0.202853 0.571832
0.406821 0.200961 0.586175
0.37232 0.198978 0.600656
0.337926 0.196948 0.615244
0.303624 0.194888 0.629908
0.269398 0.192813 0.644602
0.247959 0.195392 0.657404
0.226551 0.197436 0.670085
0.205158 0.199069 0.682612
0.183795 0.200351 0.695003
0.162493 0.201343 0.707225
0.141238 0.202106 0.719295
0.120073 0.20267 0.731197
0.0989548 0.203082 0.742931
0.0779278 0.203326 0.754498
0.0569772 0.203449 0.765881
0.0361028 0.203449 0.777096
0.0153048 0.203342 0.788128
0 0.203159 0.798993
0 0.203677 0.810468
0 0.212009 0.829664
0 0.220386 0.848798
0 0.228794 0.867948
0 0.237247 0.887098
0 0.245731 0.906264
0.729473 0.114305 0.505241
0.70161 0.127596 0.518532
0.654292 0.140963 0.531731
0.612345 0.154299 0.544976
0.581338 0.167529 0.558328
0.556512 0.180667 0.571832
0.534508 0.193668 0.585504
0.513848 0.206577 0.599313
0.493874 0.219379 0.61326
0.466163 0.224018 0.627344
0.431861 0.221775 0.641535
0.39765 0.219471 0.655787
0.3635 0.217136 0.670085
0.329412 0.214786 0.684382
0.295369 0.212421 0.698634
0.274037 0.21471 0.711482
0.25272 0.216541 0.724163
0.231418 0.21799 0.73666
0.210147 0.21915 0.748974
0.188922 0.22005 0.76112
0.167727 0.220737 0.773068
0.146593 0.221256 0.784817
0.125536 0.221622 0.796368
0.104524 0.221866 0.807752
0.0835889 0.221988 0.818967
0.0627146 0.222004 0.83003
0.0419165 0.221942 0.840955
0.0211795 0.22179 0.851743
0.000503548 0.221576 0.862394
0 0.222599 0.874266
0 0.231098 0.893538
0 0.239643 0.91281
0 0.248234 0.932097
0.779858 0.128786 0.545022
0.754803 0.142061 0.558297
0.708461 0.155413 0.571496
0.664973 0.16875 0.584726
0.632532 0.18201 0.598032
0.607004 0.195163 0.611444
0.584817 0.208194 0.624979
0.564233 0.221134 0.638636
0.544472 0.233982 0.652399
0.525154 0.246723 0.666255
0.4916 0.244938 0.680171
0.457511 0.24242 0.694148
0.423468 0.239841 0.708186
0.389471 0.237232 0.722286
0.355505 0.234623 0.736431
0.321553 0.232013 0.750622
0.300313 0.234043 0.76347
0.279072 0.235676 0.776165
0.257832 0.236973 0.788693
0.236622 0.237995 0.801038
0.215442 0.238804 0.813214
0.194308 0.239414 0.825193
0.173205 0.239872 0.837003
0.152163 0.240192 0.84863
0.131167 0.240406 0.860105
0.110231 0.240497 0.871412
0.0893568 0.240513 0.882567
0.0685435 0.240452 0.893568
0.0477913 0.24033 0.904448
0.0271 0.240131 0.915206
0.00646983 0.239887 0.925856
0 0.241581 0.938384
0 0.250217 0.957778
0.835126 0.143297 0.58291
0.810437 0.156558 0.596185
0.765072 0.169894 0.6094
0.720027 0.18323 0.622614
0.685542 0.196506 0.635889
0.658701 0.209674 0.649271
0.635874 0.222751 0.662745
0.615045 0.235721 0.676341
0.59527 0.248585 0.690044
0.576059 0.261372 0.703853
0.551476 0.268406 0.717754
0.517388 0.26569 0.731746
0.483391 0.262913 0.745815
0.449454 0.260105 0.75996
0.415549 0.257267 0.774166
0.381643 0.254444 0.788418
0.347784 0.251621 0.802731
0.326604 0.253422 0.815595
0.305425 0.254856 0.828321
0.28426 0.256001 0.840879
0.263096 0.256916 0.853269
0.241962 0.257618 0.865476
0.220859 0.258152 0.877516
0.199802 0.258534 0.889387
0.178775 0.258793 0.901091
0.157809 0.258961 0.912642
0.136873 0.259037 0.924025
0.116014 0.259022 0.935256
0.0951858 0.258946 0.946349
0.0744335 0.258808 0.957321
0.053727 0.258625 0.96817
0.0330663 0.258381 0.978897
0.0124666 0.258106 0.989517
0.890852 0.157839 0.620691
0.866285 0.171099 0.633967
0.821958 0.184421 0.647181
0.775723 0.197757 0.660395
0.739208 0.211032 0.673671
0.710842 0.224231 0.687022
0.68716 0.237324 0.700496
0.665919 0.250324 0.714061
0.645991 0.263233 0.727764
0.62678 0.276051 0.741558
0.608011 0.288792 0.755459
0.577218 0.289219 0.769451
0.543236 0.28629 0.783551
0.509346 0.283299 0.797711
0.475486 0.280278 0.811963
0.441642 0.277256 0.826261
0.407828 0.274235 0.840635
0.374014 0.271214 0.855055
0.352911 0.272816 0.867948
0.331792 0.274083 0.88069
0.310674 0.27509 0.893263
0.28957 0.275868 0.905699
0.268482 0.276478 0.917952
0.247425 0.276921 0.930037
0.226383 0.277241 0.94197
0.205386 0.27744 0.953735
0.184436 0.277562 0.965347
0.163531 0.277577 0.976806
0.142657 0.277546 0.988128
0.121843 0.27744 0.999298
0.101076 0.277272 1
0.080354 0.277073 1
0.0596933 0.276814 1
0.946456 0.172412 0.65861
0.922087 0.185657 0.671901
0.878737 0.198978 0.685115
0.831724 0.212314 0.698314
0.793332 0.225605 0.711574
0.763348 0.238804 0.724926
0.738659 0.251926 0.738384
0.716869 0.264958 0.751934
0.696696 0.277897 0.765606
0.677424 0.290745 0.779385
0.658671 0.303517 0.793286
0.637003 0.312978 0.807279
0.603037 0.309895 0.821378
0.569162 0.306767 0.835554
0.535332 0.303593 0.849821
0.501549 0.300389 0.864164
0.467781 0.2972 0.878584
0.434028 0.293996 0.89305
0.400275 0.290806 0.907591
0.379217 0.29221 0.920501
0.35816 0.293324 0.933257
0.337087 0.294194 0.945861
0.31603 0.294865 0.958328
0.294987 0.295369 0.970626
0.27396 0.295735 0.982757
0.252964 0.295979 0.994736
0.231998 0.296117 1
0.211063 0.296178 1
0.190158 0.296147 1
0.169299 0.296071 1
0.148486 0.295918 1
0.127718 0.29572 1
0.106996 0.295491 1
1 0.18703 0.696651
0.977844 0.200259 0.709941
0.935409 0.213565 0.723171
0.887984 0.226902 0.73637
0.847883 0.240192 0.74963
0.816236 0.253422 0.762966
0.790417 0.26656 0.776394
0.767971 0.279622 0.789929
0.747433 0.292576 0.803586
0.728008 0.305455 0.817349
0.709239 0.318257 0.83122
0.690867 0.330999 0.845212
0.662776 0.333715 0.859297
0.628916 0.330449 0.873487
0.595117 0.327138 0.88777
0.561364 0.323796 0.902129
0.527642 0.320439 0.916579
0.493935 0.317082 0.93109
0.460243 0.313741 0.945678
0.426551 0.310399 0.960327
0.405539 0.31162 0.973236
0.384527 0.312596 0.986023
0.363516 0.313344 0.998657
0.342504 0.313893 1
0.321492 0.314305 1
0.300511 0.31458 1
0.279545 0.314748 1
0.258595 0.314824 1
0.237675 0.314824 1
0.2168 0.314733 1
0.195956 0.314595 1
0.175143 0.314412 1
0.154376 0.314183 1
1 0.201663 0.734798
1 0.214893 0.748119
0.99202 0.228199 0.761349
0.944427 0.24152 0.774548
0.902815 0.254826 0.787793
0.86952 0.268055 0.801114
0.842466 0.281209 0.814527
0.819242 0.294286 0.828046
0.79826 0.307286 0.841672
0.778607 0.320195 0.855421
0.759747 0.333028 0.869276
0.74139 0.345785 0.883253
0.722515 0.357687 0.897337
0.688624 0.354299 0.911513
0.654841 0.350881 0.925795
0.621118 0.347417 0.940169
0.587442 0.343923 0.954635
0.55378 0.340429 0.969177
0.520119 0.336934 0.98378
0.486473 0.33344 0.998474
0.452827 0.329976 1
0.431876 0.331044 1
0.41091 0.331868 1
0.389944 0.332494 1
0.368963 0.332952 1
0.347997 0.333272 1
0.327047 0.333455 1
0.306111 0.333547 1
0.285191 0.333562 1
0.264286 0.333486 1
0.243427 0.333349 1
0.222599 0.33315 1
0.201785 0.332906 1
1 0.216327 0.773083
1 0.229541 0.786389
1 0.242847 0.799634
1 0.256168 0.812833
0.958114 0.269474 0.826062
0.923201 0.282719 0.839384
0.89485 0.295888 0.852781
0.870741 0.30898 0.86627
0.849226 0.321996 0.879881
0.829252 0.334936 0.893614
0.810239 0.347799 0.907454
0.791836 0.360586 0.921401
0.7738 0.373327 0.93547
0.748318 0.378302 0.949645
0.714534 0.374777 0.963912
0.680827 0.371206 0.978286
0.647166 0.367605 0.992752
0.61355 0.363989 1
0.579934 0.360372 1
0.546334 0.356741 1
0.512734 0.35314 1
0.479133 0.349538 1
0.458213 0.350454 1
0.437293 0.351156 1
0.416358 0.351659 1
0.395422 0.352026 1
0.374502 0.352239 1
0.353582 0.352361 1
0.332662 0.352377 1
0.311772 0.3523 1
0.290898 0.352163 1
0.270054 0.351965 1
0.249226 0.35172 1
1 0.231006 0.811444
1 0.244236 0.824781
1 0.257511 0.838026
1 0.270832 0.851225
1 0.284138 0.864454
0.977264 0.297398 0.877745
0.947555 0.310582 0.891127
0.922499 0.323705 0.904616
0.900343 0.336736 0.918196
0.880003 0.349706 0.931899
0.860777 0.362585 0.945724
0.842252 0.375402 0.959655
0.824216 0.388159 0.973693
0.80647 0.40087 0.987854
0.774197 0.39881 1
0.74049 0.395148 1
0.706844 0.39144 1
0.673259 0.387717 1
0.639673 0.383993 1
0.606119 0.380255 1
0.572549 0.376516 1
0.538994 0.372793 1
0.50544 0.369085 1
0.484565 0.369863 1
0.463676 0.370443 1
0.442786 0.37084 1
0.421897 0.371099 1
0.400992 0.371237 1
0.380102 0.371267 1
0.359228 0.371206 1
0.338354 0.371069 1
0.317494 0.370871 1
0.296666 0.370611 1
1 0.245716 0.849928
1 0.25893 0.863264
1 0.272206 0.876524
1 0.285527 0.889723
1 0.298833 0.902937
1 0.312093 0.916228
1 0.325292 0.929595
0.974517 0.33843 0.943053
0.951659 0.351492 0.956619
0.930861 0.364477 0.970306
0.91136 0.377386 0.9841
0.892699 0.390234 0.998001
0.874586 0.403021 1
0.856825 0.415747 1
0.833844 0.42295 1
0.800122 0.419196 1
0.766491 0.415412 1
0.732906 0.411597 1
0.699367 0.407767 1
0.665827 0.403922 1
0.632319 0.400092 1
0.598795 0.396246 1
0.565286 0.392432 1
0.531762 0.388632 1
0.510918 0.389273 1
0.490074 0.389715 1
0.469215 0.390021 1
0.448356 0.390188 1
0.427482 0.390234 1
0.406622 0.390188 1
0.385779 0.390051 1
0.364935 0.389838 1
0.344091 0.389578 1
1 0.260441 0.888487
1 0.273655 0.901839
1 0.286931 0.915099
1 0.300237 0.928313
1 0.313542 0.941512
1 0.326818 0.954787
1 0.340032 0.968139
1 0.35317 0.981582
1 0.366247 0.995132
0.981872 0.379263 1
0.962036 0.392203 1
0.943175 0.405066 1
0.924956 0.417868 1
0.907164 0.430625 1
0.889662 0.44332 1
0.859739 0.443351 1
0.826093 0.43949 1
0.792523 0.435599 1
0.758999 0.431693 1
0.725505 0.427756 1
0.692012 0.423819 1
0.658534 0.419883 1
0.625055 0.415946 1
0.591577 0.412039 1
0.558083 0.408133 1
0.537285 0.408652 1
0.516472 0.409003 1
0.495644 0.409201 1
0.474815 0.409277 1
0.453986 0.409232 1
0.433143 0.40911 1
0.412314 0.408896 1
0.391501 0.408621 1
1 0.275196 0.927138
1 0.288396 0.94049
1 0.301656 0.953765
1 0.314961 0.96698
1 0.328283 0.980179
1 0.341543 0.993454
1 0.354772 1
1 0.367926 1
1 0.381033 1
1 0.394064 1
1 0.407019 1
0.993713 0.419913 1
0.975341 0.432746 1
0.957473 0.445518 1
0.939971 0.458244 1
0.919371 0.467597 1
0.885679 0.463661 1
0.85211 0.459709 1
0.818586 0.455711 1
0.785122 0.451698 1
0.751659 0.447684 1
0.718212 0.443656 1
0.684779 0.439628 1
0.651331 0.435615 1
0.617884 0.431617 1
0.584421 0.427634 1
0.563653 0.428031 1
0.54287 0.428275 1
0.522087 0.428367 1
0.501274 0.428351 1
0.480476 0.428244 1
0.459663 0.428046 1
0.438865 0.427756 1
1 0.289952 0.965881
1 0.303151 0.979232
1 0.316411 0.992523
1 0.329717 1
1 0.343023 1
1 0.356298 1
1 0.369528 1
1 0.382712 1
1 0.395819 1
1 0.408865 1
1 0.421851 1
1 0.43476 1
1 0.447623 1
1 0.46041 1
0.99025 0.473167 1
0.972976 0.485863 1
0.945281 0.487907 1
0.911681 0.483879 1
0.878157 0.479835 1
0.844694 0.475746 1
0.811261 0.471656 1
0.777844 0.467536 1
0.744427 0.463432 1
0.711025 0.459327 1
0.677607 0.455238 1
0.64419 0.451164 1
0.610773 0.447105 1
0.590036 0.447395 1
0.569284 0.447532 1
0.548516 0.447547 1
0.527749 0.44744 1
0.506966 0.447242 1
0.486183 0.446967 1
1 0.304723 1
1 0.317922 1
1 0.331182 1
1 0.344472 1
1 0.357794 1
1 0.371069 1
1 0.384314 1
1 0.397498 1
1 0.41062 1
