luts/Cosmic Trip.cube
TITLE "Generated by Resolve"
LUT_3D_SIZE 9
0 0 0
0 0 0
0 0 0
0 0.0682841 0.0520943
0 0.100282 0.109346
0 0.134768 0.165042
0 0.171298 0.218814
0 0.209583 0.270665
0 0.249378 0.320806
0.125719 0 0.0642252
0.0394598 0 0.117876
0 0 0.170291
0 0 0.245655
0 0 0.330083
0 0.0148318 0.414847
0 0.0527657 0.498619
0 0.0955367 0.580926
0 0.142382 0.661784
0.459327 0.0285344 0.242542
0.288167 0.0816052 0.296193
0.1449 0.0949569 0.353384
0.0543984 0.107607 0.405432
0 0.109224 0.456474
0 0.128237 0.530266
0 0.149264 0.61149
0 0.157229 0.692042
0 0.0825208 0.77171
0.640131 0.0854505 0.419883
0.483513 0.138674 0.473106
0.382513 0.179919 0.528939
0.243778 0.173205 0.587625
0.157641 0.181598 0.638224
0.0725261 0.184527 0.686839
0 0.184604 0.733181
0 0.209277 0.803403
0 0.242313 0.880278
0.835126 0.143297 0.58291
0.685542 0.196506 0.635889
0.59527 0.248585 0.690044
0.483391 0.262913 0.745815
0.347784 0.251621 0.802731
0.263096 0.256916 0.853269
0.178775 0.258793 0.901091
0.0951858 0.258946 0.946349
0.0124666 0.258106 0.989517
1 0.201663 0.734798
0.902815 0.254826 0.787793
0.79826 0.307286 0.841672
0.722515 0.357687 0.897337
0.587442 0.343923 0.954635
0.452827 0.329976 1
0.368963 0.332952 1
0.285191 0.333562 1
0.201785 0.332906 1
1 0.260441 0.888487
1 0.313542 0.941512
1 0.366247 0.995132
0.924956 0.417868 1
0.826093 0.43949 1
0.692012 0.423819 1
0.558083 0.408133 1
0.474815 0.409277 1
0.391501 0.408621 1
1 0.319524 1
1 0.372564 1
1 0.425437 1
1 0.477394 1
1 0.52845 1
0.930358 0.51986 1
0.796918 0.502861 1
0.663493 0.485985 1
0.580682 0.485588 1
1 0.37882 1
1 0.4318 1
1 0.484779 1
1 0.536995 1
1 0.588388 1
1 0.616922 1
1 0.59913 1
0.902068 0.581201 1
0.769009 0.563439 1
0 0 0
0 0 0
0 0.0163272 0
0 0.0859693 0
0 0.117968 0
0 0.152453 0
0 0.188952 0.0324559
0 0.227176 0.104616
0 0.266835 0.175891
0.133684 0 0
0.117891 0.0903639 0.0761578
0.000823987 0.121111 0.0670024
0 0.07776 0.0485237
0 0.0877394 0.0932937
0 0.117998 0.145861
0 0.154574 0.20412
0 0.195193 0.267399
0 0.239063 0.32549
0.442634 0.0453498 0.0125734
0.293721 0.138354 0.201556
0.199603 0.181155 0.27483
0.104311 0.190799 0.242664
0.0147097 0.197421 0.279149
0 0.227192 0.3579
0 0.253635 0.446052
0 0.274754 0.536522
0 0.281575 0.629175
0.601404 0.10277 0.161654
0.478294 0.189105 0.287312
0.397345 0.240894 0.346441
0.294194 0.262592 0.410468
0.204852 0.270085 0.451408
0.117784 0.274083 0.497627
0.0327001 0.275776 0.547356
0 0.308507 0.633738
0 0.34284 0.728573
0.800015 0.160754 0.307866
0.676509 0.243656 0.423835
0.59089 0.295766 0.479164
0.518807 0.3467 0.537209
0.39498 0.343709 0.597604
0.308278 0.348791 0.650462
0.222583 0.351431 0.70544
0.137987 0.352621 0.763165
0.0544747 0.352911 0.825177
1 0.219242 0.458122
0.88484 0.300008 0.573037
0.787243 0.352438 0.627573
0.714717 0.403677 0.684504
0.632227 0.44033 0.743786
0.497719 0.424216 0.805219
0.412528 0.427268 0.86305
0.327794 0.428458 0.923461
0.243671 0.428611 0.987549
1 0.27808 0.613596
1 0.357397 0.728328
0.987335 0.410056 0.782406
0.911498 0.461662 0.838651
0.843366 0.512428 0.897261
0.735302 0.521248 0.95816
0.601465 0.504067 1
0.51725 0.505409 1
0.433219 0.505287 1
1 0.337194 0.772625
1 0.415442 0.887495
1 0.468269 0.941253
1 0.52018 0.996963
1 0.571252 1
0.972519 0.619303 1
0.839139 0.601251 1
0.705791 0.583291 1
0.622263 0.583169 1
1 0.396521 0.934264
1 0.47393 1
1 0.526879 1
1 0.579049 1
1 0.630426 1
1 0.681147 1
1 0.699199 1
0.943481 0.680476 1
0.810498 0.661906 1
0 0 0
0 0 0
0 0.0416571 0
0 0.102068 0
0 0.134691 0
0 0.169451 0
0 0.206104 0.0187381
0 0.244434 0.0666667
0 0.284276 0.115343
0.15494 0 0
0.115251 0.045304 0
0.0153658 0.131624 0.00910964
0 0.0744488 0.049897
0 0.0869764 0.0936599
0 0.118761 0.138155
0 0.157916 0.1832
0 0.202121 0.228992
0 0.250599 0.276036
0.452491 0.0608377 0.0291905
0.306004 0.153079 0.144823
0.255619 0.246601 0.243137
0.144106 0.284276 0.268757
0.0516365 0.326009 0.308721
0 0.362814 0.34995
0 0.394995 0.39147
0 0.422599 0.433265
0 0.44477 0.475624
0.641123 0.119127 0.18233
0.486671 0.205142 0.293843
0.420462 0.288914 0.391989
0.344793 0.335698 0.448814
0.252506 0.3458 0.485939
0.163409 0.352682 0.524758
0.0767834 0.375692 0.582727
0 0.410193 0.654521
0 0.445197 0.728908
0.822858 0.177707 0.318608
0.666224 0.26041 0.432547
0.602258 0.341405 0.546395
0.531212 0.392798 0.60293
0.442039 0.422461 0.660563
0.353399 0.429557 0.69958
0.266346 0.434333 0.739406
0.180682 0.437613 0.779919
0.0962997 0.453101 0.834623
1 0.23653 0.438788
0.850355 0.317174 0.55938
0.790417 0.396597 0.695964
0.718441 0.44802 0.752987
0.651179 0.498863 0.811704
0.542443 0.50695 0.871397
0.45594 0.511681 0.911604
0.37026 0.514595 0.952819
0.285374 0.516381 0.995224
1 0.295583 0.496315
1 0.374792 0.681529
0.983932 0.453193 0.834607
0.909087 0.504845 0.893172
0.84184 0.555734 0.95436
0.776562 0.606348 1
0.644617 0.589853 1
0.559472 0.59263 1
0.474754 0.593942 1
1 0.354818 0.540871
1 0.43299 0.682948
1 0.510628 0.923949
1 0.562554 0.999008
1 0.613657 1
0.969543 0.664271 1
0.881148 0.690379 1
0.747845 0.671519 1
0.66363 0.672648 1
1 0.414221 0.679393
1 0.491585 0.80972
1 0.568658 0.948928
1 0.620813 1
1 0.672175 1
1 0.722942 1
1 0.773388 1
0.98468 0.771405 1
0.851759 0.752148 1
0 0 0
0 0 0
0 0.0657359 0
0 0.116716 0
0 0.150454 0
0 0.185794 0
0 0.222797 0
0 0.261387 0
0 0.301411 0.0203098
0.139269 0 0
0 0 0
0.0100862 0.120851 0
0 0.086183 0
0 0.102434 0
0 0.135042 0.0425269
0 0.174563 0.0884718
0 0.219028 0.134874
0 0.267674 0.181903
0.340902 0.112459 0
0.278691 0.160784 0.0309453
0.245533 0.234119 0.116854
0.159625 0.284489 0.157534
0.0685588 0.317143 0.188571
0 0.349645 0.225971
0 0.380316 0.266423
0 0.408316 0.308873
0 0.432349 0.352911
0.653284 0.134539 0.0842908
0.499748 0.220371 0.201694
0.434226 0.299397 0.298497
0.391791 0.391363 0.390997
0.286687 0.43386 0.418173
0.196445 0.479759 0.456519
0.10901 0.522225 0.496498
0.023621 0.562234 0.537224
0 0.600519 0.578424
0.852308 0.19382 0.233661
0.689204 0.276387 0.349477
0.609384 0.357305 0.453071
0.557443 0.437186 0.544137
0.486564 0.486259 0.599176
0.396963 0.498619 0.634943
0.309056 0.507317 0.672618
0.222736 0.521492 0.718929
0.137774 0.556649 0.788403
1 0.253178 0.37438
0.876493 0.3337 0.491081
0.783642 0.413062 0.59733
0.733516 0.491142 0.699611
0.666911 0.542535 0.75584
0.58587 0.577432 0.812802
0.498497 0.585901 0.850645
0.412131 0.591882 0.889525
0.326696 0.596277 0.929137
1 0.312581 0.508934
1 0.391714 0.627451
0.95877 0.470039 0.736629
0.917403 0.547112 0.856703
0.850385 0.598291 0.912871
0.785794 0.649226 0.96997
0.687007 0.665141 1
0.601175 0.670817 1
0.515892 0.674601 1
1 0.372076 0.637903
1 0.450172 0.758907
1 0.527764 0.871214
1 0.604212 1
1 0.655467 1
0.973053 0.706264 1
0.909682 0.756985 1
0.78938 0.750515 1
0.704616 0.753994 1
1 0.431647 0.760784
1 0.508949 0.885191
1 0.585977 1
1 0.661997 1
1 0.713436 1
1 0.764309 1
1 0.814893 1
1 0.853849 1
0.892607 0.834104 1
0 0.0165408 0
0 0.0296025 0
0 0.088838 0
0 0.128298 0
0 0.16733 0
0 0.203143 0
0 0.240391 0
0 0.279072 0
0 0.319158 0
0.0813611 0 0
0 0.0418402 0
0 0.0573892 0
0 0.085832 0
0 0.11986 0
0 0.152804 0
0 0.192508 0
0 0.237049 0.0429541
0 0.285756 0.090135
0.287404 0.134569 0
0.105486 0.173297 0
0.214954 0.23386 0.00485237
0.162081 0.284947 0.0594339
0.0799115 0.335439 0.0973831
0 0.367971 0.134707
0 0.398733 0.175326
0 0.426917 0.217899
0 0.451316 0.261891
0.513848 0.200366 0.0197299
0.373404 0.243336 0.103044
0.418219 0.298604 0.185946
0.385351 0.380774 0.268772
0.300221 0.43212 0.30724
0.211139 0.465553 0.333684
0.124773 0.500969 0.366735
0.0401617 0.53727 0.403738
0 0.574258 0.443458
0.837476 0.209369 0.1402
0.688029 0.291844 0.259449
0.618387 0.372824 0.365408
0.568917 0.445762 0.450416
0.528099 0.537408 0.540429
0.437522 0.563836 0.578866
0.338674 0.631174 0.607019
0.252171 0.67599 0.646159
0.167041 0.718441 0.686152
1 0.269184 0.28661
0.889601 0.34963 0.405249
0.797925 0.429007 0.512947
0.741909 0.507118 0.609781
0.695216 0.584955 0.696468
0.626322 0.63537 0.750225
0.538857 0.650004 0.785367
0.452247 0.660395 0.822248
0.366613 0.668421 0.860227
1 0.32903 0.427466
1 0.408087 0.54667
0.976242 0.486381 0.656321
0.914443 0.5635 0.756863
0.867658 0.639918 0.851514
0.803449 0.691432 0.907637
0.727459 0.729793 0.964309
0.641337 0.740017 1
0.55581 0.747356 1
1 0.388861 0.564309
1 0.466896 0.684581
1 0.544442 0.796231
1 0.620905 0.899977
1 0.696529 1
0.984466 0.747662 1
0.921553 0.798733 1
0.829587 0.820188 1
0.744518 0.827253 1
1 0.448692 0.697856
1 0.525948 0.819471
1 0.602914 0.933135
1 0.678935 1
1 0.75407 1
1 0.805158 1
1 0.85597 1
1 0.906813 1
0.932509 0.907774 1
0 0.0553902 0
0 0.0499428 0
0 0.0973983 0
0 0.139147 0
0 0.179843 0
0 0.222126 0
0 0.259449 0
0 0.298131 0
0 0.338155 0
0.0447395 0.0153811 0
0 0.0383917 0
0 0.0591897 0
0 0.0955978 0
0 0.132738 0
0 0.172885 0
0 0.212467 0
0 0.256947 0
0 0.305653 0.000381476
0.24332 0.15523 0
0.0536202 0.18851 0
0 0.235966 0
0.131075 0.287098 0
0.0813306 0.337423 0.00613413
0.00471504 0.387579 0.0453193
0 0.418738 0.0859998
0 0.447593 0.128695
0 0.473243 0.172763
0.459281 0.222156 0
0.275502 0.257847 0
0.369055 0.305257 0.0771191
0.367132 0.379355 0.158236
0.308278 0.431617 0.21297
0.221317 0.484123 0.245151
0.137133 0.519661 0.278019
0.0540627 0.5561 0.315007
0 0.593179 0.354711
0.682368 0.275196 0.0787366
0.513832 0.331029 0.177249
0.593271 0.380133 0.258045
0.554086 0.441093 0.339239
0.524285 0.528618 0.420294
0.439231 0.580346 0.457862
0.351919 0.613672 0.482048
0.266423 0.649134 0.512139
0.182147 0.685893 0.546441
0.933211 0.28484 0.196292
0.867399 0.36524 0.317128
0.799329 0.444663 0.426459
0.749783 0.519036 0.520211
0.705348 0.59266 0.601984
0.664515 0.68423 0.690822
0.576562 0.71162 0.729381
0.479362 0.781796 0.758907
0.393851 0.828214 0.797528
1 0.344991 0.340444
1 0.424018 0.461097
0.984298 0.502327 0.571862
0.92575 0.579538 0.673075
0.877302 0.656016 0.764981
0.833143 0.732601 0.848875
0.765072 0.783825 0.901854
0.679286 0.800488 0.93669
0.593835 0.812406 0.973114
1 0.405173 0.480598
1 0.483177 0.601724
1 0.560693 0.714046
1 0.637217 0.818143
1 0.712917 0.91426
1 0.788312 1
0.940505 0.839948 1
0.867735 0.880629 1
0.782712 0.892607 1
1 0.465309 0.617777
1 0.542535 0.739681
1 0.619455 0.85359
1 0.695491 0.960189
1 0.770703 1
1 0.84538 1
1 0.896559 1
1 0.947768 1
0.97084 0.973236 1
0 0.0758068 0
0 0.0634318 0
0 0.104921 0
0 0.149554 0
0 0.192081 0
0 0.235294 0
0 0.280507 0
0 0.318975 0
0 0.358801 0
0.0115663 0.0426032 0
0 0.0587167 0
0 0.0710155 0
0 0.111238 0
0 0.150286 0
0 0.191241 0
0 0.235233 0
0 0.279423 0
0 0.328023 0
0.203311 0.176272 0
0.0122225 0.206088 0
0 0.246296 0
0.0649119 0.290761 0
0.0507668 0.340749 0
0.00230411 0.390417 0
0 0.440665 0
0 0.470665 0.0408026
0 0.498421 0.0849622
0.412634 0.242863 0
0.224826 0.274189 0
0.10132 0.316197 0
0.324865 0.380224 0.0502022
0.285588 0.432914 0.104906
0.23061 0.485786 0.160204
0.145342 0.539055 0.190738
0.064744 0.575677 0.227588
0 0.612924 0.267262
0.628931 0.313603 0
0.44593 0.346624 0.0718547
0.489891 0.389899 0.151141
0.526604 0.443809 0.2309
0.511147 0.52668 0.310903
0.45124 0.579232 0.365743
0.361395 0.632181 0.394537
0.277699 0.667811 0.424628
0.194812 0.704738 0.458961
0.848722 0.350683 0.136645
0.675547 0.421988 0.252659
0.757504 0.466468 0.331975
0.730648 0.520912 0.411749
0.690929 0.586038 0.491875
0.662852 0.677089 0.571771
0.577447 0.729091 0.609125
0.491569 0.762371 0.632303
0.407004 0.797589 0.66038
1 0.360723 0.252308
1 0.439719 0.374456
0.97499 0.518059 0.486381
0.928771 0.595407 0.588266
0.884672 0.66479 0.672847
0.842542 0.739956 0.753506
0.801022 0.831617 0.841856
0.714946 0.859754 0.88069
0.629709 0.890562 0.929137
1 0.421134 0.394614
1 0.499107 0.516808
1 0.576623 0.629999
1 0.653254 0.734646
1 0.729091 0.83093
1 0.804517 0.919295
0.971222 0.880278 1
0.903258 0.931975 1
0.818814 0.950423 1
1 0.481544 0.533883
1 0.55874 0.656504
1 0.635645 0.771008
1 0.711742 0.877989
1 0.787045 0.977676
1 0.86183 1
1 0.936538 1
1 0.988296 1
1 1 1
0 0.0983597 0
0 0.0846113 0
0 0.112947 0
0 0.159854 0
0 0.204211 0
0 0.248463 0
0 0.294179 0
0 0.342168 0
0 0.381552 0
0 0.0782483 0
0 0.0900282 0
0 0.0903334 0
0 0.132616 0
0 0.172747 0
0 0.214038 0
0 0.258045 0
0 0.30544 0
0 0.353765 0
0.165866 0.198886 0
0 0.22623 0
0 0.262852 0
0 0.29633 0
0 0.345983 0
0 0.395163 0
0 0.444877 0
0 0.496223 0
0 0.526528 0
0.36939 0.264393 0
0.181308 0.292607 0
0.0216678 0.330571 0
0.222873 0.382788 0
0.245167 0.435706 0
0.205203 0.488762 0.0535439
0.152804 0.542153 0.109163
0.0716106 0.596155 0.141253
0 0.633646 0.180835
0.581811 0.333898 0
0.396719 0.363485 0
0.249119 0.402533 0.0456092
0.469505 0.451255 0.124285
0.482811 0.52668 0.203357
0.433341 0.579705 0.258213
0.376516 0.633097 0.313558
0.285435 0.686961 0.338354
0.204623 0.724071 0.372549
0.796811 0.407599 0.0697948
0.616175 0.438376 0.148058
0.494499 0.478309 0.226291
0.692683 0.527398 0.304967
0.669169 0.58613 0.384054
0.652705 0.674983 0.463264
0.592325 0.727657 0.518166
0.500572 0.780758 0.544961
0.417502 0.816175 0.573358
1 0.426581 0.193744
0.841245 0.504479 0.318044
0.895415 0.5561 0.407095
0.902358 0.605661 0.485756
0.867628 0.664225 0.564858
0.828412 0.732479 0.644221
0.801251 0.826001 0.723308
0.715236 0.878248 0.760815
0.630533 0.911574 0.78378
1 0.436912 0.308064
1 0.514885 0.431327
1 0.592416 0.545373
1 0.669154 0.650553
1 0.743877 0.745663
1 0.811307 0.825208
0.980163 0.887556 0.905074
0.937575 0.979431 0.993393
0.852949 1 1
1 0.497505 0.448844
1 0.574685 0.572274
1 0.651591 0.687434
1 0.727764 0.794858
1 0.803204 0.894713
1 0.878111 0.987274
1 0.952819 1
1 1 1
1 1 1
0 0.122866 0
0 0.108049 0
0 0.121721 0
0 0.170336 0
0 0.216373 0
0 0.261738 0
0 0.308034 0
0 0.356268 0
0 0.407034 0
0 0.124697 0
0 0.133486 0
0 0.119463 0
0 0.161913 0
0 0.201724 0
0 0.242557 0
0 0.286122 0
0 0.333227 0
0 0.384466 0
0.130114 0.224643 0
0 0.24976 0
0 0.283482 0
0 0.304524 0
0 0.354025 0
0 0.402884 0
0 0.452186 0
0 0.503182 0
0 0.557046 0
0.328573 0.287465 0
0.141344 0.313283 0
0 0.348013 0
0 0.391852 0
0.17525 0.440009 0
0.166247 0.493111 0
0.125673 0.546563 0.00341802
0.0749828 0.60058 0.0592355
0 0.655451 0.0952773
0.537346 0.35494 0
0.352499 0.381979 0
0.18265 0.417716 0
0.146136 0.462348 0.0188754
0.432944 0.528115 0.0971389
0.402655 0.581491 0.151888
0.35494 0.635187 0.207126
0.300496 0.689311 0.26276
0.211139 0.743999 0.287083
0.749935 0.427695 0
0.56817 0.455695 0.0441291
0.405447 0.492195 0.121538
0.600595 0.537179 0.199359
0.633997 0.590951 0.277623
0.630854 0.674495 0.356161
0.577768 0.727611 0.411139
0.520012 0.781109 0.466499
0.424949 0.835096 0.487449
0.963424 0.492821 0.13666
0.786099 0.53228 0.224796
0.635493 0.569467 0.302235
0.847562 0.614755 0.380041
0.84033 0.668345 0.458289
0.809262 0.73077 0.536858
0.793118 0.82388 0.615488
0.732265 0.876646 0.670436
0.63917 0.929824 0.696117
1 0.502785 0.250141
1 0.579919 0.375128
0.88629 0.648173 0.482994
1 0.693874 0.5608
1 0.747478 0.639033
1 0.809247 0.717632
0.966339 0.879866 0.796445
0.939574 0.97525 0.874937
0.852781 1 0.91284
1 0.513329 0.36347
1 0.590509 0.487709
1 0.66743 0.603525
1 0.743679 0.71136
1 0.819272 0.811353
1 0.889189 0.898451
1 0.958404 0.977447
1 1 1
1 1 1
