luts/Cosmic Trip.cube
TITLE "Generated by Resolve"
LUT_3D_SIZE 5
0 0 0
0 0 0
0 0.100282 0.109346
0 0.171298 0.218814
0 0.249378 0.320806
0.459327 0.0285344 0.242542
0.1449 0.0949569 0.353384
0 0.109224 0.456474
0 0.149264 0.61149
0 0.0825208 0.77171
0.835126 0.143297 0.58291
0.59527 0.248585 0.690044
0.347784 0.251621 0.802731
0.178775 0.258793 0.901091
0.0124666 0.258106 0.989517
1 0.260441 0.888487
1 0.366247 0.995132
0.826093 0.43949 1
0.558083 0.408133 1
0.391501 0.408621 1
1 0.37882 1
1 0.484779 1
1 0.588388 1
1 0.59913 1
0.769009 0.563439 1
0 0 0
0 0.0416571 0
0 0.134691 0
0 0.206104 0.0187381
0 0.284276 0.115343
0.452491 0.0608377 0.0291905
0.255619 0.246601 0.243137
0.0516365 0.326009 0.308721
0 0.394995 0.39147
0 0.44477 0.475624
0.822858 0.177707 0.318608
0.602258 0.341405 0.546395
0.442039 0.422461 0.660563
0.266346 0.434333 0.739406
0.0962997 0.453101 0.834623
1 0.295583 0.496315
0.983932 0.453193 0.834607
0.84184 0.555734 0.95436
0.644617 0.589853 1
0.474754 0.593942 1
1 0.414221 0.679393
1 0.568658 0.948928
1 0.672175 1
1 0.773388 1
0.851759 0.752148 1
0 0.0165408 0
0 0.088838 0
0 0.16733 0
0 0.240391 0
0 0.319158 0
0.287404 0.134569 0
0.214954 0.23386 0.00485237
0.0799115 0.335439 0.0973831
0 0.398733 0.175326
0 0.451316 0.261891
0.837476 0.209369 0.1402
0.618387 0.372824 0.365408
0.528099 0.537408 0.540429
0.338674 0.631174 0.607019
0.167041 0.718441 0.686152
1 0.32903 0.427466
0.976242 0.486381 0.656321
0.867658 0.639918 0.851514
0.727459 0.729793 0.964309
0.55581 0.747356 1
1 0.448692 0.697856
1 0.602914 0.933135
1 0.75407 1
1 0.85597 1
0.932509 0.907774 1
0 0.0758068 0
0 0.104921 0
0 0.192081 0
0 0.280507 0
0 0.358801 0
0.203311 0.176272 0
0 0.246296 0
0.0507668 0.340749 0
0 0.440665 0
0 0.498421 0.0849622
0.628931 0.313603 0
0.489891 0.389899 0.151141
0.511147 0.52668 0.310903
0.361395 0.632181 0.394537
0.194812 0.704738 0.458961
1 0.360723 0.252308
0.97499 0.518059 0.486381
0.884672 0.66479 0.672847
0.801022 0.831617 0.841856
0.629709 0.890562 0.929137
1 0.481544 0.533883
1 0.635645 0.771008
1 0.787045 0.977676
1 0.936538 1
1 1 1
0 0.122866 0
0 0.121721 0
0 0.216373 0
0 0.308034 0
0 0.407034 0
0.130114 0.224643 0
0 0.283482 0
0 0.354025 0
0 0.452186 0
0 0.557046 0
0.537346 0.35494 0
0.18265 0.417716 0
0.432944 0.528115 0.0971389
0.35494 0.635187 0.207126
0.211139 0.743999 0.287083
0.963424 0.492821 0.13666
0.635493 0.569467 0.302235
0.84033 0.668345 0.458289
0.793118 0.82388 0.615488
0.63917 0.929824 0.696117
1 0.513329 0.36347
1 0.66743 0.603525
1 0.819272 0.811353
1 0.958404 0.977447
1 1 1
