luts/DIGITAL_TO_FILM.cube
TITLE "Generated by Resolve"
LUT_3D_SIZE 5
0.0521859 0.0502174 0.0491646
0.195834 0.0413062 0.0402686
0.402136 0.0200961 0.0190585
0.663905 0 0
0.897276 0 0
0.0402228 0.185367 0.0372015
0.195377 0.187976 0.0398108
0.412695 0.177783 0.0296178
0.684443 0.156573 0.00840772
0.912428 0.125414 0
0.01355 0.378119 0.0105287
0.178882 0.390906 0.0233158
0.406104 0.390616 0.0230259
0.687358 0.379065 0.0114748
0.918013 0.357321 0
0 0.622278 0
0.149157 0.644419 0
0.38555 0.6533 0.00247196
0.67628 0.650721 0
0.916823 0.637812 0
0 0.862364 0
0.107729 0.880247 0
0.352743 0.889723 0
0.652338 0.892836 0
0.909575 0.890455 0
0.0492103 0.0472419 0.190433
0.19411 0.0395819 0.182788
0.401587 0.0195621 0.162768
0.664485 0 0.132052
0.898131 0 0.0916915
0.0412146 0.186358 0.182437
0.197436 0.190051 0.186114
0.415808 0.180896 0.176974
0.68835 0.160693 0.156771
0.914748 0.130526 0.126604
0.0180362 0.382605 0.159258
0.184344 0.396368 0.173022
0.412512 0.397024 0.173678
0.694286 0.386404 0.163073
0.921584 0.365591 0.142245
0 0.629969 0.123384
0.157763 0.65301 0.146441
0.395041 0.66273 0.156207
0.686213 0.661067 0.154513
0.921691 0.649042 0.142473
0 0.868711 0.076173
0.119265 0.886549 0.107942
0.365133 0.896147 0.126299
0.665461 0.89955 0.133059
0.915969 0.897688 0.129335
0.0414893 0.0395209 0.397848
0.18761 0.0330968 0.391424
0.396262 0.0142367 0.372549
0.660319 0 0.342977
0.896544 0 0.303685
0.0373846 0.182544 0.393744
0.19469 0.187289 0.398489
0.414084 0.179171 0.390372
0.687678 0.159976 0.371191
0.914855 0.130785 0.341985
0.0176699 0.382239 0.374029
0.184955 0.396979 0.388754
0.414069 0.398581 0.390372
0.696605 0.388891 0.380667
0.923018 0.368978 0.360754
0 0.632776 0.341329
0.161471 0.656733 0.365286
0.399649 0.667262 0.375937
0.691402 0.666468 0.375128
0.924346 0.655375 0.363943
0 0.872084 0.297093
0.125917 0.890089 0.329717
0.37261 0.899916 0.348913
0.673594 0.903655 0.356512
0.919982 0.902235 0.353613
0.0296178 0.0276493 0.6636
0.176944 0.0224308 0.658427
0.38674 0.00471504 0.640726
0.651926 0 0.612238
0.89276 0 0.574014
0.0293736 0.174517 0.663355
0.187716 0.180316 0.669047
0.408133 0.17322 0.662074
0.682963 0.155032 0.643915
0.913054 0.126787 0.615671
0.013077 0.377646 0.647105
0.181308 0.393332 0.662745
0.411368 0.39588 0.665263
0.694942 0.387106 0.65658
0.922652 0.368109 0.637568
0 0.631327 0.617578
0.160922 0.656184 0.64242
0.399969 0.667597 0.653956
0.692531 0.667643 0.654017
0.9252 0.657435 0.643687
0 0.872953 0.576303
0.128283 0.891325 0.609766
0.375814 0.901503 0.629801
0.677501 0.905592 0.638224
0.922042 0.904585 0.636149
0.013962 0.0119936 0.900389
0.162478 0.00796521 0.898375
0.373404 0 0.889845
0.639673 0 0.874815
0.886854 0 0.852567
0.0175021 0.162661 0.902144
0.176883 0.169497 0.905455
0.398322 0.163409 0.90251
0.674464 0.146197 0.893858
0.909422 0.118929 0.879225
0.00459297 0.369177 0.895674
0.173785 0.385809 0.90396
0.404776 0.389303 0.905638
0.689601 0.381445 0.901823
0.920623 0.363333 0.892668
0 0.625986 0.881666
0.156481 0.651728 0.895338
0.396399 0.664088 0.901564
0.689982 0.664988 0.902022
0.924437 0.655589 0.897292
0 0.871565 0.859419
0.126726 0.890517 0.879438
0.375097 0.901152 0.89073
0.677592 0.905638 0.895521
0.922438 0.905028 0.894865
