luts/DIGITAL_TO_FILM.cube
TITLE "Generated by Resolve"
LUT_3D_SIZE 9
0.0521859 0.0502174 0.0491646
0.115541 0.0474556 0.0464179
0.195834 0.0413062 0.0402686
0.291691 0.0321202 0.0310674
0.402136 0.0200961 0.0190585
0.526421 0.00544747 0.0043946
0.663905 0 0
0.794751 0 0
0.897276 0 0
0.0482643 0.110048 0.045243
0.114641 0.110323 0.0455177
0.197894 0.107118 0.0423133
0.29662 0.100801 0.035996
0.409873 0.0915999 0.0267948
0.536919 0.0796979 0.0148928
0.676783 0.0652323 0.000427253
0.806531 0.0483101 0
0.906355 0.0290532 0
0.0402228 0.185367 0.0372015
0.109392 0.188434 0.0402686
0.195377 0.187976 0.0398108
0.296788 0.184344 0.0361791
0.412695 0.177783 0.0296178
0.542336 0.16849 0.0203098
0.684443 0.156573 0.00840772
0.81413 0.142184 0
0.912428 0.125414 0
0.0285496 0.275013 0.0255283
0.100343 0.280705 0.03122
0.188907 0.282826 0.033341
0.292866 0.281743 0.0322576
0.411292 0.277699 0.0282139
0.543404 0.270878 0.0213931
0.687785 0.261418 0.0119326
0.818341 0.249439 0
0.916182 0.23505 0
0.01355 0.378119 0.0105287
0.0878462 0.386313 0.0187228
0.178882 0.390906 0.0233158
0.285283 0.392264 0.0246586
0.406104 0.390616 0.0230259
0.540597 0.386175 0.0185855
0.687358 0.379065 0.0114748
0.819654 0.369406 0.00183108
0.918013 0.357321 0
0 0.494057 0
0.0721599 0.504631 0.00303655
0.16556 0.511604 0.00999466
0.274311 0.515297 0.0136873
0.397452 0.515969 0.014374
0.534234 0.513817 0.0122225
0.683467 0.50898 0.00738537
0.818357 0.501579 0
0.918196 0.491722 0
0 0.622278 0
0.0534829 0.635172 0
0.149157 0.644419 0
0.260182 0.65037 0
0.38555 0.6533 0.00247196
0.524559 0.653361 0.00254826
0.67628 0.650721 0
0.814603 0.645518 0
0.916823 0.637812 0
0 0.753475 0
0.0319371 0.765927 0
0.129839 0.775128 0
0.243046 0.781552 0
0.370596 0.785504 0
0.511772 0.787228 0
0.665904 0.786847 0
0.808469 0.784466 0
0.913954 0.780102 0
0 0.862364 0
0.00767529 0.872557 0
0.107729 0.880247 0
0.223072 0.885878 0
0.352743 0.889723 0
0.496025 0.891997 0
0.652338 0.892836 0
0.799954 0.892302 0
0.909575 0.890455 0
0.0513466 0.0493782 0.110842
0.115023 0.0469368 0.1084
0.195621 0.0411078 0.102571
0.291783 0.0322118 0.0936751
0.402518 0.0204776 0.0819409
0.527092 0.00610361 0.0675669
0.664836 0 0.0506752
0.795666 0 0.0313725
0.898039 0 0.00976577
0.0484627 0.110246 0.107958
0.115129 0.110811 0.108507
0.198657 0.107897 0.105592
0.297673 0.101854 0.0995651
0.4112 0.0929274 0.0906386
0.538506 0.0812848 0.078996
0.678584 0.0670939 0.0648051
0.808087 0.0504311 0.0481422
0.907485 0.0314183 0.0291295
0.0413672 0.186526 0.100862
0.110811 0.189853 0.104189
0.197055 0.18967 0.104005
0.298741 0.186297 0.100633
0.414908 0.180011 0.0943313
0.544808 0.170962 0.0852979
0.687022 0.159304 0.07364
0.816251 0.145159 0.0594949
0.913893 0.128618 0.0429694
0.0305943 0.277058 0.090074
0.102647 0.283009 0.096025
0.19147 0.285389 0.0984054
0.295689 0.28455 0.0975814
0.414343 0.280766 0.0937819
0.546715 0.274174 0.0871901
0.691142 0.264958 0.0779736
0.820996 0.253223 0.0662394
0.917952 0.239063 0.0520943
0.0164492 0.381018 0.0759442
0.0909895 0.389456 0.0843824
0.182269 0.394293 0.0892042
0.288914 0.39588 0.0908064
0.409964 0.394491 0.0894026
0.544701 0.39028 0.0851911
0.691447 0.383398 0.0783246
0.822858 0.373983 0.0688945
0.920104 0.362112 0.0570382
0 0.497765 0.0586862
0.076112 0.508598 0.0694896
0.169757 0.515785 0.0766918
0.278737 0.519722 0.0806134
0.40209 0.520623 0.081529
0.539117 0.5187 0.0796063
0.688319 0.514076 0.0749828
0.822095 0.506905 0.0678111
0.920592 0.497261 0.0581826
0 0.62678 0.038468
0.0582132 0.639902 0.0515908
0.154131 0.649378 0.0610666
0.265354 0.655558 0.0672465
0.390951 0.658686 0.0703899
0.53019 0.658976 0.0706798
0.68191 0.656565 0.0682689
0.818906 0.651576 0.0632639
0.91957 0.644099 0.055787
0 0.757855 0.0154574
0.0374304 0.770352 0.030808
0.135546 0.779629 0.0424964
0.248966 0.78616 0.0508583
0.376745 0.790234 0.0561685
0.518135 0.792096 0.0586252
0.672328 0.791882 0.0583352
0.813367 0.789685 0.0554665
0.917067 0.78555 0.0500954
0 0.86595 0
0.0138857 0.876112 0.00727855
0.114168 0.883787 0.0211032
0.229725 0.889433 0.0316014
0.359594 0.893309 0.0390326
0.50309 0.895644 0.0435798
0.659602 0.896559 0.0453803
0.805478 0.896147 0.0445716
0.913115 0.894453 0.0412451
0.0492103 0.0472419 0.190433
0.113191 0.0451209 0.188327
0.19411 0.0395819 0.182788
0.290562 0.0309911 0.174197
0.401587 0.0195621 0.162768
0.526452 0.00547799 0.148669
0.664485 0 0.132052
0.795605 0 0.113039
0.898131 0 0.0916915
0.047364 0.109133 0.188586
0.114305 0.109987 0.189425
0.198123 0.107362 0.186801
0.297414 0.101595 0.181033
0.411215 0.0929427 0.172381
0.538796 0.0815747 0.161013
0.679103 0.067628 0.147082
0.808667 0.0512398 0.130678
0.907988 0.0324865 0.111925
0.0412146 0.186358 0.182437
0.110918 0.189975 0.186038
0.197436 0.190051 0.186114
0.299382 0.186938 0.183017
0.415808 0.180896 0.176974
0.545953 0.172107 0.168185
0.68835 0.160693 0.156771
0.817411 0.146807 0.142885
0.914748 0.130526 0.126604
0.0313268 0.27779 0.172549
0.103624 0.284001 0.178759
0.192706 0.286625 0.181384
0.297185 0.286046 0.180804
0.416083 0.28249 0.177249
0.548699 0.276158 0.170916
0.693217 0.267185 0.161944
0.822721 0.25568 0.150439
0.919127 0.241764 0.136522
0.0180362 0.382605 0.159258
0.0928206 0.391287 0.167941
0.184344 0.396368 0.173022
0.291218 0.398199 0.174853
0.412512 0.397024 0.173678
0.547494 0.393057 0.169711
0.694286 0.386404 0.163073
0.825101 0.377218 0.153872
0.921584 0.365591 0.142245
0.00158694 0.500175 0.142809
0.0787518 0.511223 0.153872
0.172625 0.518654 0.161303
0.281819 0.522805 0.165454
0.405417 0.523949 0.166583
0.542672 0.52224 0.164889
0.691875 0.517861 0.16051
0.824872 0.510903 0.153552
0.922393 0.501488 0.144137
0 0.629969 0.123384
0.0616159 0.64332 0.136736
0.157763 0.65301 0.146441
0.269215 0.659403 0.152834
0.395041 0.66273 0.156207
0.534493 0.663233 0.15671
0.686213 0.661067 0.154513
0.822232 0.656306 0.149737
0.921691 0.649042 0.142473
0 0.76109 0.101137
0.0415808 0.773693 0.116701
0.139925 0.783062 0.128603
0.253574 0.789685 0.137194
0.381552 0.793896 0.142733
0.523156 0.795895 0.145388
0.677409 0.79585 0.145312
0.817243 0.793835 0.142641
0.919539 0.789914 0.137484
0 0.868711 0.076173
0.0187839 0.878859 0.093904
0.119265 0.886549 0.107942
0.235035 0.89221 0.118654
0.365133 0.896147 0.126299
0.508827 0.898543 0.131044
0.665461 0.89955 0.133059
0.809949 0.899245 0.132464
0.915969 0.897688 0.129335
0.0458991 0.0439307 0.286458
0.110201 0.0421149 0.284657
0.191409 0.0368963 0.279423
0.288167 0.0285954 0.271122
0.399466 0.0174563 0.259983
0.52462 0.00364691 0.246174
0.662943 0 0.229831
0.794644 0 0.211093
0.897612 0 0.190005
0.0450599 0.106844 0.285618
0.112306 0.107988 0.286763
0.196399 0.105623 0.284413
0.295964 0.100145 0.27892
0.410025 0.0917525 0.270542
0.537881 0.0806592 0.259434
0.678477 0.0669718 0.245762
0.808377 0.0508431 0.229618
0.907927 0.0323339 0.211124
0.0398566 0.185016 0.280415
0.109834 0.188891 0.284291
0.196612 0.189227 0.284627
0.298833 0.186389 0.281788
0.415503 0.180591 0.276005
0.545907 0.172061 0.26746
0.688548 0.160906 0.256306
0.817731 0.14725 0.242664
0.915053 0.131212 0.226627
0.0308537 0.277333 0.271412
0.103426 0.283787 0.277882
0.192752 0.286671 0.280766
0.297475 0.286336 0.28043
0.416617 0.283024 0.277119
0.549477 0.276936 0.271031
0.694179 0.268193 0.262287
0.82359 0.256931 0.251026
0.919768 0.243244 0.237339
0.0184176 0.382986 0.258976
0.0934462 0.391913 0.267903
0.185199 0.397223 0.273213
0.292317 0.399298 0.275288
0.413855 0.398367 0.274357
0.54905 0.394629 0.270619
0.695964 0.388205 0.264195
0.82649 0.379248 0.255238
0.922545 0.367849 0.243839
0.00277714 0.50135 0.243336
0.0801709 0.512642 0.254627
0.174273 0.520302 0.262287
0.283711 0.524697 0.266682
0.407538 0.526055 0.26804
0.545007 0.52459 0.266575
0.694286 0.520424 0.262409
0.826795 0.513695 0.255665
0.923644 0.504494 0.246479
0 0.631937 0.224689
0.0638132 0.645518 0.23827
0.160189 0.655436 0.248203
0.271855 0.662028 0.254826
0.39791 0.665553 0.258412
0.537575 0.66627 0.259144
0.689342 0.664332 0.25716
0.824674 0.659815 0.252598
0.923262 0.652781 0.245533
0 0.763317 0.203204
0.0445258 0.776028 0.218997
0.143099 0.785519 0.231113
0.256947 0.792264 0.239918
0.385153 0.796613 0.245655
0.52697 0.798764 0.248524
0.68127 0.798871 0.248676
0.820233 0.797024 0.24622
0.921447 0.793286 0.24126
0 0.870726 0.178973
0.0224613 0.880903 0.196918
0.123156 0.888624 0.21117
0.239124 0.894331 0.222095
0.369436 0.898329 0.229938
0.513344 0.900801 0.234897
0.6701 0.9019 0.237125
0.813504 0.901701 0.236728
0.918242 0.900252 0.233814
0.0414893 0.0395209 0.397848
0.106096 0.0380255 0.396338
0.18761 0.0330968 0.391424
0.284657 0.0250858 0.383413
0.396262 0.0142367 0.372549
0.521675 0.000701915 0.35903
0.660319 0 0.342977
0.792828 0 0.324483
0.896544 0 0.303685
0.0416571 0.103441 0.398016
0.109194 0.10486 0.399435
0.193561 0.1028 0.39736
0.2934 0.0975814 0.392157
0.407736 0.0894636 0.384039
0.535851 0.0786297 0.373205
0.676768 0.0652171 0.359777
0.807279 0.0493324 0.343908
0.907332 0.0310826 0.325658
0.0373846 0.182544 0.393744
0.107637 0.186694 0.397894
0.19469 0.187289 0.398489
0.297154 0.18471 0.395911
0.414084 0.179171 0.390372
0.544747 0.170886 0.382086
0.687678 0.159976 0.371191
0.817258 0.146578 0.357778
0.914855 0.130785 0.341985
0.0292821 0.275746 0.385626
0.102098 0.28246 0.39234
0.191669 0.285588 0.395483
0.296635 0.285512 0.395392
0.416037 0.282445 0.392325
0.549126 0.2766 0.386481
0.694087 0.268086 0.377981
0.823682 0.257069 0.366949
0.919936 0.24361 0.353506
0.0176699 0.382239 0.374029
0.0929427 0.391409 0.3832
0.184955 0.396979 0.388754
0.292302 0.399283 0.391058
0.414069 0.398581 0.390372
0.549508 0.395071 0.386862
0.696605 0.388891 0.380667
0.827115 0.380163 0.371939
0.923018 0.368978 0.360754
0.00283818 0.501427 0.359197
0.0804761 0.512947 0.370718
0.174807 0.520836 0.378607
0.284474 0.52546 0.38323
0.408515 0.527047 0.384817
0.546227 0.525795 0.383566
0.695628 0.521859 0.379629
0.827924 0.515358 0.373129
0.924437 0.506371 0.364141
0 0.632776 0.341329
0.0648814 0.646586 0.355138
0.161471 0.656733 0.365286
0.273381 0.663523 0.372137
0.399649 0.667262 0.375937
0.539544 0.668193 0.376883
0.691402 0.666468 0.375128
0.826322 0.662181 0.370764
0.924346 0.655375 0.363943
0 0.76463 0.320592
0.0463569 0.777462 0.336599
0.145129 0.787091 0.348943
0.259205 0.793973 0.357961
0.387625 0.798459 0.363912
0.529656 0.800763 0.366995
0.684031 0.801022 0.367361
0.8224 0.799344 0.365118
0.92285 0.795789 0.360372
0 0.872084 0.297093
0.0250095 0.882307 0.315251
0.125917 0.890089 0.329717
0.2421 0.895857 0.340856
0.37261 0.899916 0.348913
0.516732 0.902464 0.354086
0.673594 0.903655 0.356512
0.81622 0.903548 0.356313
0.919982 0.902235 0.353613
0.0360418 0.0340734 0.523796
0.100954 0.0328832 0.522591
0.182773 0.0282597 0.517968
0.28011 0.0205386 0.510246
0.391989 0.00996414 0.499687
0.517693 0 0.486442
0.656626 0 0.470649
0.790219 0 0.45243
0.894926 0 0.431891
0.0372168 0.0990005 0.524956
0.105028 0.10071 0.526665
0.18967 0.098909 0.524865
0.289784 0.0939651 0.519936
0.404395 0.0861219 0.512078
0.532769 0.0755474 0.501503
0.674037 0.0623941 0.48835
0.805402 0.0467689 0.472724
0.906218 0.0287633 0.454734
0.0338903 0.179034 0.52163
0.104387 0.183444 0.526024
0.191699 0.184298 0.526894
0.294423 0.181979 0.524559
0.411597 0.176699 0.519295
0.542519 0.168658 0.511254
0.685802 0.158007 0.500603
0.816022 0.144854 0.487434
0.914183 0.12929 0.47187
0.0266423 0.273106 0.514382
0.0997177 0.280079 0.521355
0.189548 0.283467 0.524727
0.294759 0.283619 0.524895
0.414389 0.280797 0.522072
0.547723 0.275181 0.516457
0.692988 0.266926 0.508202
0.823026 0.256138 0.497414
0.919631 0.242924 0.484199
0.0158694 0.380453 0.503624
0.0913863 0.389853 0.513024
0.183627 0.395651 0.518822
0.291234 0.398199 0.52137
0.413214 0.397742 0.520912
0.548898 0.394461 0.517632
0.696239 0.38851 0.511681
0.827008 0.380011 0.503166
0.923049 0.369055 0.492226
0.00184634 0.500435 0.489586
0.0797131 0.512184 0.50135
0.174273 0.520317 0.509468
0.284169 0.525154 0.514321
0.408453 0.52697 0.516136
0.54638 0.525948 0.515114
0.695979 0.52224 0.511391
0.828336 0.515938 0.505104
0.924773 0.507179 0.496345
0 0.632563 0.472496
0.0648966 0.646586 0.486534
0.1617 0.656962 0.49691
0.273838 0.663966 0.503975
0.40032 0.667933 0.508003
0.540429 0.669062 0.509163
0.692439 0.667552 0.507622
0.827222 0.663478 0.503487
0.924987 0.656916 0.496864
0 0.765057 0.452506
0.0471046 0.778058 0.468742
0.146105 0.787839 0.4813
0.260395 0.794873 0.490532
0.389013 0.799512 0.496712
0.531273 0.801953 0.500008
0.685786 0.80238 0.500572
0.823819 0.80087 0.498527
0.923796 0.797482 0.493996
0 0.872816 0.429755
0.0264897 0.883116 0.448127
0.127611 0.890974 0.462806
0.244007 0.896819 0.474144
0.374731 0.900969 0.482414
0.519051 0.903593 0.487785
0.676036 0.904875 0.490425
0.818143 0.904875 0.49044
0.921233 0.90367 0.487938
0.0296178 0.0276493 0.6636
0.0948348 0.0267643 0.66273
0.176944 0.0224308 0.658427
0.274571 0.0149996 0.651011
0.38674 0.00471504 0.640726
0.512718 0 0.627756
0.651926 0 0.612238
0.786801 0 0.594308
0.89276 0 0.574014
0.0317845 0.0935683 0.665736
0.0998703 0.095552 0.667674
0.184802 0.0940261 0.666194
0.285176 0.0893568 0.661585
0.400046 0.0817731 0.654032
0.528679 0.071458 0.643732
0.670314 0.0585641 0.630823
0.802777 0.0431983 0.615457
0.904631 0.025452 0.597711
0.0293736 0.174517 0.663355
0.100145 0.179202 0.667948
0.187716 0.180316 0.669047
0.290684 0.178256 0.667018
0.408133 0.17322 0.662074
0.539284 0.165438 0.654322
0.682963 0.155032 0.643915
0.814069 0.142107 0.631006
0.913054 0.126787 0.615671
0.0229953 0.269474 0.657038
0.0963302 0.276692 0.664195
0.186404 0.280324 0.667765
0.291859 0.280735 0.668162
0.411734 0.278157 0.665629
0.545312 0.27277 0.660319
0.690944 0.264759 0.652323
0.821683 0.2542 0.641764
0.918883 0.241215 0.628779
0.013077 0.377646 0.647105
0.0888228 0.387289 0.656764
0.181308 0.393332 0.662745
0.289143 0.396109 0.665492
0.411368 0.39588 0.665263
0.547265 0.392828 0.662257
0.694942 0.387106 0.65658
0.826215 0.378836 0.64831
0.922652 0.368109 0.637568
0 0.498421 0.63389
0.0779431 0.510414 0.645869
0.172732 0.518776 0.654231
0.282856 0.523842 0.659281
0.407355 0.525887 0.661311
0.54551 0.525093 0.660517
0.695384 0.521599 0.657053
0.828046 0.515526 0.65098
0.924681 0.506981 0.642435
0 0.631327 0.617578
0.0638895 0.645579 0.63183
0.160922 0.656184 0.64242
0.273274 0.663417 0.649714
0.399969 0.667597 0.653956
0.540307 0.66894 0.655344
0.692531 0.667643 0.654017
0.827436 0.663783 0.650095
0.9252 0.657435 0.643687
0 0.764675 0.598337
0.0468452 0.777859 0.614786
0.146059 0.787808 0.627558
0.260563 0.79501 0.637003
0.389395 0.799786 0.643397
0.531853 0.802396 0.646906
0.686549 0.802976 0.647684
0.824521 0.801617 0.645853
0.9243 0.798398 0.64152
0 0.872953 0.576303
0.0269474 0.88336 0.594873
0.128283 0.891325 0.609766
0.244892 0.897276 0.621332
0.375814 0.901503 0.629801
0.520348 0.904219 0.635386
0.677501 0.905592 0.638224
0.819348 0.905699 0.638453
0.922042 0.904585 0.636149
0.0222477 0.0202792 0.79675
0.0877699 0.0196994 0.796307
0.170169 0.0156558 0.793256
0.26807 0.00851453 0.787808
0.380529 0 0.780026
0.506783 0 0.769955
0.646265 0 0.757519
0.78262 0 0.742657
0.890089 0 0.725231
0.025391 0.0871748 0.7991
0.0937667 0.0894484 0.800793
0.178958 0.0881971 0.799863
0.279606 0.0837873 0.796567
0.394751 0.0764782 0.791028
0.523644 0.0664225 0.783291
0.665629 0.0537881 0.773327
0.799405 0.0386664 0.76109
0.902556 0.0211643 0.746502
0.0238956 0.169055 0.797986
0.0949416 0.173983 0.801663
0.182757 0.175372 0.802686
0.286 0.173556 0.801343
0.403677 0.16878 0.797787
0.535088 0.161242 0.792096
0.679179 0.15108 0.784283
0.811414 0.138399 0.774319
0.911467 0.123323 0.762158
0.0184024 0.264866 0.793851
0.0919814 0.272343 0.799451
0.1823 0.276219 0.802335
0.287999 0.276875 0.802823
0.408118 0.27454 0.801099
0.541924 0.269398 0.797253
0.687968 0.261616 0.791379
0.819638 0.251286 0.783429
0.917723 0.238529 0.773373
0.00929274 0.373877 0.786892
0.0852979 0.383764 0.794446
0.178012 0.390036 0.799161
0.286076 0.393057 0.801404
0.408545 0.393057 0.801404
0.544671 0.390234 0.799313
0.692714 0.384741 0.795193
0.824735 0.376684 0.789059
0.921843 0.366186 0.780926
0 0.49546 0.777188
0.0751965 0.507683 0.78674
0.17023 0.516258 0.793301
0.280568 0.521553 0.797299
0.405295 0.523827 0.798993
0.543679 0.523247 0.798566
0.693874 0.519982 0.796109
0.8271 0.514138 0.791684
0.924193 0.505806 0.78529
0 0.629129 0.764721
0.0619059 0.64361 0.776349
0.159167 0.654429 0.784833
0.271733 0.661906 0.7906
0.398657 0.6663 0.794003
0.539208 0.667872 0.795209
0.691691 0.666773 0.794369
0.826978 0.663127 0.791547
0.925002 0.656977 0.786801
0 0.763485 0.749416
0.0456092 0.776883 0.763241
0.145037 0.787015 0.773724
0.259754 0.7944 0.781353
0.388815 0.799344 0.78648
0.531487 0.802106 0.789334
0.686381 0.802838 0.790097
0.824552 0.801648 0.788861
0.924407 0.798581 0.785687
0 0.872541 0.731121
0.0264286 0.883085 0.747295
0.127977 0.891173 0.759899
0.244785 0.897231 0.769482
0.375921 0.901564 0.77641
0.520668 0.904372 0.780972
0.678004 0.905837 0.783337
0.819867 0.90605 0.783673
0.922438 0.905043 0.78204
0.013962 0.0119936 0.900389
0.0797894 0.0117037 0.900252
0.162478 0.00796521 0.898375
0.26067 0.00109865 0.894896
0.373404 0 0.889845
0.499931 0 0.883162
0.639673 0 0.874815
0.777661 0 0.864652
0.886854 0 0.852567
0.0180819 0.079881 0.902419
0.0867323 0.082414 0.903655
0.172213 0.0814374 0.903181
0.273121 0.0773022 0.901167
0.388525 0.0702525 0.897642
0.517678 0.0604562 0.892622
0.659983 0.0480659 0.886076
0.795316 0.0332036 0.877897
0.899977 0.0159609 0.867994
0.0175021 0.162661 0.902144
0.0888075 0.167865 0.904662
0.176883 0.169497 0.905455
0.280385 0.167941 0.904707
0.398322 0.163409 0.90251
0.529976 0.156115 0.898894
0.674464 0.146197 0.893858
0.808057 0.133761 0.887327
0.909422 0.118929 0.879225
0.0128634 0.259342 0.899855
0.0866865 0.267063 0.903639
0.177264 0.271199 0.905638
0.283207 0.272084 0.906065
0.403571 0.269993 0.905058
0.537621 0.265095 0.902678
0.684092 0.257527 0.898939
0.816922 0.24744 0.893812
0.916121 0.234913 0.887236
0.00459297 0.369177 0.895674
0.080827 0.379309 0.900771
0.173785 0.385809 0.90396
0.282094 0.389059 0.905531
0.404776 0.389303 0.905638
0.541146 0.386709 0.904387
0.689601 0.381445 0.901823
0.822599 0.373617 0.897932
0.920623 0.363333 0.892668
0 0.491554 0.889632
0.071519 0.504005 0.896101
0.166781 0.51281 0.900526
0.277363 0.518334 0.903243
0.402304 0.520836 0.904448
0.540902 0.520485 0.90428
0.691463 0.517418 0.902785
0.825483 0.511788 0.900023
0.923308 0.503685 0.895933
0 0.625986 0.881666
0.0589914 0.640696 0.889601
0.156481 0.651728 0.895338
0.269261 0.659449 0.899245
0.396399 0.664088 0.901564
0.537163 0.665873 0.902464
0.689982 0.664988 0.902022
0.825864 0.66154 0.900298
0.924437 0.655589 0.897292
0 0.761532 0.871641
0.0434272 0.775158 0.881193
0.143069 0.785504 0.88835
0.258015 0.793072 0.893523
0.387274 0.798199 0.897017
0.530159 0.801129 0.898985
0.685328 0.802014 0.899596
0.823911 0.800977 0.898878
0.924117 0.798062 0.89691
0 0.871565 0.859419
0.024979 0.882292 0.870741
0.126726 0.890517 0.879438
0.243763 0.896696 0.886
0.375097 0.901152 0.89073
0.520043 0.904082 0.893858
0.677592 0.905638 0.895521
0.819715 0.905943 0.895842
0.922438 0.905028 0.894865
