luts/DIGITAL_TO_FILM.cube
TITLE "Generated by Resolve"
LUT_3D_SIZE 33
0.0521859 0.0502174 0.0491646
0.066331 0.0498665 0.0488289
0.0816358 0.0492866 0.048249
0.0980392 0.0484779 0.0474403
0.115541 0.0474556 0.0464179
0.134081 0.0462196 0.045182
0.153674 0.0447852 0.0437476
0.174258 0.0431525 0.0420996
0.195834 0.0413062 0.0402686
0.218387 0.039292 0.0382391
0.241886 0.0370794 0.0360418
0.266331 0.0346838 0.0336461
0.291691 0.0321202 0.0310674
0.317968 0.0293736 0.0283207
0.345129 0.0264439 0.0254063
0.37319 0.0233616 0.0223087
0.402136 0.0200961 0.0190585
0.431922 0.0166781 0.0156252
0.462577 0.0130922 0.0120546
0.494072 0.00933852 0.00830091
0.526421 0.00544747 0.0043946
0.559579 0.00137331 0.000335698
0.593561 0 0
0.628367 0 0
0.663905 0 0
0.698772 0 0
0.732296 0 0
0.764324 0 0
0.794751 0 0
0.823392 0 0
0.850126 0 0
0.8748 0 0
0.897276 0 0
0.0516365 0.0636301 0.0486152
0.06598 0.0634928 0.0484627
0.0814679 0.0631113 0.0480812
0.098085 0.0624857 0.0474708
0.11577 0.0616617 0.0466468
0.134508 0.0606241 0.045594
0.154284 0.0593729 0.044358
0.175051 0.0579232 0.0429084
0.196826 0.0562753 0.0412604
0.219562 0.0544442 0.0394141
0.243244 0.0524147 0.0373999
0.267872 0.0502022 0.0351873
0.293416 0.0478218 0.0328069
0.319875 0.0452583 0.0302434
0.347234 0.0425116 0.0274968
0.375463 0.0395972 0.0245823
0.404578 0.0365301 0.0215
0.434562 0.0332799 0.018265
0.465385 0.0298772 0.014847
0.497063 0.0263066 0.0112764
0.52958 0.0225681 0.00755322
0.562921 0.018677 0.00366217
0.59707 0.0146334 0
0.632044 0.0104372 0
0.667689 0.00608835 0
0.702495 0.00158694 0
0.735927 0 0
0.767865 0 0
0.798154 0 0
0.826642 0 0
0.853193 0 0
0.877653 0 0
0.899886 0 0
0.050782 0.0780957 0.0477607
0.0653239 0.0781415 0.0478065
0.0810101 0.0779583 0.0476234
0.0978103 0.0775311 0.0471962
0.115679 0.0768902 0.0465553
0.134615 0.0760357 0.0457008
0.154574 0.0749828 0.0446479
0.17554 0.0737163 0.0433814
0.197482 0.0722515 0.0419165
0.220401 0.0706035 0.0402686
0.244282 0.0687572 0.0384222
0.269078 0.0667277 0.0363928
0.294804 0.0645151 0.0341955
0.321447 0.0621347 0.0317998
0.348974 0.0595712 0.0292363
0.377386 0.0568399 0.0265049
0.406683 0.0539406 0.0236057
0.436835 0.0508583 0.0205386
0.467842 0.0476387 0.0173037
0.499687 0.0442359 0.013901
0.532357 0.0406806 0.0103456
0.565881 0.0369573 0.00662242
0.600214 0.0330816 0.00276188
0.63534 0.0290532 0
0.671077 0.0248722 0
0.705837 0.0205386 0
0.739223 0.0160525 0
0.771069 0.011429 0
0.801236 0.00665293 0
0.829587 0.00172427 0
0.85597 0 0
0.880247 0 0
0.902251 0 0
0.0496529 0.0935836 0.0466468
0.0643778 0.0938125 0.0468757
0.0802625 0.0938125 0.0468757
0.0972457 0.0935683 0.0466316
0.115312 0.0931258 0.0461891
0.134417 0.0924544 0.0455024
0.154559 0.0915694 0.0446326
0.175708 0.090486 0.0435492
0.197833 0.0892042 0.0422675
0.220935 0.0877394 0.0407874
0.244984 0.0860761 0.0391241
0.269963 0.0842145 0.0372778
0.295857 0.0821851 0.0352483
0.322683 0.0799725 0.0330358
0.350378 0.0775921 0.0306554
0.378973 0.0750286 0.0280919
0.408438 0.0722972 0.0253605
0.438758 0.069398 0.0224613
0.469932 0.066331 0.0193942
0.501945 0.0631113 0.0161746
0.534798 0.0597238 0.0127871
0.56849 0.0561837 0.00923171
0.602975 0.0524758 0.00552377
0.638285 0.0486152 0.00166323
0.674098 0.0446021 0
0.708843 0.0404212 0
0.742184 0.0361181 0
0.773953 0.0316472 0
0.804028 0.0270237 0
0.832258 0.0222629 0
0.858488 0.0173648 0
0.882597 0.012314 0
0.904402 0.00712596 0
0.0482643 0.110048 0.045243
0.0631723 0.11046 0.0456703
0.0792401 0.110643 0.0458381
0.0964065 0.110597 0.0457923
0.114641 0.110323 0.0455177
0.133944 0.109834 0.0450294
0.154253 0.109133 0.0443275
0.175586 0.108232 0.0434272
0.197894 0.107118 0.0423133
0.221164 0.105821 0.0410163
0.24538 0.104326 0.0395361
0.270542 0.102663 0.0378576
0.29662 0.100801 0.035996
0.323598 0.0987564 0.0339666
0.351476 0.0965438 0.0317388
0.38024 0.0941634 0.0293584
0.409873 0.0915999 0.0267948
0.44036 0.0888685 0.0240787
0.471717 0.0859693 0.0211795
0.503899 0.0829175 0.0181125
0.536919 0.0796979 0.0148928
0.570764 0.0763104 0.0115206
0.605432 0.0727703 0.00798047
0.640894 0.0690776 0.00428778
0.676783 0.0652323 0.000427253
0.711528 0.0612192 0
0.744823 0.0570687 0
0.776547 0.0527657 0
0.806531 0.0483101 0
0.834669 0.0437171 0
0.860777 0.0389715 0
0.884718 0.0340734 0
0.906355 0.0290532 0
0.0466163 0.127489 0.043595
0.0617075 0.128084 0.0442054
0.0779431 0.128435 0.0445563
0.0952926 0.128573 0.0446784
0.11371 0.128466 0.0445869
0.133181 0.128161 0.0442664
0.153674 0.127626 0.0437476
0.175174 0.126894 0.0430152
0.19765 0.125963 0.0420844
0.221103 0.124849 0.0409705
0.245502 0.123537 0.0396429
0.270832 0.122026 0.0381476
0.297078 0.120333 0.0364538
0.324224 0.118471 0.0345922
0.35227 0.116426 0.0325475
0.381201 0.114199 0.0303197
0.411002 0.111818 0.0279393
0.441657 0.109255 0.0253758
0.473182 0.106523 0.0226444
0.505531 0.103624 0.0197452
0.53872 0.100572 0.0166934
0.572732 0.0973526 0.0134737
0.607553 0.0939803 0.0101015
0.643183 0.0904402 0.00656138
0.679149 0.0867628 0.00288396
0.713893 0.0829175 0
0.747173 0.0789197 0
0.778851 0.0747845 0
0.808789 0.0704814 0
0.836835 0.066041 0
0.862837 0.0614633 0
0.886641 0.056733 0
0.908125 0.0518502 0
0.0447242 0.145861 0.0417029
0.0599832 0.146639 0.0424811
0.0764019 0.147173 0.0430152
0.0939193 0.147463 0.0433204
0.11252 0.147555 0.0433967
0.132158 0.147417 0.0432593
0.152834 0.147051 0.0429084
0.174502 0.146502 0.0423438
0.197162 0.145739 0.0415808
0.220768 0.144778 0.0406348
0.245335 0.143633 0.0394903
0.270832 0.142306 0.0381476
0.297246 0.140795 0.0366369
0.324575 0.139086 0.0349279
0.352789 0.137209 0.033051
0.381872 0.135149 0.0310063
0.411841 0.132921 0.0287785
0.442664 0.130526 0.0263676
0.474342 0.127962 0.0238041
0.506859 0.125231 0.0210727
0.5402 0.122347 0.0181888
0.57438 0.11928 0.0151369
0.609369 0.116075 0.0119173
0.645167 0.112703 0.00854505
0.681193 0.109178 0.00502022
0.715969 0.105486 0.00134279
0.749249 0.101656 0
0.780911 0.097673 0
0.810788 0.0935225 0
0.838773 0.08925 0
0.864683 0.0848249 0
0.88838 0.0802472 0
0.909712 0.0755169 0
0.0425879 0.165164 0.0395666
0.0580301 0.16611 0.0405127
0.0746166 0.166812 0.0412299
0.0923018 0.1673 0.0417029
0.11107 0.167544 0.0419471
0.130892 0.167575 0.0419776
0.15172 0.167391 0.0417945
0.173571 0.16701 0.041413
0.196384 0.166415 0.0408179
0.220172 0.165621 0.0400397
0.244907 0.164645 0.0390631
0.270573 0.163485 0.0378882
0.297154 0.162127 0.0365301
0.324636 0.160586 0.0350042
0.353017 0.158877 0.0332799
0.382284 0.156985 0.0313878
0.412406 0.154925 0.0293278
0.443397 0.152682 0.0271
0.475227 0.150286 0.0246891
0.507912 0.147707 0.0221256
0.541405 0.144991 0.0193942
0.575738 0.142092 0.016495
0.610895 0.139025 0.0134432
0.646845 0.135821 0.0102235
0.682963 0.132448 0.0068513
0.717769 0.128923 0.00332647
0.751064 0.125246 0
0.782712 0.121416 0
0.812573 0.117433 0
0.840497 0.113313 0
0.866331 0.109026 0
0.889937 0.104616 0
0.911147 0.100053 0
0.0402228 0.185367 0.0372015
0.0558328 0.186496 0.0383307
0.0725872 0.187381 0.0392004
0.0904555 0.188022 0.0398413
0.109392 0.188434 0.0402686
0.129366 0.188632 0.0404669
0.150378 0.188617 0.0404517
0.172381 0.188403 0.0402228
0.195377 0.187976 0.0398108
0.219318 0.18735 0.0391852
0.244221 0.186542 0.0383612
0.270039 0.185534 0.0373693
0.296788 0.184344 0.0361791
0.324437 0.182971 0.0348058
0.352987 0.181415 0.0332494
0.382406 0.17969 0.0315251
0.412695 0.177783 0.0296178
0.443839 0.175708 0.0275425
0.475837 0.173465 0.0252995
0.508675 0.171054 0.0228885
0.542336 0.16849 0.0203098
0.576822 0.165743 0.0175784
0.612131 0.162844 0.0146792
0.648249 0.159792 0.0116274
0.684443 0.156573 0.00840772
0.719295 0.153216 0.00503548
0.752621 0.149691 0.0015259
0.784283 0.146014 0
0.81413 0.142184 0
0.842008 0.138216 0
0.867796 0.134096 0
0.89131 0.129824 0
0.912428 0.125414 0
0.0376287 0.20647 0.0346075
0.0534066 0.207767 0.0359045
0.0703288 0.20882 0.0369421
0.088365 0.209628 0.0377508
0.107469 0.210208 0.0383459
0.127611 0.210575 0.0387121
0.148791 0.210727 0.0388495
0.170962 0.210666 0.0388037
0.19411 0.210407 0.0385443
0.218219 0.209949 0.0380865
0.24329 0.209293 0.0374304
0.269276 0.208453 0.0365911
0.296178 0.207431 0.0355535
0.32398 0.206226 0.0343481
0.352682 0.204822 0.0329595
0.382269 0.20325 0.0313878
0.412711 0.201511 0.0296483
0.444022 0.199603 0.0277256
0.476173 0.197513 0.0256352
0.509163 0.195254 0.0233921
0.542992 0.192844 0.0209659
0.577646 0.190265 0.0183871
0.613092 0.187518 0.0156405
0.649363 0.184619 0.0127413
0.685649 0.181552 0.00968948
0.720577 0.178332 0.00646983
0.753948 0.174975 0.00309758
0.785626 0.17145 0
0.815473 0.167773 0
0.843336 0.163958 0
0.869078 0.159976 0
0.892531 0.155871 0
0.913558 0.151598 0
0.0348058 0.228458 0.0317845
0.0507515 0.229923 0.0332494
0.0678416 0.231128 0.0344549
0.0860456 0.232105 0.0354314
0.105303 0.232853 0.0361791
0.125628 0.233387 0.0367132
0.14696 0.233692 0.0370336
0.169284 0.233799 0.0371405
0.192599 0.233707 0.0370336
0.216876 0.233402 0.0367437
0.2421 0.232914 0.0362554
0.268254 0.232242 0.0355688
0.295308 0.231357 0.034699
0.323278 0.230304 0.0336461
0.352132 0.229084 0.0324102
0.381872 0.227665 0.0310063
0.412482 0.226078 0.0294041
0.443946 0.224323 0.0276493
0.476249 0.222385 0.0257267
0.509407 0.220295 0.023621
0.543389 0.218036 0.0213626
0.57818 0.215595 0.0189364
0.613794 0.213016 0.0163424
0.650217 0.210269 0.0135958
0.68661 0.207355 0.0106966
0.721614 0.204303 0.00762951
0.755047 0.201083 0.00440986
0.786755 0.197711 0.00105287
0.816617 0.194186 0
0.84448 0.190524 0
0.870192 0.186694 0
0.893599 0.182727 0
0.914565 0.178607 0
0.0317845 0.251301 0.0287633
0.0478981 0.252934 0.0303807
0.0651408 0.254307 0.031754
0.0834974 0.255451 0.0328985
0.102937 0.256352 0.033814
0.123415 0.257038 0.0345006
0.1449 0.257511 0.0349737
0.167391 0.257786 0.0352331
0.19086 0.257847 0.0353094
0.215305 0.25771 0.035172
0.240681 0.257374 0.0348363
0.266987 0.256855 0.0343023
0.294209 0.256138 0.0336004
0.322332 0.255238 0.0327001
0.351354 0.25417 0.0316167
0.381247 0.252903 0.0303655
0.412009 0.251484 0.0289311
0.443626 0.249866 0.0273289
0.476081 0.248096 0.0255589
0.509392 0.246159 0.0236057
0.543526 0.244038 0.0215
0.57847 0.241764 0.0192264
0.614237 0.239338 0.0167849
0.650813 0.236728 0.0141909
0.687327 0.233982 0.011429
0.722408 0.231067 0.00852979
0.755917 0.228 0.00546273
0.787686 0.224781 0.00224308
0.817578 0.221408 0
0.845441 0.217884 0
0.871153 0.214221 0
0.89453 0.210407 0
0.915434 0.206439 0
0.0285496 0.275013 0.0255283
0.0448157 0.276799 0.0272984
0.0622263 0.278325 0.0288396
0.0807507 0.279622 0.0301366
0.100343 0.280705 0.03122
0.120974 0.281544 0.0320592
0.142626 0.282185 0.0327001
0.16527 0.282612 0.0331273
0.188907 0.282826 0.033341
0.213504 0.282841 0.0333562
0.239033 0.282673 0.0331884
0.265492 0.282307 0.0328069
0.292866 0.281743 0.0322576
0.321157 0.28101 0.0315099
0.350332 0.280079 0.0305943
0.380377 0.278981 0.0294957
0.411292 0.277699 0.0282139
0.443061 0.276249 0.0267643
0.47567 0.274632 0.0251316
0.509133 0.272831 0.0233463
0.543404 0.270878 0.0213931
0.578515 0.268757 0.0192569
0.614435 0.266468 0.0169833
0.651148 0.264027 0.0145418
0.687785 0.261418 0.0119326
0.722972 0.258656 0.00917067
0.756558 0.255741 0.0062562
0.788403 0.252659 0.00317388
0.818341 0.249439 0
0.84625 0.246067 0
0.871946 0.242542 0
0.895308 0.238865 0
0.916182 0.23505 0
0.0251011 0.29955 0.0220798
0.0415198 0.301488 0.0240177
0.0590982 0.303197 0.0257115
0.0777752 0.304646 0.0271763
0.0975204 0.305882 0.028397
0.118318 0.306889 0.0294041
0.140124 0.307683 0.0301976
0.162936 0.308263 0.0307774
0.186725 0.308629 0.0311589
0.21146 0.308812 0.0313268
0.237156 0.308782 0.0313115
0.263783 0.308568 0.0310979
0.29131 0.308171 0.0306859
0.319738 0.307576 0.0301061
0.349065 0.306813 0.0293278
0.379263 0.305852 0.0283818
0.41033 0.304738 0.0272526
0.442252 0.303426 0.0259556
0.475013 0.301961 0.0244907
0.508629 0.300313 0.0228428
0.543053 0.298512 0.0210269
0.578317 0.296544 0.0190585
0.614374 0.294408 0.0169223
0.65124 0.292103 0.0146334
0.688014 0.289647 0.0121767
0.723323 0.287037 0.00955215
0.757015 0.28426 0.00679026
0.788922 0.281331 0.00386053
0.818936 0.278264 0.000793469
0.846876 0.275029 0
0.872602 0.271656 0
0.895964 0.268132 0
0.916808 0.264454 0
0.0214389 0.324926 0.0184176
0.0380255 0.327031 0.0205234
0.0557717 0.328878 0.022385
0.0746014 0.330495 0.0239872
0.0944991 0.331884 0.0253758
0.11545 0.333043 0.0265354
0.137407 0.333989 0.0274815
0.160372 0.334722 0.0282292
0.184314 0.335256 0.028748
0.209216 0.335576 0.0290837
0.235065 0.335714 0.029221
0.26183 0.335653 0.0291447
0.289525 0.335409 0.0289006
0.318105 0.334966 0.0284581
0.34757 0.33434 0.0278477
0.37792 0.333547 0.0270542
0.40914 0.33257 0.0260777
0.441215 0.331426 0.024918
0.474128 0.330098 0.0236057
0.507881 0.328603 0.0221103
0.542473 0.32694 0.0204471
0.577874 0.325124 0.018616
0.614084 0.323125 0.0166323
0.651102 0.320989 0.0144808
0.688014 0.318669 0.0121767
0.723461 0.316197 0.00970474
0.757244 0.313588 0.00708019
0.789258 0.310796 0.00430304
0.819333 0.307866 0.00137331
0.847333 0.304784 0
0.873106 0.301549 0
0.896483 0.298177 0
0.917327 0.294636 0
0.0175937 0.351125 0.0145724
0.0343328 0.353368 0.0168307
0.0522316 0.355383 0.0188449
0.0712139 0.357153 0.0206149
0.0912795 0.358694 0.0221561
0.112383 0.360006 0.0234684
0.134493 0.361105 0.024567
0.15761 0.36199 0.025452
0.181704 0.362676 0.0261387
0.20676 0.363165 0.0266117
0.232761 0.363439 0.0269017
0.259678 0.363531 0.0269932
0.28751 0.363424 0.0268864
0.316243 0.363149 0.0265965
0.345861 0.362676 0.0261387
0.376364 0.36202 0.0254826
0.407736 0.361196 0.0246586
0.439948 0.360204 0.0236515
0.473014 0.359014 0.0224765
0.50692 0.357687 0.0211337
0.54165 0.356161 0.0196231
0.577188 0.354482 0.0179446
0.61355 0.352651 0.0160983
0.650721 0.350637 0.0140993
0.6878 0.34847 0.0119326
0.723369 0.346151 0.00961318
0.75729 0.343679 0.00714122
0.78941 0.341039 0.00450141
0.819577 0.338262 0.00170901
0.847654 0.335317 0
0.873457 0.332235 0
0.896864 0.328984 0
0.917723 0.325597 0
0.01355 0.378119 0.0105287
0.0304417 0.380529 0.0129397
0.0484932 0.382696 0.0151064
0.067628 0.384619 0.0170291
0.0878462 0.386313 0.0187228
0.109102 0.387778 0.0201877
0.131365 0.389029 0.0214389
0.154635 0.390066 0.0224765
0.178882 0.390906 0.0233158
0.204074 0.391531 0.0239414
0.230228 0.391974 0.0243839
0.257298 0.392203 0.0246128
0.285283 0.392264 0.0246586
0.314168 0.392111 0.0245365
0.343938 0.391806 0.0242008
0.374594 0.391302 0.0236973
0.406104 0.390616 0.0230259
0.438468 0.389761 0.0221714
0.471687 0.388739 0.021149
0.50573 0.387533 0.0199435
0.540597 0.386175 0.0185855
0.576303 0.384634 0.0170443
0.612802 0.38294 0.0153506
0.650111 0.381079 0.013489
0.687358 0.379065 0.0114748
0.723095 0.376883 0.00929274
0.757153 0.374548 0.00695811
0.789395 0.372061 0.00447089
0.819654 0.369406 0.00183108
0.847807 0.366613 0
0.873686 0.363668 0
0.897139 0.360571 0
0.918013 0.357321 0
0.009308 0.405921 0.00628672
0.0263676 0.408484 0.00885023
0.0445563 0.410803 0.0111696
0.063859 0.412879 0.0132448
0.0842145 0.414725 0.0150912
0.105623 0.416342 0.0167086
0.128038 0.417746 0.0181125
0.151461 0.418936 0.0193027
0.175845 0.419913 0.0202792
0.201205 0.420691 0.0210574
0.227497 0.421271 0.0216526
0.254719 0.421668 0.022034
0.282841 0.421866 0.0222324
0.311879 0.421866 0.0222324
0.341802 0.421698 0.0220645
0.372595 0.421347 0.0217136
0.404257 0.420813 0.0211795
0.436759 0.420096 0.0204623
0.470115 0.419211 0.0195926
0.504311 0.418158 0.0185245
0.53933 0.416938 0.0173037
0.575174 0.415549 0.0159152
0.611826 0.413993 0.014374
0.649271 0.412284 0.0126497
0.686702 0.410407 0.0107729
0.722591 0.408377 0.00874342
0.756817 0.40618 0.00654612
0.789181 0.40383 0.00419623
0.819577 0.401328 0.00169375
0.847822 0.398672 0
0.873777 0.395865 0
0.897292 0.392905 0
0.918212 0.389807 0
0.00488289 0.434516 0.0018616
0.0220798 0.437232 0.00457771
0.0404364 0.439704 0.00704967
0.0598764 0.441917 0.00926223
0.0803845 0.443915 0.0112612
0.101946 0.445686 0.0130312
0.124514 0.447242 0.0145876
0.148074 0.448569 0.0159152
0.172625 0.449699 0.0170443
0.198123 0.450629 0.0179751
0.224567 0.451362 0.0187076
0.251926 0.451896 0.0192416
0.280201 0.452247 0.0195926
0.309377 0.452399 0.0197452
0.339452 0.452369 0.0197147
0.370382 0.452155 0.019501
0.402182 0.451774 0.0191196
0.434852 0.451209 0.018555
0.468345 0.450462 0.0178073
0.502678 0.449561 0.016907
0.53785 0.448478 0.0158236
0.573831 0.447242 0.0145876
0.61062 0.445823 0.0131685
0.648219 0.444251 0.0115969
0.685832 0.442512 0.00985733
0.721904 0.44062 0.00796521
0.756283 0.438575 0.0059205
0.788815 0.436362 0.00370794
0.819318 0.433997 0.00134279
0.847684 0.431479 0
0.873732 0.428824 0
0.897322 0.426001 0
0.918303 0.423026 0
0.000274662 0.463905 0
0.0176242 0.466758 0.000122072
0.0361181 0.469383 0.00273136
0.0557107 0.471748 0.00509651
0.0763714 0.473899 0.00724804
0.0980697 0.475807 0.00917067
0.12079 0.477501 0.0108644
0.144503 0.478996 0.0123445
0.169192 0.480278 0.0136263
0.194827 0.481346 0.0146944
0.221424 0.482216 0.0155642
0.248936 0.482902 0.0162509
0.277363 0.483391 0.0167391
0.306676 0.483696 0.0170443
0.336889 0.483803 0.0171511
0.367971 0.483742 0.0170901
0.399924 0.483497 0.016846
0.432715 0.48307 0.0164187
0.466361 0.482475 0.0158236
0.500847 0.481712 0.0150607
0.536156 0.480766 0.0141299
0.572274 0.479667 0.0130159
0.609201 0.478401 0.0117494
0.646937 0.476967 0.0103151
0.684749 0.47538 0.00872816
0.721019 0.473625 0.00697337
0.755581 0.471717 0.005066
0.788266 0.469642 0.00299077
0.818921 0.467414 0.00077821
0.84741 0.465049 0
0.873564 0.462516 0
0.897246 0.459831 0
0.918303 0.457008 0
0 0.494057 0
0.0129702 0.497063 0
0.0316167 0.499825 0
0.0513619 0.502358 0.000747692
0.0721599 0.504631 0.00303655
0.0940108 0.506706 0.00509651
0.116869 0.508537 0.00694286
0.140734 0.51017 0.00857557
0.16556 0.511604 0.00999466
0.191348 0.51281 0.0112154
0.218082 0.513832 0.0122377
0.245747 0.514656 0.0130617
0.274311 0.515297 0.0136873
0.303777 0.51574 0.0141299
0.334127 0.515999 0.0143893
0.365362 0.516075 0.0144656
0.397452 0.515969 0.014374
0.430381 0.515694 0.0140993
0.464164 0.515236 0.0136416
0.498787 0.514611 0.0130159
0.534234 0.513817 0.0122225
0.570504 0.512856 0.0112459
0.607569 0.511727 0.010132
0.645457 0.51043 0.00883497
0.683467 0.50898 0.00738537
0.719936 0.507362 0.00576791
0.754681 0.505592 0.00399786
0.787549 0.503655 0.00205997
0.818357 0.501579 0
0.846983 0.499336 0
0.873274 0.496956 0
0.897063 0.494408 0
0.918196 0.491722 0
0 0.524971 0
0.00813306 0.52813 0
0.0269322 0.531044 0
0.0468147 0.533715 0
0.0677653 0.536141 0
0.0897536 0.538354 0.000854505
0.112764 0.540337 0.00283818
0.136767 0.542123 0.00460822
0.161746 0.543679 0.0061799
0.187686 0.545052 0.00753796
0.214557 0.546212 0.00869764
0.242359 0.547173 0.00967422
0.271061 0.547951 0.0104524
0.300664 0.548531 0.0110323
0.331167 0.548943 0.011429
0.362539 0.549157 0.0116579
0.394766 0.549203 0.0116884
0.427848 0.54905 0.0115511
0.461769 0.548745 0.0112459
0.496529 0.548257 0.0107576
0.532128 0.547601 0.0101015
0.568521 0.546777 0.00927749
0.605737 0.545785 0.00828565
0.643748 0.54464 0.00714122
0.681971 0.543328 0.00581369
0.718669 0.541848 0.00434882
0.753613 0.540215 0.00271611
0.786664 0.53843 0.000915541
0.817655 0.536477 0
0.846433 0.534371 0
0.872847 0.532113 0
0.896757 0.529717 0
0.917983 0.527169 0
0 0.556664 0
0.0031281 0.55996 0
0.0220493 0.563012 0
0.0420844 0.565835 0
0.0631876 0.568414 0
0.0853285 0.570764 0
0.108476 0.5729 0
0.132616 0.574807 0.000457771
0.157748 0.576516 0.00216678
0.18381 0.578027 0.00367742
0.210834 0.579339 0.0049897
0.238773 0.580438 0.00608835
0.267628 0.581353 0.00700389
0.297383 0.582086 0.00773632
0.328008 0.58262 0.00827039
0.359518 0.582986 0.00863661
0.391882 0.583169 0.00881971
0.425116 0.583169 0.00881971
0.459174 0.582986 0.00865187
0.494072 0.58265 0.00830091
0.529809 0.582132 0.0077821
0.566354 0.581445 0.00709544
0.603693 0.580591 0.00624094
0.641855 0.579583 0.00523384
0.680278 0.578393 0.00404364
0.717205 0.577066 0.00271611
0.752377 0.57557 0.00122072
0.785611 0.573907 0
0.816785 0.572091 0
0.845731 0.570138 0
0.872312 0.568017 0
0.896345 0.565744 0
0.917693 0.563333 0
0 0.58909 0
0 0.592538 0
0.0170138 0.595743 0
0.037171 0.598703 0
0.0584268 0.601419 0
0.080705 0.603906 0
0.10399 0.606195 0
0.128283 0.608255 0
0.153552 0.610101 0
0.179767 0.611749 0
0.206928 0.613199 0.00106813
0.235004 0.614435 0.00231937
0.263996 0.615503 0.00337224
0.293889 0.616373 0.00424201
0.324666 0.617044 0.00492866
0.356298 0.617548 0.00541695
0.388815 0.617868 0.00573739
0.422171 0.618006 0.00587472
0.456382 0.617975 0.00584421
0.491417 0.617761 0.00564584
0.527291 0.61738 0.00526436
0.563958 0.616831 0.00471504
0.60145 0.616129 0.00399786
0.639735 0.615244 0.0031281
0.67837 0.614206 0.00209049
0.715557 0.613001 0.000885023
0.750957 0.611643 0
0.784405 0.610117 0
0.815778 0.608454 0
0.844907 0.606622 0
0.871641 0.604639 0
0.895827 0.602502 0
0.917296 0.600214 0
0 0.622278 0
0 0.625864 0
0.01178 0.629206 0
0.0320897 0.632319 0
0.0534829 0.635172 0
0.0758984 0.637812 0
0.0993362 0.640223 0
0.123766 0.64242 0
0.149157 0.644419 0
0.175525 0.646204 0
0.202823 0.647791 0
0.231037 0.64918 0
0.260182 0.65037 0
0.290196 0.651377 0.000564584
0.321111 0.652201 0.00138857
0.352895 0.652842 0.00201419
0.38555 0.6533 0.00247196
0.419059 0.653574 0.00276188
0.453391 0.653666 0.00285344
0.488563 0.653605 0.0027924
0.524559 0.653361 0.00254826
0.561379 0.652949 0.00213626
0.599008 0.652384 0.00155642
0.63743 0.651637 0.000808728
0.67628 0.650721 0
0.71371 0.649668 0
0.749355 0.648432 0
0.783032 0.647044 0
0.814603 0.645518 0
0.843931 0.643824 0
0.870848 0.641962 0
0.895186 0.639963 0
0.916823 0.637812 0
0 0.656199 0
0 0.659922 0
0.00637827 0.663355 0
0.0268406 0.666545 0
0.0483558 0.66949 0
0.0709239 0.672206 0
0.0944991 0.674678 0
0.119066 0.676951 0
0.14461 0.678996 0
0.171099 0.680842 0
0.198535 0.682506 0
0.226902 0.683955 0
0.256168 0.685237 0
0.286336 0.68632 0
0.317388 0.687221 0
0.34931 0.687968 0
0.382086 0.688533 0
0.415732 0.688914 0
0.450202 0.689143 0
0.485512 0.689204 0
0.52166 0.689113 0
0.558602 0.688853 0
0.596368 0.688426 0
0.634928 0.687846 0
0.673991 0.687129 0
0.711681 0.686244 0
0.74757 0.685206 0
0.781491 0.684001 0
0.813306 0.682673 0
0.842832 0.681163 0
0.869932 0.67953 0
0.894453 0.677729 0
0.916243 0.675776 0
0 0.68986 0
0 0.693507 0
0.000793469 0.696895 0
0.0213931 0.700038 0
0.043061 0.702953 0
0.0657664 0.705638 0
0.0894789 0.70811 0
0.114183 0.710369 0
0.139864 0.712428 0
0.166491 0.714305 0
0.194064 0.715984 0
0.222568 0.717479 0
0.251972 0.718807 0
0.282277 0.719951 0
0.313466 0.720928 0
0.345525 0.721736 0
0.378439 0.722393 0
0.412222 0.722881 0
0.44683 0.723217 0
0.482277 0.723384 0
0.518547 0.723415 0
0.555642 0.723293 0
0.59353 0.723018 0
0.632227 0.722591 0
0.671489 0.722026 0
0.709468 0.721325 0
0.745632 0.72047 0
0.779797 0.719463 0
0.811841 0.718334 0
0.841596 0.717037 0
0.868894 0.715618 0
0.893614 0.714046 0
0.915572 0.712337 0
0 0.722332 0
0 0.725887 0
0 0.729198 0
0.0157778 0.73228 0
0.037583 0.735134 0
0.0604257 0.737789 0
0.0842756 0.74023 0
0.109117 0.742458 0
0.134951 0.744518 0
