luts/Documentary_03.cube
TITLE "17x17x17 Adobe/IRIDAS cube 3D LUT exported with GrossGrade v0.2.2 (beta) 64 bit"
DOMAIN_MIN 0 0 0
DOMAIN_MAX 1 1 1
LUT_3D_SIZE 17
0.000000000 0.000000000 0.000000000
0.032249063 0.003716250 0.002458125
0.071832374 0.008008249 0.004963500
0.114420138 0.012720001 0.007224438
0.158571512 0.018061500 0.009332499
0.202652618 0.022705063 0.010793125
0.246983901 0.026647877 0.012650001
0.293298274 0.030076502 0.015260189
0.343009531 0.032171000 0.018078001
0.395908803 0.031732373 0.020550188
0.449651003 0.028463874 0.022398001
0.503231645 0.024211062 0.023952063
0.558668733 0.021581501 0.026090002
0.615404248 0.020612877 0.028828252
0.672493696 0.021757752 0.031279501
0.725609243 0.023355752 0.032031998
0.777827024 0.024882000 0.032662001
0.009737812 0.032240625 0.005879063
0.035933442 0.032658752 0.006530625
0.075564004 0.033975754 0.007423375
0.117299579 0.036360875 0.008570563
0.160228074 0.038997374 0.009386500
0.204261869 0.041977625 0.011234188
0.249523893 0.044892561 0.013868437
0.296392590 0.047189251 0.016643940
0.345710933 0.048031252 0.018947752
0.397587389 0.046474811 0.020739188
0.451442182 0.042234812 0.022612499
0.506456316 0.036122311 0.024847373
0.562153578 0.030268125 0.027183438
0.617905676 0.026804123 0.029435940
0.673349142 0.025787126 0.031026563
0.727069318 0.026691001 0.032235876
0.780290723 0.027883876 0.033357624
0.021562498 0.074284747 0.013625375
0.042256124 0.073855877 0.012728188
0.078219377 0.071033873 0.010688250
0.119234391 0.071962565 0.010185437
0.161749631 0.074143499 0.011134999
0.205620497 0.076503441 0.012990000
0.250837892 0.078789502 0.015271375
0.297825933 0.080578625 0.017358501
0.347240895 0.081211999 0.018912874
0.399211675 0.080120750 0.020351563
0.453088880 0.076918252 0.022127999
0.508160651 0.071545124 0.024360562
0.563732266 0.064404875 0.026678625
0.619270563 0.056555308 0.028545938
0.674561560 0.049203120 0.029821128
0.728847861 0.045161936 0.031320628
0.781956494 0.045417748 0.032376751
0.034846000 0.117840827 0.021025689
0.051541567 0.118089199 0.020614251
0.083783813 0.115298510 0.017423689
0.122567013 0.112119138 0.015298752
0.164313123 0.112619191 0.015402439
0.207778066 0.114628941 0.016387563
0.252811193 0.116712257 0.017628688
0.299800605 0.118419260 0.018600125
0.349318951 0.119307131 0.019608377
0.401356131 0.118997768 0.020970125
0.455237836 0.117334634 0.022803687
0.510239959 0.114257321 0.024731999
0.565725267 0.109878570 0.026340188
0.621137738 0.104692876 0.027381938
0.676241517 0.099576198 0.028303877
0.730428159 0.096250452 0.029675502
0.783255696 0.095581263 0.031084375
0.048799001 0.162694007 0.029213252
0.062262438 0.163604885 0.029090062
0.091296129 0.160759509 0.025533877
0.127838582 0.157608509 0.022307688
0.168059751 0.154351249 0.020778999
0.210843951 0.154335201 0.020127375
0.255605131 0.156218007 0.020322749
0.302644372 0.157983631 0.020991124
0.352264762 0.159177244 0.021765249
0.404317439 0.159558252 0.022955563
0.458062887 0.159065396 0.024417499
0.512819588 0.157779127 0.025632937
0.568032265 0.155906260 0.026347749
0.623170793 0.153836250 0.026842687
0.678075314 0.152097002 0.027855128
0.732019782 0.151422948 0.029275499
0.784611464 0.152263999 0.030058000
0.062523872 0.210584059 0.038732562
0.073135816 0.210378185 0.037875436
0.099565186 0.207795307 0.034432314
0.134137884 0.204525381 0.030485312
0.173235938 0.201205000 0.027511314
0.214992449 0.197773635 0.025779001
0.259422153 0.197158933 0.024535250
0.306452453 0.198844507 0.024485249
0.356106699 0.200400010 0.025009250
0.408036053 0.201445684 0.025590688
0.461531013 0.201962948 0.026105000
0.515922844 0.202091381 0.026449688
0.570772946 0.202031508 0.026787626
0.625528455 0.202072129 0.027431125
0.679992914 0.202511489 0.028449439
0.733603239 0.203727871 0.029161438
0.785898507 0.205908179 0.028992062
0.073747627 0.258888781 0.047685377
0.082698561 0.260134995 0.047862880
0.107203633 0.257149518 0.044104375
0.140445456 0.253675580 0.039417002
0.178666249 0.250207394 0.035034750
0.220128998 0.246603638 0.031908687
0.264165878 0.242947385 0.030042753
0.311048985 0.241654769 0.028649814
0.360637009 0.243338019 0.028134875
0.412331939 0.245063379 0.027920688
0.465476751 0.246482760 0.027815500
0.519451618 0.247702643 0.027769376
0.573831916 0.248920515 0.027975125
0.628171682 0.250303894 0.028474063
0.682133555 0.252028376 0.028839873
0.735344350 0.254307777 0.028866502
0.787279129 0.257197917 0.029134251
0.081216313 0.311889589 0.057146441
0.089285187 0.312620640 0.057132006
0.112815320 0.309601486 0.053503692
0.145383641 0.305867344 0.048162002
0.183317497 0.302176028 0.042428441
0.225028828 0.298480779 0.037775815
0.269539475 0.294605315 0.034919441
0.316328406 0.290691823 0.033093937
0.365635216 0.288810223 0.031335503
0.417042881 0.290632904 0.030338313
0.469758689 0.292718410 0.029683752
0.523298621 0.294727474 0.029315688
0.577198923 0.296765357 0.029131187
0.631049991 0.298962027 0.029101813
0.684529126 0.301439524 0.029120252
0.737243772 0.304317087 0.029629439
0.788790166 0.307574838 0.030564314
0.085472003 0.366620004 0.065277502
0.093114495 0.366929084 0.065148316
0.116513625 0.364571869 0.062444378
0.149254322 0.360689044 0.056872938
0.187499762 0.356848001 0.050295502
0.229645193 0.353053898 0.044088252
0.274812162 0.349170148 0.039135128
0.322135568 0.345049888 0.036415249
0.371188015 0.340937495 0.034541503
0.422075927 0.338558018 0.032451876
0.474356353 0.340430140 0.031180376
0.527379036 0.342844427 0.030353438
0.580777526 0.345384270 0.030098252
0.634104013 0.348057508 0.030077066
0.687101185 0.350948513 0.030339377
0.739309251 0.354142696 0.031266563
0.790436983 0.357543528 0.032159001
0.089836627 0.421924442 0.072622813
0.097329058 0.423198193 0.073196247
0.120672561 0.420854270 0.070925936
0.153787881 0.417093724 0.065757811
0.192417249 0.413158059 0.058536187
0.234947309 0.409277499 0.050839186
0.280431837 0.405403137 0.043829251
0.328122139 0.401349574 0.038488377
0.377315462 0.397049934 0.035937376
0.427681237 0.392834753 0.034397002
0.479285181 0.390006125 0.032835498
0.531788528 0.391807646 0.031907875
0.584624350 0.394484758 0.031261563
0.637386382 0.397416860 0.031700127
0.689831018 0.400516987 0.032395437
0.741560817 0.403850675 0.032986060
0.792244792 0.407264113 0.033762876
0.098661877 0.479295135 0.081362002
0.105749935 0.480348110 0.081817061
0.128403619 0.478134751 0.079714753
0.161080316 0.474115491 0.074726507
0.199453503 0.470134139 0.067036375
0.241805315 0.466235071 0.058057003
0.287114501 0.462329268 0.049315125
0.334664702 0.458367169 0.042061500
0.383806497 0.454178870 0.037550624
0.433929324 0.449774176 0.035669375
0.484815866 0.445551872 0.034518499
0.536549330 0.442356259 0.033669751
0.588772893 0.444001973 0.033671878
0.640970767 0.446861595 0.033776499
0.692827642 0.450012028 0.034135126
0.744010508 0.453365624 0.034864128
0.794229507 0.456701875 0.035759751
0.114055626 0.535621345 0.090756372
0.120518744 0.536030769 0.090912007
0.141495436 0.534769773 0.089344256
0.172506452 0.531070173 0.084650941
0.209595770 0.527109504 0.076652996
0.250970632 0.523247540 0.066866063
0.295485020 0.519332886 0.056788560
0.342365921 0.515403152 0.047833998
0.390992671 0.511364758 0.041365687
0.440749198 0.507092774 0.037969247
0.491069615 0.502666533 0.036805999
0.541905940 0.498485923 0.036089439
0.593296111 0.494997174 0.035484064
0.644804835 0.496427178 0.035722502
0.696092427 0.499328732 0.036330752
0.746720850 0.502587736 0.037073251
0.796447635 0.505752504 0.037911624
0.136170745 0.591327488 0.102395505
0.141960621 0.592210352 0.102910377
0.160318509 0.590897381 0.101163380
0.188563153 0.587439835 0.096351817
0.223348260 0.583611071 0.088214755
0.262931496 0.579788804 0.077952318
0.306008637 0.575894654 0.066714749
0.351688921 0.571973741 0.055798564
0.399329245 0.568026245 0.046824254
0.448296070 0.563936889 0.041314814
0.498020113 0.559633732 0.038491625
0.548067391 0.555259883 0.037751436
0.598407269 0.551114976 0.037809752
0.649092138 0.547431588 0.038421188
0.699700296 0.548547149 0.038859248
0.749733269 0.551411271 0.039421935
0.798961520 0.554347754 0.040100500
0.163962409 0.648027360 0.118577704
0.168352902 0.647679210 0.118105017
0.183891580 0.646112442 0.116010197
0.208781675 0.642816305 0.110614397
0.240623459 0.639176190 0.102289766
0.277823031 0.635407090 0.091750704
0.318974674 0.631559670 0.079687886
0.363023639 0.627695262 0.067161761
0.409241945 0.623825550 0.055891577
0.457019120 0.619846463 0.048195511
0.505756915 0.615703106 0.044309948
0.555007577 0.611389995 0.042540003
0.604417562 0.607099414 0.041674692
0.653964877 0.603066623 0.041057814
0.703729570 0.599254310 0.041187502
0.753152251 0.599946499 0.041770879
0.801805496 0.602333546 0.042469941
0.192053914 0.699186921 0.133832037
0.196362525 0.699888945 0.134407848
0.210452154 0.699918926 0.133415893
0.232301340 0.697223544 0.127937704
0.261077255 0.693771899 0.119545273
0.295593232 0.690110028 0.109150954
0.334446907 0.686349452 0.097275637
0.376491159 0.682522297 0.084536262
0.420923531 0.678678393 0.071903519
0.467124820 0.674795389 0.061055582
0.514546990 0.670767665 0.052829266
0.562725425 0.666598082 0.047061197
0.611247003 0.662339449 0.044603135
0.659738660 0.658168674 0.044133883
0.708455086 0.654221058 0.043918755
0.757031560 0.650496721 0.044570506
0.805131137 0.650139451 0.045169752
0.223386213 0.753513813 0.155571520
0.227394730 0.754624605 0.156594008
0.238368466 0.753210664 0.153541014
0.257284522 0.750483751 0.147583947
0.283357114 0.747196674 0.139443263
0.315203786 0.743612945 0.129661456
0.351608425 0.739897132 0.118597329
0.391468972 0.736095309 0.106362887
0.433944434 0.732250273 0.093023084
0.478412211 0.728398025 0.079339713
0.524313450 0.724481821 0.066757023
0.571173668 0.720427573 0.057373397
0.618581891 0.716283619 0.053185955
0.666144431 0.712098718 0.051977821
0.713871360 0.708025992 0.051149756
0.761528552 0.704188228 0.049419064
0.808883488 0.700114787 0.048393440
0.248708993 0.804135025 0.173383996
0.251598388 0.804325283 0.173220873
0.262366265 0.804942608 0.172466248
0.279625684 0.802729607 0.167102307
0.303654730 0.799534976 0.159381256
0.333241552 0.795971930 0.150241435
0.367516279 0.792222857 0.139881745
0.405464590 0.788389444 0.128469929
0.446159005 0.784525990 0.116100498
0.488975763 0.780636728 0.103063874
0.533403158 0.776701450 0.090147004
0.578987837 0.772692442 0.078616999
0.625317276 0.768586040 0.070003003
0.671931684 0.764404178 0.064880498
0.718841434 0.760187626 0.060884997
0.765716374 0.756167889 0.056795310
0.812865973 0.752400994 0.052570000
0.003584062 0.002362500 0.031589065
0.027964687 0.005550938 0.026391564
0.065102376 0.009987312 0.025302438
0.107419565 0.014477813 0.025601186
0.151057452 0.019135688 0.026042875
0.195739865 0.023918375 0.026690502
0.241438895 0.028542563 0.027499374
0.288594276 0.032360625 0.028557500
0.338081777 0.034432124 0.029809937
0.390228987 0.033897687 0.031135874
0.444532037 0.030976562 0.032565936
0.499992222 0.026965125 0.034060813
0.556108892 0.023293687 0.035515875
0.612337112 0.021037938 0.037006252
0.668318152 0.021784689 0.038432624
0.722663343 0.023508253 0.039250560
0.776387036 0.024938250 0.039943561
0.012414375 0.030727502 0.029057814
0.042743441 0.041967187 0.036143437
0.080611743 0.043632440 0.034414686
0.121157072 0.045144625 0.033375062
0.163186818 0.047022752 0.032777876
0.206470370 0.049177621 0.032527313
0.251050770 0.051221311 0.032570310
0.297489852 0.052839186 0.033041000
0.346735835 0.053366311 0.033831187
0.399048865 0.051989250 0.034955435
0.453632951 0.048094753 0.036350999
0.508483827 0.041538876 0.037455499
0.562627852 0.034071438 0.038063318
0.617251337 0.029111875 0.038902249
0.672396541 0.027624125 0.040027127
0.727173567 0.027181251 0.041106749
0.781382024 0.027992627 0.041982625
0.023995815 0.070724994 0.032499127
0.048472874 0.081397682 0.038364124
0.084633872 0.081728317 0.037074067
0.124842957 0.082146436 0.035443936
0.166828737 0.083540618 0.034562375
0.210217059 0.085085064 0.034116253
0.255040407 0.086653247 0.034067500
0.301791459 0.087791875 0.034334064
0.351067007 0.087935187 0.034782063
0.402871221 0.086561814 0.035291001
0.456559002 0.083327688 0.036065377
0.511410296 0.078106314 0.037224878
0.566596627 0.071104184 0.038415499
0.621794999 0.063421361 0.039511122
0.676804543 0.056348115 0.040376686
0.730910659 0.051664248 0.040875185
0.783860624 0.049888372 0.040995628
0.037019819 0.115214698 0.037854813
0.056407005 0.123232253 0.042417936
0.089358069 0.124279134 0.041026998
0.127602071 0.121060885 0.037463062
0.168872312 0.121091574 0.035639375
0.212002560 0.122562394 0.034879498
0.256822824 0.124094456 0.034602247
0.303732157 0.125284448 0.034568500
0.353161007 0.125742823 0.034745127
0.405025005 0.125117391 0.035134189
0.458661944 0.123264879 0.035797250
0.513392389 0.120164387 0.036654126
0.568602264 0.115928635 0.037452184
0.623756588 0.111031689 0.038027000
0.678615689 0.106317759 0.038386062
0.732571244 0.103241205 0.038560875
0.785170734 0.102562889 0.038323998
0.050813314 0.161077753 0.044416875
0.065974005 0.167059571 0.047867622
0.095914818 0.168379694 0.046644062
0.132143378 0.165349752 0.042049125
0.172050685 0.161757872 0.038575564
0.214594260 0.161381066 0.036759123
0.259245902 0.162891194 0.036026686
0.306236178 0.164293185 0.035671063
0.355822474 0.165146574 0.035590876
0.407744974 0.165266618 0.035830185
0.461275876 0.164598495 0.036265060
0.515786171 0.163244069 0.036686312
0.570747674 0.161399066 0.036924999
0.625635684 0.159429193 0.036943685
0.680285513 0.157838315 0.036790311
0.733996749 0.157279640 0.036604375
0.786391854 0.158151507 0.036312252
0.063994057 0.208311811 0.052044936
0.076240063 0.213895559 0.055194873
0.103351437 0.214382812 0.053233687
0.137728378 0.211265817 0.048079185
0.176650807 0.207750380 0.043336622
0.218315080 0.204049572 0.040422689
0.262693524 0.203181371 0.038516186
0.309742540 0.204624742 0.037861001
0.359357148 0.205959380 0.037491873
0.411174744 0.206827193 0.037264500
0.464491278 0.207224324 0.037123810
0.518671572 0.207278877 0.036920376
0.573293805 0.207177877 0.036577560
0.627813756 0.207189068 0.036162190
0.682047546 0.207619056 0.035687000
0.735442281 0.208782509 0.035202123
0.787554085 0.210879326 0.035033751
0.075412937 0.258178771 0.060146630
0.085225433 0.263699412 0.063101314
0.110167004 0.263260871 0.060627818
0.143337712 0.259844273 0.055181377
0.181485757 0.256232083 0.049693126
0.222997993 0.252442092 0.045494631
0.267102778 0.248553321 0.042866185
0.313993305 0.247058764 0.040689874
0.363567710 0.248594135 0.039662376
0.415169299 0.250183344 0.038799249
0.468158066 0.251487255 0.037934311
0.521952271 0.252612948 0.037055314
0.576138318 0.253744394 0.036161561
0.630270243 0.255035341 0.035369437
0.684030950 0.256685704 0.034874186
0.737055063 0.258857459 0.034654938
0.788827896 0.261637896 0.034847684
0.083015189 0.310745835 0.067921877
0.091318816 0.314397007 0.069670498
0.115115121 0.315276742 0.068283200
0.147731319 0.311623305 0.062702127
0.185725197 0.307804406 0.056515131
0.227522001 0.303963542 0.050966378
0.272139877 0.299921155 0.046965066
0.318973094 0.295802116 0.044231437
0.368234038 0.293739885 0.041546002
0.419565886 0.295444727 0.039869871
0.472158700 0.297415853 0.038278185
0.525547385 0.299315602 0.036940686
0.579286397 0.301251978 0.035966437
0.632966816 0.303341478 0.035201374
0.686276197 0.305716842 0.034818310
0.738830805 0.308474869 0.034737252
0.790226460 0.311609477 0.034704126
0.087328129 0.365670741 0.075085185
0.095017500 0.368680477 0.076523431
0.118531495 0.369541764 0.075645253
0.151331261 0.365929514 0.070148692
0.189657703 0.361991525 0.063330501
0.231877878 0.358060747 0.056421313
0.277121246 0.354059666 0.050295059
0.324493736 0.349809200 0.046415623
0.373523355 0.345534623 0.043737873
0.424326360 0.343011558 0.040802561
0.476510733 0.344775200 0.038941685
0.529405653 0.347085118 0.037348248
0.582669020 0.349514902 0.036297124
0.635847151 0.352079839 0.035515498
0.688698232 0.354873329 0.035083190
0.740769506 0.357950866 0.034931187
0.791761577 0.361232281 0.034901813
0.091776311 0.422151178 0.082238436
0.099303804 0.425359935 0.083933935
0.122853369 0.425419629 0.083049186
0.155916438 0.421770483 0.077856004
0.194543511 0.417765945 0.070509434
0.237084806 0.413788795 0.062470935
0.282575220 0.409812450 0.054779187
0.330264330 0.405668885 0.048561245
0.379433751 0.401267678 0.045030501
0.429726064 0.396925628 0.042486060
0.481231630 0.393989116 0.039732687
0.533627450 0.395694166 0.037975937
0.586341023 0.398274302 0.036693752
0.638972104 0.401086688 0.035983186
0.691286385 0.404100299 0.035556499
0.742895484 0.407334358 0.035515562
0.793469250 0.410641789 0.036204249
0.100411810 0.479196489 0.090045877
0.107720189 0.481489986 0.091315627
0.130914122 0.482102901 0.091040686
0.163432136 0.478260994 0.086074695
0.201680437 0.474237353 0.078429066
0.243950561 0.470274508 0.069505371
0.289183795 0.466294944 0.060473248
0.336686134 0.462257624 0.052369125
0.385764450 0.457993180 0.046503998
0.435814619 0.453501314 0.043317311
0.486595035 0.449176997 0.040766187
0.538213909 0.445888132 0.038399436
0.590330422 0.447445065 0.037451312
0.642416000 0.450216651 0.036856558
0.694165707 0.453277558 0.036774937
0.745242953 0.456548065 0.037215438
0.795366645 0.459791332 0.038140249
0.115718439 0.535439491 0.098848879
0.122657813 0.537275195 0.100048251
0.144187748 0.538206875 0.099999875
0.174981192 0.534724236 0.095351562
0.211868122 0.530735672 0.087540433
0.253090650 0.526827455 0.077977374
0.297477216 0.522855043 0.067655429
0.344251871 0.518864155 0.057597060
0.392805368 0.514767587 0.049508870
0.442477822 0.510436773 0.044542942
0.492711335 0.505940259 0.042242691
0.543439925 0.501682520 0.040231936
0.594724655 0.498116136 0.038353439
0.646135032 0.499473900 0.038601808
0.697330415 0.502300322 0.039122436
0.747867703 0.505482435 0.039462373
0.797504842 0.508567214 0.039929751
0.137762070 0.591930509 0.110441998
0.144074827 0.593924642 0.111880377
0.163053691 0.594047666 0.111361757
0.191022262 0.590659440 0.106453434
0.225593507 0.586811423 0.098494247
0.265011251 0.582953870 0.088501126
0.307956278 0.579016685 0.077246189
0.353518486 0.575046778 0.065610997
0.401049316 0.571050823 0.055266563
0.449925303 0.566918373 0.048212372
0.499561489 0.562572181 0.044440441
0.549519241 0.558144569 0.043102816
0.599756181 0.553936005 0.042145502
0.650336385 0.550190568 0.041229561
0.700846732 0.551238954 0.040977690
0.750791132 0.554029286 0.041295435
0.799941421 0.556897402 0.041892998
0.164426282 0.646988809 0.124593459
0.169323593 0.647520423 0.124965087
0.186418414 0.648726881 0.125499263
0.211205915 0.645672023 0.120245010
0.242857143 0.642019629 0.112018391
0.279903561 0.638222158 0.101787895
0.320902646 0.634342372 0.090191700
0.364825338 0.630437136 0.077932134
0.410915077 0.626523435 0.066151142
0.458571315 0.622503936 0.056663200
0.507201612 0.618323147 0.050280698
0.556357145 0.613971353 0.046728130
0.605676174 0.609635651 0.044929128
0.655123055 0.605544984 0.043600127
0.704793274 0.601678669 0.043266695
0.754143119 0.602319896 0.043646630
0.802726507 0.604648650 0.044271439
0.193131283 0.699609280 0.140659645
0.197888091 0.700977683 0.141940773
0.212750345 0.702270865 0.142252818
0.234540105 0.699753881 0.136930078
0.263150126 0.696291387 0.128661767
0.297549665 0.692603350 0.118601903
0.336257339 0.688816786 0.107208207
0.378171116 0.684957385 0.094790637
0.422489971 0.681075275 0.081834257
0.468577117 0.677160203 0.069496147
0.515899301 0.673107207 0.058867335
0.563982964 0.668908596 0.051076081
0.612419128 0.664614499 0.048154511
0.660831809 0.660399616 0.048161820
0.709472477 0.656407773 0.047818691
0.757971346 0.652637124 0.047300629
0.806011975 0.652244091 0.047151752
0.224367276 0.753996074 0.161860824
0.228582084 0.755412877 0.163221762
0.240107104 0.754913568 0.161219016
0.259256840 0.752689302 0.155818090
0.285259664 0.749460161 0.147854701
0.317004263 0.745851219 0.138258755
0.353304237 0.742108762 0.127451509
0.393059105 0.738280833 0.115524888
0.435430050 0.734406292 0.102589890
0.479792684 0.730526328 0.089298517
0.525594652 0.726585269 0.076781899
0.572365403 0.722505689 0.066757582
0.619688094 0.718332648 0.061042078
0.667175412 0.714120626 0.058089197
0.714828074 0.710008860 0.055633817
0.762418151 0.706134558 0.052278627
0.809710145 0.702026963 0.050334256
0.249092430 0.803966284 0.178381816
0.252293974 0.804638445 0.178767115
0.264147729 0.806914806 0.179907739
0.281435996 0.804813802 0.174714938
0.305390060 0.801604629 0.167047366
0.334893316 0.798023760 0.158008263
0.369071871 0.794256926 0.147845194
0.406917363 0.790404856 0.136746183
0.447514623 0.786513150 0.124794498
0.490241230 0.782598555 0.112222061
0.534580231 0.778642714 0.099551812
0.580082178 0.774609625 0.087687939
0.626340270 0.770481765 0.077957310
0.672887564 0.766271114 0.071097612
0.719734907 0.762025952 0.065534741
0.766551733 0.757978559 0.060063496
0.813649714 0.754177570 0.055799685
0.007217125 0.004869375 0.071719006
0.026470251 0.007352562 0.065425128
0.057968125 0.011199875 0.055965502
0.097015008 0.015766501 0.053073563
0.139667138 0.020273626 0.052777372
0.183664888 0.025160126 0.052933060
0.228947520 0.029946627 0.053349998
0.275684953 0.034209374 0.053846251
0.324528754 0.037059121 0.054419748
0.376070440 0.037548751 0.055042565
0.430081844 0.035558626 0.055759251
0.485762477 0.031649500 0.056630123
0.542256534 0.026759624 0.057479747
0.598974228 0.022838436 0.058251377
0.655585945 0.021989627 0.058980875
0.711267889 0.023836315 0.059639253
0.765715718 0.025177376 0.059878498
0.012807313 0.031221000 0.068628624
0.040486876 0.041909438 0.077488750
0.073830120 0.045313127 0.069114119
0.111817695 0.047264624 0.064861059
0.153154254 0.049193192 0.063390747
0.196076691 0.051443625 0.062338624
0.240441248 0.053788248 0.061652564
0.286512226 0.055873185 0.061254248
0.334983319 0.056925435 0.061092373
0.386208057 0.056179754 0.061089873
0.439737648 0.053039189 0.061252441
0.494778275 0.047416877 0.061584309
0.550458074 0.040273249 0.061934806
0.606400907 0.034088746 0.062324565
0.662267804 0.030892309 0.062745631
0.717337310 0.028144814 0.063002065
0.771222591 0.028438251 0.062899314
0.026091374 0.065622628 0.064096250
0.051412810 0.076012686 0.071760252
0.092442244 0.092771880 0.083618999
0.131481394 0.095541060 0.081730127
0.172891766 0.096748129 0.079910003
0.215863258 0.097943187 0.078335062
0.260413140 0.099108376 0.077005871
0.307106405 0.099912502 0.076014251
0.356381893 0.099954255 0.075344250
0.408188790 0.098814189 0.074872620
0.461915493 0.096257009 0.074646622
0.516875446 0.092234932 0.074680500
0.572026372 0.086773500 0.074679121
0.626857400 0.080683991 0.074484378
0.681236565 0.075135864 0.074049369
0.734226108 0.070569187 0.072966307
0.786195278 0.068722993 0.071731001
0.039945439 0.108253390 0.067666501
0.060289122 0.116874762 0.074080624
0.098077938 0.133457750 0.085504435
0.137198150 0.136739627 0.085740492
0.178044766 0.136634320 0.082776994
0.221028373 0.137748197 0.080850624
0.265866518 0.138878137 0.079382688
0.312962472 0.139655069 0.078172997
0.362503201 0.139788955 0.077157125
0.414237380 0.139058441 0.076336443
0.467510194 0.137363642 0.075618058
0.521736622 0.134755820 0.075026311
0.576416790 0.131431639 0.074515685
0.630999207 0.127767771 0.073938936
0.685291052 0.124436766 0.073287062
0.738652885 0.122373074 0.072346501
0.790724874 0.122273751 0.071156815
0.053713504 0.153632745 0.073471248
0.069622561 0.160888821 0.078621000
0.104138620 0.176626503 0.089170873
0.141409442 0.180529624 0.089163184
0.181034490 0.177216366 0.084385499
0.223407865 0.176510051 0.081182688
0.268252164 0.177694261 0.079339378
0.315518975 0.178744435 0.077888250
0.365200162 0.179300115 0.076625749
0.416920424 0.179280132 0.075520128
0.470052898 0.178687632 0.074568376
0.524047792 0.177628875 0.073719814
0.578428864 0.176282257 0.072889253
0.632724822 0.174937636 0.071935564
0.686801791 0.173986375 0.070805252
0.739965856 0.173960373 0.069530375
