luts/Documentary_02.cube
TITLE "17x17x17 Adobe/IRIDAS cube 3D LUT exported with GrossGrade v0.2.2 (beta) 64 bit"
DOMAIN_MIN 0 0 0
DOMAIN_MAX 1 1 1
LUT_3D_SIZE 17
-0.041262001 -0.025669999 -0.023681000
0.022973619 -0.024139062 -0.022947876
0.083544746 -0.019746000 -0.024544874
0.144841328 -0.010041932 -0.019972429
0.204134256 0.012186002 0.013504002
0.261523634 0.047133692 0.035816185
0.316131771 0.068600252 0.047534004
0.367206216 0.082293004 0.058303632
0.417468518 0.096813008 0.069135502
0.465655744 0.112627126 0.081717812
0.511518598 0.129305631 0.095422372
0.556931138 0.146529377 0.108788937
0.599351764 0.165202498 0.125021756
0.642521620 0.182979763 0.139125511
0.684334278 0.201532394 0.154828265
0.726286829 0.213014632 0.164582580
0.769752979 0.224349007 0.176576003
-0.037726689 0.040374994 -0.020077249
0.027619869 0.042851873 -0.020216001
0.088382624 0.048615187 -0.022363376
0.151118830 0.055679005 -0.018499741
0.214030117 0.063415684 0.016289691
0.272617131 0.073127754 0.035913691
0.326182395 0.084763072 0.047191501
0.376728952 0.096642382 0.057685632
0.425836623 0.109894007 0.068949252
0.472809821 0.124237686 0.081584059
0.517710090 0.139729321 0.095242754
0.561994255 0.156224057 0.109301120
0.604152858 0.174031809 0.125099197
0.646357298 0.191322759 0.140028894
0.687644422 0.208373010 0.155027017
0.729191899 0.219868571 0.165592507
0.771959901 0.229626179 0.176828191
-0.016572375 0.079441130 -0.002686126
0.048667435 0.087002620 -0.004913500
0.102977619 0.094100371 -0.001592502
0.165457770 0.103535444 0.023897935
0.229720265 0.111739628 0.030328002
0.294335246 0.119774565 0.039391376
0.351087749 0.128430009 0.047207754
0.402821064 0.138176501 0.056840003
0.451038480 0.149246871 0.067868009
0.495497286 0.161736012 0.080792315
0.537824094 0.175387383 0.094988629
0.579796970 0.189705014 0.109894380
0.619924724 0.204856500 0.126215011
0.659738600 0.219549075 0.141952574
0.699616313 0.233742505 0.156500384
0.739384174 0.243894503 0.168309271
0.780282974 0.249938503 0.178350866
0.051202323 0.134326011 0.049938317
0.076302692 0.140283629 0.046706196
0.131096005 0.151789203 0.042343691
0.191381961 0.162259817 0.041941941
0.256204456 0.170876756 0.048165251
0.319957942 0.179022834 0.050299566
0.379180223 0.188204646 0.054074820
0.431901664 0.197517008 0.061582696
0.480195969 0.207293764 0.071524687
0.523689687 0.218139321 0.083910815
0.563576341 0.229671687 0.098312125
0.602318704 0.241257563 0.113991067
0.640047908 0.253065437 0.130770311
0.678068042 0.264048249 0.146548063
0.716210783 0.274352074 0.160874769
0.754219353 0.281020880 0.172427773
0.793354094 0.284625381 0.182131246
0.104080506 0.198346004 0.075241998
0.118687510 0.202434257 0.072535999
0.162138760 0.212567374 0.067630880
0.224729195 0.226232767 0.065887749
0.286344498 0.237501487 0.065713748
0.348049074 0.245167613 0.066638559
0.406301022 0.253739744 0.068810001
0.458780736 0.263505369 0.073990695
0.506130517 0.272834003 0.082681000
0.549002111 0.281594306 0.093967631
0.587717354 0.290667117 0.107897125
0.623938680 0.299909651 0.123775370
0.658980250 0.309440523 0.140637755
0.694739401 0.317577451 0.156101376
0.731126726 0.322858274 0.170031637
0.768789768 0.326074898 0.180791825
0.807288766 0.328572750 0.189562246
0.157068938 0.266797006 0.091349810
0.168107361 0.269713253 0.089542501
0.201904118 0.277184814 0.086659059
0.255878031 0.288984537 0.085720181
0.319392592 0.303069621 0.086756691
0.376947522 0.312975764 0.088376313
0.430934697 0.318585753 0.090816617
0.481073141 0.326233953 0.095150195
0.526777446 0.335244298 0.102111131
0.568393826 0.343292117 0.112466685
0.606626570 0.350191593 0.125064552
0.642010331 0.357124686 0.139673010
0.675749004 0.364204675 0.155283630
0.709918857 0.370609820 0.169729203
0.744595408 0.373971492 0.183118939
0.781897545 0.374783128 0.192423820
0.819974065 0.375053138 0.200335369
0.209926769 0.332369506 0.108865134
0.218335211 0.334353268 0.107766077
0.245322764 0.339703858 0.106849253
0.288221419 0.348451883 0.107759513
0.345278621 0.361153126 0.110328384
0.404720962 0.374011993 0.114293508
0.456203759 0.381965131 0.117688507
0.501908004 0.386085451 0.122550189
0.544889092 0.391755879 0.129117757
0.584663808 0.398884535 0.138034701
0.621687353 0.405130893 0.149116874
0.656960011 0.410438120 0.161256135
0.690779269 0.415429026 0.174639136
0.724513769 0.419899017 0.187425718
0.757877290 0.422906011 0.199709520
0.793611825 0.422484517 0.207337439
0.830891252 0.419442505 0.213048488
0.259357035 0.392074972 0.130413577
0.265987784 0.393419921 0.129946321
0.287921637 0.397422910 0.130331889
0.322565407 0.403851569 0.132959887
0.369298071 0.413470149 0.137269586
0.423898488 0.425197721 0.142816275
0.477731943 0.436183393 0.149114817
0.523121417 0.442105949 0.153006569
0.562641382 0.444872260 0.159301758
0.600267887 0.448705673 0.167173266
0.635586202 0.453697145 0.176777080
0.669722319 0.458456457 0.186812401
0.703405559 0.462376952 0.197449654
0.736976504 0.465181977 0.208074719
0.770063102 0.466882825 0.218304768
0.804442465 0.465681344 0.224044755
0.839893341 0.460733950 0.226937935
0.303920507 0.445357025 0.156700015
0.309173137 0.446298301 0.156763375
0.327446401 0.449446857 0.157841623
0.356640756 0.454503834 0.161379129
0.395322502 0.461696506 0.166715264
0.441468060 0.470883697 0.173269063
0.491679609 0.481034398 0.180332512
0.539599180 0.489749819 0.186945885
0.579939961 0.493927479 0.190680504
0.615364552 0.495546222 0.197225943
0.649054766 0.498161882 0.205589756
0.681724787 0.501507401 0.214273900
0.714339972 0.504943252 0.222753003
0.747179866 0.506977797 0.230568588
0.780466557 0.507218242 0.237948880
0.815030813 0.505389333 0.241553128
0.848820508 0.500336528 0.242222503
0.342507750 0.492373198 0.186075181
0.346649110 0.493055493 0.186422929
0.362040818 0.495597184 0.187914759
0.387112409 0.499700963 0.191648051
0.420426697 0.505416453 0.197368115
0.460015893 0.512673676 0.204378754
0.503970027 0.521047950 0.211765811
0.549500525 0.529419363 0.218679309
0.592259347 0.536100864 0.224282503
0.628857851 0.538988411 0.227937058
0.661744773 0.540198147 0.234050870
0.693009555 0.541745305 0.241803050
0.724558294 0.543945193 0.248697311
0.756625652 0.545715749 0.254240751
0.789847791 0.545757174 0.258687824
0.824986815 0.543744743 0.260232002
0.858482718 0.538707972 0.259017736
0.374989122 0.534249663 0.216547489
0.378318012 0.534782708 0.216999009
0.391008765 0.536781907 0.218810380
0.412642628 0.540159822 0.222484678
0.441872358 0.544905484 0.228031874
0.476916045 0.550966978 0.235051259
0.516192257 0.558128536 0.242730126
0.557568848 0.565491080 0.249756128
0.599015951 0.572310150 0.255687267
0.638193429 0.577508688 0.259986460
0.672415733 0.579418659 0.263016254
0.704190493 0.580410540 0.268068433
0.734612226 0.581228137 0.274045765
0.766205549 0.582346857 0.277836680
0.799324572 0.582980514 0.280341625
0.834228098 0.581230104 0.280054748
0.868280888 0.575998902 0.276904136
0.401821017 0.572287440 0.246058434
0.404651940 0.572748661 0.246445939
0.415163815 0.574354172 0.248353377
0.434054792 0.577243030 0.251967609
0.460104316 0.581370413 0.257128358
0.491756678 0.586683273 0.263694674
0.527639806 0.593098879 0.271272212
0.565812647 0.599943995 0.278695524
0.604591310 0.606343865 0.284756094
0.643080294 0.612036943 0.289479822
0.680263281 0.616199553 0.292496264
0.713847339 0.617647052 0.294512182
0.745638430 0.618506432 0.298298270
0.776667058 0.619188905 0.301566809
0.809390724 0.619556665 0.302301377
0.843792379 0.618212104 0.300369024
0.878570855 0.613586962 0.295266002
0.424458027 0.607785463 0.271423489
0.427125067 0.608245134 0.271584988
0.436569124 0.609812796 0.273175240
0.453374386 0.612440169 0.276805609
0.476841748 0.616164505 0.281820744
0.505723953 0.620912969 0.288008690
0.538744748 0.626698017 0.295145750
0.574238420 0.633219361 0.302750826
0.610645235 0.639632285 0.309631258
0.647296131 0.645390272 0.314955801
0.684306502 0.650503278 0.318803489
0.721046567 0.654321671 0.321172297
0.755665541 0.656060040 0.322825998
0.788388252 0.657077014 0.324573696
0.820577681 0.657127142 0.324491262
0.854593337 0.656027198 0.321359634
0.889886737 0.652445018 0.314163744
0.444966227 0.642596066 0.290743321
0.447294205 0.643047750 0.290930450
0.456095070 0.644672155 0.292018056
0.471335202 0.647135735 0.295630068
0.492692947 0.650523365 0.300843507
0.519085944 0.654710233 0.307042956
0.549357235 0.659784853 0.313715011
0.582364559 0.665858924 0.320790887
0.616884589 0.672414660 0.328099906
0.652118087 0.678726494 0.334804565
0.688151240 0.684533000 0.340224266
0.725700676 0.689833641 0.343879461
0.763701975 0.694011927 0.346206546
0.799823880 0.696121871 0.347261786
0.833402455 0.696701288 0.346367717
0.867259264 0.695925593 0.342715353
0.902329445 0.693158627 0.334672332
0.463350296 0.677368164 0.301910132
0.465376407 0.677778363 0.302116990
0.473325878 0.679398894 0.302933484
0.487401634 0.681919336 0.306095749
0.507202089 0.685213685 0.311553270
0.531675458 0.689093649 0.318481952
0.559758842 0.693653464 0.325774878
0.590755820 0.699188948 0.332758367
0.623907387 0.705571353 0.339698732
0.658350527 0.712225318 0.347037315
0.693721354 0.718835175 0.354487896
0.730676830 0.725268483 0.361017972
0.769787431 0.731157064 0.365013152
0.809216201 0.735845506 0.367251158
0.846142411 0.738426089 0.368078411
0.881460786 0.738922298 0.364513695
0.916647851 0.737043679 0.356059521
0.477850944 0.712311089 0.303387493
0.479599386 0.712673247 0.303607553
0.486529827 0.714114249 0.304450870
0.499424934 0.716620028 0.306879908
0.517892063 0.719973266 0.312177241
0.541265845 0.724015534 0.319848895
0.568500102 0.728641331 0.328925878
0.598731518 0.733910143 0.337839812
0.631272137 0.739884615 0.345604509
0.665415525 0.746341527 0.352598876
0.700647116 0.753130198 0.360041380
0.737402141 0.760415077 0.368513942
0.776483476 0.767917097 0.376756191
0.816990316 0.774696708 0.381997705
0.856943429 0.780203998 0.384198904
0.894686937 0.783794761 0.384842902
0.930804968 0.783979416 0.379606962
0.485020012 0.745356977 0.297500014
0.486532182 0.745683253 0.297677189
0.492558509 0.746997356 0.298605978
0.504099131 0.749477267 0.300396919
0.521084785 0.752691984 0.305045247
0.543080568 0.756687641 0.311870754
0.569515228 0.761476994 0.320740759
0.600098729 0.767265320 0.330810815
0.633947492 0.774011970 0.341676503
0.669501185 0.781229436 0.352957368
0.705633402 0.788515091 0.363501996
0.742915869 0.795951366 0.372479796
0.782644033 0.803792000 0.380632013
0.823931932 0.812005281 0.389165491
0.864973307 0.820119858 0.396842122
0.904609442 0.827215016 0.400546014
0.941680014 0.832014978 0.401490986
-0.041329499 -0.025370000 0.037564937
0.021364871 -0.024054687 0.039544001
0.076328121 -0.019854125 0.042286120
0.131633326 -0.011056744 0.046030998
0.188482881 0.012447564 0.050130434
0.252149343 0.046941563 0.055848502
0.310172707 0.068129629 0.061944947
0.362813652 0.081574507 0.070203133
0.413523704 0.095997252 0.079533011
0.462407887 0.111516505 0.090324193
0.509112298 0.128066629 0.102633998
0.554472685 0.145430624 0.115494877
0.597448468 0.163747132 0.130584061
0.640677571 0.181958646 0.144575939
0.682844818 0.200062767 0.158776209
0.725084722 0.212151825 0.168702081
0.768627048 0.222904310 0.179502875
-0.037894502 0.041319996 0.042149313
0.027070494 0.044364061 0.045081809
0.084284253 0.049488623 0.044683561
0.143205762 0.056548256 0.046503562
0.203428686 0.063881807 0.049233619
0.263582945 0.073094815 0.055420689
0.318594575 0.084816501 0.062848382
0.371004760 0.096293636 0.070774257
0.420838565 0.109412752 0.080368258
0.468703806 0.123584509 0.091133632
0.514777243 0.138929263 0.103231564
0.559182346 0.155531555 0.116651751
0.602023363 0.172960073 0.131215692
0.644422710 0.190633327 0.145881504
0.686161280 0.207196072 0.159311637
0.728029907 0.219266817 0.169960454
0.770856380 0.228409305 0.179950997
-0.018892689 0.081231385 0.051479939
0.044537563 0.089469433 0.055281319
0.096455492 0.098641820 0.052480817
0.160729647 0.106192566 0.051204871
0.223406449 0.113349512 0.052480571
0.286313266 0.120447375 0.056933437
0.344113976 0.128628686 0.061995007
0.396701097 0.137945011 0.069939442
0.445641816 0.148804873 0.079437003
0.491022050 0.161393866 0.090911500
0.534403980 0.175033674 0.103725567
0.576786280 0.189441040 0.117822066
0.617390275 0.204589501 0.133478999
0.657752633 0.219288707 0.148323312
0.698147535 0.233512208 0.161901027
0.738331735 0.243690118 0.173029438
0.779475272 0.249495998 0.182105452
0.048778635 0.135727316 0.069245189
0.072958700 0.141649440 0.068609819
0.125469461 0.153346255 0.063882381
0.185285524 0.163907394 0.063177437
0.250774026 0.172396705 0.064311132
0.314378589 0.180178016 0.065288320
0.373650581 0.188728958 0.067935064
0.426799506 0.197504953 0.073882006
0.475563049 0.206896439 0.082564004
0.519636273 0.217545331 0.093815684
0.560193479 0.229059696 0.107166998
0.599463105 0.240742058 0.121871747
0.637668431 0.252607584 0.137838751
0.676271975 0.263650686 0.152660131
0.714896262 0.274074525 0.166101456
0.753329873 0.280738950 0.176955089
0.792646408 0.284447819 0.186041430
0.101725310 0.199040696 0.088304751
0.116002493 0.203194931 0.086346500
0.158358634 0.213639185 0.081375256
0.219659641 0.227030441 0.079554245
0.281676680 0.238650322 0.079527631
0.343478620 0.246531248 0.079704881
0.401888996 0.254593313 0.081003129
0.454508930 0.263876468 0.085367247
0.502167881 0.272826076 0.093034185
0.545525312 0.281354696 0.103396624
0.584628284 0.290236622 0.116548374
0.621216536 0.299494445 0.131651446
0.656720459 0.309079379 0.147569314
0.693089843 0.317162693 0.161948949
0.729864120 0.322492927 0.175167203
0.767939329 0.325721115 0.185025752
0.806704879 0.328292429 0.193232194
0.154585257 0.267317861 0.102827437
0.165535375 0.270355225 0.101128131
0.198860452 0.277960688 0.097845875
0.251636714 0.289333999 0.096744686
0.314827889 0.303270161 0.097857252
0.372850180 0.313484251 0.099675626
0.427005887 0.319200128 0.101698183
0.477354378 0.326662272 0.105219133
0.523367047 0.335499913 0.111627311
0.565399945 0.343381315 0.121271431
0.604006410 0.350198120 0.133111551
0.639778197 0.357023060 0.146887749
0.673900843 0.364081800 0.161667630
0.708423853 0.370416701 0.175308123
0.743386865 0.373709857 0.188067898
0.781072259 0.374569386 0.196674988
0.819418132 0.374812603 0.204022810
0.207092091 0.332641393 0.118470758
0.215568960 0.334750175 0.117194831
0.242416888 0.340171754 0.115950003
0.284444958 0.348555475 0.116842508
0.341286838 0.361157328 0.119543143
0.400897026 0.374085873 0.123691201
0.452825934 0.382297009 0.127331942
0.498634070 0.386392713 0.131732017
0.541848660 0.392064571 0.137612581
0.582134068 0.399152458 0.145824075
0.619571447 0.405371934 0.156248748
0.655125916 0.410672188 0.167818010
0.689252973 0.415545046 0.180462509
0.723179400 0.419936001 0.192622840
0.756759286 0.422869146 0.204368070
0.792815804 0.422459364 0.211537763
0.830364704 0.419198126 0.216451317
0.256459594 0.392111331 0.138592705
0.263195723 0.393534452 0.137903824
0.285194874 0.397608012 0.138059393
0.319375902 0.403838098 0.140696570
0.365881860 0.413358957 0.145140454
0.420477539 0.425093293 0.150820881
0.474798709 0.436214626 0.156888515
0.520445049 0.442293465 0.160846904
0.560038745 0.445049882 0.166710317
0.597943902 0.448911399 0.174049258
0.633698821 0.453924417 0.183022320
0.668162763 0.458732337 0.192601070
0.702044427 0.462641239 0.202802330
0.735761106 0.465351462 0.212893471
0.769037545 0.466988951 0.222620904
0.803748012 0.465750664 0.227806255
0.839477062 0.460677892 0.230177939
0.301362336 0.445280612 0.163620368
0.306706190 0.446256906 0.163529247
0.325176239 0.449472308 0.164359525
0.354248762 0.454457223 0.167898431
0.392736912 0.461559415 0.173267692
0.438771248 0.470711023 0.179869950
0.488982826 0.480852187 0.186910495
0.537199378 0.489682347 0.193311572
0.577794194 0.493955106 0.196835950
0.613335609 0.495635122 0.203082561
0.647299111 0.498309523 0.211071879
0.680223763 0.501688719 0.219437554
0.713131666 0.505145371 0.227410927
0.746149063 0.507151783 0.234753132
0.779580355 0.507350683 0.241788372
0.814425766 0.505483747 0.244882509
0.848480999 0.500421703 0.245255247
0.340374380 0.492273629 0.191881686
0.344594777 0.492979497 0.192136630
0.360252887 0.495578051 0.193355441
0.385370880 0.499675065 0.197047681
0.418547481 0.505327225 0.202746630
0.458040565 0.512541354 0.209714249
0.501909316 0.520894825 0.217101559
0.547401190 0.529261470 0.224014506
0.590249717 0.536021292 0.229569063
0.627191126 0.538995445 0.232766420
0.660188079 0.540262938 0.238668993
0.691677034 0.541871786 0.246173054
0.723418713 0.544079542 0.252820820
0.755755246 0.545834124 0.257805556
0.789131165 0.545854926 0.261913896
0.824423611 0.543840349 0.263258040
0.858169019 0.538801014 0.261761308
0.373205245 0.534150481 0.221419871
0.376593381 0.534702480 0.221809685
0.389535487 0.536753654 0.223374441
0.411289930 0.540159643 0.226923808
0.440442711 0.544872522 0.232432127
0.475418627 0.550907493 0.239392251
0.514619231 0.558039129 0.247020617
0.555991769 0.565408587 0.254048198
0.597435236 0.572231352 0.259969324
0.636661470 0.577482164 0.264235079
0.671107173 0.579447269 0.266901225
0.703008652 0.580466807 0.271723777
0.733628690 0.581323624 0.277484745
0.765401781 0.582457066 0.281052530
0.798691213 0.583077669 0.283225924
0.833703816 0.581297636 0.282728732
0.868012905 0.576095462 0.279336572
0.400415063 0.572204292 0.250034064
0.403286904 0.572691500 0.250356257
0.413935781 0.574335754 0.252130389
0.432932377 0.577254593 0.255605966
0.458987087 0.581373990 0.260675550
0.490611672 0.586660326 0.267167300
0.526422620 0.593056083 0.274687201
0.564585447 0.599897742 0.282097369
0.603402853 0.606317937 0.288166404
0.641913772 0.612025797 0.292875946
0.679139078 0.616229415 0.295873374
0.712774158 0.617703319 0.297845006
0.744765401 0.618593991 0.301285416
0.775967479 0.619296789 0.304366291
0.808822930 0.619654477 0.304884136
0.843331993 0.618297517 0.302798241
0.878360569 0.613688290 0.297361642
0.423417956 0.607778609 0.274763256
0.426112324 0.608276367 0.274854571
0.435582757 0.609859049 0.276422054
0.452392936 0.612489164 0.280014575
0.475865334 0.616207540 0.284921438
0.504747272 0.620925546 0.291008562
0.537718534 0.626679420 0.298069865
0.573210835 0.633199334 0.305580944
0.609655380 0.639628351 0.312455893
0.646354795 0.645412982 0.317790687
0.683400154 0.650546372 0.321616262
0.720204949 0.654401183 0.323945612
0.754901886 0.656186998 0.325601310
0.787795722 0.657205880 0.327044219
0.820117295 0.657249391 0.326776147
0.854232728 0.656140089 0.323455036
0.889708400 0.652564883 0.316086352
0.444066793 0.642622113 0.293660074
0.446414500 0.643085063 0.293794692
0.455266267 0.644741297 0.294741184
0.470512480 0.647218525 0.298341870
0.491855413 0.650607526 0.303521544
0.518233716 0.654787540 0.309707165
0.548461199 0.659829140 0.316372514
0.581476390 0.665883124 0.323334128
0.616044641 0.672442973 0.330519438
0.651348531 0.678773224 0.337164551
0.687444985 0.684606135 0.342579246
0.725029886 0.689916790 0.346208155
0.763104081 0.694128931 0.348522961
0.799344659 0.696292102 0.349527925
0.833015919 0.696868479 0.348502338
0.866979659 0.696078598 0.344608366
0.902168751 0.693311810 0.336436331
0.462514460 0.677371025 0.304561615
0.464550644 0.677792728 0.304725140
0.472553015 0.679456174 0.305318743
0.486652613 0.682011306 0.308395445
0.506483138 0.685325742 0.313804895
0.530957878 0.689208686 0.320722193
0.559006691 0.693745375 0.328025222
0.590004086 0.699264228 0.335003018
0.623192906 0.705651343 0.341928095
0.657710314 0.712312341 0.349167705
0.693160594 0.718926847 0.356486410
0.730169117 0.725368083 0.362962633
0.769321859 0.731256485 0.366950810
0.808817685 0.735979855 0.369232297
0.845835567 0.738612294 0.369989038
0.881208777 0.739091873 0.366344601
0.916508317 0.737226844 0.357753783
0.477099180 0.712286711 0.305815816
0.478868991 0.712661922 0.306006044
0.485857636 0.714145124 0.306625992
0.498786867 0.716701984 0.308865726
0.517278433 0.720083594 0.313997060
0.540660262 0.724141777 0.321636319
0.567902088 0.728770375 0.330735058
0.598150551 0.734027207 0.339651316
0.630712390 0.739993155 0.347425669
0.664904296 0.746452093 0.354415685
0.700196207 0.753248572 0.361838818
0.736987948 0.760541022 0.370272160
0.776142359 0.768056333 0.378395617
0.816706896 0.774856925 0.383626491
0.856717110 0.780383170 0.385849059
0.894513369 0.783999681 0.386500597
0.930670798 0.784157217 0.381262898
0.484296262 0.745293260 0.299852192
0.485840321 0.745631635 0.300041556
0.491896391 0.746968567 0.300789267
0.503485441 0.749487460 0.302266598
0.520454943 0.752743900 0.306777179
0.542433262 0.756787777 0.313500047
0.568893075 0.761595786 0.322305411
0.599510908 0.767384589 0.332395941
0.633408308 0.774144650 0.343295127
0.669033706 0.781382203 0.354567707
0.705254436 0.788689554 0.365114689
0.742611170 0.796144843 0.374107003
0.782369852 0.803982675 0.382224560
0.823699594 0.812198877 0.390742183
0.864825249 0.820343137 0.398400098
0.904495358 0.827446163 0.402106553
0.941609681 0.832254112 0.403020084
-0.041840624 -0.025031501 0.074241750
0.020276247 -0.023754688 0.076680183
0.060506754 -0.016431626 0.086525500
0.107186452 -0.005713428 0.092203692
0.166187003 0.029550750 0.096856497
0.235440195 0.051099002 0.097897127
0.297985643 0.067212507 0.099590123
0.353077322 0.079427943 0.103460684
0.405172646 0.092825629 0.109122626
0.455041349 0.107475497 0.116496190
0.502435327 0.123543248 0.125956118
0.547708035 0.140610546 0.136871696
0.591109276 0.158487514 0.149560124
0.635014951 0.177384466 0.161779150
0.677324176 0.194526643 0.173347771
0.720841646 0.208187759 0.182851210
0.764375627 0.217490628 0.190655619
-0.038303252 0.042047873 0.077411249
0.024574872 0.045273062 0.081626497
0.067606255 0.051177744 0.090588935
0.121798187 0.057739377 0.095350564
0.186831310 0.063430250 0.097548313
0.247843683 0.072291128 0.098298937
0.305963010 0.082810506 0.100381561
0.359653175 0.093768060 0.104860879
0.410999626 0.105979756 0.110911757
0.460107505 0.119690940 0.118552506
0.506863475 0.134783626 0.127900437
0.551622927 0.151048571 0.139033556
0.595003664 0.168621063 0.151645750
0.638378143 0.186358064 0.163657576
0.680645585 0.202636957 0.175046340
0.723720610 0.215636134 0.184526995
0.766861379 0.223795369 0.191772252
-0.018890752 0.085034125 0.087661251
0.038825750 0.093990557 0.095889248
0.085747376 0.102362506 0.101786256
0.146316528 0.109493881 0.101697996
0.206926137 0.115557998 0.102441624
0.266583949 0.121242121 0.102930441
0.325190902 0.128402755 0.104718000
0.378802240 0.137173384 0.109591067
0.429582387 0.147662759 0.115823120
0.477774918 0.159815818 0.123582505
0.523463845 0.173476756 0.133464873
0.566777050 0.188338429 0.145602196
0.608950615 0.203020126 0.157774240
0.651280761 0.217737943 0.169369698
0.692649961 0.232665136 0.181999132
0.734028459 0.241368368 0.189029247
0.776482701 0.248029754 0.196582258
0.041899327 0.138695076 0.104087815
0.064827077 0.143786147 0.107052758
0.112275250 0.154982835 0.110331379
0.170277581 0.166593209 0.109277748
0.234947056 0.174036339 0.108224377
0.297783375 0.181294635 0.107850440
0.356970966 0.188795507 0.108658373
0.410858393 0.196885332 0.112065628
0.460808843 0.205600321 0.118265562
0.506812930 0.215847448 0.126825184
0.549241126 0.227333009 0.137598068
0.589983344 0.239392430 0.149711430
0.630069375 0.251746863 0.162380248
0.670478225 0.263121605 0.174167141
0.709906936 0.273179680 0.185647324
0.749480665 0.279928237 0.194135800
0.789902449 0.283774614 0.201012686
0.093263626 0.200300738 0.121581003
0.107134938 0.204054490 0.122341998
0.146675006 0.214681983 0.121677630
0.204742700 0.227939621 0.118931502
0.266563892 0.239822388 0.119686246
0.328176200 0.247524202 0.119694375
0.386873126 0.255179644 0.120189637
0.440112382 0.264204770 0.122683629
0.488647968 0.272517353 0.128212243
0.533332288 0.280360013 0.136684060
0.574106097 0.288912743 0.147035748
0.612493753 0.298278451 0.158687115
0.649628162 0.307932496 0.171459258
0.687122166 0.315772086 0.183287501
0.725123405 0.321064740 0.193790376
