luts/Documentary_01.cube
TITLE "17x17x17 Adobe/IRIDAS cube 3D LUT exported with GrossGrade v0.2.2 (beta) 64 bit"
DOMAIN_MIN 0 0 0
DOMAIN_MAX 1 1 1
LUT_3D_SIZE 5
0.007058000 0.004785000 0.002494000
0.266503245 0.009889500 0.004712500
0.468380034 0.008435500 0.006162500
0.607472777 0.009117250 0.006841500
0.757983983 0.009700000 0.007445000
0.009653251 0.181869254 0.008136500
0.228211999 0.208765000 0.004537750
0.445343763 0.182433009 0.005842000
0.625094056 0.154493257 0.007080500
0.797394276 0.165555254 0.007985249
0.038125508 0.398638010 0.005185500
0.253870994 0.423637033 0.005540250
0.493934005 0.453188002 0.006506000
0.685320258 0.441432238 0.007915250
0.858527005 0.430633515 0.008828999
0.141223013 0.608747244 0.006852501
0.312263250 0.624010444 0.007062500
0.516464531 0.647452533 0.007385501
0.711248517 0.666378021 0.008281750
0.896344721 0.692367792 0.009356500
0.271189988 0.818111002 0.057484999
0.413564742 0.827840209 0.050309002
0.583901525 0.842218995 0.039649501
0.756382763 0.856016517 0.026453249
0.910831988 0.866962016 0.018956000
0.007996250 0.007652750 0.176855758
0.237711251 0.008075500 0.199058503
0.460449010 0.008358501 0.162841007
0.611013770 0.009196999 0.131420255
0.750035226 0.009633500 0.121716499
0.007768250 0.157994255 0.159662753
0.228183255 0.221853256 0.210562751
0.473669559 0.255637258 0.215212256
0.682169020 0.282501280 0.215293750
0.868358016 0.312223732 0.221949250
0.011369500 0.397405297 0.196007520
0.262833029 0.444927752 0.232462764
0.494500518 0.469551474 0.228254244
0.691516995 0.456823766 0.228434756
0.876451731 0.470912755 0.236285254
0.111723758 0.632966518 0.229278252
0.326993793 0.656623542 0.261388004
0.524704754 0.676331043 0.255569756
0.717792034 0.692485511 0.248990491
0.903535485 0.719225287 0.257226259
0.266322494 0.843295991 0.298184276
0.425884753 0.855583310 0.319734752
0.592320263 0.868400693 0.317888767
0.762965798 0.880446732 0.314688981
0.914824963 0.889298499 0.317267239
0.009192500 0.006920000 0.356251538
0.205890507 0.007569250 0.403213739
0.459108531 0.008342000 0.422545999
0.625179768 0.009393000 0.403733253
0.771952510 0.009948500 0.396151513
0.009509750 0.176056504 0.376876295
0.226499259 0.237325490 0.444277257
0.475212753 0.252930522 0.458369255
0.677703500 0.259827256 0.435598493
0.853985250 0.267153502 0.429610521
0.009056000 0.327511013 0.343586981
0.215806752 0.431452274 0.443470746
0.500459552 0.499072015 0.491106510
0.713481545 0.534595013 0.500869989
0.905632019 0.569894016 0.511768520
0.015401755 0.548330545 0.394145012
0.258605003 0.628943264 0.457625806
0.531173289 0.706731796 0.516605258
0.725409031 0.723520279 0.519726515
0.908754468 0.741783023 0.526535749
0.194779992 0.831360996 0.501811028
0.394806504 0.860243738 0.529835224
0.590040565 0.891949534 0.550413966
0.764816523 0.903822780 0.550251722
0.915471017 0.911221504 0.550369501
0.010141000 0.007867751 0.514934003
0.203493744 0.008581750 0.566636264
0.449669302 0.008934500 0.592378259
0.642149210 0.009628001 0.601405025
0.796205521 0.010283750 0.619433999
0.010812251 0.192129999 0.560677528
0.237518743 0.254480511 0.625808835
0.481179237 0.268961251 0.644964814
0.686741769 0.272854745 0.652644813
0.862709999 0.281121254 0.672635555
0.010747000 0.369056761 0.555921018
0.210346013 0.442776531 0.627443075
0.511223793 0.518767238 0.685883284
0.716122031 0.530856490 0.692482769
0.899988234 0.543301523 0.704057455
0.010429000 0.507980525 0.524936259
0.197875768 0.588711500 0.597655535
0.507885575 0.698251724 0.685715973
0.730009258 0.740927815 0.713751554
0.913652301 0.763946533 0.720220029
0.047758497 0.737102747 0.591481030
0.279244512 0.792459726 0.637743473
0.525545239 0.862467527 0.695306003
0.748574078 0.912562788 0.726700068
0.916957736 0.924473763 0.732327521
0.011158000 0.027140999 0.693198979
0.226120263 0.025665250 0.741657019
0.479962528 0.024883498 0.769757032
0.679561794 0.010754750 0.779540539
0.822790980 0.010641000 0.785355985
0.011854250 0.231916502 0.742521048
0.257668495 0.285966992 0.798533082
0.513279557 0.301780999 0.820292711
0.721270978 0.305868268 0.828958213
0.871748507 0.307365775 0.832707763
0.012257000 0.437395513 0.771895528
0.243829757 0.495633781 0.819683790
0.525858045 0.540760517 0.858171940
0.743277550 0.553338230 0.866909742
0.904007018 0.557789445 0.870800495
0.014311249 0.585268497 0.751007259
0.216565996 0.628976285 0.785175502
0.504948258 0.715245068 0.849260747
0.737738729 0.754870772 0.887514770
0.914534271 0.764913499 0.891265273
0.016168000 0.708516002 0.719138026
0.233449250 0.765138268 0.766638279
0.489716023 0.840753496 0.826202512
0.731030524 0.906123459 0.880774975
0.920064986 0.933493972 0.900354981
