luts/Documentary_01.cube
TITLE "17x17x17 Adobe/IRIDAS cube 3D LUT exported with GrossGrade v0.2.2 (beta) 64 bit"
DOMAIN_MIN 0 0 0
DOMAIN_MAX 1 1 1
LUT_3D_SIZE 17
0.007058000 0.004785000 0.002494000
0.064558625 0.009487500 0.007227438
0.132060498 0.012332375 0.006068625
0.200900763 0.012929624 0.004826125
0.266503245 0.009889500 0.004712500
0.325994372 0.007969750 0.005111500
0.378865629 0.007819124 0.005529000
0.426104963 0.008158875 0.005878875
0.468380034 0.008435500 0.006162500
0.507120967 0.008666188 0.006393625
0.542685747 0.008853124 0.006579625
0.575032294 0.008990625 0.006714625
0.607472777 0.009117250 0.006841500
0.642004669 0.009251875 0.006980625
0.676583052 0.009370251 0.007113875
0.714004099 0.009517187 0.007251875
0.757983983 0.009700000 0.007445000
0.009307062 0.041986875 0.006187750
0.045878936 0.043636873 0.006805563
0.090241432 0.041930877 0.007535875
0.148635209 0.042809188 0.005946500
0.208936065 0.042981561 0.005755750
0.270773679 0.040916249 0.004838812
0.330335349 0.036745373 0.004856188
0.384399146 0.033668812 0.005292375
0.433846325 0.032691311 0.005677000
0.481259823 0.032687500 0.006031063
0.526764750 0.032806434 0.006349938
0.568907022 0.032946251 0.006620875
0.608794689 0.033109248 0.006854750
0.648111761 0.033322375 0.007068000
0.688128233 0.033584252 0.007277000
0.728578210 0.033959750 0.007463625
0.773342133 0.034589685 0.007655000
0.007633500 0.081466377 0.007320375
0.046714876 0.085375622 0.007409687
0.097820498 0.091635123 0.007612750
0.150026068 0.087247558 0.006198938
0.206049636 0.084560499 0.005810750
0.264826477 0.080753565 0.004868375
0.321426511 0.075682499 0.004727375
0.376256466 0.069479749 0.005180938
0.426729143 0.063646257 0.005582875
0.475066930 0.060076687 0.005951562
0.522021294 0.058305375 0.006287875
0.566385388 0.057328876 0.006585937
0.609516025 0.057261374 0.006865000
0.650790095 0.057442687 0.007103687
0.691365063 0.058507502 0.007315125
0.733916938 0.060792875 0.007537562
0.780537367 0.062052749 0.007755625
0.007656563 0.128954887 0.007730563
0.048365064 0.134765893 0.007810562
0.099384248 0.141289949 0.007741875
0.161717579 0.149341211 0.005861312
0.217591643 0.145549759 0.004811876
0.273142815 0.139008567 0.004787625
0.328219682 0.131945387 0.004825250
0.381936610 0.124662325 0.005260813
0.432777643 0.117227703 0.005664875
0.479974002 0.109486327 0.006017187
0.526282549 0.102921382 0.006349625
0.570887268 0.097434700 0.006652250
0.614381015 0.094022572 0.006930938
0.656738758 0.093825325 0.007180875
0.697639108 0.095392391 0.007400313
0.739757180 0.098240525 0.007619625
0.787920654 0.109602630 0.007859812
0.009653251 0.181869254 0.008136500
0.050967749 0.187086254 0.007926875
0.103722632 0.193794891 0.006512625
0.164029077 0.202009007 0.004720562
0.228211999 0.208765000 0.004537750
0.286417186 0.207225934 0.004662187
0.341787905 0.199344128 0.005014000
0.395302504 0.191430122 0.005452062
0.445343763 0.182433009 0.005842000
0.492344379 0.173910886 0.006189188
0.537990630 0.165894747 0.006511250
0.582374692 0.159361005 0.006810625
0.625094056 0.154493257 0.007080500
0.667370439 0.152313322 0.007333125
0.709157109 0.152789503 0.007562499
0.749645829 0.155655399 0.007757063
0.797394276 0.165555254 0.007985249
0.011030562 0.235539943 0.007387187
0.055085003 0.241360307 0.006403500
0.109506503 0.247481063 0.005229875
0.169002399 0.255564004 0.004582312
0.232514873 0.264021188 0.004284188
0.297864169 0.271333486 0.004725125
0.354773253 0.270450085 0.005192938
0.410005391 0.263516635 0.005652437
0.460872501 0.254902005 0.006055500
0.507631123 0.244971514 0.006396812
0.553172350 0.235832632 0.006720500
0.597570479 0.228031695 0.007020500
0.640178680 0.222275823 0.007284750
0.681634724 0.217776567 0.007527688
0.722819626 0.215639740 0.007754812
0.762980342 0.217060372 0.007945125
0.809829652 0.223624751 0.008162312
0.012972129 0.290501505 0.005423125
0.063224316 0.296956539 0.005074688
0.117384747 0.302568376 0.004753250
0.176343396 0.309906960 0.004636312
0.237825632 0.318790644 0.004699000
0.300919801 0.326470703 0.004842313
0.365922004 0.334031016 0.005350125
0.420752466 0.333326787 0.005795626
0.475006014 0.327280283 0.006246625
0.523192286 0.319383472 0.006610250
0.568854749 0.309848517 0.006933125
0.613503933 0.300609231 0.007241750
0.656378746 0.293571025 0.007511375
0.697742641 0.287705451 0.007749688
0.738502026 0.283544272 0.007975750
0.779114425 0.282244951 0.008166188
0.824618340 0.285692900 0.008359500
0.020159949 0.344208658 0.004734813
0.073611327 0.350316286 0.004826875
0.128695056 0.356396496 0.004911625
0.185603082 0.363534033 0.005012250
0.244916052 0.371775806 0.005124938
0.306305945 0.379761636 0.005234875
0.367665201 0.386886537 0.005425875
0.431648284 0.394856244 0.005949750
0.484591335 0.393792957 0.006374500
0.535230517 0.389575362 0.006776937
0.582515776 0.383955270 0.007125313
0.628375471 0.375737488 0.007446250
0.672365189 0.368497789 0.007736250
0.714382470 0.361980617 0.007982000
0.755582809 0.356194764 0.008208187
0.796125352 0.352991968 0.008395937
0.841651440 0.355516016 0.008592000
0.038125508 0.398638010 0.005185500
0.090114757 0.403273284 0.005257063
0.142015010 0.409005523 0.005333000
0.196775883 0.415645599 0.005426500
0.253870994 0.423637033 0.005540250
0.313315630 0.431563020 0.005649562
0.372419775 0.438340515 0.005753000
0.432914853 0.445442557 0.006013125
0.493934005 0.453188002 0.006506000
0.544216633 0.451668471 0.006899687
0.592138648 0.450328767 0.007259750
0.639800906 0.446630895 0.007607062
0.685320258 0.441432238 0.007915250
0.728729844 0.436430097 0.008184625
0.771030307 0.430635989 0.008416750
0.812186718 0.427643955 0.008616750
0.858527005 0.430633515 0.008828999
0.059994437 0.452615440 0.005632250
0.111060567 0.456936121 0.005695500
0.159058511 0.461496562 0.005754375
0.210569143 0.467442125 0.005835250
0.264827490 0.474170297 0.005932937
0.322088301 0.482102871 0.006042313
0.379266083 0.488773376 0.006134500
0.437247396 0.495434374 0.006253688
0.495860308 0.502661407 0.006570250
0.552189052 0.508921921 0.007010625
0.600103974 0.508417368 0.007369688
0.647816777 0.509050786 0.007715937
0.694269538 0.507484198 0.008038499
0.739092231 0.505616486 0.008329688
0.782214701 0.502448082 0.008573437
0.825319946 0.500937462 0.008802875
0.872750878 0.504231989 0.009030125
0.083534874 0.504511476 0.006049625
0.132121742 0.509193540 0.006113375
0.177927494 0.513168871 0.006164750
0.226896629 0.518738210 0.006238375
0.278485358 0.524642766 0.006322750
0.332638800 0.531674683 0.006421625
0.387977153 0.538364530 0.006511375
0.444037974 0.544669390 0.006599313
0.500468910 0.551156521 0.006735249
0.554920733 0.557614565 0.007076250
0.607317626 0.562705338 0.007472250
0.654502273 0.563951910 0.007808500
0.700872898 0.565716326 0.008125749
0.746415794 0.566896975 0.008429624
0.790547431 0.567817628 0.008693125
0.834619284 0.568098307 0.008932126
0.883319855 0.572836757 0.009179000
0.113243312 0.557131171 0.006464000
0.156018317 0.560611486 0.006510875
0.198415816 0.564210117 0.006557125
0.244927257 0.569427311 0.006625375
0.294255257 0.574998379 0.006706000
0.345659763 0.581319988 0.006794437
0.398680717 0.587951243 0.006889125
0.453111440 0.594021022 0.006971875
0.507410467 0.599936306 0.007056750
0.559780419 0.605248034 0.007198750
0.610547304 0.610279739 0.007533812
0.660190105 0.615377843 0.007892250
0.706640899 0.617467642 0.008209000
0.751836538 0.620987833 0.008498312
0.796993196 0.624303460 0.008783688
0.841962814 0.628534377 0.009029938
0.890761137 0.636264265 0.009279313
0.141223013 0.608747244 0.006852501
0.181212261 0.611119211 0.006888626
0.221111119 0.614346385 0.006932375
0.265430063 0.619176626 0.006992625
0.312263250 0.624010444 0.007062500
0.361198992 0.629376650 0.007135313
0.411913037 0.635556638 0.007221000
0.464462906 0.641875625 0.007308625
0.516464531 0.647452533 0.007385501
0.566777885 0.652671337 0.007467125
0.615904510 0.657106400 0.007633125
0.664940655 0.661779046 0.007959313
0.711248517 0.666378021 0.008281750
0.755898476 0.669824600 0.008559062
0.801306725 0.674600244 0.008837750
0.846999884 0.681357622 0.009095500
0.896344721 0.692367792 0.009356500
0.170749590 0.658185780 0.008010317
0.207141459 0.660314322 0.007699628
0.245394900 0.663416386 0.007718690
0.287403613 0.668018520 0.007636127
0.331779420 0.672099650 0.007391814
0.378252149 0.676563382 0.007456626
0.427042991 0.681693137 0.007530938
0.477183104 0.687415957 0.007609501
0.526800334 0.692995489 0.007684313
0.575219333 0.697881520 0.007752314
0.623026013 0.702347994 0.007839126
0.670396447 0.706214607 0.008040875
0.716554523 0.711586714 0.008344937
0.759739995 0.714320302 0.008621687
0.804628074 0.718973041 0.008884001
0.849855602 0.727054656 0.009135938
0.899556398 0.740195692 0.009399438
0.202379152 0.710495055 0.012322009
0.235568911 0.711005569 0.010508070
0.272168517 0.713293552 0.010297007
0.311736226 0.717207849 0.009818570
0.354789168 0.721142054 0.008685508
0.399751157 0.725774467 0.008229820
0.446668565 0.730683267 0.008334631
0.494054794 0.735419273 0.008312443
0.540435851 0.740100801 0.008352380
0.587409616 0.744812608 0.008349380
0.635203540 0.749085546 0.008397255
0.681380212 0.752826869 0.008495004
0.724591970 0.756347537 0.008651128
0.768048584 0.761461973 0.008981752
0.810630739 0.762617350 0.009261877
0.854657710 0.771394491 0.009747692
0.904051006 0.783949077 0.010236130
0.232943803 0.761885405 0.018320974
0.268405586 0.763418078 0.015814537
0.303094298 0.765364945 0.015496287
0.341046154 0.768434882 0.015330723
0.382063657 0.772050977 0.014944471
0.425390720 0.776011765 0.014054969
0.469206423 0.780186772 0.013818279
0.513008595 0.784056604 0.013448777
0.557558775 0.787841320 0.012888025
0.603990376 0.792203128 0.012419460
0.650620639 0.796916187 0.011955895
0.694366038 0.800659299 0.011721080
0.737442493 0.803840578 0.011516639
0.780126333 0.807486057 0.011242636
0.821526766 0.810690582 0.011748319
0.859579921 0.813194573 0.012058818
0.908307314 0.826399267 0.015946629
0.271189988 0.818111002 0.057484999
0.304642797 0.820258856 0.055339061
0.338976741 0.822881758 0.054741874
0.375486135 0.825268865 0.052631937
0.413564742 0.827840209 0.050309002
0.454209417 0.830677032 0.047287125
0.496344745 0.834390521 0.044915874
0.539512336 0.838199377 0.042631377
0.583901525 0.842218995 0.039649501
0.628650725 0.846134067 0.036164060
0.672457516 0.849447370 0.032821499
0.714861572 0.852697730 0.029738063
0.756382763 0.856016517 0.026453249
0.797723353 0.859179258 0.023539873
0.837018311 0.861829042 0.021258373
0.876716435 0.864459813 0.019141624
0.910831988 0.866962016 0.018956000
0.007907375 0.007049062 0.041951500
0.053086437 0.009336563 0.043159939
0.120428197 0.012233063 0.039499499
0.191990256 0.012841311 0.036066562
0.260115504 0.009832312 0.033247188
0.320596278 0.007901500 0.031582750
0.374335021 0.007751625 0.031032750
0.421977699 0.008103000 0.030883875
0.464772284 0.008393375 0.030782999
0.503998399 0.008631937 0.030716626
0.539400935 0.008817500 0.030687250
0.571888566 0.008949687 0.030694000
0.604682148 0.009062562 0.030770000
0.637014568 0.009174813 0.030882752
0.669282079 0.009291812 0.031056374
0.703709841 0.009381437 0.031346876
0.744835556 0.009501250 0.031911876
0.008318000 0.042010315 0.040373690
0.046340186 0.044949371 0.042920873
0.095098689 0.048755873 0.044723064
0.153756067 0.053440440 0.044409499
0.216100454 0.058258314 0.044381499
0.279864371 0.060846940 0.043067250
0.342626274 0.062138189 0.040996499
0.400844008 0.062456246 0.039055876
0.453646570 0.060778871 0.037918501
0.503273427 0.058735874 0.037777312
0.550575197 0.057571433 0.038128935
0.594951093 0.057346873 0.038429625
0.637285173 0.058893248 0.038690250
0.677203655 0.061041251 0.038916375
0.717123330 0.064046383 0.039116502
0.757365525 0.068872444 0.039303500
0.801006794 0.076959997 0.039488748
0.007543063 0.079526313 0.040490437
0.050065372 0.087358370 0.046058998
0.097776011 0.089813374 0.046283059
0.152014837 0.089566812 0.046756063
0.210623011 0.091884002 0.045525376
0.271340758 0.094523124 0.044191815
0.332376599 0.095697813 0.042164061
0.391342372 0.095963441 0.039614186
0.445562154 0.095593818 0.037957750
0.496860445 0.095398746 0.037727125
0.546409786 0.095440626 0.038098626
0.593041003 0.095373057 0.038404875
0.637689710 0.096810751 0.038698375
0.680441916 0.099898316 0.038962372
0.720694125 0.103580877 0.039170124
0.762070298 0.110911444 0.039370310
0.808040202 0.119130075 0.039580625
0.007695313 0.130911082 0.043021813
0.053357627 0.137591958 0.049689375
0.102568626 0.143093511 0.048994936
0.161576822 0.148514315 0.048472755
0.216850638 0.143567637 0.047478311
0.275073886 0.140205264 0.045709565
0.332722008 0.138202831 0.043649562
0.389748931 0.136506945 0.041190438
0.443522513 0.135388196 0.039439753
0.494423777 0.134359643 0.038743813
0.544278920 0.134190574 0.038448252
0.591757178 0.134721577 0.038384564
0.637242675 0.136396199 0.038692124
0.681280077 0.139783144 0.038971752
0.723474264 0.144714326 0.039203685
0.764883280 0.150651455 0.039410874
0.812189519 0.158942446 0.039638687
0.008085750 0.183778197 0.044548251
0.057243191 0.190409690 0.052214939
0.105891690 0.195914581 0.051145189
0.165636569 0.203150004 0.049290750
0.230195001 0.210554883 0.046957936
0.287088841 0.206622124 0.044519875
0.342774838 0.199467197 0.042824436
0.397255898 0.192699313 0.041217126
0.448962152 0.186836392 0.039681751
0.498370200 0.183037251 0.039032873
0.546958745 0.180926055 0.038634874
0.594080865 0.180040687 0.038415685
0.639715254 0.180252001 0.038724937
0.684272647 0.182597756 0.039012752
0.727240324 0.186686814 0.039257497
0.769185662 0.192499012 0.039472874
0.816915631 0.202116817 0.039702371
0.009514125 0.237572625 0.044990189
0.061453376 0.245152876 0.052977189
0.112235501 0.250791878 0.051543940
0.171379387 0.258467019 0.048627440
0.233639628 0.266727835 0.045439314
0.299141556 0.273484558 0.041986439
0.356121749 0.271116883 0.040175874
0.410549939 0.262932420 0.039199438
0.461809635 0.253557801 0.038648248
0.509350240 0.245248631 0.038366374
0.556454301 0.239204749 0.038473189
0.602318943 0.235112876 0.038532313
0.646649420 0.232862130 0.038822439
0.690578580 0.233141631 0.039100938
0.733753800 0.235559940 0.039351065
0.775797248 0.240052760 0.039564438
0.823474228 0.249562383 0.039788753
0.012941813 0.293606818 0.044419374
0.068807438 0.300595552 0.052464373
0.119601496 0.306035578 0.050375938
0.178182036 0.313352227 0.046927560
0.239161864 0.321768880 0.044007875
0.302665293 0.329593152 0.041087247
0.366500139 0.336370707 0.038909812
0.422573835 0.334232897 0.038024999
0.475386024 0.327050090 0.037944376
0.523819983 0.317880422 0.038150746
0.570149899 0.309096128 0.038404811
0.615558922 0.301532328 0.038714562
0.658925295 0.295909226 0.038990814
0.701554954 0.292481571 0.039250061
0.743752778 0.291753829 0.039489754
0.785682023 0.293556452 0.039697625
0.832092464 0.300860405 0.039906688
0.017074073 0.348296911 0.041579876
0.081977010 0.354987085 0.050298061
0.130851120 0.360326469 0.048064124
0.186697394 0.366918147 0.045251563
0.245706752 0.374751389 0.042279750
0.307345867 0.382837802 0.039842125
0.369257092 0.390466362 0.038374625
0.432256162 0.397012085 0.037868626
0.485732079 0.395243227 0.037861627
0.536274970 0.390565038 0.038236376
0.583487809 0.383336723 0.038583871
0.629323125 0.375272363 0.038905311
0.673163831 0.368131131 0.039188936
0.715756178 0.362121791 0.039446749
0.757768512 0.358295739 0.039683811
0.799428940 0.357271254 0.039888002
0.844552994 0.361291051 0.040078688
0.032595381 0.402045757 0.038143687
0.097779825 0.408525616 0.047031000
0.144669935 0.413438350 0.045221310
0.198187321 0.419903338 0.042919934
0.254097313 0.426675886 0.040611561
0.313629031 0.434855640 0.039136063
0.373453736 0.441861510 0.037838750
0.434198081 0.449091583 0.037664499
0.494375646 0.455281138 0.037958376
0.544569016 0.454103261 0.038353372
0.593346834 0.452169478 0.038722437
0.640548825 0.447083026 0.039060935
0.685851336 0.441494137 0.039365433
0.729231834 0.435956210 0.039635312
0.772086024 0.431132078 0.039881125
0.814057946 0.428755909 0.040092375
0.858884037 0.431420386 0.040277939
0.053983502 0.455398440 0.035899810
0.117396496 0.461631924 0.045432873
0.161150694 0.465892255 0.044218626
0.211520582 0.471591324 0.042314250
0.265309691 0.478075773 0.040329877
0.322034031 0.485550016 0.039120376
0.379930019 0.492705554 0.038171187
0.438215464 0.498976827 0.037742622
0.497075438 0.505880177 0.038034000
0.552218080 0.511425018 0.038456876
0.600244045 0.511191249 0.038817562
0.648500085 0.511117458 0.039172187
0.695244908 0.508849323 0.039495375
0.739849865 0.506179035 0.039780747
0.783296585 0.503069937 0.040035624
0.826485157 0.501561284 0.040265374
0.872533917 0.504443586 0.040471625
0.077592812 0.507631123 0.035200816
0.139442682 0.513863623 0.045166627
0.180083185 0.517765343 0.044007998
0.227487698 0.522606969 0.042325627
0.278872937 0.528720319 0.040451501
0.332920313 0.535422504 0.039402187
0.388319522 0.542151928 0.038680315
0.444897264 0.548702359 0.038256623
0.501076579 0.554764569 0.038224310
0.555483520 0.560625732 0.038530752
0.607423186 0.565878808 0.038916748
0.654474378 0.566843033 0.039252751
0.701719403 0.568252325 0.039588496
0.747025967 0.569202304 0.039879750
0.791429043 0.569148719 0.040147185
0.835362077 0.569607377 0.040387124
0.883753598 0.574506044 0.040632874
0.107742064 0.560022116 0.034732126
0.162928000 0.566288948 0.046564937
0.200354561 0.569548309 0.045276128
0.245445818 0.574037671 0.043418124
0.294353426 0.579589427 0.041989252
0.345652223 0.585553050 0.040629998
0.398800075 0.591636300 0.039835997
0.453337580 0.598022342 0.039204251
0.507189453 0.603994787 0.039018065
0.559656382 0.609182239 0.038673252
0.610284686 0.614092648 0.038975254
0.660319448 0.618967235 0.039332874
0.706839859 0.621100366 0.039659247
0.752216697 0.624469995 0.039954253
0.796957612 0.628219008 0.040225122
0.841861963 0.630910635 0.040477000
0.891565800 0.639838636 0.040742122
0.135259509 0.611648738 0.037625127
0.188896939 0.618026316 0.053221188
0.223095715 0.620496690 0.051877312
0.265462279 0.624575555 0.049526256
0.311958551 0.629541397 0.047603127
0.360838741 0.635132670 0.045375630
0.411850423 0.640704215 0.043154065
0.464220285 0.646563172 0.041281380
0.516070545 0.652095377 0.040318877
0.566158593 0.657103896 0.039707880
0.615960240 0.661717951 0.039098006
0.664843321 0.666643262 0.039407067
0.711264193 0.670353353 0.039721627
0.757294893 0.674461007 0.040022001
0.801392496 0.679503381 0.040315066
0.847034872 0.685949326 0.040732630
0.897250295 0.697790504 0.041380815
0.166927397 0.662482381 0.048304819
0.216914892 0.668585896 0.060557574
0.249319166 0.670790136 0.058789007
0.288883835 0.674106479 0.055392072
0.332977712 0.678631008 0.051945575
0.379582852 0.683630705 0.048324205
0.428699493 0.689031839 0.045664079
0.478112340 0.694017112 0.043041393
0.527805626 0.698956072 0.042077638
0.576614618 0.703538120 0.041517764
0.624802232 0.708285511 0.041599263
0.672194958 0.712363005 0.041654885
0.717627466 0.716550231 0.041645829
0.761690617 0.720402062 0.042280946
0.805920959 0.724978030 0.042698883
0.851729929 0.732171178 0.043442138
0.901434779 0.746355832 0.045639642
0.200471714 0.713975489 0.052117527
0.245607078 0.719712079 0.069857903
0.277009338 0.722235620 0.069314599
0.314267576 0.724524677 0.065589778
0.356631756 0.729003608 0.063634336
0.401729703 0.733252466 0.061025783
0.448939979 0.738139749 0.059506465
0.496135741 0.742644310 0.057665713
0.542787492 0.746994734 0.056226648
0.589868486 0.751377881 0.055043712
0.636787534 0.755784094 0.053492460
0.683319151 0.760326147 0.053334020
0.727459073 0.763771057 0.052661266
0.770308137 0.766563952 0.051726393
0.812795460 0.770057678 0.053125888
0.856410503 0.777481973 0.054464076
0.905597389 0.790222585 0.057575319
0.231418788 0.765320480 0.079928406
0.277272791 0.770657182 0.098010339
0.307748079 0.772925913 0.096605465
0.343834281 0.775437891 0.095044591
0.383837759 0.778534234 0.092045963
0.427627236 0.782780290 0.089883596
0.471271843 0.787079573 0.087539598
0.515453875 0.790872097 0.084884271
0.560746849 0.794961870 0.081829838
0.606869996 0.799129844 0.078557335
0.652627647 0.803169191 0.075527273
0.696501672 0.806860626 0.073070578
0.739815235 0.809919238 0.070813142
0.781740665 0.813036978 0.068915457
0.823495448 0.816510081 0.067745335
0.861174107 0.818745077 0.066485584
0.908967912 0.832620025 0.067530513
0.269354373 0.823173523 0.112511560
0.312608749 0.827086627 0.126241252
0.343021810 0.828824043 0.125105068
0.378264755 0.831787348 0.123415694
0.416221619 0.834204376 0.120812379
0.455830187 0.837065935 0.118324257
0.497482240 0.840831459 0.115575247
0.540836990 0.844224513 0.112353250
0.585406542 0.847966790 0.108351126
0.630078375 0.851859510 0.104135931
0.673605025 0.855217695 0.100400239
0.716159403 0.858380198 0.096801803
0.758517087 0.861282289 0.092861116
0.799970329 0.864425302 0.089818694
0.839207649 0.867011428 0.088222444
0.877407670 0.868975163 0.087558761
0.912786722 0.871272624 0.091222249
0.007446875 0.007367125 0.081737995
0.046255939 0.009500626 0.082697064
0.112665996 0.012139875 0.088090628
0.182996273 0.012850937 0.081356570
0.251819134 0.009792375 0.074119247
0.315083355 0.007856500 0.067683063
0.370187998 0.007717375 0.062422752
0.419345796 0.008075938 0.058427185
0.463257253 0.008373626 0.056352876
0.502952218 0.008618687 0.055388313
0.539263248 0.008806000 0.054863498
0.572641969 0.008947750 0.054739311
0.605263710 0.009074500 0.054743249
0.637756050 0.009186375 0.054867126
0.670397162 0.009327250 0.055128627
0.703140855 0.009372187 0.055569813
0.742089152 0.009446875 0.056531876
0.007392875 0.039528374 0.074630186
0.046153560 0.046372563 0.081734374
0.094209626 0.048416808 0.082739815
0.153638020 0.052888937 0.078883812
0.215856075 0.057051748 0.075299054
0.279486358 0.059559058 0.072458252
0.341872424 0.060861688 0.069781624
0.400003523 0.061094373 0.067024931
0.453844339 0.060564496 0.064156994
0.504499197 0.061101750 0.062025499
0.552079141 0.062445685 0.060854811
0.596526444 0.062884815 0.060201313
0.639384270 0.064076185 0.060161620
0.680053771 0.067614630 0.060738001
0.719172299 0.071566314 0.061185371
0.758825421 0.075190946 0.061674811
0.803517342 0.082615867 0.062630877
0.007436001 0.075688377 0.075641505
0.047732312 0.089004062 0.085717186
0.097878493 0.093816504 0.088147126
0.155670777 0.101335496 0.090918064
0.216564238 0.109621249 0.091529250
0.279713809 0.117144562 0.091546685
0.342323273 0.123139136 0.090180501
0.403018028 0.127385825 0.087840751
0.459974170 0.131123006 0.085328750
0.512779236 0.133634999 0.082422063
0.562820077 0.135277510 0.079010874
0.610379457 0.137370497 0.076096937
0.655558228 0.140294492 0.074023753
0.698398888 0.142657250 0.071612626
0.740326405 0.148511633 0.070248246
0.781432092 0.153691441 0.069846630
0.825960875 0.160565868 0.070149124
0.007578500 0.122620143 0.078507379
0.050004877 0.138282433 0.088252872
0.103343062 0.145294443 0.093170375
0.160685271 0.149607450 0.093612507
0.220037252 0.150024325 0.094653189
0.279698104 0.152048633 0.092838563
0.339039952 0.155737951 0.091804497
0.399868608 0.159470320 0.089433253
0.455706209 0.162133142 0.085823625
0.508183956 0.164540768 0.082529873
0.559650064 0.167528003 0.079660811
0.608498096 0.170673192 0.076743126
0.654602051 0.174059689 0.074055940
0.698944092 0.177762389 0.071912877
0.741253972 0.182966009 0.070848875
0.783453107 0.189150885 0.071302243
0.830174983 0.196463585 0.071565874
0.008032750 0.179828763 0.084443629
0.052917313 0.193039253 0.091877311
0.110835373 0.200516894 0.097825006
0.167727575 0.206948504 0.097345620
0.230569124 0.212444142 0.096382245
0.288167208 0.209071696 0.095922872
0.344577879 0.204585373 0.092991382
0.400640815 0.201344252 0.090633944
0.455852151 0.201564759 0.087892123
0.507482290 0.202690631 0.084422372
0.557893991 0.204278767 0.081114873
0.606703639 0.206835315 0.077978805
0.653333485 0.209980637 0.074705370
0.698407888 0.213714242 0.072199248
0.742568612 0.218942493 0.072066002
0.784955025 0.225898504 0.074012063
