luts/Documentary_03.cube
TITLE "17x17x17 Adobe/IRIDAS cube 3D LUT exported with GrossGrade v0.2.2 (beta) 64 bit"
DOMAIN_MIN 0 0 0
DOMAIN_MAX 1 1 1
LUT_3D_SIZE 5
0.000000000 0.000000000 0.000000000
0.158571512 0.018061500 0.009332499
0.343009531 0.032171000 0.018078001
0.558668733 0.021581501 0.026090002
0.777827024 0.024882000 0.032662001
0.048799001 0.162694007 0.029213252
0.168059751 0.154351249 0.020778999
0.352264762 0.159177244 0.021765249
0.568032265 0.155906260 0.026347749
0.784611464 0.152263999 0.030058000
0.085472003 0.366620004 0.065277502
0.187499762 0.356848001 0.050295502
0.371188015 0.340937495 0.034541503
0.580777526 0.345384270 0.030098252
0.790436983 0.357543528 0.032159001
0.136170745 0.591327488 0.102395505
0.223348260 0.583611071 0.088214755
0.399329245 0.568026245 0.046824254
0.598407269 0.551114976 0.037809752
0.798961520 0.554347754 0.040100500
0.248708993 0.804135025 0.173383996
0.303654730 0.799534976 0.159381256
0.446159005 0.784525990 0.116100498
0.625317276 0.768586040 0.070003003
0.812865973 0.752400994 0.052570000
0.015710000 0.010177750 0.164644748
0.123614252 0.022334250 0.125692755
0.296829522 0.041644249 0.118464008
0.508683205 0.038315248 0.119664252
0.734395266 0.026357749 0.120926000
0.057736252 0.141358748 0.144297749
0.198487759 0.200884998 0.191442996
0.386055768 0.212422997 0.187213004
0.596242547 0.212491751 0.179918498
0.804510236 0.216455996 0.172996759
0.103373498 0.338976532 0.165326491
0.217844754 0.398804992 0.207622007
0.403894007 0.399820268 0.192830741
0.608822048 0.401746541 0.178300738
0.811621249 0.411580026 0.168770507
0.144306242 0.569713235 0.195456997
0.256009519 0.615429044 0.237368494
0.428943992 0.615368545 0.217191517
0.621522248 0.596944332 0.184848249
0.816553771 0.597512484 0.168020502
0.248877749 0.787800252 0.251676023
0.329903483 0.822028518 0.287486494
0.472254276 0.820515275 0.267352015
0.644840777 0.804223716 0.227813244
0.828369975 0.786678016 0.198729008
0.009233501 0.014769000 0.396661997
0.086828738 0.024455249 0.343208998
0.257874995 0.045387499 0.282265544
0.446742266 0.057907749 0.264036238
0.669200003 0.040058002 0.264001012
0.019840498 0.142915756 0.366670012
0.142956257 0.199313506 0.432683021
0.336762279 0.214814514 0.374756753
0.532077789 0.220803007 0.343382001
0.741460025 0.224428251 0.334510028
0.106966004 0.306118548 0.337809026
0.223795503 0.364000261 0.388816029
0.442224503 0.460960984 0.473229021
0.646547318 0.486954033 0.474775493
0.842545986 0.494794011 0.463047028
0.146618009 0.532484770 0.361487269
0.262619257 0.578364253 0.405438542
0.474491537 0.663115084 0.491462767
0.665016532 0.682299852 0.495217502
0.853920221 0.680739284 0.475718260
0.236974001 0.755277514 0.404884994
0.328361750 0.787706733 0.442842484
0.514292002 0.860992551 0.523162484
0.686057210 0.877967238 0.526296020
0.861833990 0.861366510 0.492274016
0.013851500 0.014089501 0.663739026
0.053746250 0.019472249 0.612329304
0.180671006 0.035785250 0.543321252
0.399661511 0.061531000 0.472461551
0.607598245 0.058454998 0.439039022
0.017005000 0.138127252 0.633145511
0.054347999 0.195998251 0.688420773
0.269606501 0.206080496 0.639226496
0.480567038 0.219081506 0.561670482
0.680377245 0.227640256 0.518661737
0.025625251 0.309757262 0.596577764
0.137137771 0.365427524 0.645845771
0.390651524 0.459216297 0.724637210
0.595277786 0.486566544 0.686267495
0.782720268 0.498598754 0.643295765
0.137987003 0.495853245 0.567435741
0.254063249 0.543601990 0.607226789
0.470698297 0.632964551 0.681056976
0.687842488 0.723007500 0.756308556
0.877413750 0.755391240 0.762954772
0.219412997 0.720080733 0.586587012
0.315003753 0.754952788 0.618525028
0.513661265 0.829849243 0.688288569
0.719002008 0.908993244 0.765239716
0.897380233 0.942644715 0.787055016
0.018454000 0.018454000 0.902503014
0.054577999 0.019373499 0.861209273
0.106353506 0.026542502 0.795098543
0.355557770 0.046786249 0.723058224
0.568117023 0.066671997 0.651054025
0.020719251 0.128369004 0.877828479
0.055143252 0.188214257 0.925635517
0.188431263 0.201187491 0.878517270
0.441098273 0.210684508 0.806327939
0.639681280 0.227751255 0.729939759
0.027768999 0.310069501 0.839334965
0.075707003 0.365426540 0.881583512
0.354576021 0.457914501 0.957460523
0.560167253 0.482733756 0.923232496
0.745507479 0.497209013 0.849817991
0.059541263 0.500546753 0.803205252
0.206154764 0.546135306 0.841225982
0.435377270 0.633481264 0.912778258
0.656097054 0.721988738 0.985976279
0.843448997 0.754978538 0.964366019
0.226186007 0.686766028 0.778371990
0.319382250 0.722478747 0.808843970
0.515823007 0.800344467 0.875765502
0.721195281 0.884341240 0.947773457
0.917113006 0.967319012 1.019518018
