luts/Documentary_02.cube
TITLE "17x17x17 Adobe/IRIDAS cube 3D LUT exported with GrossGrade v0.2.2 (beta) 64 bit"
DOMAIN_MIN 0 0 0
DOMAIN_MAX 1 1 1
LUT_3D_SIZE 5
-0.041262001 -0.025669999 -0.023681000
0.204134256 0.012186002 0.013504002
0.417468518 0.096813008 0.069135502
0.599351764 0.165202498 0.125021756
0.769752979 0.224349007 0.176576003
0.104080506 0.198346004 0.075241998
0.286344498 0.237501487 0.065713748
0.506130517 0.272834003 0.082681000
0.658980250 0.309440523 0.140637755
0.807288766 0.328572750 0.189562246
0.303920507 0.445357025 0.156700015
0.395322502 0.461696506 0.166715264
0.579939961 0.493927479 0.190680504
0.714339972 0.504943252 0.222753003
0.848820508 0.500336528 0.242222503
0.424458027 0.607785463 0.271423489
0.476841748 0.616164505 0.281820744
0.610645235 0.639632285 0.309631258
0.755665541 0.656060040 0.322825998
0.889886737 0.652445018 0.314163744
0.485020012 0.745356977 0.297500014
0.521084785 0.752691984 0.305045247
0.633947492 0.774011970 0.341676503
0.782644033 0.803792000 0.380632013
0.941680014 0.832014978 0.401490986
-0.035335250 -0.017546000 0.138401493
0.137862757 0.042687003 0.171455503
0.377636552 0.096041255 0.199063003
0.579206765 0.152023494 0.218583509
0.756419480 0.207303002 0.237757757
0.067979254 0.204899013 0.206167251
0.228220508 0.241646275 0.227316007
0.450500011 0.270314991 0.231260002
0.626377046 0.304242015 0.250758022
0.794956982 0.323145509 0.260806739
0.261925757 0.438870281 0.280951500
0.359791279 0.462091774 0.280705243
0.544440031 0.495905995 0.300965011
0.690573275 0.506842792 0.309415013
0.842098713 0.500801504 0.303328991
0.400556982 0.604395509 0.344284505
0.457416773 0.616544008 0.344231248
0.589238048 0.639185965 0.368714988
0.740047276 0.658544779 0.379503757
0.885579526 0.655351281 0.358089745
0.468237996 0.743353963 0.352773249
0.506375015 0.753337502 0.348373741
0.621322215 0.777056754 0.379070252
0.776801765 0.808440268 0.417196274
0.940531492 0.837961733 0.437058508
0.028997501 0.054002002 0.264613509
0.113985747 0.069909006 0.284920514
0.315582514 0.118698001 0.327845007
0.522965312 0.173597991 0.369877011
0.732737005 0.212130994 0.379490018
0.061974499 0.210751757 0.343389034
0.176479012 0.238525748 0.358312964
0.382850498 0.272640526 0.387027502
0.582133532 0.295846760 0.403044015
0.768980980 0.306336731 0.386195242
0.187817007 0.434990019 0.427751541
0.292097270 0.453970730 0.435458243
0.484000534 0.490584493 0.456847548
0.643352270 0.498898774 0.449611783
0.829194009 0.491102040 0.421167493
0.343109250 0.597622752 0.473607242
0.407841235 0.608764291 0.482411504
0.547501564 0.637852788 0.490680993
0.706838965 0.662692726 0.504425287
0.877342999 0.663392007 0.469699770
0.416455001 0.733906031 0.485557020
0.456773758 0.743074536 0.490006030
0.582374513 0.782791495 0.493276000
0.758211017 0.822184026 0.522953749
0.937103987 0.857302010 0.545190454
0.044935752 0.091048002 0.390353769
0.102373749 0.094782501 0.386677742
0.276377261 0.136854738 0.425873518
0.477210760 0.196399510 0.474063247
0.679051280 0.232437253 0.498254001
0.065017998 0.222756997 0.454691499
0.145166516 0.242487013 0.460598528
0.325371772 0.266754985 0.478013247
0.516730070 0.310865790 0.511094749
0.721924007 0.313883245 0.515910983
0.156626746 0.426535040 0.532238007
0.247411519 0.448415786 0.539289534
0.422354043 0.475980282 0.555771470
0.592848003 0.497449487 0.575475454
0.794480562 0.477479517 0.546081245
0.273926020 0.595880747 0.586912751
0.340587497 0.606202006 0.591630220
0.498707533 0.632242024 0.608883739
0.662834048 0.666071296 0.632989764
0.861144781 0.662017763 0.598165989
0.306021482 0.729299247 0.604253292
0.352431238 0.741581202 0.611981750
0.514460206 0.783323765 0.643535793
0.720097005 0.840246260 0.675806761
0.931226730 0.883841753 0.701592267
0.057535999 0.122878999 0.505199015
0.095227502 0.118165500 0.494869262
0.224065512 0.155209497 0.522126019
0.418621510 0.207095757 0.571444750
0.618605018 0.257055014 0.611252010
0.067610748 0.227786005 0.556940973
0.108446755 0.236315742 0.555779517
0.233951762 0.252230763 0.562657475
0.434608996 0.294733763 0.599996746
0.641085029 0.332592994 0.635712266
0.106814004 0.401607007 0.624848008
0.155601770 0.415784776 0.629976034
0.286156476 0.439622521 0.645967960
0.473773241 0.456866980 0.660426497
0.694360495 0.487942517 0.691507459
0.177594751 0.561186314 0.680075467
0.223993495 0.574754238 0.687865257
0.366800517 0.608221233 0.713457704
0.560112298 0.641023993 0.743597448
0.785128236 0.666984260 0.771291018
0.192059994 0.697034001 0.732604980
0.221945494 0.711513519 0.741095245
0.362065524 0.764072537 0.773256540
0.645317793 0.841838241 0.828306258
0.924161971 0.910319984 0.881708026
