luts/DYNAMIC_RANGER_01.cube
TITLE "Generated by Resolve"
LUT_3D_SIZE 9
0 0 0
0.202792 0.000320439 0
0.350362 0.0101167 0.00917067
0.48011 0.0195468 0.0184634
0.599451 0.0284581 0.0272526
0.711604 0.0369726 0.0356756
0.818387 0.0451972 0.0438239
0.920897 0.0531777 0.0517128
1 0.0609598 0.0594186
0 0.183978 0
0.18529 0.171618 0
0.319738 0.173526 0
0.440101 0.177691 0
0.552163 0.182834 0
0.658381 0.188479 0
0.760159 0.194385 0
0.858335 0.200458 0.00294499
0.953552 0.206607 0.00733959
0 0.322698 0.000167849
0.188708 0.305104 0
0.319707 0.303456 0
0.436835 0.304814 0
0.545937 0.307622 0
0.64947 0.311299 0
0.74876 0.315526 0
0.844648 0.320134 0
0.937697 0.325017 0
0 0.445884 0.00427253
0.192615 0.425223 0
0.321935 0.421393 0
0.437247 0.42089 0
0.544594 0.42208 0
0.646464 0.424323 0
0.744198 0.427283 0
0.838605 0.430747 0
0.930266 0.434592 0
0.00294499 0.560006 0.00773632
0.196368 0.537163 0
0.324742 0.531762 0
0.43888 0.5299 0
0.545037 0.52987 0
0.645747 0.531014 0
0.742336 0.532952 0
0.83566 0.5355 0
0.926284 0.538476 0
0.00561532 0.667826 0.0107881
0.199908 0.64329 0
0.327718 0.636667 0
0.441032 0.633738 0
0.546319 0.632746 0
0.646143 0.63299 0
0.741878 0.634119 0
0.834363 0.635874 0
0.924178 0.638148 0
0.00802625 0.770901 0.0135348
0.20322 0.744976 0
0.330709 0.737346 0
0.443442 0.733547 0
0.548058 0.731762 0
0.647196 0.731258 0
0.742245 0.731685 0
0.834058 0.732784 0
0.923186 0.734432 0
0.0102235 0.870207 0.0160372
0.206302 0.843091 0
0.333654 0.834607 0
0.445945 0.830076 0
0.550042 0.827604 0
0.648646 0.826459 0
0.743114 0.826291 0
0.834363 0.826825 0
0.922957 0.827939 0
0.012253 0.966369 0.0183719
0.209201 0.938247 0
0.336522 0.929015 0
0.448493 0.923827 0
0.552178 0.920775 0
0.650324 0.919081 0
0.744335 0.918379 0
0.835111 0.91841 0
0.923217 0.919051 0
0 0.000381476 0.188312
0.203204 9.15541e-05 0.192172
0.348318 0.00823987 0.203464
0.476585 0.0165408 0.214298
0.594888 0.0246433 0.224582
0.706279 0.0325475 0.234379
0.812451 0.0402686 0.243748
0.914443 0.047837 0.252766
1 0.0552529 0.261433
0 0.180926 0.183444
0.181994 0.168307 0.170855
0.31574 0.169726 0.172259
0.435492 0.173419 0.175952
0.547005 0.178134 0.180652
0.65275 0.183383 0.185885
0.75407 0.188952 0.191424
0.85185 0.194705 0.197177
0.9467 0.20058 0.203021
0 0.317708 0.189731
0.184268 0.300389 0.173144
0.314839 0.298589 0.171435
0.431586 0.299702 0.172473
0.540337 0.302266 0.174823
0.643519 0.305669 0.177966
0.742473 0.309651 0.181598
0.838056 0.314015 0.18558
0.930816 0.318669 0.189792
0 0.439826 0.195285
0.187488 0.419593 0.176394
0.316457 0.415763 0.17293
0.43151 0.415167 0.172396
0.538613 0.41622 0.173342
0.640223 0.418296 0.175174
0.737682 0.421057 0.177615
0.831846 0.424338 0.180484
0.923262 0.427985 0.183658
0 0.553201 0.200198
0.190753 0.530846 0.179706
0.318807 0.525536 0.175051
0.432746 0.523659 0.173449
0.53872 0.523568 0.173388
0.639231 0.524605 0.174304
0.735622 0.526421 0.175891
0.828748 0.528817 0.177951
0.919158 0.531655 0.180362
0.000579843 0.660471 0.204639
0.193896 0.636439 0.18291
0.321401 0.629969 0.177356
0.434562 0.62707 0.174945
0.539696 0.626062 0.174151
0.639384 0.626261 0.174365
0.734951 0.627283 0.17528
0.827268 0.628946 0.176699
0.916915 0.631113 0.178515
0.00262455 0.763088 0.208682
0.196887 0.737667 0.185977
0.324086 0.730236 0.179706
0.436667 0.726497 0.176654
0.541176 0.724727 0.175265
0.640192 0.724208 0.174914
0.735119 0.72459 0.175296
0.826795 0.725628 0.176211
0.915785 0.727199 0.177554
0.00450141 0.862013 0.212406
0.19971 0.835401 0.188861
0.326757 0.827131 0.181994
0.438911 0.822675 0.178424
0.542916 0.820249 0.176562
0.641413 0.819135 0.175753
0.73579 0.818936 0.175692
0.826932 0.81944 0.176181
0.915404 0.820493 0.177111
0.0062562 0.957839 0.215839
0.20238 0.930205 0.191608
0.329381 0.921202 0.184237
0.441215 0.916136 0.180224
0.544823 0.91313 0.177935
0.642878 0.911482 0.176745
0.736812 0.91078 0.176318
0.827512 0.910811 0.176455
0.915526 0.911406 0.177035
0.00527962 0.00929274 0.330251
0.207889 0.00349432 0.328145
0.351263 0.0103456 0.338109
0.478401 0.0178073 0.34847
0.59588 0.0252995 0.358663
0.706645 0.0327306 0.368597
0.812284 0.0400549 0.378271
0.913832 0.0472877 0.387671
1 0.0544137 0.396841
0 0.182361 0.315572
0.182773 0.1691 0.301839
0.316106 0.170062 0.302907
0.435477 0.173404 0.306493
0.546639 0.177813 0.311254
0.652064 0.182788 0.31664
0.753109 0.188128 0.322438
0.850629 0.193652 0.328481
0.945235 0.199329 0.334691
0 0.31754 0.320577
0.183917 0.300008 0.303044
0.314244 0.297978 0.30103
0.430747 0.298894 0.301946
0.539269 0.301259 0.304311
0.642252 0.304509 0.307546
0.741024 0.308324 0.31136
0.836408 0.312535 0.315572
0.928985 0.317037 0.320073
0 0.438758 0.325719
0.186496 0.418494 0.305898
0.315282 0.414542 0.302068
0.430152 0.413809 0.301366
0.537087 0.41474 0.302266
0.638544 0.416678 0.304143
0.735851 0.419333 0.306691
0.829877 0.422492 0.309728
0.921141 0.426032 0.313115
0 0.551507 0.330587
0.189349 0.529229 0.309102
0.31722 0.523857 0.304021
0.431022 0.521889 0.30219
0.536843 0.521706 0.302037
0.637232 0.522652 0.302937
0.733501 0.524392 0.30457
0.826505 0.526696 0.306722
0.916808 0.529442 0.3093
0 0.65832 0.335134
0.192187 0.634409 0.312352
0.319509 0.627909 0.306325
0.432547 0.624964 0.303624
0.53756 0.623896 0.302663
0.637125 0.624018 0.302815
0.732601 0.624994 0.303716
0.824826 0.626581 0.305196
0.914366 0.628656 0.307134
0.00115969 0.760571 0.339406
0.194949 0.735302 0.315557
0.321935 0.727871 0.308751
0.434409 0.724117 0.305364
0.538811 0.722301 0.303761
0.637736 0.721736 0.303304
0.73257 0.722057 0.303639
0.824155 0.723049 0.304555
0.913069 0.724544 0.305943
0.00283818 0.859174 0.34342
0.197574 0.832746 0.318669
0.324392 0.824491 0.311223
0.436439 0.82005 0.307271
0.540352 0.817594 0.305135
0.638758 0.816434 0.304158
0.733074 0.816205 0.304006
0.82414 0.816663 0.304463
0.91252 0.81767 0.305409
0.00440986 0.954742 0.347219
0.200061 0.927291 0.321691
0.326848 0.918334 0.31368
0.438575 0.913283 0.309239
0.542092 0.910277 0.306645
0.64007 0.908598 0.305241
0.733944 0.907866 0.304677
0.824552 0.907866 0.304738
0.912505 0.908415 0.305303
0.00831617 0.0132753 0.454841
0.213107 0.00738537 0.449928
0.355169 0.0131533 0.458457
0.481346 0.0198825 0.46804
0.598123 0.0268711 0.477806
0.708309 0.033875 0.487495
0.813489 0.0408789 0.497032
0.914656 0.0478218 0.506416
1 0.0546883 0.515618
0 0.184741 0.433951
0.184436 0.170779 0.419226
0.317464 0.171313 0.419883
0.436515 0.174319 0.423239
0.547387 0.178454 0.427863
0.652552 0.1832 0.433188
0.753338 0.188312 0.438972
0.850645 0.193652 0.445045
0.945037 0.199161 0.451316
0 0.318471 0.437476
0.184482 0.300618 0.419242
0.314626 0.29836 0.416938
0.430945 0.299077 0.417685
0.539284 0.301274 0.419959
0.642084 0.304356 0.423148
0.740688 0.308019 0.426963
0.83592 0.312093 0.431205
0.928344 0.316457 0.435767
0 0.438849 0.441932
0.18645 0.418433 0.421515
0.315099 0.414343 0.417426
0.429816 0.413474 0.416556
0.536614 0.414282 0.417365
0.637934 0.416114 0.419196
0.735134 0.418647 0.421744
0.829023 0.421714 0.424796
0.92018 0.425147 0.428229
0 0.551034 0.446433
0.188891 0.528679 0.424399
0.31664 0.523217 0.419059
0.430304 0.521172 0.417044
0.536034 0.520897 0.416785
0.636301 0.521752 0.417639
0.732479 0.5234 0.419242
0.825376 0.525612 0.421408
0.915587 0.528283 0.424018
0 0.657404 0.450797
0.19144 0.633494 0.427466
0.318624 0.626932 0.421164
0.43154 0.623926 0.41828
0.536477 0.622797 0.417212
0.63595 0.622843 0.417273
0.731334 0.623743 0.418158
0.823468 0.625269 0.419623
0.912932 0.627283 0.421561
0.000488289 0.759304 0.454994
0.193957 0.734081 0.430594
0.320806 0.726604 0.423499
0.433188 0.722805 0.419913
0.537499 0.720943 0.418173
0.636332 0.720333 0.417609
0.73109 0.720592 0.417899
0.822599 0.721523 0.418799
0.911452 0.722988 0.420188
0.00198367 0.857618 0.458991
0.196384 0.83125 0.433677
0.323079 0.823011 0.425925
0.435019 0.818524 0.421759
0.538857 0.816037 0.419455
0.637186 0.814832 0.418387
0.731426 0.814557 0.418158
0.822416 0.814969 0.418585
0.91075 0.81593 0.419501
0.00341802 0.952941 0.462821
0.198734 0.925582 0.436713
0.325353 0.91664 0.428382
0.436988 0.911559 0.423713
0.540429 0.908522 0.420951
0.638346 0.906813 0.419425
0.732143 0.90605 0.418769
0.822705 0.906004 0.418784
0.910597 0.906523 0.419303
0.0137484 0.0192111 0.571054
0.218463 0.0114443 0.563333
0.359472 0.0162356 0.570535
0.48484 0.0223545 0.579339
0.600977 0.0288701 0.588571
0.710658 0.0355077 0.59791
0.815412 0.0422065 0.607217
0.916228 0.0488899 0.616434
1 0.0555428 0.625544
0 0.187594 0.544335
0.186542 0.172915 0.528679
0.319326 0.173053 0.528923
0.438117 0.175753 0.532006
0.54873 0.179614 0.536416
0.653651 0.184115 0.541619
0.754223 0.189044 0.547295
0.851331 0.194217 0.553323
0.945541 0.199542 0.559579
0 0.319997 0.546334
0.185534 0.301778 0.527489
0.315541 0.29929 0.524895
0.431708 0.299809 0.52546
0.539879 0.301823 0.527596
0.642527 0.304753 0.530709
0.740978 0.308278 0.534463
0.836072 0.312215 0.538674
0.928374 0.316472 0.543236
0 0.439582 0.550042
0.186908 0.418952 0.529122
0.31545 0.414725 0.524804
0.43006 0.413718 0.523781
0.536736 0.414405 0.524468
0.637949 0.416114 0.526223
0.735027 0.418555 0.528725
0.828809 0.4215 0.531746
0.91986 0.424842 0.53518
0 0.551217 0.554101
0.188952 0.528756 0.531624
0.316609 0.523186 0.526055
0.430182 0.521035 0.523903
0.535805 0.520668 0.523537
0.635981 0.521447 0.5243
0.732067 0.523003 0.525872
0.824872 0.525139 0.528008
0.914992 0.527733 0.530602
0 0.65716 0.558175
0.191196 0.633204 0.534447
0.318288 0.626566 0.527916
0.431128 0.623499 0.524895
0.535973 0.622278 0.523705
0.63537 0.622278 0.523705
0.730678 0.623102 0.524529
0.822736 0.624567 0.525963
0.912123 0.62652 0.527886
0.000183108 0.75874 0.562173
0.193484 0.733501 0.537392
0.320241 0.725978 0.530083
0.432532 0.722118 0.526345
0.536767 0.720211 0.524498
0.635554 0.719539 0.523857
0.730236 0.719753 0.524086
0.821683 0.720623 0.524941
0.91046 0.722026 0.526314
0.00154116 0.856779 0.566064
0.195743 0.830427 0.540368
0.322316 0.822141 0.532403
0.434195 0.817624 0.528069
0.537942 0.815091 0.525673
0.636225 0.81384 0.524498
0.730388 0.813519 0.524208
0.821332 0.813886 0.52459
0.909606 0.814801 0.52549
0.00285344 0.951873 0.569833
0.197925 0.924544 0.543343
0.324437 0.915572 0.534783
0.435996 0.91046 0.529946
0.539361 0.907393 0.527077
0.637217 0.905653 0.525444
0.730968 0.904845 0.524727
0.821469 0.904768 0.524681
0.909316 0.905257 0.52517
0.0191043 0.0250095 0.680888
0.223789 0.0155642 0.670863
0.363989 0.019501 0.676875
0.488655 0.0250401 0.684916
0.604227 0.0311284 0.693629
0.713436 0.0374304 0.702586
0.817792 0.0438392 0.711604
0.918257 0.0502785 0.720607
1 0.056733 0.729564
0 0.190707 0.649165
0.188922 0.175326 0.632639
0.321538 0.175097 0.632456
0.440085 0.177493 0.635233
0.550469 0.181094 0.639445
0.655177 0.185397 0.644465
0.75555 0.190112 0.650034
0.852461 0.195117 0.655955
0.946502 0.200305 0.66215
0 0.321904 0.649683
0.186892 0.303288 0.630243
0.316823 0.300572 0.627375
0.432853 0.300908 0.627741
0.540871 0.302754 0.629725
0.643381 0.305531 0.632731
0.741695 0.308919 0.636408
0.836652 0.312734 0.640558
0.928832 0.316869 0.645075
0 0.440742 0.652598
0.187686 0.419867 0.63122
0.316167 0.415473 0.626673
0.430686 0.414343 0.625483
0.537255 0.414893 0.626062
0.638361 0.41651 0.627741
0.735332 0.418845 0.630167
0.829023 0.421698 0.633143
0.919966 0.424949 0.636545
0 0.551843 0.656168
0.189334 0.529229 0.633295
0.316945 0.523552 0.627527
0.430442 0.521294 0.625238
0.535973 0.520851 0.624765
0.636072 0.521523 0.625452
0.732067 0.523003 0.626963
0.824796 0.525063 0.629053
0.914839 0.527581 0.631617
0 0.657389 0.659907
0.191302 0.633326 0.635828
0.318334 0.626627 0.629114
0.431098 0.623468 0.625956
0.535882 0.622187 0.624674
0.635203 0.622095 0.624598
0.730434 0.622873 0.62536
0.822431 0.624262 0.626764
0.911742 0.626154 0.628641
0.000106813 0.758633 0.663676
0.193362 0.733349 0.638575
0.320058 0.725765 0.631083
0.432273 0.721859 0.627222
0.536446 0.719875 0.625269
0.635172 0.719142 0.624552
0.729793 0.71931 0.62472
0.82118 0.720134 0.625544
0.909895 0.721477 0.626871
0.00134279 0.856413 0.667399
0.195422 0.830045 0.641398
0.321935 0.821714 0.633249
0.433753 0.817136 0.628794
0.537438 0.814557 0.626291
0.63566 0.813275 0.62504
0.729778 0.812894 0.624689
0.820661 0.81323 0.625025
0.908873 0.814099 0.625879
0.002533 0.951278 0.671061
0.197467 0.923949 0.644266
0.323888 0.914946 0.635538
0.435386 0.909804 0.630564
0.538705 0.906691 0.627573
0.6365 0.904906 0.625879
0.730205 0.904082 0.625086
0.820661 0.90396 0.624994
0.908446 0.904402 0.625452
0.0243076 0.0305791 0.78584
0.229038 0.0196689 0.773922
0.368597 0.022858 0.778866
0.492653 0.027863 0.786175
0.607721 0.0335546 0.794369
0.716503 0.0395514 0.802945
0.820493 0.0457008 0.811658
0.920638 0.0519112 0.820432
1 0.0581674 0.82919
0 0.193988 0.749767
0.191501 0.177951 0.732403
0.32398 0.177356 0.731807
0.442298 0.179446 0.734295
0.552483 0.182818 0.738277
0.656992 0.186908 0.74313
0.757183 0.191455 0.748547
0.853925 0.196292 0.75436
0.947799 0.201328 0.760449
0 0.324086 0.748837
0.188479 0.305043 0.728847
0.318364 0.302113 0.725689
0.434256 0.302251 0.725856
0.542153 0.303944 0.727703
0.644526 0.306569 0.730571
0.742718 0.309819 0.734157
0.837552 0.313527 0.738231
0.92961 0.317556 0.742687
0 0.442222 0.750973
0.188708 0.421073 0.729152
0.317159 0.41651 0.724376
0.431586 0.415244 0.723049
0.538064 0.415686 0.723491
0.639063 0.417182 0.725078
0.735943 0.419409 0.727428
0.829541 0.422171 0.730343
0.920394 0.42533 0.7337
0 0.552804 0.754025
0.189975 0.530007 0.7308
0.317556 0.524208 0.724834
0.430976 0.521859 0.722408
0.536431 0.521309 0.721828
0.636454 0.521904 0.722438
0.732372 0.523293 0.723873
0.825025 0.525292 0.725917
0.914992 0.527733 0.72845
0 0.657954 0.757412
0.191638 0.633768 0.733013
0.318654 0.626978 0.726131
0.431373 0.623743 0.72285
0.536065 0.622385 0.721462
0.635325 0.622232 0.721309
0.730495 0.622934 0.722011
0.822431 0.624262 0.723354
0.911665 0.626093 0.725216
0.000198367 0.758892 0.760922
0.193484 0.733516 0.735531
0.32015 0.725872 0.727871
0.432319 0.721889 0.723888
0.536431 0.71986 0.721859
0.635081 0.719066 0.721065
0.729656 0.719173 0.721157
0.820981 0.719936 0.721935
0.909636 0.721233 0.723232
0.00131228 0.856397 0.764462
0.195377 0.829969 0.738186
0.321828 0.821591 0.729885
0.433585 0.816968 0.725307
0.53724 0.814343 0.722713
0.635401 0.813001 0.721386
0.729473 0.812589 0.720974
0.820294 0.812863 0.721263
0.908476 0.813703 0.722087
0.00241093 0.951034 0.767956
0.197253 0.923674 0.740917
0.323629 0.914641 0.732036
0.435065 0.909468 0.726955
0.538338 0.90631 0.723873
0.636103 0.904494 0.722103
0.729747 0.903609 0.721248
0.820157 0.903456 0.721111
0.907897 0.903853 0.721523
0.0293126 0.0359503 0.886915
0.234211 0.0237736 0.873365
0.373251 0.0262455 0.877348
0.496788 0.0307927 0.884001
0.611383 0.0361181 0.891691
0.719783 0.0418097 0.89987
0.823423 0.0476997 0.908278
0.923278 0.0537118 0.916808
1 0.0597696 0.925353
0 0.197375 0.846998
0.194217 0.180697 0.82884
0.326589 0.179751 0.827832
0.444724 0.181567 0.83003
0.554711 0.18471 0.833783
0.659037 0.188602 0.838453
0.759045 0.192966 0.843717
0.855619 0.19765 0.849409
0.94934 0.202548 0.85539
0 0.326452 0.844678
0.190234 0.306996 0.824125
0.320073 0.303838 0.820706
0.435874 0.303807 0.820676
0.543648 0.305333 0.822354
0.645899 0.30782 0.825101
0.743969 0.310948 0.82858
0.838697 0.314519 0.832563
0.930648 0.318441 0.836942
0 0.443915 0.846021
0.189899 0.422477 0.823774
0.318349 0.417762 0.818799
0.432715 0.416358 0.817304
0.539101 0.416678 0.817624
0.640009 0.418067 0.819104
0.736797 0.420203 0.821378
0.830304 0.422873 0.824216
0.92108 0.42594 0.827527
0 0.554009 0.848554
0.190799 0.530999 0.824979
0.318364 0.525093 0.81883
0.431739 0.522637 0.816266
0.537133 0.521996 0.815595
0.637079 0.522499 0.816114
0.732921 0.523812 0.817472
0.825513 0.525734 0.819471
0.915404 0.528099 0.821942
0 0.658793 0.851575
0.192187 0.634455 0.826871
0.319188 0.627558 0.819821
0.431846 0.624247 0.816419
0.536492 0.622812 0.814939
0.635691 0.622583 0.81471
0.7308 0.623224 0.815335
0.82266 0.624491 0.816648
0.911849 0.626261 0.818448
0.000396735 0.759411 0.85481
0.193805 0.733928 0.829145
0.320439 0.726207 0.821347
0.432578 0.722164 0.817243
0.536645 0.720073 0.815106
0.635233 0.719219 0.814252
0.729747 0.719265 0.814298
0.821027 0.719982 0.815015
0.909636 0.721233 0.816266
0.00141909 0.856657 0.858137
0.195514 0.830167 0.831617
0.32195 0.821729 0.823163
0.433661 0.81706 0.818479
0.53727 0.814374 0.815793
0.635386 0.812985 0.814404
0.729397 0.812528 0.813947
0.820188 0.812757 0.814176
0.908309 0.813535 0.814954
0.00239567 0.95108 0.861463
0.197253 0.923674 0.834195
0.323583 0.914595 0.825177
0.434989 0.909361 0.819989
0.538216 0.906172 0.816831
0.63592 0.904311 0.814984
0.729519 0.903395 0.814069
0.819898 0.903197 0.813886
0.907591 0.903563 0.814252
0.0341955 0.0411383 0.984787
0.239277 0.0278477 0.969833
0.37792 0.0296788 0.97293
0.500984 0.0337682 0.978958
0.615183 0.0387427 0.98616
0.723201 0.0441749 0.993957
0.826535 0.049836 1
0.926085 0.0556344 1
1 0.0615244 1
0.000808728 0.200839 0.941405
0.197024 0.183551 0.922499
0.32932 0.182254 0.921096
0.447303 0.183825 0.923018
0.557107 0.18674 0.926528
0.66125 0.190433 0.931014
0.761105 0.194629 0.936126
0.857527 0.199161 0.94168
0.95111 0.203922 0.947555
0 0.328969 0.937743
0.192111 0.309102 0.916655
0.32195 0.305715 0.912978
0.437659 0.305501 0.912749
0.545327 0.306874 0.914275
0.647471 0.309224 0.916899
0.745418 0.31223 0.920256
0.84004 0.315694 0.924147
0.931884 0.319509 0.92845
0 0.445792 0.938323
0.191241 0.424063 0.915663
0.319707 0.419181 0.91046
0.433997 0.417655 0.908812
0.540307 0.417853 0.909026
0.641138 0.419135 0.910399
0.73785 0.421164 0.912581
0.831266 0.423743 0.915358
0.92195 0.426734 0.918593
0 0.555428 0.940337
0.19176 0.532189 0.916411
0.319341 0.526146 0.910094
0.43267 0.523598 0.907408
0.538003 0.522866 0.906615
0.637888 0.523293 0.907042
0.733654 0.524529 0.908339
0.826185 0.52636 0.910262
0.915999 0.528664 0.912688
0 0.659831 0.942992
0.192859 0.635325 0.917983
0.319875 0.628336 0.91078
0.432502 0.624933 0.907256
0.537102 0.623438 0.905684
0.636255 0.623148 0.905364
0.731304 0.623713 0.905943
0.823102 0.624918 0.907179
0.912245 0.626627 0.908949
0.000701915 0.760143 0.945937
0.194263 0.734539 0.919997
0.320912 0.726741 0.912062
0.433005 0.722637 0.907851
0.537026 0.72047 0.905638
0.635584 0.71957 0.904692
0.730053 0.71957 0.904677
0.821271 0.720226 0.905348
0.909834 0.721431 0.906554
0.0016022 0.857145 0.949035
0.195804 0.830564 0.922271
0.322225 0.822065 0.913695
0.433921 0.817334 0.908904
0.537484 0.814603 0.906142
0.635554 0.813153 0.904677
0.729534 0.81265 0.904158
0.820264 0.812833 0.904341
0.908339 0.813581 0.905074
0.00248722 0.951339 0.952193
0.197391 0.923873 0.924697
0.323705 0.914748 0.915541
0.43508 0.909468 0.910262
0.538277 0.906249 0.907027
0.635935 0.904326 0.905104
0.729503 0.903365 0.904143
0.819837 0.903136 0.903899
0.9075 0.903456 0.904234
