luts/DYNAMIC_RANGER_01.cube
TITLE "Generated by Resolve"
LUT_3D_SIZE 5
0 0 0
0.350362 0.0101167 0.00917067
0.599451 0.0284581 0.0272526
0.818387 0.0451972 0.0438239
1 0.0609598 0.0594186
0 0.322698 0.000167849
0.319707 0.303456 0
0.545937 0.307622 0
0.74876 0.315526 0
0.937697 0.325017 0
0.00294499 0.560006 0.00773632
0.324742 0.531762 0
0.545037 0.52987 0
0.742336 0.532952 0
0.926284 0.538476 0
0.00802625 0.770901 0.0135348
0.330709 0.737346 0
0.548058 0.731762 0
0.742245 0.731685 0
0.923186 0.734432 0
0.012253 0.966369 0.0183719
0.336522 0.929015 0
0.552178 0.920775 0
0.744335 0.918379 0
0.923217 0.919051 0
0.00527962 0.00929274 0.330251
0.351263 0.0103456 0.338109
0.59588 0.0252995 0.358663
0.812284 0.0400549 0.378271
1 0.0544137 0.396841
0 0.31754 0.320577
0.314244 0.297978 0.30103
0.539269 0.301259 0.304311
0.741024 0.308324 0.31136
0.928985 0.317037 0.320073
0 0.551507 0.330587
0.31722 0.523857 0.304021
0.536843 0.521706 0.302037
0.733501 0.524392 0.30457
0.916808 0.529442 0.3093
0.00115969 0.760571 0.339406
0.321935 0.727871 0.308751
0.538811 0.722301 0.303761
0.73257 0.722057 0.303639
0.913069 0.724544 0.305943
0.00440986 0.954742 0.347219
0.326848 0.918334 0.31368
0.542092 0.910277 0.306645
0.733944 0.907866 0.304677
0.912505 0.908415 0.305303
0.0137484 0.0192111 0.571054
0.359472 0.0162356 0.570535
0.600977 0.0288701 0.588571
0.815412 0.0422065 0.607217
1 0.0555428 0.625544
0 0.319997 0.546334
0.315541 0.29929 0.524895
0.539879 0.301823 0.527596
0.740978 0.308278 0.534463
0.928374 0.316472 0.543236
0 0.551217 0.554101
0.316609 0.523186 0.526055
0.535805 0.520668 0.523537
0.732067 0.523003 0.525872
0.914992 0.527733 0.530602
0.000183108 0.75874 0.562173
0.320241 0.725978 0.530083
0.536767 0.720211 0.524498
0.730236 0.719753 0.524086
0.91046 0.722026 0.526314
0.00285344 0.951873 0.569833
0.324437 0.915572 0.534783
0.539361 0.907393 0.527077
0.730968 0.904845 0.524727
0.909316 0.905257 0.52517
0.0243076 0.0305791 0.78584
0.368597 0.022858 0.778866
0.607721 0.0335546 0.794369
0.820493 0.0457008 0.811658
1 0.0581674 0.82919
0 0.324086 0.748837
0.318364 0.302113 0.725689
0.542153 0.303944 0.727703
0.742718 0.309819 0.734157
0.92961 0.317556 0.742687
0 0.552804 0.754025
0.317556 0.524208 0.724834
0.536431 0.521309 0.721828
0.732372 0.523293 0.723873
0.914992 0.527733 0.72845
0.000198367 0.758892 0.760922
0.32015 0.725872 0.727871
0.536431 0.71986 0.721859
0.729656 0.719173 0.721157
0.909636 0.721233 0.723232
0.00241093 0.951034 0.767956
0.323629 0.914641 0.732036
0.538338 0.90631 0.723873
0.729747 0.903609 0.721248
0.907897 0.903853 0.721523
0.0341955 0.0411383 0.984787
0.37792 0.0296788 0.97293
0.615183 0.0387427 0.98616
0.826535 0.049836 1
1 0.0615244 1
0 0.328969 0.937743
0.32195 0.305715 0.912978
0.545327 0.306874 0.914275
0.745418 0.31223 0.920256
0.931884 0.319509 0.92845
0 0.555428 0.940337
0.319341 0.526146 0.910094
0.538003 0.522866 0.906615
0.733654 0.524529 0.908339
0.915999 0.528664 0.912688
0.000701915 0.760143 0.945937
0.320912 0.726741 0.912062
0.537026 0.72047 0.905638
0.730053 0.71957 0.904677
0.909834 0.721431 0.906554
0.00248722 0.951339 0.952193
0.323705 0.914748 0.915541
0.538277 0.906249 0.907027
0.729503 0.903365 0.904143
0.9075 0.903456 0.904234
