luts/DYNAMIC_RANGER_01.cube
TITLE "Generated by Resolve"
LUT_3D_SIZE 33
0 0 0
0.0631723 0 0
0.116854 0 0
0.162203 0.000274662 0
0.202792 0.000320439 0
0.242115 0.00270085 0.00187686
0.279606 0.00518807 0.0043183
0.315602 0.00767529 0.00675975
0.350362 0.0101167 0.00917067
0.384054 0.0125277 0.0115511
0.416846 0.0149081 0.0138857
0.448829 0.0172427 0.0161898
0.48011 0.0195468 0.0184634
0.51075 0.0218204 0.0207065
0.540825 0.0240482 0.0229038
0.570382 0.0262608 0.0251011
0.599451 0.0284581 0.0272526
0.628077 0.0306249 0.0293889
0.656291 0.0327611 0.0315099
0.684123 0.0348821 0.0336156
0.711604 0.0369726 0.0356756
0.73875 0.0390631 0.0377356
0.765591 0.0411231 0.0397803
0.792126 0.0431678 0.0418097
0.818387 0.0451972 0.0438239
0.844373 0.0472114 0.0458076
0.870115 0.0492256 0.0477913
0.895613 0.0512093 0.0497597
0.920897 0.0531777 0.0517128
0.945937 0.0551461 0.0536507
0.970779 0.0570993 0.0555886
0.995422 0.0590372 0.0575113
1 0.0609598 0.0594186
0 0.0563516 0
0.0572824 0.05037 0
0.104585 0.0504768 0
0.147143 0.0514839 0
0.18677 0.0528725 0
0.224308 0.0544747 0
0.260258 0.056199 0
0.294942 0.0579995 0
0.328542 0.0598459 0
0.361242 0.0617075 0
0.393164 0.0635691 0
0.424384 0.0654459 0
0.455009 0.0673228 0
0.485069 0.0691997 0
0.514641 0.0710613 0.00155642
0.543755 0.0729076 0.00340276
0.572473 0.0747387 0.00529488
0.600793 0.0765698 0.00720226
0.628779 0.0783703 0.00915541
0.656428 0.0801556 0.0111238
0.683787 0.0819257 0.013138
0.710872 0.0836652 0.0151827
0.737713 0.0853895 0.0172732
0.764309 0.0870832 0.0194095
0.790692 0.0887617 0.0215915
0.816907 0.0903944 0.0238346
0.842939 0.0919966 0.0261387
0.868833 0.0935683 0.0285344
0.894636 0.095079 0.0310521
0.920409 0.0964981 0.0337377
0.946303 0.0978103 0.0367437
0.97348 0.0985122 0.0412146
0.999466 0.0995956 0.0446937
0 0.102846 0
0.0586252 0.0957351 0
0.104967 0.0948043 0
0.146426 0.0949264 0
0.184985 0.0955825 0
0.22153 0.0965591 0
0.25655 0.097734 0
0.290349 0.0990616 0
0.323125 0.100481 0
0.355032 0.101991 0
0.386206 0.103548 0
0.416709 0.105135 0
0.446616 0.106783 0
0.47599 0.108431 0
0.504891 0.110109 0
0.533333 0.111803 0
0.561379 0.113497 0
0.589044 0.115206 0
0.616358 0.11693 0
0.643336 0.118639 0.00125124
0.670024 0.120363 0.00263981
0.696406 0.122087 0.0040589
0.72253 0.123796 0.00547799
0.748394 0.125521 0.00691234
0.773999 0.12723 0.00836194
0.79939 0.128939 0.00984207
0.824567 0.130648 0.0113222
0.849531 0.132357 0.0128176
0.874281 0.134051 0.014313
0.898863 0.135744 0.0158389
0.923247 0.137438 0.0173648
0.947463 0.139132 0.0189059
0.971511 0.140795 0.0204623
0 0.144961 0
0.0601511 0.136873 0
0.106035 0.135164 0
0.146883 0.134646 0
0.184848 0.134752 0
0.220798 0.135241 0
0.255268 0.135988 0
0.288533 0.136919 0
0.320821 0.138003 0
0.352255 0.139178 0
0.382956 0.140444 0
0.413016 0.141772 0
0.442512 0.143145 0
0.471489 0.144579 0
0.499977 0.146044 0
0.528054 0.147524 0
0.555718 0.14905 0
0.583032 0.150576 0
0.609995 0.152132 0
0.636637 0.153704 0
0.662989 0.155291 0
0.689036 0.156878 0
0.714839 0.15848 7.62951e-05
0.740383 0.160082 0.00125124
0.765682 0.161685 0.00244144
0.790768 0.163302 0.00364691
0.815625 0.16492 0.00485237
0.840284 0.166537 0.00608835
0.864744 0.168154 0.00733959
0.889021 0.169772 0.00859083
0.913115 0.171405 0.00985733
0.937026 0.173022 0.0111238
0.960784 0.17464 0.0124208
0 0.183978 0
0.0616159 0.175189 0
0.107256 0.172915 0
0.147723 0.171939 0
0.18529 0.171618 0
0.220844 0.171725 0
0.254932 0.172137 0
0.287816 0.172747 0
0.319738 0.173526 0
0.35082 0.174441 0
0.381186 0.175448 0
0.410925 0.176532 0
0.440101 0.177691 0
0.468772 0.178912 0
0.496971 0.180179 0
0.524758 0.181491 0
0.552163 0.182834 0
0.579202 0.184207 0
0.605905 0.185611 0
0.632288 0.18703 0
0.658381 0.188479 0
0.684199 0.189929 0
0.709758 0.191409 0
0.735073 0.192889 0
0.760159 0.194385 0
0.785 0.195895 0
0.809644 0.197406 0.000823987
0.834089 0.198932 0.00187686
0.858335 0.200458 0.00294499
0.882399 0.201984 0.00401312
0.906279 0.203525 0.00511177
0.929992 0.205066 0.00621042
0.953552 0.206607 0.00733959
0 0.220813 0
0.0630045 0.211505 0
0.108507 0.208789 0
0.14873 0.207431 0
0.185992 0.206775 0
0.221256 0.206577 0
0.255039 0.206699 0
0.287648 0.20705 0
0.31928 0.207584 0
0.350088 0.208255 0
0.380194 0.209049 0
0.409674 0.209934 0
0.438605 0.21091 0
0.467033 0.211948 0
0.495003 0.213031 0
0.52256 0.214176 0
0.549737 0.215366 0
0.576562 0.216602 0
0.603052 0.217853 0
0.629221 0.219135 0
0.655131 0.220447 0
0.680751 0.22179 0
0.706111 0.223133 0
0.731243 0.224506 0
0.75613 0.225895 0
0.780804 0.227298 0
0.805264 0.228702 0
0.829526 0.230137 0
0.853605 0.231571 0
0.877501 0.233005 0.000808728
0.901213 0.23447 0.00178531
0.924758 0.23592 0.00274662
0.94815 0.237385 0.00373846
0 0.256016 0
0.064271 0.246265 0
0.109758 0.243198 0
0.149783 0.24152 0
0.186831 0.240589 0
0.221881 0.240146 0
0.255436 0.240024 0
0.2878 0.240146 0
0.319203 0.240467 0
0.349798 0.24094 0
0.37969 0.241535 0
0.408957 0.242252 0
0.437675 0.243046 0
0.465904 0.243931 0
0.493675 0.244862 0
0.521035 0.245869 0
0.548028 0.246906 0
0.57467 0.24799 0
0.600977 0.249119 0
0.626978 0.250278 0
0.652705 0.251484 0
0.678157 0.252689 0
0.703365 0.253941 0
0.728328 0.255207 0
0.753063 0.256489 0
0.777584 0.257786 0
0.801892 0.259113 0
0.826017 0.260441 0
0.849943 0.261784 0
0.873686 0.263142 0
0.897261 0.264515 0
0.920668 0.265888 0.000167849
0.943923 0.267277 0.00105287
0 0.289906 0
0.0654765 0.279805 0
0.110964 0.276417 0
0.150866 0.274479 0
0.187762 0.27332 0
0.222614 0.272633 0
0.25597 0.272312 0
0.288151 0.272236 0
0.319387 0.272374 0
0.349783 0.272679 0
0.379492 0.273106 0
0.408576 0.273671 0
0.437125 0.274311 0
0.465171 0.275044 0
0.49279 0.275837 0
0.519982 0.276692 0
0.546807 0.277623 0
0.573297 0.278584 0
0.599451 0.279591 0
0.625299 0.280644 0
0.650874 0.281727 0
0.676188 0.282841 0
0.701244 0.28397 0
0.72607 0.285145 0
0.750668 0.286336 0
0.775051 0.287541 0
0.799237 0.288762 0
0.823224 0.290013 0
0.847013 0.291279 0
0.870649 0.292546 0
0.894102 0.293843 0
0.917388 0.29514 0
0.940505 0.296452 0
0 0.322698 0.000167849
0.0665904 0.312322 0
0.112139 0.308644 0
0.151965 0.306477 0
0.188708 0.305104 0
0.223423 0.304234 0
0.256626 0.303731 0
0.288655 0.303487 0
0.319707 0.303456 0
0.349966 0.303609 0
0.379507 0.303899 0
0.408438 0.304311 0
0.436835 0.304814 0
0.464744 0.305409 0
0.49221 0.306081 0
0.519265 0.306828 0
0.545937 0.307622 0
0.57229 0.308476 0
0.598306 0.309377 0
0.624033 0.310323 0
0.64947 0.311299 0
0.674647 0.312306 0
0.699596 0.313359 0
0.724285 0.314427 0
0.74876 0.315526 0
0.773037 0.316655 0
0.797086 0.3178 0
0.820966 0.318959 0
0.844648 0.320134 0
0.868162 0.32134 0
0.891508 0.32256 0
0.914687 0.323781 0
0.937697 0.325017 0
0 0.354589 0.00128176
0.0676432 0.343954 0
0.113283 0.340032 0
0.153048 0.337667 0
0.189685 0.33611 0
0.224277 0.335073 0
0.257343 0.334401 0
0.289235 0.334005 0
0.320165 0.333837 0
0.350271 0.333837 0
0.37969 0.333989 0
0.408484 0.334264 0
0.436744 0.334646 0
0.464515 0.335134 0
0.491859 0.335683 0
0.518776 0.336309 0
0.545342 0.337011 0
0.571557 0.337758 0
0.597467 0.338552 0
0.623072 0.339406 0
0.648402 0.340291 0
0.673457 0.341207 0
0.698283 0.342168 0
0.722866 0.343145 0
0.747234 0.344167 0
0.771389 0.345205 0
0.795346 0.346273 0
0.81912 0.347356 0
0.842695 0.34847 0
0.866117 0.349599 0
0.889357 0.350729 0
0.912428 0.351888 0
0.935363 0.353063 0
0 0.385687 0.00231937
0.0686198 0.374838 0
0.114382 0.370672 0
0.154101 0.368139 0
0.190661 0.366415 0
0.225147 0.365225 0
0.258122 0.364401 0
0.289891 0.363867 0
0.320699 0.363561 0
0.350683 0.363439 0
0.37998 0.36347 0
0.408667 0.363638 0
0.436805 0.363912 0
0.464469 0.364279 0
0.491676 0.364721 0
0.518502 0.365255 0
0.544945 0.36585 0
0.571054 0.366491 0
0.596841 0.367208 0
0.622339 0.367956 0
0.647562 0.36875 0
0.672526 0.369589 0
0.697246 0.370459 0
0.721736 0.371374 0
0.745998 0.372305 0
0.770062 0.373266 0
0.793927 0.374258 0
0.817594 0.37528 0
0.841077 0.376318 0
0.864408 0.377371 0
0.887556 0.378439 0
0.910536 0.379538 0
0.933379 0.380652 0
0 0.416098 0.00332647
0.0695506 0.405051 0
0.11545 0.400671 0
0.155154 0.397971 0
0.191638 0.396094 0
0.226047 0.394766 0
0.258915 0.39382 0
0.290593 0.393164 0
0.321294 0.392737 0
0.351171 0.392493 0
0.380362 0.392416 0
0.408942 0.392462 0
0.436988 0.39263 0
0.46453 0.392905 0
0.491646 0.393256 0
0.518364 0.393683 0
0.544701 0.394186 0
0.570718 0.394751 0
0.596414 0.395377 0
0.621805 0.396033 0
0.646937 0.39675 0
0.671809 0.397513 0
0.696437 0.398306 0
0.720821 0.399145 0
0.745007 0.4 0
0.768978 0.400885 0
0.792752 0.401816 0
0.816327 0.402762 0
0.839734 0.403723 0
0.862974 0.404715 0
0.88603 0.405722 0
0.908949 0.40676 0
0.931701 0.407813 0
0 0.445884 0.00427253
0.0704051 0.434669 0
0.116472 0.430091 0
0.156161 0.427237 0
0.192615 0.425223 0
0.226932 0.423774 0
0.259724 0.422705 0
0.291325 0.421927 0
0.321935 0.421393 0
0.35172 0.421042 0
0.380819 0.420859 0
0.409293 0.420813 0
0.437247 0.42089 0
0.464698 0.421057 0
0.491722 0.421332 0
0.518334 0.421668 0
0.544594 0.42208 0
0.57052 0.422568 0
0.596124 0.423102 0
0.621424 0.423697 0
0.646464 0.424323 0
0.671244 0.42501 0
0.695796 0.425727 0
0.720104 0.42649 0
0.744198 0.427283 0
0.768078 0.428107 0
0.791775 0.428962 0
0.815274 0.429847 0
0.838605 0.430747 0
0.861753 0.431678 0
0.884749 0.432624 0
0.907576 0.4336 0
0.930266 0.434592 0
0.000701915 0.47512 0.00518807
0.0712291 0.463767 0
0.117479 0.458991 0
0.157168 0.455985 0
0.193576 0.453864 0
0.227848 0.452293 0
0.260563 0.451102 0
0.292073 0.450233 0
0.322606 0.449592 0
0.352316 0.449149 0
0.381323 0.448875 0
0.40972 0.448722 0
0.437568 0.448707 0
0.464942 0.448798 0
0.49189 0.448981 0
0.518425 0.449241 0
0.544594 0.449577 0
0.570428 0.449973 0
0.595941 0.450431 0
0.62118 0.45095 0
0.646143 0.451514 0
0.670832 0.452125 0
0.695308 0.452781 0
0.719539 0.453468 0
0.743542 0.4542 0
0.767361 0.454963 0
0.790982 0.455741 0
0.814404 0.456565 0
0.837659 0.457404 0
0.860746 0.458274 0
0.883665 0.459174 0
0.906416 0.46009 0
0.92903 0.461021 0
0.00148013 0.503868 0.00607309
0.0719768 0.492378 0
0.118441 0.487419 0
0.158145 0.484276 0
0.194522 0.482033 0
0.228733 0.480354 0
0.261387 0.479072 0
0.292836 0.478096 0
0.323293 0.477363 0
0.352926 0.476829 0
0.381872 0.476463 0
0.410193 0.476234 0
0.437964 0.476127 0
0.465263 0.476127 0
0.492119 0.476234 0
0.518578 0.476417 0
0.544671 0.476677 0
0.570428 0.477012 0
0.59588 0.477394 0
0.621027 0.477836 0
0.645914 0.47834 0
0.670542 0.478889 0
0.694926 0.479469 0
0.719097 0.480095 0
0.743038 0.480766 0
0.766781 0.481468 0
0.790326 0.482185 0
0.813687 0.482948 0
0.836866 0.483742 0
0.859876 0.48455 0
0.882734 0.48539 0
0.905425 0.486259 0
0.927977 0.487129 0
0.00222782 0.532143 0.0069276
0.072694 0.520546 0
0.119371 0.515404 0
0.159106 0.512139 0
0.195453 0.509789 0
0.229633 0.508003 0
0.262226 0.50663 0
0.293614 0.505562 0
0.32401 0.504738 0
0.353582 0.504128 0
0.382437 0.50367 0
0.410697 0.503365 0
0.438407 0.503182 0
0.465629 0.503105 0
0.492409 0.503136 0
0.518807 0.503243 0
0.544823 0.503441 0
0.57052 0.5037 0
0.595895 0.504021 0
0.620981 0.504402 0
0.645792 0.504829 0
0.670344 0.505318 0
0.694667 0.505837 0
0.718761 0.506401 0
0.742641 0.507012 0
0.766308 0.507652 0
0.789792 0.508324 0
0.813092 0.509026 0
0.83621 0.509758 0
0.859159 0.510521 0
0.881956 0.511299 0
0.904585 0.512123 0
0.927062 0.512947 0
0.00294499 0.560006 0.00773632
0.0733654 0.548302 0
0.120272 0.542992 0
0.160037 0.53962 0
0.196368 0.537163 0
0.230518 0.535286 0
0.263066 0.533822 0
0.294392 0.532662 0
0.324742 0.531762 0
0.354253 0.53106 0
0.383047 0.530526 0
0.411231 0.530144 0
0.43888 0.5299 0
0.466041 0.529747 0
0.49276 0.529702 0
0.519081 0.529747 0
0.545037 0.52987 0
0.570657 0.530068 0
0.595972 0.530327 0
0.620996 0.530632 0
0.645747 0.531014 0
0.670237 0.531426 0
0.694499 0.531899 0
0.718517 0.532403 0
0.742336 0.532952 0
0.765957 0.533547 0
0.78938 0.534157 0
0.812604 0.534813 0
0.83566 0.5355 0
0.858564 0.536202 0
0.881285 0.536934 0
0.903868 0.537697 0
0.926284 0.538476 0
0.00364691 0.587472 0.00852979
0.0739757 0.575692 0
0.121141 0.570214 0
0.160952 0.56672 0
0.197284 0.564172 0
0.231388 0.562203 0
0.263905 0.560662 0
0.295186 0.559426 0
0.325475 0.558434 0
0.354925 0.557671 0
0.383673 0.557061 0
0.411795 0.556619 0
0.439384 0.556283 0
0.466484 0.556069 0
0.493141 0.555962 0
0.519402 0.555947 0
0.545296 0.556008 0
0.570855 0.55613 0
0.596109 0.556329 0
0.621073 0.556588 0
0.645762 0.556909 0
0.670192 0.557275 0
0.694392 0.557671 0
0.718364 0.558129 0
0.742123 0.558633 0
0.765682 0.559167 0
0.789044 0.559731 0
0.812222 0.560327 0
0.835218 0.560952 0
0.858061 0.561624 0
0.880735 0.56231 0
0.903258 0.563012 0
0.925628 0.56376 0
0.0043183 0.614588 0.009308
0.0745403 0.602731 0
0.121981 0.597086 0
0.161837 0.5935 0
0.198169 0.590845 0
0.232258 0.5888 0
0.264744 0.587167 0
0.295979 0.585855 0
0.326223 0.584802 0
0.355612 0.583963 0
0.384314 0.583291 0
0.41239 0.582773 0
0.439918 0.582376 0
0.466957 0.582101 0
0.493553 0.581933 0
0.519768 0.581842 0
0.545602 0.581842 0
0.571115 0.581918 0
0.596307 0.582055 0
0.62121 0.582254 0
0.645838 0.582513 0
0.670222 0.582834 0
0.694362 0.583185 0
0.718273 0.583581 0
0.741985 0.584039 0
0.765484 0.584512 0
0.788785 0.585031 0
0.811917 0.58558 0
0.834867 0.58616 0
0.857649 0.586786 0
0.880262 0.587427 0
0.902739 0.588083 0
0.925048 0.588785 0
0.00497444 0.641367 0.0100557
0.0750896 0.629465 0.000564584
0.122805 0.623636 0
0.162722 0.619944 0
0.199054 0.617212 0
0.233112 0.615091 0
0.265568 0.613382 0
0.296773 0.611994 0
0.32697 0.61088 0
0.356313 0.609964 0
0.38497 0.609232 0
0.412985 0.608637 0
0.440467 0.608194 0
0.46746 0.607858 0
0.494011 0.60763 0
0.520165 0.607477 0
0.545953 0.607431 0
0.571405 0.607446 0
0.596536 0.607523 0
0.621393 0.607675 0
0.645975 0.607874 0
0.670298 0.608133 0
0.694392 0.608438 0
0.718257 0.608789 0
0.741909 0.609186 0
0.765362 0.609628 0
0.788617 0.610086 0
0.811688 0.610605 0
0.834592 0.611139 0
0.857313 0.611704 0
0.879881 0.612299 0
0.902312 0.612924 0
0.924575 0.613581 0
0.00561532 0.667826 0.0107881
0.0755779 0.655879 0.00125124
0.123598 0.649897 0
0.163577 0.646113 0
0.199908 0.64329 0
0.233967 0.641093 0
0.266392 0.639307 0
0.297551 0.637858 0
0.327718 0.636667 0
0.357031 0.635691 0
0.385626 0.634897 0
0.413611 0.634256 0
0.441032 0.633738 0
0.467979 0.633341 0
0.494484 0.633051 0
0.520592 0.632868 0
0.546319 0.632746 0
0.571725 0.632715 0
0.596811 0.632746 0
0.621622 0.632837 0
0.646143 0.63299 0
0.67042 0.633204 0
0.694469 0.633463 0
0.718288 0.633768 0
0.741878 0.634119 0
0.765286 0.634501 0
0.788495 0.634928 0
0.811521 0.635386 0
0.834363 0.635874 0
0.857053 0.636408 0
0.879576 0.636957 0
0.901946 0.637537 0
0.924178 0.638148 0
0.0062562 0.693996 0.0115053
0.0760204 0.682017 0.00195315
0.124376 0.675868 0
0.164416 0.671977 0
0.200763 0.669093 0
0.234806 0.666804 0
0.267201 0.664958 0
0.298344 0.663447 0
0.328466 0.662196 0
0.357748 0.661158 0
0.386297 0.660304 0
0.414237 0.659602 0
0.441627 0.659037 0
0.468513 0.658579 0
0.494972 0.658244 0
0.521035 0.658 0
0.546731 0.657832 0
0.572091 0.65774 0
0.597131 0.657725 0
0.621881 0.657771 0
0.646372 0.657877 0
0.670588 0.658045 0
0.694591 0.658244 0
0.718364 0.658503 0
0.741909 0.658808 0
0.76527 0.659159 0
0.788434 0.659541 0
0.811414 0.659953 0
0.834211 0.660395 0
0.856855 0.660883 0
0.879332 0.661402 0
0.901671 0.661936 0
0.923842 0.662516 0
0.0068513 0.71989 0.012192
0.0764172 0.707897 0.00262455
0.125124 0.701579 0
0.165225 0.697597 0
0.201587 0.694621 0
0.23563 0.692287 0
0.268009 0.690364 0
0.299123 0.688792 0
0.329213 0.68748 0
0.35845 0.686381 0
0.386969 0.685466 0
0.414878 0.684718 0
0.442222 0.684092 0
0.469078 0.683589 0
0.495491 0.683207 0
0.521508 0.682902 0
0.547143 0.682689 0
0.572457 0.682551 0
0.597467 0.68249 0
0.622171 0.68249 0
0.646616 0.682551 0
0.670802 0.682658 0
0.694743 0.682826 0
0.718471 0.68304 0
0.741985 0.683299 0
0.765301 0.683604 0
0.788418 0.68394 0
0.811353 0.684321 0
0.834119 0.684733 0
0.856718 0.685161 0
0.879149 0.685649 0
0.901427 0.686152 0
0.923568 0.686671 0
0.0074464 0.745525 0.0128634
0.0767834 0.733516 0.00331121
0.125841 0.727031 0
0.166033 0.722957 0
0.202411 0.719921 0
0.236454 0.71751 0
0.268818 0.715541 0
0.299901 0.713893 0
0.329961 0.712535 0
0.359167 0.711376 0
0.387655 0.710414 0
0.415518 0.709606 0
0.442832 0.708934 0
0.469642 0.708385 0
0.49601 0.707942 0
0.521996 0.707591 0
0.547601 0.707332 0
0.572869 0.707149 0
0.597818 0.707027 0
0.622492 0.706981 0
0.646891 0.706996 0
0.671031 0.707073 0
0.694942 0.707195 0
0.718624 0.707362 0
0.742092 0.707591 0
0.765362 0.707851 0
0.788449 0.708141 0
0.811337 0.708476 0
0.834058 0.708858 0
0.856611 0.709255 0
0.879011 0.709697 0
0.901259 0.710155 0
0.923354 0.710643 0
0.00802625 0.770901 0.0135348
0.0771038 0.758907 0.00399786
0.126543 0.752255 0
0.166812 0.748089 0
0.20322 0.744976 0
0.237247 0.742504 0
0.269596 0.740475 0
0.300664 0.738781 0
0.330709 0.737346 0
0.359884 0.736156 0
0.388342 0.735134 0
0.416175 0.734279 0
0.443442 0.733547 0
0.470222 0.732952 0
0.496559 0.732464 0
0.522499 0.732067 0
0.548058 0.731762 0
0.573297 0.731533 0
0.598215 0.73138 0
0.622843 0.731289 0
0.647196 0.731258 0
0.671305 0.731289 0
0.695171 0.731365 0
0.718822 0.731502 0
0.742245 0.731685 0
0.765469 0.731899 0
0.78851 0.732158 0
0.811368 0.732464 0
0.834058 0.732784 0
0.856565 0.73315 0
0.878935 0.733562 0
0.901137 0.733974 0
0.923186 0.734432 0
0.00859083 0.796063 0.0141756
0.0773785 0.78407 0.004654
0.12723 0.777234 0
0.167575 0.773007 0
0.204013 0.769818 0
0.238041 0.767285 0
0.27039 0.765194 0
0.301442 0.763439 0
0.331456 0.761959 0
0.360601 0.760708 0
0.389029 0.75964 0
0.416815 0.75874 0
0.444068 0.757961 0
0.470802 0.757321 0
0.497108 0.756786 0
0.523003 0.756344 0
0.548547 0.755993 0
0.573739 0.755718 0
0.598611 0.75552 0
0.623209 0.755398 0
0.647532 0.755322 0
0.671595 0.755322 0
0.69543 0.755352 0
0.719036 0.755459 0
0.742428 0.755581 0
0.765621 0.755764 0
0.788617 0.755993 0
0.811444 0.756252 0
0.834089 0.756542 0
0.856565 0.756878 0
0.878889 0.757244 0
0.901045 0.757641 0
0.923064 0.758053 0
0.00915541 0.820981 0.0148165
0.0776074 0.809018 0.0053254
0.127886 0.802014 9.15541e-05
0.168322 0.797696 0
0.204791 0.794446 0
0.238834 0.791836 0
0.271168 0.7897 0
0.30219 0.7879 0
0.332189 0.786374 0
0.361318 0.785077 0
0.389715 0.783948 0
0.417472 0.783001 0
0.444694 0.782193 0
0.471397 0.781491 0
0.497673 0.780911 0
0.523537 0.780438 0
0.549035 0.780041 0
0.574197 0.779736 0
0.599039 0.779492 0
0.62359 0.779324 0
0.647883 0.779217 0
0.671916 0.779156 0
0.695705 0.779171 0
0.71928 0.779217 0
0.742626 0.779324 0
0.765789 0.779461 0
0.788754 0.77966 0
0.811536 0.779873 0
0.83415 0.780133 0
0.856596 0.780438 0
0.878874 0.780758 0
0.901015 0.781125 0
0.922988 0.781506 0
0.00968948 0.845701 0.0154269
0.0777752 0.833768 0.0059968
0.128542 0.826581 0.000579843
0.169055 0.822187 0
0.205554 0.81886 0
0.239597 0.816205 0
0.271931 0.814008 0
0.302953 0.812161 0
0.332921 0.81059 0
