luts/Euphoria.cube
TITLE "Generated by Resolve"
LUT_3D_SIZE 33
0 0 0
0 0 0
0 0 0
0 0 0
0 0 0
0 0 0
0 0 0
0 0 0
0 0 0
0 0.0157931 0
0 0.0384527 0
0 0.0579232 0
0 0.0698253 0
0 0.078294 0
0 0.0869306 0
0 0.0957504 0
0 0.104723 0
0 0.113848 0
0 0.12311 0
0 0.132509 0
0 0.142031 0
0 0.151675 0
0 0.16144 0
0 0.171313 0
0 0.181292 0
0 0.191379 0
0 0.201556 0
0 0.211841 0
0 0.222217 0
0 0.23267 0
0 0.243214 0
0 0.253849 0
0 0.264561 0
0 0 0
0 0 0
0 0 0
0 0 0
0 0 0
0 0 0
0 0 0
0 0 0
0 0 0
0 0.0119173 0
0 0.0360418 0
0 0.0560006 0
0 0.0678264 0
0 0.0770581 0
0 0.0864576 0
0 0.0959945 0
0 0.105684 0
0 0.115511 0
0 0.12546 0
0 0.135515 0
0 0.145708 0
0 0.156008 0
0 0.16643 0
0 0.176944 0
0 0.187564 0
0 0.198276 0
0 0.209094 0
0 0.219989 0
0 0.230991 0
0 0.242069 0
0 0.253239 0
0 0.2645 0
0 0.275822 0
0.0119783 0 0
0 0 0
0 0 0
0 0 0
0 0 0
0 0 0
0 0 0
0 0 0
0 0 0
0 0.0049897 0
0 0.0288701 0
0 0.0483406 0
0 0.0598764 0
0 0.0691997 0
0 0.0788586 0
0 0.0887922 0
0 0.0990158 0
0 0.109438 0
0 0.120043 0
0 0.130785 0
0 0.141634 0
0 0.152621 0
0 0.163714 0
0 0.174914 0
0 0.186221 0
0 0.19762 0
0 0.209125 0
0 0.220722 0
0 0.232395 0
0 0.24416 0
0 0.256031 0
0 0.267964 0
0 0.280003 0
0.0563516 0 0
0.0138247 0 0
0 0 0
0.0439155 0 0
0.0362249 0 0
0.022385 0 0
0.00741588 0 0
0 0 0
0 0 0
0 0.00540169 0
0 0.0286412 0
0 0.0459144 0
0 0.0556649 0
0 0.0645762 0
0 0.0735332 0
0 0.0827497 0
0 0.092256 0
0 0.102098 0
0 0.112261 0
0 0.122728 0
0 0.133486 0
0 0.144533 0
0 0.15581 0
0 0.16733 0
0 0.17908 0
0 0.191012 0
0 0.203098 0
0 0.215305 0
0 0.227634 0
0 0.24007 0
0 0.252613 0
0 0.265263 0
0 0.278004 0
0.102724 0 0
0.0602121 0.00721752 0
0.0301366 0.0217746 0
0.0859083 0.0359197 0
0.0839857 0.0495003 0
0.0675975 0.040116 0
0.0505074 0 0
0.0332341 0 0
0.0123445 0.0107576 0
0 0.035523 0
0 0.0550393 0
0 0.0614176 0
0 0.0638285 0
0 0.0687724 0
0 0.0752728 0
0 0.0828717 0
0 0.0913405 0
0 0.100496 0
0 0.109911 0
0 0.119463 0
0 0.129412 0
0 0.139605 0
0 0.150134 0
0 0.160952 0
0 0.172091 0
0 0.183505 0
0 0.195209 0
0 0.207172 0
0 0.219425 0
0 0.231876 0
0 0.244572 0
0 0.257511 0
0 0.270665 0
0.152132 0.037583 0
0.110185 0.0523842 0
0.081178 0.0671397 0
0.131167 0.0817578 0
0.125566 0.0962234 0
0.115221 0.110491 0
0.0962997 0.119036 0
0.0758526 0.128496 0
0.0525063 0.140932 0
0.0304265 0.152621 0
0.0104219 0.161028 0
0 0.166537 0
0 0.169329 0
0 0.16614 0
0 0.112963 0
0 0.104997 0
0 0.106096 0
0 0.110414 0
0 0.116594 0
0 0.124041 0
0 0.132448 0
0 0.141619 0
0 0.151263 0
0 0.161059 0
0 0.171176 0
0 0.181689 0
0 0.192462 0
0 0.203555 0
0 0.214969 0
0 0.226703 0
0 0.238727 0
0 0.251041 0
0 0.26363 0
0.207614 0.0632181 0
0.168063 0.0780194 0
0.175006 0.0927596 0
0.179767 0.107286 0
0.16968 0.121386 0
0.158083 0.134661 0
0.144686 0.147219 0
0.120714 0.157458 0
0.0973983 0.167773 0
0.0753643 0.177783 0
0.0544442 0.187381 0
0.0345617 0.19646 0
0.0156558 0.204883 0
0 0.212497 0
0 0.219104 0
0 0.224384 0
0 0.22771 0
0 0.227558 0
0 0.216968 0
0 0.160891 0
0 0.157336 0
0 0.159701 0
0 0.164797 0
0 0.171572 0
0 0.179538 0
0 0.188449 0
0 0.198016 0
0 0.207874 0
0 0.218067 0
0 0.228656 0
0 0.239658 0
0 0.25095 0
0 0.262592 0
0.340215 0.0791485 0
0.300542 0.0938888 0
0.263798 0.108568 0
0.239475 0.122866 0
0.221317 0.136645 0
0.204334 0.150134 0
0.185611 0.16408 0
0.167758 0.178088 0
0.144274 0.188663 0
0.121721 0.199176 0
0.10013 0.209506 0
0.0793927 0.219638 0
0.0594644 0.229511 0
0.0403143 0.239033 0
0.021912 0.248173 0
0.00416571 0.25684 0
0 0.265003 0
0 0.272557 0
0 0.279423 0
0 0.28542 0
0 0.290272 0
0 0.293477 0
0 0.293873 0
0 0.287419 0
0 0.228641 0
0 0.221561 0
0 0.223011 0
0 0.227787 0
0 0.234485 0
0 0.242557 0
0 0.251621 0
0 0.261219 0
0 0.271244 0
0.402823 0.0942855 0
0.362142 0.109026 0
0.321431 0.123781 0
0.289906 0.138338 0
0.264942 0.152743 0
0.243992 0.16701 0
0.225315 0.18114 0
0.207935 0.195209 0
0.191394 0.209247 0
0.168704 0.219883 0
0.146685 0.230488 0
0.125383 0.241016 0
0.104799 0.251423 0
0.0848554 0.261692 0
0.0655375 0.271794 0
0.0468757 0.281651 0
0.0287938 0.291264 0
0.0112764 0.300587 0
0 0.309606 0
0 0.318303 0
0 0.32665 0
0 0.33463 0
0 0.342168 0
0 0.349218 0
0 0.355703 0
0 0.361456 0
0 0.366293 0
0 0.369802 0
0 0.371099 0
0 0.367514 0
0 0.314427 0
0 0.302937 0
0 0.304051 0
0.441077 0.111009 0.0116121
0.401648 0.12578 0
0.360021 0.140566 0
0.327688 0.155215 0
0.303044 0.169711 0
0.282719 0.184039 0
0.264622 0.19823 0
0.247715 0.212345 0
0.231556 0.226413 0
0.215885 0.240467 0
0.193744 0.251133 0
0.172091 0.261814 0
0.151019 0.27245 0
0.130526 0.283024 0
0.110582 0.293523 0
0.0911727 0.303929 0
0.0722972 0.314214 0
0.0539406 0.324331 0
0.0361028 0.334279 0
0.0187381 0.34406 0
0.00178531 0.353643 0
0 0.363027 0
0 0.372229 0
0 0.381216 0
0 0.390005 0
0 0.398581 0
0 0.406928 0
0 0.415045 0
0 0.422919 0
0 0.430518 0
0 0.437873 0
0 0.444907 0
0 0.45156 0
0.477516 0.127916 0.0262913
0.440177 0.142672 0.0101472
0.398047 0.157473 0
0.365377 0.172168 0
0.341039 0.186709 0
0.321218 0.201099 0
0.303624 0.215351 0
0.287175 0.229511 0
0.271397 0.24361 0
0.256031 0.257679 0
0.240955 0.271748 0
0.219211 0.282445 0
0.197833 0.293156 0
0.176928 0.303868 0
0.156527 0.314549 0
0.136584 0.3252 0
0.117098 0.33579 0
0.0980697 0.346319 0
0.0794842 0.356756 0
0.0613718 0.367086 0
0.0437018 0.37731 0
0.0264439 0.387411 0
0.00956741 0.397391 0
0 0.407248 0
0 0.416983 0
0 0.426612 0
0 0.436133 0
0 0.445548 0
0 0.454856 0
0 0.464073 0
0 0.473213 0
0 0.482261 0
0 0.491264 0
0.513619 0.144884 0.0405585
0.478965 0.159625 0.0244297
0.436484 0.174441 0.00819409
0.403265 0.189166 0
0.379049 0.203754 0
0.359594 0.218204 0
0.342443 0.232517 0
0.326406 0.246723 0
0.310994 0.260853 0
0.295918 0.274937 0
0.281086 0.289021 0
0.266453 0.303105 0
0.244999 0.313802 0
0.223835 0.324559 0
0.203067 0.335317 0
0.182712 0.346059 0
0.162768 0.356802 0
0.143236 0.367514 0
0.124086 0.378195 0
0.105348 0.388846 0
0.0870069 0.39942 0
0.0690776 0.409918 0
0.0515297 0.420356 0
0.0343633 0.430701 0
0.0175174 0.440986 0
0.0010071 0.451179 0
0 0.461295 0
0 0.471351 0
0 0.481361 0
0 0.49131 0
0 0.501213 0
0 0.511086 0
0 0.520928 0
0.549386 0.161913 0.0543679
0.518135 0.176654 0.0382391
0.475547 0.19147 0.0220188
0.441535 0.20621 0.00587472
0.417212 0.220844 0
0.398016 0.23534 0
0.381186 0.249699 0
0.365484 0.263951 0
0.350393 0.278126 0
0.335607 0.292241 0
0.321035 0.306325 0
0.306584 0.320409 0
0.292256 0.334524 0
0.271031 0.345235 0
0.250034 0.355993 0
0.229358 0.366781 0
0.209064 0.377584 0
0.18912 0.388373 0
0.169543 0.399176 0
0.150317 0.409964 0
0.131441 0.420722 0
0.112917 0.431479 0
0.0947585 0.442176 0
0.0769818 0.452827 0
0.0595407 0.463432 0
0.0424353 0.473976 0
0.0256352 0.484474 0
0.00914015 0.494926 0
0 0.505333 0
0 0.515709 0
0 0.526055 0
0 0.53637 0
0 0.546685 0
0.584833 0.178988 0.0677043
0.557855 0.193729 0.0515755
0.515496 0.208545 0.0353552
0.480415 0.223301 0.0191958
0.455726 0.237964 0.00317388
0.436576 0.252506 0
0.419944 0.266926 0
0.404517 0.281224 0
0.38967 0.295445 0
0.375143 0.30959 0
0.3608 0.32369 0
0.346578 0.337774 0
0.332433 0.351858 0
0.318364 0.365988 0
0.297292 0.376699 0
0.276417 0.387472 0
0.255833 0.398291 0
0.235554 0.40911 0
0.215625 0.419959 0
0.196002 0.430808 0
0.176715 0.441657 0
0.157733 0.452522 0
0.139071 0.463371 0
0.120745 0.474189 0
0.102739 0.484993 0
0.0850843 0.495766 0
0.0677195 0.506508 0
0.0506752 0.51722 0
0.0339055 0.527901 0
0.0174258 0.538552 0
0.00117494 0.549172 0
0 0.559792 0
0 0.570397 0
0.621317 0.196124 0.0799573
0.598993 0.210849 0.0638285
0.557168 0.225666 0.0476081
0.520684 0.240436 0.0314183
0.495125 0.255131 0.0153506
0.4757 0.269703 0
0.459083 0.284169 0
0.443763 0.298512 0
0.429099 0.312779 0
0.414786 0.326955 0
0.400641 0.34107 0
0.386603 0.355169 0
0.372625 0.369253 0
0.358709 0.383352 0
0.344823 0.397467 0
0.323873 0.408194 0
0.303075 0.418982 0
0.282536 0.429801 0
0.262287 0.440665 0
0.242329 0.45153 0
0.222675 0.462409 0
0.203326 0.47332 0
0.184268 0.48423 0
0.165484 0.495155 0
0.14699 0.506065 0
0.128801 0.516991 0
0.110948 0.527871 0
0.0933547 0.538766 0
0.0760662 0.549615 0
0.0590524 0.560464 0
0.042298 0.571298 0
0.025803 0.582101 0
0.00952163 0.59292 0
0.662943 0.213275 0.0898451
0.643168 0.228 0.0737011
0.602075 0.242817 0.0574807
0.56379 0.257603 0.0412757
0.536538 0.272312 0.0251469
0.516182 0.286915 0.0091249
0.499123 0.301427 0
0.48365 0.315816 0
0.468971 0.330114 0
0.454704 0.34432 0
0.440665 0.35848 0
0.426749 0.37258 0
0.412894 0.386679 0
0.399069 0.400763 0
0.385275 0.414862 0
0.371511 0.428992 0
0.350637 0.439719 0
0.329915 0.450523 0
0.309407 0.461357 0
0.289158 0.472221 0
0.269184 0.483116 0
0.249485 0.494026 0
0.23006 0.504952 0
0.21091 0.515908 0
0.19202 0.526879 0
0.173404 0.537865 0
0.155062 0.548852 0
0.13698 0.559853 0
0.119203 0.570825 0
0.101701 0.581796 0
0.0844587 0.592767 0
0.0674754 0.603723 0
0.050721 0.614679 0
0.709422 0.230457 0.0978408
0.689754 0.245182 0.0816968
0.649424 0.259983 0.0654612
0.609384 0.274784 0.0492409
0.579858 0.289525 0.0330968
0.557977 0.304158 0.0170443
0.540063 0.3187 0.00108339
0.524132 0.33312 0
0.509224 0.347463 0
0.494865 0.361715 0
0.480797 0.375891 0
0.466911 0.390036 0
0.453101 0.404135 0
0.439353 0.418219 0
0.42562 0.432319 0
0.411917 0.446418 0
0.39823 0.460563 0
0.377417 0.47129 0
0.356756 0.482094 0
0.336278 0.492927 0
0.31603 0.503807 0
0.296056 0.514717 0
0.27631 0.525658 0
0.25684 0.536614 0
0.237613 0.547585 0
0.218631 0.558602 0
0.199908 0.569635 0
0.181415 0.580667 0
0.16318 0.59173 0
0.14522 0.602792 0
0.127535 0.61384 0
0.110079 0.624903 0
0.0928664 0.635966 0
0.756283 0.247684 0.105699
0.736568 0.262409 0.0895705
0.697063 0.277211 0.0733501
0.655634 0.292012 0.0571298
0.623896 0.306752 0.0409552
0.60029 0.321416 0.0248875
0.581338 0.335988 0.00891127
0.564813 0.350454 0
0.549569 0.364828 0
0.535042 0.379126 0
0.520897 0.393347 0
0.506996 0.407507 0
0.493217 0.421622 0
0.479515 0.435721 0
0.465843 0.449805 0
0.452201 0.463905 0
0.438575 0.478019 0
0.424964 0.492164 0
0.404227 0.502907 0
0.383612 0.513695 0
0.363165 0.524544 0
0.342931 0.535439 0
0.322927 0.546349 0
0.303166 0.557305 0
0.283635 0.568276 0
0.264363 0.579278 0
0.245289 0.590311 0
0.226459 0.601373 0
0.207874 0.612451 0
0.189517 0.623545 0
0.171389 0.634668 0
0.153506 0.645792 0
0.135882 0.656916 0
0.802991 0.264942 0.113695
0.783291 0.279652 0.0975662
0.744595 0.294453 0.0813611
0.702205 0.30927 0.0651255
0.668421 0.324025 0.0489662
0.64303 0.338704 0.0328679
0.622904 0.353307 0.0168765
0.605676 0.367803 0.0010071
0.590021 0.382223 0
0.57525 0.396551 0
0.561013 0.410803 0
0.547051 0.424994 0
0.533272 0.439124 0
0.5196 0.453239 0
0.505974 0.467338 0
0.492393 0.481422 0
0.478813 0.495521 0
0.465263 0.509651 0
0.451713 0.523812 0
0.431037 0.534539 0
0.410452 0.545342 0
0.390051 0.556191 0
0.369833 0.567086 0
0.349813 0.578012 0
0.330022 0.588968 0
0.310475 0.599954 0
0.291127 0.610971 0
0.272007 0.622034 0
0.253101 0.633112 0
0.234409 0.644205 0
0.21593 0.655344 0
0.197665 0.666499 0
0.179629 0.677668 0
0.849577 0.282231 0.121813
0.829938 0.296941 0.105699
0.79202 0.311727 0.0894942
0.74905 0.326543 0.0732586
0.713405 0.341314 0.057084
0.686213 0.356023 0.0409857
0.664805 0.370642 0.024979
0.646769 0.385183 0.00907912
0.63061 0.399619 0
0.615549 0.413993 0
0.601129 0.428275 0
0.587091 0.442496 0
0.573281 0.456657 0
0.559609 0.470787 0
0.546029 0.484886 0
0.532494 0.498985 0
0.518975 0.513069 0
0.505455 0.527184 0
0.491966 0.541314 0
0.478477 0.555474 0
0.457847 0.566217 0
0.437324 0.57702 0
0.416938 0.587869 0
0.396719 0.598764 0
0.376715 0.609705 0
0.356909 0.620661 0
0.337316 0.631662 0
0.317922 0.642695 0
0.298756 0.653742 0
0.279759 0.664851 0
0.26099 0.675959 0
0.24242 0.687114 0
0.224048 0.698299 0
0.896071 0.299535 0.130053
0.876539 0.31426 0.113939
0.839338 0.329046 0.0977493
0.796109 0.343862 0.0815137
0.758801 0.358633 0.0653239
0.729824 0.373358 0.0492103
0.707042 0.388006 0.0331884
0.68809 0.402564 0.017258
0.671366 0.417044 0.00144961
0.65594 0.431434 0
0.641306 0.445762 0
0.627146 0.460014 0
0.613275 0.474205 0
0.599588 0.48835 0
0.586023 0.502464 0
0.572503 0.516564 0
0.55903 0.530663 0
0.545571 0.544762 0
0.532128 0.558877 0
0.518685 0.573007 0
0.505257 0.587182 0
0.484688 0.597925 0
0.464195 0.608728 0
0.443839 0.619577 0
0.423636 0.630472 0
0.403616 0.641413 0
0.383795 0.652384 0
0.364172 0.663386 0
0.344747 0.674418 0
0.325521 0.685481 0
0.306477 0.69659 0
0.287633 0.707729 0
0.268971 0.718883 0
0.942504 0.316884 0.138384
0.923095 0.331594 0.122286
0.88658 0.34638 0.106096
0.843305 0.361196 0.0898604
0.804562 0.375982 0.0736553
0.773846 0.390723 0.0575265
0.749645 0.405386 0.0414893
0.729686 0.419959 0.0255589
0.712306 0.43447 0.00973526
0.696452 0.448905 0
0.681544 0.463249 0
0.667216 0.477531 0
0.653269 0.491753 0
0.639551 0.505928 0
0.625956 0.520073 0
0.612467 0.534173 0
0.599023 0.548272 0
0.585611 0.562371 0
0.572213 0.576471 0
0.558816 0.590585 0
0.545434 0.60473 0
0.532052 0.618906 0
0.511513 0.629648 0
0.491066 0.640452 0
0.470741 0.651301 0
0.450553 0.662211 0
0.430533 0.673136 0
0.410697 0.684108 0
0.391043 0.695125 0
0.371588 0.706157 0
0.352316 0.717235 0
0.333227 0.728344 0
0.314305 0.739483 0
0.988876 0.334249 0.146822
0.969604 0.348959 0.130724
0.933745 0.363729 0.114549
0.890623 0.378546 0.0983139
0.850629 0.393347 0.0821088
0.818265 0.408087 0.0659648
0.792599 0.422782 0.0499123
0.771572 0.437385 0.0339513
0.75346 0.451911 0.0181125
0.737118 0.466377 0.00236515
0.721889 0.480751 0
0.707347 0.495079 0
0.693278 0.509316 0
0.679484 0.523522 0
0.665873 0.537682 0
0.652384 0.551797 0
0.638956 0.565911 0
0.625589 0.579995 0
0.612222 0.594095 0
0.598871 0.608194 0
0.585534 0.622324 0
0.572198 0.636469 0
0.558846 0.65066 0
0.538369 0.661402 0
0.517952 0.672206 0
0.497642 0.683055 0
0.47747 0.69395 0
0.457465 0.70489 0
0.437613 0.715862 0
0.417945 0.726879 0
0.398459 0.737911 0
0.379141 0.748989 0
0.359991 0.760098 0
1 0.351629 0.155352
1 0.366339 0.139269
0.980835 0.381109 0.123095
0.938018 0.395926 0.106859
0.896956 0.410727 0.0906539
0.86305 0.425483 0.0744945
0.83592 0.440192 0.0584268
0.813748 0.45481 0.0424506
0.794827 0.469368 0.0265812
0.777935 0.483864 0.0108186
0.762341 0.498268 0
0.747555 0.512612 0
0.733333 0.526894 0
0.719432 0.541115 0
0.705776 0.555291 0
0.692271 0.569436 0
0.678859 0.583551 0
0.665492 0.59765 0
0.652171 0.611749 0
0.638865 0.625849 0
0.625559 0.639948 0
0.612268 0.654078 0
0.598962 0.668238 0
0.585657 0.682429 0
0.565209 0.693172 0
0.544839 0.703975 0
0.524559 0.714824 0
0.504387 0.725719 0
0.484382 0.73666 0
0.46453 0.747631 0
0.444846 0.758648 0
0.42533 0.769696 0
0.405982 0.780758 0
1 0.369039 0.163973
1 0.383749 0.14789
1 0.39852 0.131716
0.985473 0.413321 0.115496
0.943526 0.428138 0.0992752
0.908171 0.442908 0.0831159
0.879591 0.457618 0.0670176
0.856245 0.472267 0.0510414
0.836454 0.486839 0.0351415
0.818952 0.50135 0.0193637
0.80293 0.515785 0.00369268
0.787869 0.530159 0
0.773419 0.544472 0
0.759411 0.558724 0
0.745678 0.572931 0
0.732128 0.587091 0
0.7187 0.601221 0
0.705364 0.61532 0
0.692058 0.629419 0
0.678782 0.643519 0
0.665522 0.657618 0
0.652262 0.671733 0
0.639002 0.685863 0
0.625757 0.700023 0
0.612482 0.714214 0
0.592081 0.724956 0
0.571725 0.735759 0
0.551461 0.746624 0
0.531319 0.757519 0
0.511315 0.76846 0
0.491463 0.779431 0
0.471763 0.790433 0
0.452216 0.80148 0
1 0.386465 0.172671
1 0.40116 0.156588
1 0.41593 0.140429
1 0.430747 0.124208
0.99028 0.445548 0.107988
0.953613 0.460334 0.0918135
0.923598 0.475059 0.0757153
0.899031 0.489723 0.0597086
0.878309 0.504326 0.0437934
0.860151 0.518853 0.027985
0.843656 0.533318 0.0122988
0.82826 0.547723 0
0.813596 0.562051 0
0.799435 0.576333 0
0.785611 0.590555 0
0.772 0.604746 0
0.758541 0.618891 0
0.74519 0.633005 0
0.731899 0.64712 0
0.718654 0.661204 0
0.705425 0.675303 0
0.69221 0.689403 0
0.678981 0.703517 0
0.665766 0.717662 0
0.652537 0.731823 0
0.639323 0.746029 0
0.618936 0.756771 0
0.598627 0.767575 0
0.578378 0.778424 0
0.558251 0.789319 0
0.538247 0.800259 0
0.51838 0.811231 0
0.49868 0.822248 0
1 0.403906 0.181445
1 0.418601 0.165377
1 0.433371 0.149218
1 0.448173 0.133013
1 0.462989 0.116777
0.999329 0.477775 0.100587
0.967941 0.492515 0.0844892
0.942138 0.507195 0.068452
0.920455 0.521813 0.0525216
0.901564 0.53637 0.0366979
0.88455 0.550851 0.0209812
0.868772 0.56527 0.00537118
0.853864 0.579629 0
0.839506 0.593942 0
0.825544 0.608194 0
0.811872 0.6224 0
0.798367 0.636561 0
0.785 0.650706 0
0.77171 0.66482 0
0.75848 0.67892 0
0.745281 0.693019 0
0.732082 0.707103 0
0.718898 0.721218 0
0.70573 0.735332 0
0.692546 0.749477 0
0.679347 0.763653 0
0.666163 0.777844 0
0.645823 0.788602 0
0.625513 0.799405 0
0.605295 0.810254 0
0.585184 0.821149 0
0.565194 0.832074 0
0.545327 0.843046 0
1 0.421363 0.19028
1 0.436057 0.174228
1 0.450813 0.158083
1 0.465629 0.141878
1 0.480446 0.125643
1 0.495232 0.109438
1 0.509972 0.0933242
0.98555 0.524666 0.0772869
0.962844 0.5393 0.0613413
