luts/Euphoria.cube
TITLE "Generated by Resolve"
LUT_3D_SIZE 9
0 0 0
0 0 0
0 0 0
0 0.0698253 0
0 0.104723 0
0 0.142031 0
0 0.181292 0
0 0.222217 0
0 0.264561 0
0.102724 0 0
0.0839857 0.0495003 0
0.0123445 0.0107576 0
0 0.0638285 0
0 0.0913405 0
0 0.129412 0
0 0.172091 0
0 0.219425 0
0 0.270665 0
0.402823 0.0942855 0
0.264942 0.152743 0
0.191394 0.209247 0
0.104799 0.251423 0
0.0287938 0.291264 0
0 0.32665 0
0 0.355703 0
0 0.371099 0
0 0.304051 0
0.549386 0.161913 0.0543679
0.417212 0.220844 0
0.350393 0.278126 0
0.292256 0.334524 0
0.209064 0.377584 0
0.131441 0.420722 0
0.0595407 0.463432 0
0 0.505333 0
0 0.546685 0
0.709422 0.230457 0.0978408
0.579858 0.289525 0.0330968
0.509224 0.347463 0
0.453101 0.404135 0
0.39823 0.460563 0
0.31603 0.503807 0
0.237613 0.547585 0
0.16318 0.59173 0
0.0928664 0.635966 0
0.896071 0.299535 0.130053
0.758801 0.358633 0.0653239
0.671366 0.417044 0.00144961
0.613275 0.474205 0
0.55903 0.530663 0
0.505257 0.587182 0
0.423636 0.630472 0
0.344747 0.674418 0
0.268971 0.718883 0
1 0.369039 0.163973
0.943526 0.428138 0.0992752
0.836454 0.486839 0.0351415
0.773419 0.544472 0
0.7187 0.601221 0
0.665522 0.657618 0
0.612482 0.714214 0
0.531319 0.757519 0
0.452216 0.80148 0
1 0.438834 0.199207
1 0.497902 0.134569
1 0.556817 0.070222
0.934676 0.614816 0.00738537
0.878065 0.671931 0
0.824857 0.728481 0
0.772366 0.784878 0
0.719875 0.84155 0
0.639063 0.88484 0
1 0.508843 0.235492
1 0.567895 0.170947
1 0.626932 0.106416
1 0.685237 0.0432441
1 0.742702 0
0.983795 0.799496 0
0.931456 0.85594 0
0.879438 0.912367 0
0.827359 0.9691 0
0.00758373 0 0
0 0 0
0 0 0
0 0.0327001 0
0 0.0650034 0
0 0.100954 0
0 0.139223 0
0 0.179309 0
0 0.220844 0
0.195315 0 0
0.210498 0.0579232 0.0437324
0.161501 0.0923323 0
0.110994 0.0440681 0
0.0660868 0.0529335 0
0.0232548 0.0847028 0
0 0.12462 0
0 0.169986 0
0 0.21973 0
0.494652 0.0666819 0.0276951
0.381857 0.139269 0.059617
0.314992 0.19588 0.014435
0.233433 0.237797 0
0.165652 0.276356 0
0.1037 0.3122 0
0.0507057 0.343832 0
0.00791943 0.368566 0
0 0.379049 0
0.643656 0.134508 0.0722972
0.538857 0.207645 0.0231785
0.475624 0.264851 0
0.418463 0.321279 0
0.336599 0.364279 0
0.262364 0.406882 0
0.195239 0.448539 0
0.13315 0.489448 0
0.0738079 0.530297 0
0.814084 0.203067 0.101061
0.705425 0.276478 0.037644
0.636088 0.334295 0
0.579736 0.390951 0
0.524819 0.447425 0
0.443229 0.490654 0
0.366506 0.534188 0
0.294789 0.577752 0
0.227832 0.621149 0
0.997299 0.272175 0.131655
0.880186 0.345739 0.0652934
0.79762 0.404013 0.00204471
0.739742 0.461112 0
0.685481 0.517586 0
0.631724 0.574136 0
0.5505 0.617426 0
0.472724 0.661219 0
0.398566 0.705394 0
1 0.341665 0.167361
1 0.41532 0.099382
0.961807 0.473915 0.0356909
0.899718 0.531456 0
0.84509 0.58819 0
0.791913 0.644602 0
0.738918 0.701213 0
0.658015 0.744518 0
0.579675 0.788403 0
1 0.41146 0.206531
1 0.48513 0.137575
1 0.543954 0.073579
1 0.601877 0.0115358
1 0.658946 0
0.951217 0.71548 0
0.898741 0.771908 0
0.846281 0.828595 0
0.765652 0.871885 0
1 0.481453 0.248203
1 0.555154 0.178744
1 0.61413 0.114488
1 0.672343 0.0520333
1 0.729763 0
1 0.786526 0
1 0.842985 0
1 0.899428 0
0.95375 0.956176 0
0.0983597 0 0.169558
0.0642252 0 0.105165
0.0115969 0 0.0424201
0 0.0259098 0
0 0.0455787 0
0 0.0725567 0
0 0.106477 0
0 0.144289 0
0 0.184588 0
0.285039 0 0.222858
0.283375 0 0.172137
0.216541 0.0768292 0.109422
0.190433 0.00973526 0.0379187
0.174105 0.0140993 0
0.142153 0.0438544 0
0.106462 0.0826734 0
0.069688 0.127275 0
0.0324865 0.176501 0
0.583154 0.0377813 0.276875
0.478126 0.110475 0.226535
0.440864 0.181613 0.178149
0.390799 0.216922 0.0712291
0.343359 0.251591 0
0.298085 0.284977 0
0.254414 0.316503 0
0.211872 0.345541 0
0.170108 0.370825 0
0.762066 0.106172 0.315465
0.645823 0.179263 0.265354
0.604608 0.250828 0.216892
0.546197 0.307622 0.155184
0.467353 0.350332 0.0681926
0.40058 0.391073 0
0.33846 0.43151 0
0.284718 0.47126 0
0.240909 0.509743 0
0.933944 0.175158 0.347677
0.812909 0.248524 0.299107
0.765499 0.320653 0.251698
0.70753 0.377462 0.190249
0.652018 0.434119 0.129854
0.571405 0.477363 0.0475166
0.49778 0.520317 0
0.43064 0.562676 0
0.368078 0.604776 0
1 0.244511 0.368261
0.985107 0.318044 0.324544
0.926329 0.390661 0.280308
0.867338 0.447791 0.219501
0.812512 0.504356 0.160327
0.758526 0.561013 0.102113
0.67776 0.604334 0.0226902
0.601602 0.647898 0
0.530083 0.691478 0
1 0.314153 0.328389
1 0.387762 0.330922
1 0.460777 0.297734
1 0.518288 0.238514
0.971923 0.575036 0.181903
0.918547 0.63151 0.126787
0.865476 0.688197 0.0722972
0.784863 0.731533 0
0.707576 0.775265 0
1 0.384024 0.253086
1 0.457664 0.211353
1 0.530968 0.265858
1 0.58883 0.223178
1 0.645884 0.179873
1 0.702434 0.135164
1 0.758892 0.0888533
0.972717 0.815625 0.0410468
0.892302 0.858946 0
1 0.454078 0.271656
1 0.527733 0.217288
1 0.601251 0.169711
1 0.659403 0.110643
1 0.716777 0.0573129
1 0.773541 0.0131685
1 0.829999 0.00358587
1 0.886473 0.0435035
1 0.943236 0.00952163
0.163897 0 0.276631
0.0158846 0 0.212039
0.060441 0 0.148653
0.0158236 0.0062562 0.087068
0 0.0434882 0.0217441
0 0.068864 0
0 0.0924392 0
0 0.121889 0
0 0.157 0
0.337743 0 0.330175
0.193027 0 0.279606
0.26949 0.0218051 0.216541
0.225574 0 0.155108
0.18088 0.00657664 0.0911116
0.183902 0.0239261 0.0120699
0.177829 0.0539254 0
0.156954 0.094255 0
0.12871 0.141268 0
0.539956 0 0.385016
0.516381 0.0677043 0.334737
0.50074 0.13959 0.28603
0.446799 0.196765 0.22414
0.421592 0.222156 0.152026
0.40499 0.247532 0.0441749
0.372473 0.276402 0
0.336202 0.303975 0
0.298924 0.32813 0
0.852888 0.0768902 0.440497
0.737789 0.150103 0.390143
0.698268 0.222187 0.3411
0.669657 0.29369 0.293339
0.622812 0.329702 0.186099
0.576791 0.366186 0.0793927
0.531762 0.403189 0
0.487724 0.440681 0
0.444541 0.478767 0
1 0.146426 0.48069
0.914672 0.219791 0.430396
0.86302 0.292134 0.38114
0.832837 0.363516 0.333196
0.777401 0.420584 0.271458
0.70042 0.463569 0.184192
0.63476 0.504662 0.0911727
0.573053 0.545693 0
0.519203 0.586374 0
1 0.21622 0.518837
1 0.289708 0.468864
1 0.362417 0.419699
0.993866 0.433997 0.371832
0.938598 0.490822 0.310109
0.884474 0.547723 0.249058
0.805005 0.591104 0.166415
0.732204 0.634134 0.0760052
0.665476 0.676509 0
1 0.286168 0.554299
1 0.359731 0.505043
1 0.432761 0.456306
1 0.504692 0.40882
1 0.561578 0.347173
1 0.618235 0.286412
0.991608 0.675074 0.226246
0.91162 0.718486 0.146273
0.836072 0.762036 0.0595712
1 0.356237 0.586374
1 0.429847 0.538399
1 0.503136 0.490532
1 0.575433 0.443809
1 0.632547 0.382315
1 0.689189 0.32192
1 0.745769 0.262348
1 0.802609 0.203372
1 0.846006 0.12546
1 0.426429 0.613916
1 0.500053 0.568185
1 0.573556 0.521813
1 0.646174 0.476387
1 0.703548 0.415122
1 0.760357 0.35523
1 0.816892 0.296407
1 0.873457 0.238376
1 0.930297 0.180896
0.167269 0 0.386038
0 0 0.321324
0.0424201 0 0.257618
0.0685893 0 0.195483
0.0290837 0.0224155 0.134234
0 0.0635691 0.0669566
0 0.0949264 0.00630198
0 0.120485 0
0 0.147173 0
0.348119 0 0.439597
0.191531 0 0.389242
0.283238 0 0.32575
0.278676 0 0.263615
0.237354 0 0.202304
0.18378 0.0238041 0.13666
0.173312 0.0518044 0.0722972
0.180667 0.081529 0
0.178882 0.120012 0
0.554742 0 0.494377
0.408774 0.0259556 0.444144
0.538781 0.0981765 0.395071
0.502037 0.15555 0.332662
0.454368 0.212314 0.271107
0.409049 0.242847 0.206683
0.411856 0.25861 0.127199
0.405661 0.277165 0.0228428
0.38471 0.297185 0
0.78175 0.0337377 0.550042
0.67718 0.107073 0.499748
0.750469 0.179736 0.450446
0.729 0.251896 0.402365
0.676829 0.309957 0.34052
0.652796 0.337316 0.268116
0.636606 0.366461 0.159915
0.604013 0.40145 0.0482948
0.567437 0.438239 0
1 0.117128 0.60557
0.992248 0.19057 0.555245
0.950957 0.263249 0.505776
0.923705 0.335149 0.45745
0.898604 0.406928 0.409979
0.852689 0.443534 0.302068
0.809033 0.479973 0.195621
0.764675 0.517494 0.0890059
0.720836 0.555795 0
1 0.187289 0.646281
1 0.260807 0.596002
1 0.333654 0.54638
1 0.40557 0.497841
1 0.477028 0.450217
1 0.534295 0.388464
0.932326 0.577417 0.300969
0.867704 0.618601 0.207675
0.806638 0.659663 0.113542
1 0.257603 0.68603
1 0.331167 0.635889
1 0.404257 0.586236
1 0.476371 0.537606
1 0.547799 0.489937
1 0.60473 0.428153
1 0.661845 0.366873
1 0.705318 0.283925
0.965591 0.748348 0.193103
1 0.327977 0.72459
1 0.401572 0.674723
1 0.474876 0.625147
1 0.547265 0.576562
1 0.61886 0.528954
1 0.6757 0.46717
1 0.732479 0.405997
1 0.789502 0.345296
1 0.833005 0.26482
1 0.398398 0.761791
1 0.472007 0.712352
1 0.545495 0.663005
1 0.618143 0.614603
1 0.689998 0.567163
1 0.746929 0.505409
1 0.803601 0.444373
1 0.860319 0.383917
1 0.917296 0.323888
0.196063 0 0.496803
0.0273136 0 0.432105
0 0 0.368078
0.100175 0 0.305287
0.0819257 0 0.243458
0.0425269 0.0426795 0.182239
0 0.0863813 0.113497
0 0.122225 0.0527962
0 0.151751 0
0.37969 0 0.550469
0.219806 0 0.50016
0.110811 0 0.43621
0.313588 0 0.373449
0.290547 0 0.311604
0.250233 0.00588998 0.25034
0.192584 0.0490883 0.182879
0.168276 0.0863355 0.122011
0.170428 0.12079 0.0514534
0.578851 0 0.604837
0.423056 0 0.55462
0.390066 0.0580148 0.505211
0.542199 0.115282 0.442344
0.507927 0.171756 0.380346
0.463935 0.228031 0.318959
0.409735 0.260731 0.25301
0.399207 0.27779 0.188342
0.406699 0.28838 0.103273
0.795377 0 0.660197
0.645472 0.0648051 0.609964
0.767956 0.137819 0.560449
0.777234 0.210498 0.512062
0.732815 0.269001 0.449821
0.684398 0.327764 0.38822
0.639002 0.362158 0.323537
0.641672 0.384085 0.243763
0.635294 0.411765 0.139101
1 0.0739147 0.715877
0.884321 0.147402 0.665614
0.992645 0.220432 0.615976
0.97818 0.292897 0.567361
0.957412 0.365209 0.519631
0.906569 0.423514 0.457801
0.883589 0.451225 0.385245
0.868025 0.480949 0.276844
0.835706 0.516777 0.164965
1 0.158022 0.77145
1 0.231571 0.721187
1 0.304631 0.671458
1 0.376928 0.622675
1 0.448844 0.574746
1 0.520821 0.527459
1 0.557519 0.41944
1 0.594018 0.312825
0.996872 0.631586 0.205997
1 0.22858 0.812421
1 0.302159 0.762173
1 0.375341 0.712337
1 0.4477 0.663386
1 0.519478 0.61529
1 0.591058 0.56788
1 0.648508 0.506111
1 0.691722 0.418463
1 0.732906 0.324956
1 0.299245 0.852842
1 0.372854 0.802686
1 0.446189 0.752804
1 0.518715 0.703731
1 0.590539 0.655528
1 0.661982 0.608042
1 0.719036 0.546242
1 0.776303 0.48484
1 0.819867 0.401663
1 0.36994 0.892607
1 0.443549 0.842618
1 0.517037 0.792737
1 0.589761 0.743633
1 0.661753 0.695369
1 0.733227 0.647852
1 0.790112 0.586038
1 0.847028 0.524697
1 0.904204 0.463722
0.23122 0 0.608362
0.0623178 0 0.543648
0 0 0.479316
0.0505989 0 0.416007
0.121614 0 0.353658
0.0952773 0.0151827 0.291981
0.0561074 0.0664225 0.230762
0 0.111955 0.160922
0 0.151095 0.0992752
0.414633 0 0.661997
0.252964 0 0.611719
0.113848 0 0.547463
0.298802 0 0.484199
0.331945 0 0.421851
0.303441 0 0.360159
0.263661 0.0319524 0.298924
0.2038 0.0811933 0.23006
0.169955 0.125856 0.169223
0.606943 0 0.71606
0.448218 0 0.665858
0.332555 0.01944 0.61619
0.550317 0.0764935 0.552895
0.550607 0.13257 0.490471
0.516915 0.188312 0.428702
0.475029 0.244633 0.367391
0.416938 0.278187 0.299718
0.392737 0.298436 0.238636
0.816846 0 0.771023
0.661372 0.0238804 0.720851
0.56669 0.0970169 0.671153
0.805356 0.169955 0.622461
0.779568 0.228779 0.559869
0.738598 0.28777 0.497932
0.69308 0.347158 0.436469
0.638254 0.385779 0.370321
0.62742 0.411475 0.305425
1 0.031281 0.826551
0.883024 0.104768 0.776349
0.955779 0.178042 0.726589
1 0.250965 0.677745
1 0.323781 0.62974
0.962844 0.382528 0.567605
0.914488 0.441672 0.505974
0.869322 0.476661 0.441138
0.872129 0.499458 0.361181
1 0.114748 0.882246
1 0.188327 0.832029
1 0.261601 0.782208
1 0.334325 0.733211
1 0.406729 0.685008
1 0.479164 0.637476
1 0.53756 0.575692
1 0.565301 0.503029
1 0.595071 0.394476
1 0.199329 0.937865
1 0.272938 0.887648
1 0.346242 0.837781
1 0.418891 0.788663
1 0.491035 0.740322
1 0.563027 0.692638
1 0.635157 0.645472
1 0.671901 0.537392
1 0.7084 0.430655
1 0.270176 0.978973
1 0.343801 0.928786
1 0.417197 0.878813
1 0.489906 0.829572
1 0.562005 0.781079
1 0.633753 0.733272
1 0.705486 0.685985
1 0.763043 0.624216
1 0.806317 0.536461
1 0.3411 1
1 0.41471 0.969619
1 0.488228 0.919615
1 0.561074 0.870268
1 0.633249 0.821653
1 0.704952 0.773739
1 0.776471 0.72639
1 0.833631 0.664591
1 0.891035 0.603113
0.266194 0 0.720287
0.0981003 0 0.655589
0 0 0.591073
0 0 0.527382
0.137072 0 0.464561
0.138476 0 0.402457
0.108736 0.0393378 0.340887
0.0697948 0.0933547 0.279667
0.00689708 0.140246 0.208988
0.449943 0 0.773953
0.288136 0 0.723705
0.134783 0 0.659236
0.0614023 0 0.59559
0.352834 0 0.532799
0.347921 0 0.470695
0.316808 0.0127565 0.40911
0.277363 0.0661784 0.347875
0.216159 0.12047 0.277958
0.637522 0 0.827787
0.478004 0 0.7776
0.340154 0 0.727749
0.300481 0.0397192 0.664134
0.575296 0.0954299 0.601312
0.561547 0.150668 0.539162
0.527779 0.206439 0.477531
0.487129 0.263844 0.416251
0.427039 0.298955 0.34725
0.841611 0 0.882414
0.684672 0 0.832288
0.553536 0.0576486 0.782437
0.776745 0.130617 0.733471
0.811902 0.189624 0.670558
0.785153 0.248753 0.608301
0.746334 0.308217 0.546548
0.702937 0.368261 0.485161
0.644129 0.409537 0.417319
1 0 0.937682
0.900649 0.0631266 0.887541
0.781552 0.136507 0.837674
1 0.20972 0.788617
1 0.282902 0.740353
1 0.342031 0.677943
0.969131 0.401495 0.616022
0.922942 0.461448 0.554528
0.867842 0.500938 0.488243
1 0.0719005 0.993286
1 0.145464 0.94313
1 0.218921 0.893217
1 0.291981 0.844053
1 0.364828 0.795636
1 0.43769 0.74789
1 0.496498 0.685817
1 0.555703 0.624186
1 0.590738 0.559243
1 0.156024 1
1 0.229648 0.99884
1 0.303105 0.948882
1 0.376059 0.899611
1 0.4486 0.851057
1 0.521004 0.803143
1 0.593515 0.755764
1 0.651972 0.693996
1 0.679683 0.621256
1 0.24094 1
1 0.31458 1
1 0.388052 1
1 0.460975 0.955169
1 0.533364 0.906508
1 0.605478 0.858473
1 0.677546 0.810956
1 0.749798 0.763882
1 0.786191 0.65626
1 0.312001 1
1 0.385626 1
1 0.459174 1
1 0.532158 0.996216
1 0.604562 0.947417
1 0.676539 0.89926
1 0.748333 0.851637
1 0.820172 0.804456
1 0.877836 0.742687
0.301045 0 0.832502
0.134173 0 0.767834
0 0 0.703182
0 0 0.6392
0.0554513 0 0.575998
0.167071 0 0.513512
0.153857 0.0123445 0.451575
0.122301 0.0666056 0.390066
0.0835584 0.1234 0.328862
0.485344 0 0.886183
0.324269 0 0.835981
0.162417 0 0.771374
0.0502327 0 0.707454
0.316503 0 0.644282
0.379446 0 0.581796
0.363027 0 0.51986
0.330434 0.0521096 0.458335
0.291249 0.109377 0.397101
0.669688 0 0.939879
0.510399 0 0.889738
0.360616 0 0.83975
0.259525 0.00570687 0.775845
0.558877 0.0612497 0.712688
0.593988 0.116152 0.650202
0.573816 0.171511 0.588235
0.539788 0.22855 0.52668
0.499901 0.288426 0.465431
0.868727 0 0.994247
0.711696 0 0.944137
0.565286 0.0199588 0.894179
0.504768 0.0927749 0.844984
0.817243 0.151827 0.781781
0.82089 0.210986 0.719203
0.793225 0.270466 0.65716
0.755718 0.330541 0.595529
0.713817 0.39144 0.534203
1 0 1
0.923415 0.0227665 0.999161
0.781704 0.0961166 0.949187
0.771466 0.169436 0.899931
1 0.242832 0.851438
1 0.302266 0.788754
1 0.36199 0.726589
0.976562 0.422171 0.664836
0.932174 0.482887 0.603403
1 0.0298161 1
1 0.103349 1
1 0.176867 1
1 0.250187 0.955261
1 0.323384 0.906645
1 0.396628 0.858671
1 0.455787 0.796368
1 0.515328 0.734478
1 0.575357 0.672953
1 0.113054 1
1 0.186648 1
1 0.260212 1
1 0.333425 1
1 0.406348 0.962066
1 0.479149 0.913954
1 0.552041 0.866377
1 0.610849 0.804349
1 0.670039 0.742718
1 0.19762 1
1 0.27126 1
1 0.344839 1
1 0.417975 1
1 0.4907 1
1 0.563165 0.969345
1 0.635599 0.92163
1 0.708171 0.874357
1 0.766659 0.812604
1 0.282765 1
1 0.356435 1
1 0.43003 1
1 0.503151 1
1 0.575784 1
1 0.648066 1
1 0.72018 0.976974
1 0.792309 0.929595
1 0.864668 0.882567
