luts/Euphoria.cube
TITLE "Generated by Resolve"
LUT_3D_SIZE 5
0 0 0
0 0 0
0 0.104723 0
0 0.181292 0
0 0.264561 0
0.402823 0.0942855 0
0.191394 0.209247 0
0.0287938 0.291264 0
0 0.355703 0
0 0.304051 0
0.709422 0.230457 0.0978408
0.509224 0.347463 0
0.39823 0.460563 0
0.237613 0.547585 0
0.0928664 0.635966 0
1 0.369039 0.163973
0.836454 0.486839 0.0351415
0.7187 0.601221 0
0.612482 0.714214 0
0.452216 0.80148 0
1 0.508843 0.235492
1 0.626932 0.106416
1 0.742702 0
0.931456 0.85594 0
0.827359 0.9691 0
0.0983597 0 0.169558
0.0115969 0 0.0424201
0 0.0455787 0
0 0.106477 0
0 0.184588 0
0.583154 0.0377813 0.276875
0.440864 0.181613 0.178149
0.343359 0.251591 0
0.254414 0.316503 0
0.170108 0.370825 0
0.933944 0.175158 0.347677
0.765499 0.320653 0.251698
0.652018 0.434119 0.129854
0.49778 0.520317 0
0.368078 0.604776 0
1 0.314153 0.328389
1 0.460777 0.297734
0.971923 0.575036 0.181903
0.865476 0.688197 0.0722972
0.707576 0.775265 0
1 0.454078 0.271656
1 0.601251 0.169711
1 0.716777 0.0573129
1 0.829999 0.00358587
1 0.943236 0.00952163
0.167269 0 0.386038
0.0424201 0 0.257618
0.0290837 0.0224155 0.134234
0 0.0949264 0.00630198
0 0.147173 0
0.554742 0 0.494377
0.538781 0.0981765 0.395071
0.454368 0.212314 0.271107
0.411856 0.25861 0.127199
0.38471 0.297185 0
1 0.117128 0.60557
0.950957 0.263249 0.505776
0.898604 0.406928 0.409979
0.809033 0.479973 0.195621
0.720836 0.555795 0
1 0.257603 0.68603
1 0.404257 0.586236
1 0.547799 0.489937
1 0.661845 0.366873
0.965591 0.748348 0.193103
1 0.398398 0.761791
1 0.545495 0.663005
1 0.689998 0.567163
1 0.803601 0.444373
1 0.917296 0.323888
0.23122 0 0.608362
0 0 0.479316
0.121614 0 0.353658
0.0561074 0.0664225 0.230762
0 0.151095 0.0992752
0.606943 0 0.71606
0.332555 0.01944 0.61619
0.550607 0.13257 0.490471
0.475029 0.244633 0.367391
0.392737 0.298436 0.238636
1 0.031281 0.826551
0.955779 0.178042 0.726589
1 0.323781 0.62974
0.914488 0.441672 0.505974
0.872129 0.499458 0.361181
1 0.199329 0.937865
1 0.346242 0.837781
1 0.491035 0.740322
1 0.635157 0.645472
1 0.7084 0.430655
1 0.3411 1
1 0.488228 0.919615
1 0.633249 0.821653
1 0.776471 0.72639
1 0.891035 0.603113
0.301045 0 0.832502
0 0 0.703182
0.0554513 0 0.575998
0.153857 0.0123445 0.451575
0.0835584 0.1234 0.328862
0.669688 0 0.939879
0.360616 0 0.83975
0.558877 0.0612497 0.712688
0.573816 0.171511 0.588235
0.499901 0.288426 0.465431
1 0 1
0.781704 0.0961166 0.949187
1 0.242832 0.851438
1 0.36199 0.726589
0.932174 0.482887 0.603403
1 0.113054 1
1 0.260212 1
1 0.406348 0.962066
1 0.552041 0.866377
1 0.670039 0.742718
1 0.282765 1
1 0.43003 1
1 0.575784 1
1 0.72018 0.976974
1 0.864668 0.882567
