luts/fuji_pro.cube
TITLE "fuji_pro"
LUT_3D_SIZE 9
DOMAIN_MIN 0.0 0.0 0.0
DOMAIN_MAX 1.0 1.0 1.0
0.020000 0.000000 0.010000
0.138750 0.000000 0.010000
0.257500 0.000000 0.010000
0.376250 0.000000 0.010000
0.495000 0.000000 0.010000
0.613750 0.000000 0.010000
0.732500 0.000000 0.010000
0.851250 0.000000 0.010000
0.970000 0.000000 0.010000
0.020000 0.131250 0.010000
0.138750 0.131250 0.010000
0.257500 0.131250 0.010000
0.376250 0.131250 0.010000
0.495000 0.131250 0.010000
0.613750 0.131250 0.010000
0.732500 0.131250 0.010000
0.851250 0.131250 0.010000
0.970000 0.131250 0.010000
0.020000 0.262500 0.010000
0.138750 0.262500 0.010000
0.257500 0.262500 0.010000
0.376250 0.262500 0.010000
0.495000 0.262500 0.010000
0.613750 0.262500 0.010000
0.732500 0.262500 0.010000
0.851250 0.262500 0.010000
0.970000 0.262500 0.010000
0.020000 0.393750 0.010000
0.138750 0.393750 0.010000
0.257500 0.393750 0.010000
0.376250 0.393750 0.010000
0.495000 0.393750 0.010000
0.613750 0.393750 0.010000
0.732500 0.393750 0.010000
0.851250 0.393750 0.010000
0.970000 0.393750 0.010000
0.020000 0.525000 0.010000
0.138750 0.525000 0.010000
0.257500 0.525000 0.010000
0.376250 0.525000 0.010000
0.495000 0.525000 0.010000
0.613750 0.525000 0.010000
0.732500 0.525000 0.010000
0.851250 0.525000 0.010000
0.970000 0.525000 0.010000
0.020000 0.656250 0.010000
0.138750 0.656250 0.010000
0.257500 0.656250 0.010000
0.376250 0.656250 0.010000
0.495000 0.656250 0.010000
0.613750 0.656250 0.010000
0.732500 0.656250 0.010000
0.851250 0.656250 0.010000
0.970000 0.656250 0.010000
0.020000 0.787500 0.010000
0.138750 0.787500 0.010000
0.257500 0.787500 0.010000
0.376250 0.787500 0.010000
0.495000 0.787500 0.010000
0.613750 0.787500 0.010000
0.732500 0.787500 0.010000
0.851250 0.787500 0.010000
0.970000 0.787500 0.010000
0.020000 0.918750 0.010000
0.138750 0.918750 0.010000
0.257500 0.918750 0.010000
0.376250 0.918750 0.010000
0.495000 0.918750 0.010000
0.613750 0.918750 0.010000
0.732500 0.918750 0.010000
0.851250 0.918750 0.010000
0.970000 0.918750 0.010000
0.020000 1.000000 0.010000
0.138750 1.000000 0.010000
0.257500 1.000000 0.010000
0.376250 1.000000 0.010000
0.495000 1.000000 0.010000
0.613750 1.000000 0.010000
0.732500 1.000000 0.010000
0.851250 1.000000 0.010000
0.970000 1.000000 0.010000
0.020000 0.000000 0.128750
0.138750 0.000000 0.128750
0.257500 0.000000 0.128750
0.376250 0.000000 0.128750
0.495000 0.000000 0.128750
0.613750 0.000000 0.128750
0.732500 0.000000 0.128750
0.851250 0.000000 0.128750
0.970000 0.000000 0.128750
0.020000 0.131250 0.128750
0.138750 0.131250 0.128750
0.257500 0.131250 0.128750
0.376250 0.131250 0.128750
0.495000 0.131250 0.128750
0.613750 0.131250 0.128750
0.732500 0.131250 0.128750
0.851250 0.131250 0.128750
0.970000 0.131250 0.128750
0.020000 0.262500 0.128750
0.138750 0.262500 0.128750
0.257500 0.262500 0.128750
0.376250 0.262500 0.128750
0.495000 0.262500 0.128750
0.613750 0.262500 0.128750
0.732500 0.262500 0.128750
0.851250 0.262500 0.128750
0.970000 0.262500 0.128750
0.020000 0.393750 0.128750
0.138750 0.393750 0.128750
0.257500 0.393750 0.128750
0.376250 0.393750 0.128750
0.495000 0.393750 0.128750
0.613750 0.393750 0.128750
0.732500 0.393750 0.128750
0.851250 0.393750 0.128750
0.970000 0.393750 0.128750
0.020000 0.525000 0.128750
0.138750 0.525000 0.128750
0.257500 0.525000 0.128750
0.376250 0.525000 0.128750
0.495000 0.525000 0.128750
0.613750 0.525000 0.128750
0.732500 0.525000 0.128750
0.851250 0.525000 0.128750
0.970000 0.525000 0.128750
0.020000 0.656250 0.128750
0.138750 0.656250 0.128750
0.257500 0.656250 0.128750
0.376250 0.656250 0.128750
0.495000 0.656250 0.128750
0.613750 0.656250 0.128750
0.732500 0.656250 0.128750
0.851250 0.656250 0.128750
0.970000 0.656250 0.128750
0.020000 0.787500 0.128750
0.138750 0.787500 0.128750
0.257500 0.787500 0.128750
0.376250 0.787500 0.128750
0.495000 0.787500 0.128750
0.613750 0.787500 0.128750
0.732500 0.787500 0.128750
0.851250 0.787500 0.128750
0.970000 0.787500 0.128750
0.020000 0.918750 0.128750
0.138750 0.918750 0.128750
0.257500 0.918750 0.128750
0.376250 0.918750 0.128750
0.495000 0.918750 0.128750
0.613750 0.918750 0.128750
0.732500 0.918750 0.128750
0.851250 0.918750 0.128750
0.970000 0.918750 0.128750
0.020000 1.000000 0.128750
0.138750 1.000000 0.128750
0.257500 1.000000 0.128750
0.376250 1.000000 0.128750
0.495000 1.000000 0.128750
0.613750 1.000000 0.128750
0.732500 1.000000 0.128750
0.851250 1.000000 0.128750
0.970000 1.000000 0.128750
0.020000 0.000000 0.247500
0.138750 0.000000 0.247500
0.257500 0.000000 0.247500
0.376250 0.000000 0.247500
0.495000 0.000000 0.247500
0.613750 0.000000 0.247500
0.732500 0.000000 0.247500
0.851250 0.000000 0.247500
0.970000 0.000000 0.247500
0.020000 0.131250 0.247500
0.138750 0.131250 0.247500
0.257500 0.131250 0.247500
0.376250 0.131250 0.247500
0.495000 0.131250 0.247500
0.613750 0.131250 0.247500
0.732500 0.131250 0.247500
0.851250 0.131250 0.247500
0.970000 0.131250 0.247500
0.020000 0.262500 0.247500
0.138750 0.262500 0.247500
0.257500 0.262500 0.247500
0.376250 0.262500 0.247500
0.495000 0.262500 0.247500
0.613750 0.262500 0.247500
0.732500 0.262500 0.247500
0.851250 0.262500 0.247500
0.970000 0.262500 0.247500
0.020000 0.393750 0.247500
0.138750 0.393750 0.247500
0.257500 0.393750 0.247500
0.376250 0.393750 0.247500
0.495000 0.393750 0.247500
0.613750 0.393750 0.247500
0.732500 0.393750 0.247500
0.851250 0.393750 0.247500
0.970000 0.393750 0.247500
0.020000 0.525000 0.247500
0.138750 0.525000 0.247500
0.257500 0.525000 0.247500
0.376250 0.525000 0.247500
0.495000 0.525000 0.247500
0.613750 0.525000 0.247500
0.732500 0.525000 0.247500
0.851250 0.525000 0.247500
0.970000 0.525000 0.247500
0.020000 0.656250 0.247500
0.138750 0.656250 0.247500
0.257500 0.656250 0.247500
0.376250 0.656250 0.247500
0.495000 0.656250 0.247500
0.613750 0.656250 0.247500
0.732500 0.656250 0.247500
0.851250 0.656250 0.247500
0.970000 0.656250 0.247500
0.020000 0.787500 0.247500
0.138750 0.787500 0.247500
0.257500 0.787500 0.247500
0.376250 0.787500 0.247500
0.495000 0.787500 0.247500
0.613750 0.787500 0.247500
0.732500 0.787500 0.247500
0.851250 0.787500 0.247500
0.970000 0.787500 0.247500
0.020000 0.918750 0.247500
0.138750 0.918750 0.247500
0.257500 0.918750 0.247500
0.376250 0.918750 0.247500
0.495000 0.918750 0.247500
0.613750 0.918750 0.247500
0.732500 0.918750 0.247500
0.851250 0.918750 0.247500
0.970000 0.918750 0.247500
0.020000 1.000000 0.247500
0.138750 1.000000 0.247500
0.257500 1.000000 0.247500
0.376250 1.000000 0.247500
0.495000 1.000000 0.247500
0.613750 1.000000 0.247500
0.732500 1.000000 0.247500
0.851250 1.000000 0.247500
0.970000 1.000000 0.247500
0.020000 0.000000 0.366250
0.138750 0.000000 0.366250
0.257500 0.000000 0.366250
0.376250 0.000000 0.366250
0.495000 0.000000 0.366250
0.613750 0.000000 0.366250
0.732500 0.000000 0.366250
0.851250 0.000000 0.366250
0.970000 0.000000 0.366250
0.020000 0.131250 0.366250
0.138750 0.131250 0.366250
0.257500 0.131250 0.366250
0.376250 0.131250 0.366250
0.495000 0.131250 0.366250
0.613750 0.131250 0.366250
0.732500 0.131250 0.366250
0.851250 0.131250 0.366250
0.970000 0.131250 0.366250
0.020000 0.262500 0.366250
0.138750 0.262500 0.366250
0.257500 0.262500 0.366250
0.376250 0.262500 0.366250
0.495000 0.262500 0.366250
0.613750 0.262500 0.366250
0.732500 0.262500 0.366250
0.851250 0.262500 0.366250
0.970000 0.262500 0.366250
0.020000 0.393750 0.366250
0.138750 0.393750 0.366250
0.257500 0.393750 0.366250
0.376250 0.393750 0.366250
0.495000 0.393750 0.366250
0.613750 0.393750 0.366250
0.732500 0.393750 0.366250
0.851250 0.393750 0.366250
0.970000 0.393750 0.366250
0.020000 0.525000 0.366250
0.138750 0.525000 0.366250
0.257500 0.525000 0.366250
0.376250 0.525000 0.366250
0.495000 0.525000 0.366250
0.613750 0.525000 0.366250
0.732500 0.525000 0.366250
0.851250 0.525000 0.366250
0.970000 0.525000 0.366250
0.020000 0.656250 0.366250
0.138750 0.656250 0.366250
0.257500 0.656250 0.366250
0.376250 0.656250 0.366250
0.495000 0.656250 0.366250
0.613750 0.656250 0.366250
0.732500 0.656250 0.366250
0.851250 0.656250 0.366250
0.970000 0.656250 0.366250
0.020000 0.787500 0.366250
0.138750 0.787500 0.366250
0.257500 0.787500 0.366250
0.376250 0.787500 0.366250
0.495000 0.787500 0.366250
0.613750 0.787500 0.366250
0.732500 0.787500 0.366250
0.851250 0.787500 0.366250
0.970000 0.787500 0.366250
0.020000 0.918750 0.366250
0.138750 0.918750 0.366250
0.257500 0.918750 0.366250
0.376250 0.918750 0.366250
0.495000 0.918750 0.366250
0.613750 0.918750 0.366250
0.732500 0.918750 0.366250
0.851250 0.918750 0.366250
0.970000 0.918750 0.366250
0.020000 1.000000 0.366250
0.138750 1.000000 0.366250
0.257500 1.000000 0.366250
0.376250 1.000000 0.366250
0.495000 1.000000 0.366250
0.613750 1.000000 0.366250
0.732500 1.000000 0.366250
0.851250 1.000000 0.366250
0.970000 1.000000 0.366250
0.020000 0.000000 0.485000
0.138750 0.000000 0.485000
0.257500 0.000000 0.485000
0.376250 0.000000 0.485000
0.495000 0.000000 0.485000
0.613750 0.000000 0.485000
0.732500 0.000000 0.485000
0.851250 0.000000 0.485000
0.970000 0.000000 0.485000
0.020000 0.131250 0.485000
0.138750 0.131250 0.485000
0.257500 0.131250 0.485000
0.376250 0.131250 0.485000
0.495000 0.131250 0.485000
0.613750 0.131250 0.485000
0.732500 0.131250 0.485000
0.851250 0.131250 0.485000
0.970000 0.131250 0.485000
0.020000 0.262500 0.485000
0.138750 0.262500 0.485000
0.257500 0.262500 0.485000
0.376250 0.262500 0.485000
0.495000 0.262500 0.485000
0.613750 0.262500 0.485000
0.732500 0.262500 0.485000
0.851250 0.262500 0.485000
0.970000 0.262500 0.485000
0.020000 0.393750 0.485000
0.138750 0.393750 0.485000
0.257500 0.393750 0.485000
0.376250 0.393750 0.485000
0.495000 0.393750 0.485000
0.613750 0.393750 0.485000
0.732500 0.393750 0.485000
0.851250 0.393750 0.485000
0.970000 0.393750 0.485000
0.020000 0.525000 0.485000
0.138750 0.525000 0.485000
0.257500 0.525000 0.485000
0.376250 0.525000 0.485000
0.495000 0.525000 0.485000
0.613750 0.525000 0.485000
0.732500 0.525000 0.485000
0.851250 0.525000 0.485000
0.970000 0.525000 0.485000
0.020000 0.656250 0.485000
0.138750 0.656250 0.485000
0.257500 0.656250 0.485000
0.376250 0.656250 0.485000
0.495000 0.656250 0.485000
0.613750 0.656250 0.485000
0.732500 0.656250 0.485000
0.851250 0.656250 0.485000
0.970000 0.656250 0.485000
0.020000 0.787500 0.485000
0.138750 0.787500 0.485000
0.257500 0.787500 0.485000
0.376250 0.787500 0.485000
0.495000 0.787500 0.485000
0.613750 0.787500 0.485000
0.732500 0.787500 0.485000
0.851250 0.787500 0.485000
0.970000 0.787500 0.485000
0.020000 0.918750 0.485000
0.138750 0.918750 0.485000
0.257500 0.918750 0.485000
0.376250 0.918750 0.485000
0.495000 0.918750 0.485000
0.613750 0.918750 0.485000
0.732500 0.918750 0.485000
0.851250 0.918750 0.485000
0.970000 0.918750 0.485000
0.020000 1.000000 0.485000
0.138750 1.000000 0.485000
0.257500 1.000000 0.485000
0.376250 1.000000 0.485000
0.495000 1.000000 0.485000
0.613750 1.000000 0.485000
0.732500 1.000000 0.485000
0.851250 1.000000 0.485000
0.970000 1.000000 0.485000
0.020000 0.000000 0.603750
0.138750 0.000000 0.603750
0.257500 0.000000 0.603750
0.376250 0.000000 0.603750
0.495000 0.000000 0.603750
0.613750 0.000000 0.603750
0.732500 0.000000 0.603750
0.851250 0.000000 0.603750
0.970000 0.000000 0.603750
0.020000 0.131250 0.603750
0.138750 0.131250 0.603750
0.257500 0.131250 0.603750
0.376250 0.131250 0.603750
0.495000 0.131250 0.603750
0.613750 0.131250 0.603750
0.732500 0.131250 0.603750
0.851250 0.131250 0.603750
0.970000 0.131250 0.603750
0.020000 0.262500 0.603750
0.138750 0.262500 0.603750
0.257500 0.262500 0.603750
0.376250 0.262500 0.603750
0.495000 0.262500 0.603750
0.613750 0.262500 0.603750
0.732500 0.262500 0.603750
0.851250 0.262500 0.603750
0.970000 0.262500 0.603750
0.020000 0.393750 0.603750
0.138750 0.393750 0.603750
0.257500 0.393750 0.603750
0.376250 0.393750 0.603750
0.495000 0.393750 0.603750
0.613750 0.393750 0.603750
0.732500 0.393750 0.603750
0.851250 0.393750 0.603750
0.970000 0.393750 0.603750
0.020000 0.525000 0.603750
0.138750 0.525000 0.603750
0.257500 0.525000 0.603750
0.376250 0.525000 0.603750
0.495000 0.525000 0.603750
0.613750 0.525000 0.603750
0.732500 0.525000 0.603750
0.851250 0.525000 0.603750
0.970000 0.525000 0.603750
0.020000 0.656250 0.603750
0.138750 0.656250 0.603750
0.257500 0.656250 0.603750
0.376250 0.656250 0.603750
0.495000 0.656250 0.603750
0.613750 0.656250 0.603750
0.732500 0.656250 0.603750
0.851250 0.656250 0.603750
0.970000 0.656250 0.603750
0.020000 0.787500 0.603750
0.138750 0.787500 0.603750
0.257500 0.787500 0.603750
0.376250 0.787500 0.603750
0.495000 0.787500 0.603750
0.613750 0.787500 0.603750
0.732500 0.787500 0.603750
0.851250 0.787500 0.603750
0.970000 0.787500 0.603750
0.020000 0.918750 0.603750
0.138750 0.918750 0.603750
0.257500 0.918750 0.603750
0.376250 0.918750 0.603750
0.495000 0.918750 0.603750
0.613750 0.918750 0.603750
0.732500 0.918750 0.603750
0.851250 0.918750 0.603750
0.970000 0.918750 0.603750
0.020000 1.000000 0.603750
0.138750 1.000000 0.603750
0.257500 1.000000 0.603750
0.376250 1.000000 0.603750
0.495000 1.000000 0.603750
0.613750 1.000000 0.603750
0.732500 1.000000 0.603750
0.851250 1.000000 0.603750
0.970000 1.000000 0.603750
0.020000 0.000000 0.722500
0.138750 0.000000 0.722500
0.257500 0.000000 0.722500
0.376250 0.000000 0.722500
0.495000 0.000000 0.722500
0.613750 0.000000 0.722500
0.732500 0.000000 0.722500
0.851250 0.000000 0.722500
0.970000 0.000000 0.722500
0.020000 0.131250 0.722500
0.138750 0.131250 0.722500
0.257500 0.131250 0.722500
0.376250 0.131250 0.722500
0.495000 0.131250 0.722500
0.613750 0.131250 0.722500
0.732500 0.131250 0.722500
0.851250 0.131250 0.722500
0.970000 0.131250 0.722500
0.020000 0.262500 0.722500
0.138750 0.262500 0.722500
0.257500 0.262500 0.722500
0.376250 0.262500 0.722500
0.495000 0.262500 0.722500
0.613750 0.262500 0.722500
0.732500 0.262500 0.722500
0.851250 0.262500 0.722500
0.970000 0.262500 0.722500
0.020000 0.393750 0.722500
0.138750 0.393750 0.722500
0.257500 0.393750 0.722500
0.376250 0.393750 0.722500
0.495000 0.393750 0.722500
0.613750 0.393750 0.722500
0.732500 0.393750 0.722500
0.851250 0.393750 0.722500
0.970000 0.393750 0.722500
0.020000 0.525000 0.722500
0.138750 0.525000 0.722500
0.257500 0.525000 0.722500
0.376250 0.525000 0.722500
0.495000 0.525000 0.722500
0.613750 0.525000 0.722500
0.732500 0.525000 0.722500
0.851250 0.525000 0.722500
0.970000 0.525000 0.722500
0.020000 0.656250 0.722500
0.138750 0.656250 0.722500
0.257500 0.656250 0.722500
0.376250 0.656250 0.722500
0.495000 0.656250 0.722500
0.613750 0.656250 0.722500
0.732500 0.656250 0.722500
0.851250 0.656250 0.722500
0.970000 0.656250 0.722500
0.020000 0.787500 0.722500
0.138750 0.787500 0.722500
0.257500 0.787500 0.722500
0.376250 0.787500 0.722500
0.495000 0.787500 0.722500
0.613750 0.787500 0.722500
0.732500 0.787500 0.722500
0.851250 0.787500 0.722500
0.970000 0.787500 0.722500
0.020000 0.918750 0.722500
0.138750 0.918750 0.722500
0.257500 0.918750 0.722500
0.376250 0.918750 0.722500
0.495000 0.918750 0.722500
0.613750 0.918750 0.722500
0.732500 0.918750 0.722500
0.851250 0.918750 0.722500
0.970000 0.918750 0.722500
0.020000 1.000000 0.722500
0.138750 1.000000 0.722500
0.257500 1.000000 0.722500
0.376250 1.000000 0.722500
0.495000 1.000000 0.722500
0.613750 1.000000 0.722500
0.732500 1.000000 0.722500
0.851250 1.000000 0.722500
0.970000 1.000000 0.722500
0.020000 0.000000 0.841250
0.138750 0.000000 0.841250
0.257500 0.000000 0.841250
0.376250 0.000000 0.841250
0.495000 0.000000 0.841250
0.613750 0.000000 0.841250
0.732500 0.000000 0.841250
0.851250 0.000000 0.841250
0.970000 0.000000 0.841250
0.020000 0.131250 0.841250
0.138750 0.131250 0.841250
0.257500 0.131250 0.841250
0.376250 0.131250 0.841250
0.495000 0.131250 0.841250
0.613750 0.131250 0.841250
0.732500 0.131250 0.841250
0.851250 0.131250 0.841250
0.970000 0.131250 0.841250
0.020000 0.262500 0.841250
0.138750 0.262500 0.841250
0.257500 0.262500 0.841250
0.376250 0.262500 0.841250
0.495000 0.262500 0.841250
0.613750 0.262500 0.841250
0.732500 0.262500 0.841250
0.851250 0.262500 0.841250
0.970000 0.262500 0.841250
0.020000 0.393750 0.841250
0.138750 0.393750 0.841250
0.257500 0.393750 0.841250
0.376250 0.393750 0.841250
0.495000 0.393750 0.841250
0.613750 0.393750 0.841250
0.732500 0.393750 0.841250
0.851250 0.393750 0.841250
0.970000 0.393750 0.841250
0.020000 0.525000 0.841250
0.138750 0.525000 0.841250
0.257500 0.525000 0.841250
0.376250 0.525000 0.841250
0.495000 0.525000 0.841250
0.613750 0.525000 0.841250
0.732500 0.525000 0.841250
0.851250 0.525000 0.841250
0.970000 0.525000 0.841250
0.020000 0.656250 0.841250
0.138750 0.656250 0.841250
0.257500 0.656250 0.841250
0.376250 0.656250 0.841250
0.495000 0.656250 0.841250
0.613750 0.656250 0.841250
0.732500 0.656250 0.841250
0.851250 0.656250 0.841250
0.970000 0.656250 0.841250
0.020000 0.787500 0.841250
0.138750 0.787500 0.841250
0.257500 0.787500 0.841250
0.376250 0.787500 0.841250
0.495000 0.787500 0.841250
0.613750 0.787500 0.841250
0.732500 0.787500 0.841250
0.851250 0.787500 0.841250
0.970000 0.787500 0.841250
0.020000 0.918750 0.841250
0.138750 0.918750 0.841250
0.257500 0.918750 0.841250
0.376250 0.918750 0.841250
0.495000 0.918750 0.841250
0.613750 0.918750 0.841250
0.732500 0.918750 0.841250
0.851250 0.918750 0.841250
0.970000 0.918750 0.841250
0.020000 1.000000 0.841250
0.138750 1.000000 0.841250
0.257500 1.000000 0.841250
0.376250 1.000000 0.841250
0.495000 1.000000 0.841250
0.613750 1.000000 0.841250
0.732500 1.000000 0.841250
0.851250 1.000000 0.841250
0.970000 1.000000 0.841250
0.020000 0.000000 0.960000
0.138750 0.000000 0.960000
0.257500 0.000000 0.960000
0.376250 0.000000 0.960000
0.495000 0.000000 0.960000
0.613750 0.000000 0.960000
0.732500 0.000000 0.960000
0.851250 0.000000 0.960000
0.970000 0.000000 0.960000
0.020000 0.131250 0.960000
0.138750 0.131250 0.960000
0.257500 0.131250 0.960000
0.376250 0.131250 0.960000
0.495000 0.131250 0.960000
0.613750 0.131250 0.960000
0.732500 0.131250 0.960000
0.851250 0.131250 0.960000
0.970000 0.131250 0.960000
0.020000 0.262500 0.960000
0.138750 0.262500 0.960000
0.257500 0.262500 0.960000
0.376250 0.262500 0.960000
0.495000 0.262500 0.960000
0.613750 0.262500 0.960000
0.732500 0.262500 0.960000
0.851250 0.262500 0.960000
0.970000 0.262500 0.960000
0.020000 0.393750 0.960000
0.138750 0.393750 0.960000
0.257500 0.393750 0.960000
0.376250 0.393750 0.960000
0.495000 0.393750 0.960000
0.613750 0.393750 0.960000
0.732500 0.393750 0.960000
0.851250 0.393750 0.960000
0.970000 0.393750 0.960000
0.020000 0.525000 0.960000
0.138750 0.525000 0.960000
0.257500 0.525000 0.960000
0.376250 0.525000 0.960000
0.495000 0.525000 0.960000
0.613750 0.525000 0.960000
0.732500 0.525000 0.960000
0.851250 0.525000 0.960000
0.970000 0.525000 0.960000
0.020000 0.656250 0.960000
0.138750 0.656250 0.960000
0.257500 0.656250 0.960000
0.376250 0.656250 0.960000
0.495000 0.656250 0.960000
0.613750 0.656250 0.960000
0.732500 0.656250 0.960000
0.851250 0.656250 0.960000
0.970000 0.656250 0.960000
0.020000 0.787500 0.960000
0.138750 0.787500 0.960000
0.257500 0.787500 0.960000
0.376250 0.787500 0.960000
0.495000 0.787500 0.960000
0.613750 0.787500 0.960000
0.732500 0.787500 0.960000
0.851250 0.787500 0.960000
0.970000 0.787500 0.960000
0.020000 0.918750 0.960000
0.138750 0.918750 0.960000
0.257500 0.918750 0.960000
0.376250 0.918750 0.960000
0.495000 0.918750 0.960000
0.613750 0.918750 0.960000
0.732500 0.918750 0.960000
0.851250 0.918750 0.960000
0.970000 0.918750 0.960000
0.020000 1.000000 0.960000
0.138750 1.000000 0.960000
0.257500 1.000000 0.960000
0.376250 1.000000 0.960000
0.495000 1.000000 0.960000
0.613750 1.000000 0.960000
0.732500 1.000000 0.960000
0.851250 1.000000 0.960000
0.970000 1.000000 0.960000
