luts/fuji_pro.cube
TITLE "fuji_pro"
LUT_3D_SIZE 5
DOMAIN_MIN 0.0 0.0 0.0
DOMAIN_MAX 1.0 1.0 1.0
0.020000 0.000000 0.010000
0.257500 0.000000 0.010000
0.495000 0.000000 0.010000
0.732500 0.000000 0.010000
0.970000 0.000000 0.010000
0.020000 0.262500 0.010000
0.257500 0.262500 0.010000
0.495000 0.262500 0.010000
0.732500 0.262500 0.010000
0.970000 0.262500 0.010000
0.020000 0.525000 0.010000
0.257500 0.525000 0.010000
0.495000 0.525000 0.010000
0.732500 0.525000 0.010000
0.970000 0.525000 0.010000
0.020000 0.787500 0.010000
0.257500 0.787500 0.010000
0.495000 0.787500 0.010000
0.732500 0.787500 0.010000
0.970000 0.787500 0.010000
0.020000 1.000000 0.010000
0.257500 1.000000 0.010000
0.495000 1.000000 0.010000
0.732500 1.000000 0.010000
0.970000 1.000000 0.010000
0.020000 0.000000 0.247500
0.257500 0.000000 0.247500
0.495000 0.000000 0.247500
0.732500 0.000000 0.247500
0.970000 0.000000 0.247500
0.020000 0.262500 0.247500
0.257500 0.262500 0.247500
0.495000 0.262500 0.247500
0.732500 0.262500 0.247500
0.970000 0.262500 0.247500
0.020000 0.525000 0.247500
0.257500 0.525000 0.247500
0.495000 0.525000 0.247500
0.732500 0.525000 0.247500
0.970000 0.525000 0.247500
0.020000 0.787500 0.247500
0.257500 0.787500 0.247500
0.495000 0.787500 0.247500
0.732500 0.787500 0.247500
0.970000 0.787500 0.247500
0.020000 1.000000 0.247500
0.257500 1.000000 0.247500
0.495000 1.000000 0.247500
0.732500 1.000000 0.247500
0.970000 1.000000 0.247500
0.020000 0.000000 0.485000
0.257500 0.000000 0.485000
0.495000 0.000000 0.485000
0.732500 0.000000 0.485000
0.970000 0.000000 0.485000
0.020000 0.262500 0.485000
0.257500 0.262500 0.485000
0.495000 0.262500 0.485000
0.732500 0.262500 0.485000
0.970000 0.262500 0.485000
0.020000 0.525000 0.485000
0.257500 0.525000 0.485000
0.495000 0.525000 0.485000
0.732500 0.525000 0.485000
0.970000 0.525000 0.485000
0.020000 0.787500 0.485000
0.257500 0.787500 0.485000
0.495000 0.787500 0.485000
0.732500 0.787500 0.485000
0.970000 0.787500 0.485000
0.020000 1.000000 0.485000
0.257500 1.000000 0.485000
0.495000 1.000000 0.485000
0.732500 1.000000 0.485000
0.970000 1.000000 0.485000
0.020000 0.000000 0.722500
0.257500 0.000000 0.722500
0.495000 0.000000 0.722500
0.732500 0.000000 0.722500
0.970000 0.000000 0.722500
0.020000 0.262500 0.722500
0.257500 0.262500 0.722500
0.495000 0.262500 0.722500
0.732500 0.262500 0.722500
0.970000 0.262500 0.722500
0.020000 0.525000 0.722500
0.257500 0.525000 0.722500
0.495000 0.525000 0.722500
0.732500 0.525000 0.722500
0.970000 0.525000 0.722500
0.020000 0.787500 0.722500
0.257500 0.787500 0.722500
0.495000 0.787500 0.722500
0.732500 0.787500 0.722500
0.970000 0.787500 0.722500
0.020000 1.000000 0.722500
0.257500 1.000000 0.722500
0.495000 1.000000 0.722500
0.732500 1.000000 0.722500
0.970000 1.000000 0.722500
0.020000 0.000000 0.960000
0.257500 0.000000 0.960000
0.495000 0.000000 0.960000
0.732500 0.000000 0.960000
0.970000 0.000000 0.960000
0.020000 0.262500 0.960000
0.257500 0.262500 0.960000
0.495000 0.262500 0.960000
0.732500 0.262500 0.960000
0.970000 0.262500 0.960000
0.020000 0.525000 0.960000
0.257500 0.525000 0.960000
0.495000 0.525000 0.960000
0.732500 0.525000 0.960000
0.970000 0.525000 0.960000
0.020000 0.787500 0.960000
0.257500 0.787500 0.960000
0.495000 0.787500 0.960000
0.732500 0.787500 0.960000
0.970000 0.787500 0.960000
0.020000 1.000000 0.960000
0.257500 1.000000 0.960000
0.495000 1.000000 0.960000
0.732500 1.000000 0.960000
0.970000 1.000000 0.960000
