luts/fuji_pro.cube
TITLE "fuji_pro"
LUT_3D_SIZE 33
DOMAIN_MIN 0.0 0.0 0.0
DOMAIN_MAX 1.0 1.0 1.0
0.020000 0.000000 0.010000
0.049687 0.000000 0.010000
0.079375 0.000000 0.010000
0.109062 0.000000 0.010000
0.138750 0.000000 0.010000
0.168437 0.000000 0.010000
0.198125 0.000000 0.010000
0.227812 0.000000 0.010000
0.257500 0.000000 0.010000
0.287187 0.000000 0.010000
0.316875 0.000000 0.010000
0.346562 0.000000 0.010000
0.376250 0.000000 0.010000
0.405938 0.000000 0.010000
0.435625 0.000000 0.010000
0.465313 0.000000 0.010000
0.495000 0.000000 0.010000
0.524687 0.000000 0.010000
0.554375 0.000000 0.010000
0.584063 0.000000 0.010000
0.613750 0.000000 0.010000
0.643437 0.000000 0.010000
0.673125 0.000000 0.010000
0.702812 0.000000 0.010000
0.732500 0.000000 0.010000
0.762188 0.000000 0.010000
0.791875 0.000000 0.010000
0.821562 0.000000 0.010000
0.851250 0.000000 0.010000
0.880937 0.000000 0.010000
0.910625 0.000000 0.010000
0.940312 0.000000 0.010000
0.970000 0.000000 0.010000
0.020000 0.032813 0.010000
0.049687 0.032813 0.010000
0.079375 0.032813 0.010000
0.109062 0.032813 0.010000
0.138750 0.032813 0.010000
0.168437 0.032813 0.010000
0.198125 0.032813 0.010000
0.227812 0.032813 0.010000
0.257500 0.032813 0.010000
0.287187 0.032813 0.010000
0.316875 0.032813 0.010000
0.346562 0.032813 0.010000
0.376250 0.032813 0.010000
0.405938 0.032813 0.010000
0.435625 0.032813 0.010000
0.465313 0.032813 0.010000
0.495000 0.032813 0.010000
0.524687 0.032813 0.010000
0.554375 0.032813 0.010000
0.584063 0.032813 0.010000
0.613750 0.032813 0.010000
0.643437 0.032813 0.010000
0.673125 0.032813 0.010000
0.702812 0.032813 0.010000
0.732500 0.032813 0.010000
0.762188 0.032813 0.010000
0.791875 0.032813 0.010000
0.821562 0.032813 0.010000
0.851250 0.032813 0.010000
0.880937 0.032813 0.010000
0.910625 0.032813 0.010000
0.940312 0.032813 0.010000
0.970000 0.032813 0.010000
0.020000 0.065625 0.010000
0.049687 0.065625 0.010000
0.079375 0.065625 0.010000
0.109062 0.065625 0.010000
0.138750 0.065625 0.010000
0.168437 0.065625 0.010000
0.198125 0.065625 0.010000
0.227812 0.065625 0.010000
0.257500 0.065625 0.010000
0.287187 0.065625 0.010000
0.316875 0.065625 0.010000
0.346562 0.065625 0.010000
0.376250 0.065625 0.010000
0.405938 0.065625 0.010000
0.435625 0.065625 0.010000
0.465313 0.065625 0.010000
0.495000 0.065625 0.010000
0.524687 0.065625 0.010000
0.554375 0.065625 0.010000
0.584063 0.065625 0.010000
0.613750 0.065625 0.010000
0.643437 0.065625 0.010000
0.673125 0.065625 0.010000
0.702812 0.065625 0.010000
0.732500 0.065625 0.010000
0.762188 0.065625 0.010000
0.791875 0.065625 0.010000
0.821562 0.065625 0.010000
0.851250 0.065625 0.010000
0.880937 0.065625 0.010000
0.910625 0.065625 0.010000
0.940312 0.065625 0.010000
0.970000 0.065625 0.010000
0.020000 0.098438 0.010000
0.049687 0.098438 0.010000
0.079375 0.098438 0.010000
0.109062 0.098438 0.010000
0.138750 0.098438 0.010000
0.168437 0.098438 0.010000
0.198125 0.098438 0.010000
0.227812 0.098438 0.010000
0.257500 0.098438 0.010000
0.287187 0.098438 0.010000
0.316875 0.098438 0.010000
0.346562 0.098438 0.010000
0.376250 0.098438 0.010000
0.405938 0.098438 0.010000
0.435625 0.098438 0.010000
0.465313 0.098438 0.010000
0.495000 0.098438 0.010000
0.524687 0.098438 0.010000
0.554375 0.098438 0.010000
0.584063 0.098438 0.010000
0.613750 0.098438 0.010000
0.643437 0.098438 0.010000
0.673125 0.098438 0.010000
0.702812 0.098438 0.010000
0.732500 0.098438 0.010000
0.762188 0.098438 0.010000
0.791875 0.098438 0.010000
0.821562 0.098438 0.010000
0.851250 0.098438 0.010000
0.880937 0.098438 0.010000
0.910625 0.098438 0.010000
0.940312 0.098438 0.010000
0.970000 0.098438 0.010000
0.020000 0.131250 0.010000
0.049687 0.131250 0.010000
0.079375 0.131250 0.010000
0.109062 0.131250 0.010000
0.138750 0.131250 0.010000
0.168437 0.131250 0.010000
0.198125 0.131250 0.010000
0.227812 0.131250 0.010000
0.257500 0.131250 0.010000
0.287187 0.131250 0.010000
0.316875 0.131250 0.010000
0.346562 0.131250 0.010000
0.376250 0.131250 0.010000
0.405938 0.131250 0.010000
0.435625 0.131250 0.010000
0.465313 0.131250 0.010000
0.495000 0.131250 0.010000
0.524687 0.131250 0.010000
0.554375 0.131250 0.010000
0.584063 0.131250 0.010000
0.613750 0.131250 0.010000
0.643437 0.131250 0.010000
0.673125 0.131250 0.010000
0.702812 0.131250 0.010000
0.732500 0.131250 0.010000
0.762188 0.131250 0.010000
0.791875 0.131250 0.010000
0.821562 0.131250 0.010000
0.851250 0.131250 0.010000
0.880937 0.131250 0.010000
0.910625 0.131250 0.010000
0.940312 0.131250 0.010000
0.970000 0.131250 0.010000
0.020000 0.164062 0.010000
0.049687 0.164062 0.010000
0.079375 0.164062 0.010000
0.109062 0.164062 0.010000
0.138750 0.164062 0.010000
0.168437 0.164062 0.010000
0.198125 0.164062 0.010000
0.227812 0.164062 0.010000
0.257500 0.164062 0.010000
0.287187 0.164062 0.010000
0.316875 0.164062 0.010000
0.346562 0.164062 0.010000
0.376250 0.164062 0.010000
0.405938 0.164062 0.010000
0.435625 0.164062 0.010000
0.465313 0.164062 0.010000
0.495000 0.164062 0.010000
0.524687 0.164062 0.010000
0.554375 0.164062 0.010000
0.584063 0.164062 0.010000
0.613750 0.164062 0.010000
0.643437 0.164062 0.010000
0.673125 0.164062 0.010000
0.702812 0.164062 0.010000
0.732500 0.164062 0.010000
0.762188 0.164062 0.010000
0.791875 0.164062 0.010000
0.821562 0.164062 0.010000
0.851250 0.164062 0.010000
0.880937 0.164062 0.010000
0.910625 0.164062 0.010000
0.940312 0.164062 0.010000
0.970000 0.164062 0.010000
0.020000 0.196875 0.010000
0.049687 0.196875 0.010000
0.079375 0.196875 0.010000
0.109062 0.196875 0.010000
0.138750 0.196875 0.010000
0.168437 0.196875 0.010000
0.198125 0.196875 0.010000
0.227812 0.196875 0.010000
0.257500 0.196875 0.010000
0.287187 0.196875 0.010000
0.316875 0.196875 0.010000
0.346562 0.196875 0.010000
0.376250 0.196875 0.010000
0.405938 0.196875 0.010000
0.435625 0.196875 0.010000
0.465313 0.196875 0.010000
0.495000 0.196875 0.010000
0.524687 0.196875 0.010000
0.554375 0.196875 0.010000
0.584063 0.196875 0.010000
0.613750 0.196875 0.010000
0.643437 0.196875 0.010000
0.673125 0.196875 0.010000
0.702812 0.196875 0.010000
0.732500 0.196875 0.010000
0.762188 0.196875 0.010000
0.791875 0.196875 0.010000
0.821562 0.196875 0.010000
0.851250 0.196875 0.010000
0.880937 0.196875 0.010000
0.910625 0.196875 0.010000
0.940312 0.196875 0.010000
0.970000 0.196875 0.010000
0.020000 0.229688 0.010000
0.049687 0.229688 0.010000
0.079375 0.229688 0.010000
0.109062 0.229688 0.010000
0.138750 0.229688 0.010000
0.168437 0.229688 0.010000
0.198125 0.229688 0.010000
0.227812 0.229688 0.010000
0.257500 0.229688 0.010000
0.287187 0.229688 0.010000
0.316875 0.229688 0.010000
0.346562 0.229688 0.010000
0.376250 0.229688 0.010000
0.405938 0.229688 0.010000
0.435625 0.229688 0.010000
0.465313 0.229688 0.010000
0.495000 0.229688 0.010000
0.524687 0.229688 0.010000
0.554375 0.229688 0.010000
0.584063 0.229688 0.010000
0.613750 0.229688 0.010000
0.643437 0.229688 0.010000
0.673125 0.229688 0.010000
0.702812 0.229688 0.010000
0.732500 0.229688 0.010000
0.762188 0.229688 0.010000
0.791875 0.229688 0.010000
0.821562 0.229688 0.010000
0.851250 0.229688 0.010000
0.880937 0.229688 0.010000
0.910625 0.229688 0.010000
0.940312 0.229688 0.010000
0.970000 0.229688 0.010000
0.020000 0.262500 0.010000
0.049687 0.262500 0.010000
0.079375 0.262500 0.010000
0.109062 0.262500 0.010000
0.138750 0.262500 0.010000
0.168437 0.262500 0.010000
0.198125 0.262500 0.010000
0.227812 0.262500 0.010000
0.257500 0.262500 0.010000
0.287187 0.262500 0.010000
0.316875 0.262500 0.010000
0.346562 0.262500 0.010000
0.376250 0.262500 0.010000
0.405938 0.262500 0.010000
0.435625 0.262500 0.010000
0.465313 0.262500 0.010000
0.495000 0.262500 0.010000
0.524687 0.262500 0.010000
0.554375 0.262500 0.010000
0.584063 0.262500 0.010000
0.613750 0.262500 0.010000
0.643437 0.262500 0.010000
0.673125 0.262500 0.010000
0.702812 0.262500 0.010000
0.732500 0.262500 0.010000
0.762188 0.262500 0.010000
0.791875 0.262500 0.010000
0.821562 0.262500 0.010000
0.851250 0.262500 0.010000
0.880937 0.262500 0.010000
0.910625 0.262500 0.010000
0.940312 0.262500 0.010000
0.970000 0.262500 0.010000
0.020000 0.295313 0.010000
0.049687 0.295313 0.010000
0.079375 0.295313 0.010000
0.109062 0.295313 0.010000
0.138750 0.295313 0.010000
0.168437 0.295313 0.010000
0.198125 0.295313 0.010000
0.227812 0.295313 0.010000
0.257500 0.295313 0.010000
0.287187 0.295313 0.010000
0.316875 0.295313 0.010000
0.346562 0.295313 0.010000
0.376250 0.295313 0.010000
0.405938 0.295313 0.010000
0.435625 0.295313 0.010000
0.465313 0.295313 0.010000
0.495000 0.295313 0.010000
0.524687 0.295313 0.010000
0.554375 0.295313 0.010000
0.584063 0.295313 0.010000
0.613750 0.295313 0.010000
0.643437 0.295313 0.010000
0.673125 0.295313 0.010000
0.702812 0.295313 0.010000
0.732500 0.295313 0.010000
0.762188 0.295313 0.010000
0.791875 0.295313 0.010000
0.821562 0.295313 0.010000
0.851250 0.295313 0.010000
0.880937 0.295313 0.010000
0.910625 0.295313 0.010000
0.940312 0.295313 0.010000
0.970000 0.295313 0.010000
0.020000 0.328125 0.010000
0.049687 0.328125 0.010000
0.079375 0.328125 0.010000
0.109062 0.328125 0.010000
0.138750 0.328125 0.010000
0.168437 0.328125 0.010000
0.198125 0.328125 0.010000
0.227812 0.328125 0.010000
0.257500 0.328125 0.010000
0.287187 0.328125 0.010000
0.316875 0.328125 0.010000
0.346562 0.328125 0.010000
0.376250 0.328125 0.010000
0.405938 0.328125 0.010000
0.435625 0.328125 0.010000
0.465313 0.328125 0.010000
0.495000 0.328125 0.010000
0.524687 0.328125 0.010000
0.554375 0.328125 0.010000
0.584063 0.328125 0.010000
0.613750 0.328125 0.010000
0.643437 0.328125 0.010000
0.673125 0.328125 0.010000
0.702812 0.328125 0.010000
0.732500 0.328125 0.010000
0.762188 0.328125 0.010000
0.791875 0.328125 0.010000
0.821562 0.328125 0.010000
0.851250 0.328125 0.010000
0.880937 0.328125 0.010000
0.910625 0.328125 0.010000
0.940312 0.328125 0.010000
0.970000 0.328125 0.010000
0.020000 0.360938 0.010000
0.049687 0.360938 0.010000
0.079375 0.360938 0.010000
0.109062 0.360938 0.010000
0.138750 0.360938 0.010000
0.168437 0.360938 0.010000
0.198125 0.360938 0.010000
0.227812 0.360938 0.010000
0.257500 0.360938 0.010000
0.287187 0.360938 0.010000
0.316875 0.360938 0.010000
0.346562 0.360938 0.010000
0.376250 0.360938 0.010000
0.405938 0.360938 0.010000
0.435625 0.360938 0.010000
0.465313 0.360938 0.010000
0.495000 0.360938 0.010000
0.524687 0.360938 0.010000
0.554375 0.360938 0.010000
0.584063 0.360938 0.010000
0.613750 0.360938 0.010000
0.643437 0.360938 0.010000
0.673125 0.360938 0.010000
0.702812 0.360938 0.010000
0.732500 0.360938 0.010000
0.762188 0.360938 0.010000
0.791875 0.360938 0.010000
0.821562 0.360938 0.010000
0.851250 0.360938 0.010000
0.880937 0.360938 0.010000
0.910625 0.360938 0.010000
0.940312 0.360938 0.010000
0.970000 0.360938 0.010000
0.020000 0.393750 0.010000
0.049687 0.393750 0.010000
0.079375 0.393750 0.010000
0.109062 0.393750 0.010000
0.138750 0.393750 0.010000
0.168437 0.393750 0.010000
0.198125 0.393750 0.010000
0.227812 0.393750 0.010000
0.257500 0.393750 0.010000
0.287187 0.393750 0.010000
0.316875 0.393750 0.010000
0.346562 0.393750 0.010000
0.376250 0.393750 0.010000
0.405938 0.393750 0.010000
0.435625 0.393750 0.010000
0.465313 0.393750 0.010000
0.495000 0.393750 0.010000
0.524687 0.393750 0.010000
0.554375 0.393750 0.010000
0.584063 0.393750 0.010000
0.613750 0.393750 0.010000
0.643437 0.393750 0.010000
0.673125 0.393750 0.010000
0.702812 0.393750 0.010000
0.732500 0.393750 0.010000
0.762188 0.393750 0.010000
0.791875 0.393750 0.010000
0.821562 0.393750 0.010000
0.851250 0.393750 0.010000
0.880937 0.393750 0.010000
0.910625 0.393750 0.010000
0.940312 0.393750 0.010000
0.970000 0.393750 0.010000
0.020000 0.426563 0.010000
0.049687 0.426563 0.010000
0.079375 0.426563 0.010000
0.109062 0.426563 0.010000
0.138750 0.426563 0.010000
0.168437 0.426563 0.010000
0.198125 0.426563 0.010000
0.227812 0.426563 0.010000
0.257500 0.426563 0.010000
0.287187 0.426563 0.010000
0.316875 0.426563 0.010000
0.346562 0.426563 0.010000
0.376250 0.426563 0.010000
0.405938 0.426563 0.010000
0.435625 0.426563 0.010000
0.465313 0.426563 0.010000
0.495000 0.426563 0.010000
0.524687 0.426563 0.010000
0.554375 0.426563 0.010000
0.584063 0.426563 0.010000
0.613750 0.426563 0.010000
0.643437 0.426563 0.010000
0.673125 0.426563 0.010000
0.702812 0.426563 0.010000
0.732500 0.426563 0.010000
0.762188 0.426563 0.010000
0.791875 0.426563 0.010000
0.821562 0.426563 0.010000
0.851250 0.426563 0.010000
0.880937 0.426563 0.010000
0.910625 0.426563 0.010000
0.940312 0.426563 0.010000
0.970000 0.426563 0.010000
0.020000 0.459375 0.010000
0.049687 0.459375 0.010000
0.079375 0.459375 0.010000
0.109062 0.459375 0.010000
0.138750 0.459375 0.010000
0.168437 0.459375 0.010000
0.198125 0.459375 0.010000
0.227812 0.459375 0.010000
0.257500 0.459375 0.010000
0.287187 0.459375 0.010000
0.316875 0.459375 0.010000
0.346562 0.459375 0.010000
0.376250 0.459375 0.010000
0.405938 0.459375 0.010000
0.435625 0.459375 0.010000
0.465313 0.459375 0.010000
0.495000 0.459375 0.010000
0.524687 0.459375 0.010000
0.554375 0.459375 0.010000
0.584063 0.459375 0.010000
0.613750 0.459375 0.010000
0.643437 0.459375 0.010000
0.673125 0.459375 0.010000
0.702812 0.459375 0.010000
0.732500 0.459375 0.010000
0.762188 0.459375 0.010000
0.791875 0.459375 0.010000
0.821562 0.459375 0.010000
0.851250 0.459375 0.010000
0.880937 0.459375 0.010000
0.910625 0.459375 0.010000
0.940312 0.459375 0.010000
0.970000 0.459375 0.010000
0.020000 0.492188 0.010000
0.049687 0.492188 0.010000
0.079375 0.492188 0.010000
0.109062 0.492188 0.010000
0.138750 0.492188 0.010000
0.168437 0.492188 0.010000
0.198125 0.492188 0.010000
0.227812 0.492188 0.010000
0.257500 0.492188 0.010000
0.287187 0.492188 0.010000
0.316875 0.492188 0.010000
0.346562 0.492188 0.010000
0.376250 0.492188 0.010000
0.405938 0.492188 0.010000
0.435625 0.492188 0.010000
0.465313 0.492188 0.010000
0.495000 0.492188 0.010000
0.524687 0.492188 0.010000
0.554375 0.492188 0.010000
0.584063 0.492188 0.010000
0.613750 0.492188 0.010000
0.643437 0.492188 0.010000
0.673125 0.492188 0.010000
0.702812 0.492188 0.010000
0.732500 0.492188 0.010000
0.762188 0.492188 0.010000
0.791875 0.492188 0.010000
0.821562 0.492188 0.010000
0.851250 0.492188 0.010000
0.880937 0.492188 0.010000
0.910625 0.492188 0.010000
0.940312 0.492188 0.010000
0.970000 0.492188 0.010000
0.020000 0.525000 0.010000
0.049687 0.525000 0.010000
0.079375 0.525000 0.010000
0.109062 0.525000 0.010000
0.138750 0.525000 0.010000
0.168437 0.525000 0.010000
0.198125 0.525000 0.010000
0.227812 0.525000 0.010000
0.257500 0.525000 0.010000
0.287187 0.525000 0.010000
0.316875 0.525000 0.010000
0.346562 0.525000 0.010000
0.376250 0.525000 0.010000
0.405938 0.525000 0.010000
0.435625 0.525000 0.010000
0.465313 0.525000 0.010000
0.495000 0.525000 0.010000
0.524687 0.525000 0.010000
0.554375 0.525000 0.010000
0.584063 0.525000 0.010000
0.613750 0.525000 0.010000
0.643437 0.525000 0.010000
0.673125 0.525000 0.010000
0.702812 0.525000 0.010000
0.732500 0.525000 0.010000
0.762188 0.525000 0.010000
0.791875 0.525000 0.010000
0.821562 0.525000 0.010000
0.851250 0.525000 0.010000
0.880937 0.525000 0.010000
0.910625 0.525000 0.010000
0.940312 0.525000 0.010000
0.970000 0.525000 0.010000
0.020000 0.557813 0.010000
0.049687 0.557813 0.010000
0.079375 0.557813 0.010000
0.109062 0.557813 0.010000
0.138750 0.557813 0.010000
0.168437 0.557813 0.010000
0.198125 0.557813 0.010000
0.227812 0.557813 0.010000
0.257500 0.557813 0.010000
0.287187 0.557813 0.010000
0.316875 0.557813 0.010000
0.346562 0.557813 0.010000
0.376250 0.557813 0.010000
0.405938 0.557813 0.010000
0.435625 0.557813 0.010000
0.465313 0.557813 0.010000
0.495000 0.557813 0.010000
0.524687 0.557813 0.010000
0.554375 0.557813 0.010000
0.584063 0.557813 0.010000
0.613750 0.557813 0.010000
0.643437 0.557813 0.010000
0.673125 0.557813 0.010000
0.702812 0.557813 0.010000
0.732500 0.557813 0.010000
0.762188 0.557813 0.010000
0.791875 0.557813 0.010000
0.821562 0.557813 0.010000
0.851250 0.557813 0.010000
0.880937 0.557813 0.010000
0.910625 0.557813 0.010000
0.940312 0.557813 0.010000
0.970000 0.557813 0.010000
0.020000 0.590625 0.010000
0.049687 0.590625 0.010000
0.079375 0.590625 0.010000
0.109062 0.590625 0.010000
0.138750 0.590625 0.010000
0.168437 0.590625 0.010000
0.198125 0.590625 0.010000
0.227812 0.590625 0.010000
0.257500 0.590625 0.010000
0.287187 0.590625 0.010000
0.316875 0.590625 0.010000
0.346562 0.590625 0.010000
0.376250 0.590625 0.010000
0.405938 0.590625 0.010000
0.435625 0.590625 0.010000
0.465313 0.590625 0.010000
0.495000 0.590625 0.010000
0.524687 0.590625 0.010000
0.554375 0.590625 0.010000
0.584063 0.590625 0.010000
0.613750 0.590625 0.010000
0.643437 0.590625 0.010000
0.673125 0.590625 0.010000
0.702812 0.590625 0.010000
0.732500 0.590625 0.010000
0.762188 0.590625 0.010000
0.791875 0.590625 0.010000
0.821562 0.590625 0.010000
0.851250 0.590625 0.010000
0.880937 0.590625 0.010000
0.910625 0.590625 0.010000
0.940312 0.590625 0.010000
0.970000 0.590625 0.010000
0.020000 0.623437 0.010000
0.049687 0.623437 0.010000
0.079375 0.623437 0.010000
0.109062 0.623437 0.010000
0.138750 0.623437 0.010000
0.168437 0.623437 0.010000
0.198125 0.623437 0.010000
0.227812 0.623437 0.010000
0.257500 0.623437 0.010000
0.287187 0.623437 0.010000
0.316875 0.623437 0.010000
0.346562 0.623437 0.010000
0.376250 0.623437 0.010000
0.405938 0.623437 0.010000
0.435625 0.623437 0.010000
0.465313 0.623437 0.010000
0.495000 0.623437 0.010000
0.524687 0.623437 0.010000
0.554375 0.623437 0.010000
0.584063 0.623437 0.010000
0.613750 0.623437 0.010000
0.643437 0.623437 0.010000
0.673125 0.623437 0.010000
0.702812 0.623437 0.010000
0.732500 0.623437 0.010000
0.762188 0.623437 0.010000
0.791875 0.623437 0.010000
0.821562 0.623437 0.010000
0.851250 0.623437 0.010000
0.880937 0.623437 0.010000
0.910625 0.623437 0.010000
0.940312 0.623437 0.010000
0.970000 0.623437 0.010000
0.020000 0.656250 0.010000
0.049687 0.656250 0.010000
0.079375 0.656250 0.010000
0.109062 0.656250 0.010000
0.138750 0.656250 0.010000
0.168437 0.656250 0.010000
0.198125 0.656250 0.010000
0.227812 0.656250 0.010000
0.257500 0.656250 0.010000
0.287187 0.656250 0.010000
0.316875 0.656250 0.010000
0.346562 0.656250 0.010000
0.376250 0.656250 0.010000
0.405938 0.656250 0.010000
0.435625 0.656250 0.010000
0.465313 0.656250 0.010000
0.495000 0.656250 0.010000
0.524687 0.656250 0.010000
0.554375 0.656250 0.010000
0.584063 0.656250 0.010000
0.613750 0.656250 0.010000
0.643437 0.656250 0.010000
0.673125 0.656250 0.010000
0.702812 0.656250 0.010000
0.732500 0.656250 0.010000
0.762188 0.656250 0.010000
0.791875 0.656250 0.010000
0.821562 0.656250 0.010000
0.851250 0.656250 0.010000
0.880937 0.656250 0.010000
0.910625 0.656250 0.010000
0.940312 0.656250 0.010000
0.970000 0.656250 0.010000
0.020000 0.689063 0.010000
0.049687 0.689063 0.010000
0.079375 0.689063 0.010000
0.109062 0.689063 0.010000
0.138750 0.689063 0.010000
0.168437 0.689063 0.010000
0.198125 0.689063 0.010000
0.227812 0.689063 0.010000
0.257500 0.689063 0.010000
0.287187 0.689063 0.010000
0.316875 0.689063 0.010000
0.346562 0.689063 0.010000
0.376250 0.689063 0.010000
0.405938 0.689063 0.010000
0.435625 0.689063 0.010000
0.465313 0.689063 0.010000
0.495000 0.689063 0.010000
0.524687 0.689063 0.010000
0.554375 0.689063 0.010000
0.584063 0.689063 0.010000
0.613750 0.689063 0.010000
0.643437 0.689063 0.010000
0.673125 0.689063 0.010000
0.702812 0.689063 0.010000
0.732500 0.689063 0.010000
0.762188 0.689063 0.010000
0.791875 0.689063 0.010000
0.821562 0.689063 0.010000
0.851250 0.689063 0.010000
0.880937 0.689063 0.010000
0.910625 0.689063 0.010000
0.940312 0.689063 0.010000
0.970000 0.689063 0.010000
0.020000 0.721875 0.010000
0.049687 0.721875 0.010000
0.079375 0.721875 0.010000
0.109062 0.721875 0.010000
0.138750 0.721875 0.010000
0.168437 0.721875 0.010000
0.198125 0.721875 0.010000
0.227812 0.721875 0.010000
0.257500 0.721875 0.010000
0.287187 0.721875 0.010000
0.316875 0.721875 0.010000
0.346562 0.721875 0.010000
0.376250 0.721875 0.010000
0.405938 0.721875 0.010000
0.435625 0.721875 0.010000
0.465313 0.721875 0.010000
0.495000 0.721875 0.010000
0.524687 0.721875 0.010000
0.554375 0.721875 0.010000
0.584063 0.721875 0.010000
0.613750 0.721875 0.010000
0.643437 0.721875 0.010000
0.673125 0.721875 0.010000
0.702812 0.721875 0.010000
0.732500 0.721875 0.010000
0.762188 0.721875 0.010000
0.791875 0.721875 0.010000
0.821562 0.721875 0.010000
0.851250 0.721875 0.010000
0.880937 0.721875 0.010000
0.910625 0.721875 0.010000
0.940312 0.721875 0.010000
0.970000 0.721875 0.010000
0.020000 0.754688 0.010000
0.049687 0.754688 0.010000
0.079375 0.754688 0.010000
0.109062 0.754688 0.010000
0.138750 0.754688 0.010000
0.168437 0.754688 0.010000
0.198125 0.754688 0.010000
0.227812 0.754688 0.010000
0.257500 0.754688 0.010000
0.287187 0.754688 0.010000
0.316875 0.754688 0.010000
0.346562 0.754688 0.010000
0.376250 0.754688 0.010000
0.405938 0.754688 0.010000
0.435625 0.754688 0.010000
0.465313 0.754688 0.010000
0.495000 0.754688 0.010000
0.524687 0.754688 0.010000
0.554375 0.754688 0.010000
0.584063 0.754688 0.010000
0.613750 0.754688 0.010000
0.643437 0.754688 0.010000
0.673125 0.754688 0.010000
0.702812 0.754688 0.010000
0.732500 0.754688 0.010000
0.762188 0.754688 0.010000
0.791875 0.754688 0.010000
0.821562 0.754688 0.010000
0.851250 0.754688 0.010000
0.880937 0.754688 0.010000
0.910625 0.754688 0.010000
0.940312 0.754688 0.010000
0.970000 0.754688 0.010000
0.020000 0.787500 0.010000
0.049687 0.787500 0.010000
0.079375 0.787500 0.010000
0.109062 0.787500 0.010000
0.138750 0.787500 0.010000
0.168437 0.787500 0.010000
0.198125 0.787500 0.010000
0.227812 0.787500 0.010000
0.257500 0.787500 0.010000
0.287187 0.787500 0.010000
0.316875 0.787500 0.010000
0.346562 0.787500 0.010000
0.376250 0.787500 0.010000
0.405938 0.787500 0.010000
0.435625 0.787500 0.010000
0.465313 0.787500 0.010000
0.495000 0.787500 0.010000
0.524687 0.787500 0.010000
0.554375 0.787500 0.010000
0.584063 0.787500 0.010000
0.613750 0.787500 0.010000
0.643437 0.787500 0.010000
0.673125 0.787500 0.010000
0.702812 0.787500 0.010000
0.732500 0.787500 0.010000
0.762188 0.787500 0.010000
0.791875 0.787500 0.010000
0.821562 0.787500 0.010000
0.851250 0.787500 0.010000
0.880937 0.787500 0.010000
0.910625 0.787500 0.010000
0.940312 0.787500 0.010000
0.970000 0.787500 0.010000
0.020000 0.820312 0.010000
0.049687 0.820312 0.010000
0.079375 0.820312 0.010000
0.109062 0.820312 0.010000
0.138750 0.820312 0.010000
0.168437 0.820312 0.010000
0.198125 0.820312 0.010000
0.227812 0.820312 0.010000
0.257500 0.820312 0.010000
0.287187 0.820312 0.010000
0.316875 0.820312 0.010000
0.346562 0.820312 0.010000
0.376250 0.820312 0.010000
0.405938 0.820312 0.010000
0.435625 0.820312 0.010000
0.465313 0.820312 0.010000
0.495000 0.820312 0.010000
0.524687 0.820312 0.010000
0.554375 0.820312 0.010000
0.584063 0.820312 0.010000
0.613750 0.820312 0.010000
0.643437 0.820312 0.010000
0.673125 0.820312 0.010000
0.702812 0.820312 0.010000
0.732500 0.820312 0.010000
0.762188 0.820312 0.010000
0.791875 0.820312 0.010000
0.821562 0.820312 0.010000
0.851250 0.820312 0.010000
0.880937 0.820312 0.010000
0.910625 0.820312 0.010000
0.940312 0.820312 0.010000
0.970000 0.820312 0.010000
0.020000 0.853125 0.010000
0.049687 0.853125 0.010000
0.079375 0.853125 0.010000
0.109062 0.853125 0.010000
0.138750 0.853125 0.010000
0.168437 0.853125 0.010000
0.198125 0.853125 0.010000
0.227812 0.853125 0.010000
0.257500 0.853125 0.010000
0.287187 0.853125 0.010000
0.316875 0.853125 0.010000
0.346562 0.853125 0.010000
0.376250 0.853125 0.010000
0.405938 0.853125 0.010000
0.435625 0.853125 0.010000
0.465313 0.853125 0.010000
0.495000 0.853125 0.010000
0.524687 0.853125 0.010000
0.554375 0.853125 0.010000
0.584063 0.853125 0.010000
0.613750 0.853125 0.010000
0.643437 0.853125 0.010000
0.673125 0.853125 0.010000
0.702812 0.853125 0.010000
0.732500 0.853125 0.010000
0.762188 0.853125 0.010000
0.791875 0.853125 0.010000
0.821562 0.853125 0.010000
