luts/horizons.cube
TITLE "Generated by Resolve"
LUT_3D_SIZE 9
0.0269932 0.0269932 0.0269932
0.0269932 0.0269932 0.0269932
0.0827192 0.0269932 0.0269932
0.155612 0.0314183 0.0269932
0.261814 0.0332189 0.0269932
0.3906 0.0373236 0.0269932
0.524361 0.0350042 0.0269932
0.654215 0.0308232 0.0269932
0.764492 0.0410468 0.0269932
0.042298 0.0792248 0.0337682
0.0433661 0.0795148 0.0340734
0.111574 0.0922713 0.0453498
0.191104 0.10454 0.0448005
0.302739 0.109728 0.0314641
0.429908 0.111757 0.0269932
0.562356 0.109346 0.0269932
0.693049 0.106828 0.0269932
0.7991 0.1084 0.0269932
0.0747997 0.157214 0.0556497
0.0817731 0.159228 0.0578012
0.159991 0.170291 0.0732586
0.235676 0.185245 0.0799268
0.352148 0.193835 0.0708476
0.483223 0.198581 0.053193
0.615763 0.200092 0.0294347
0.742016 0.204761 0.0269932
0.845289 0.216205 0.0269932
0.09514 0.244221 0.0604715
0.106569 0.247028 0.0638437
0.190631 0.260243 0.085481
0.28304 0.275242 0.0959945
0.39411 0.288014 0.0968795
0.528344 0.29984 0.0893111
0.663554 0.305364 0.072221
0.791165 0.312367 0.0571603
0.893645 0.32752 0.0549935
0.105013 0.341314 0.0538186
0.124163 0.345052 0.0599527
0.2121 0.358785 0.085481
0.318807 0.371969 0.100008
0.43122 0.390585 0.105821
0.561578 0.404105 0.107866
0.700954 0.418875 0.102312
0.826413 0.4327 0.0935378
0.927031 0.452659 0.094377
0.12195 0.459983 0.0441138
0.139727 0.463233 0.0495308
0.231708 0.475273 0.0758068
0.337881 0.485451 0.0935073
0.48101 0.49633 0.101595
0.592065 0.519539 0.105486
0.728527 0.534356 0.109331
0.853071 0.554299 0.112535
0.951217 0.579828 0.120867
0.146487 0.588418 0.0451057
0.15639 0.590524 0.0481117
0.256199 0.602579 0.0772412
0.363668 0.611154 0.0985885
0.50901 0.61735 0.10573
0.651759 0.633906 0.113313
0.764477 0.656779 0.11693
0.882445 0.674769 0.127001
0.977401 0.69929 0.140383
0.190463 0.717708 0.0707256
0.190829 0.718502 0.0710155
0.290669 0.729351 0.100786
0.404959 0.736614 0.125551
0.551965 0.739513 0.134951
0.718791 0.747738 0.140581
0.828168 0.772717 0.144762
0.931228 0.793118 0.154376
1 0.81413 0.17052
0.251331 0.841581 0.118181
0.251575 0.842069 0.118349
0.350027 0.850996 0.146715
0.469444 0.855268 0.170977
0.619303 0.854963 0.180285
0.790738 0.85951 0.182879
0.911711 0.879332 0.18909
0.992309 0.903059 0.196048
1 0.923278 0.213474
0.0269932 0.0269932 0.0461433
0.0269932 0.0269932 0.0467842
0.0911879 0.0269932 0.0561837
0.152361 0.0346838 0.05626
0.248905 0.0429694 0.0508278
0.371008 0.0466926 0.0383307
0.501854 0.0442664 0.029984
0.629129 0.0417182 0.0269932
0.737514 0.0522164 0.0269932
0.0294041 0.0823072 0.0775006
0.0325322 0.0837262 0.0794385
0.10695 0.0947738 0.0902724
0.186862 0.107332 0.0916304
0.302235 0.112062 0.0801099
0.434333 0.113436 0.0630808
0.566781 0.111635 0.0433051
0.693751 0.10988 0.0357671
0.792721 0.113405 0.0344701
0.0556191 0.166674 0.102068
0.0631723 0.169009 0.104402
0.148547 0.178347 0.125765
0.231083 0.191379 0.13402
0.349447 0.198856 0.123278
0.480537 0.204837 0.103777
0.613916 0.207202 0.0800031
0.743145 0.210452 0.0638743
0.847807 0.22089 0.0635386
0.0766461 0.256901 0.110491
0.0898756 0.259693 0.114519
0.179324 0.271626 0.142565
0.279347 0.283268 0.158923
0.390265 0.296239 0.15906
0.525383 0.307393 0.149859
0.661662 0.312947 0.132647
0.787732 0.320089 0.117205
0.88809 0.336019 0.115602
0.0870832 0.354589 0.105318
0.108095 0.358389 0.112078
0.19942 0.371649 0.142138
0.305608 0.383368 0.164569
0.42742 0.399176 0.171283
0.557626 0.413764 0.173831
0.697887 0.429465 0.168521
0.823148 0.442267 0.159777
0.923186 0.461936 0.161791
0.102281 0.472053 0.0964981
0.12079 0.475105 0.102342
0.213748 0.485618 0.1308
0.321645 0.49337 0.154513
0.46627 0.502907 0.165225
0.585077 0.526925 0.172793
0.722972 0.543786 0.178912
0.848569 0.565209 0.182849
0.947326 0.590631 0.190356
0.128878 0.599252 0.0932174
0.139269 0.601373 0.0968032
0.239704 0.612482 0.127901
0.348196 0.61912 0.152987
0.490425 0.623636 0.165164
0.644816 0.63859 0.174945
0.757397 0.663691 0.180972
0.875853 0.682628 0.192355
0.971344 0.707927 0.206744
0.17615 0.726482 0.111299
0.176318 0.727352 0.112108
0.276951 0.737697 0.143832
0.391959 0.743542 0.171542
0.537362 0.744579 0.186481
0.706142 0.752346 0.194049
0.822141 0.777081 0.202564
0.923781 0.798962 0.21529
1 0.820661 0.235966
0.236271 0.849897 0.159548
0.236088 0.850553 0.160754
0.335988 0.859022 0.191852
0.455283 0.862043 0.220386
0.603052 0.859693 0.237324
0.77171 0.864057 0.24448
0.903181 0.882612 0.25864
0.986099 0.908476 0.273732
1 0.930129 0.299962
0.0269932 0.0278477 0.106172
0.0269932 0.0286107 0.108415
0.0875257 0.0316777 0.132097
0.192523 0.0343633 0.134905
0.283177 0.0445106 0.116487
0.3879 0.0514534 0.103532
0.502983 0.052903 0.0898756
0.616617 0.0533913 0.0781415
0.713008 0.0650645 0.0809796
0.0269932 0.0913252 0.136522
0.0299535 0.0931258 0.139208
0.100374 0.103105 0.158465
0.211475 0.107042 0.168322
0.303258 0.118654 0.154665
0.418219 0.12462 0.144762
0.537545 0.12639 0.131792
0.656291 0.127031 0.12015
0.751186 0.132631 0.120226
0.0460212 0.173648 0.184695
0.0540169 0.176318 0.187594
0.134997 0.188876 0.200214
0.230411 0.198154 0.208164
0.34049 0.20647 0.20145
0.475257 0.211307 0.189624
0.610758 0.213779 0.174517
0.735485 0.21799 0.16405
0.833402 0.230274 0.168719
0.0480201 0.272938 0.200061
0.0623484 0.276341 0.202823
0.155657 0.28893 0.214511
0.266758 0.295933 0.236652
0.385534 0.305333 0.234241
0.521279 0.314321 0.221088
0.657786 0.322484 0.202014
0.782177 0.330236 0.187808
0.882994 0.345632 0.192065
0.0561837 0.375204 0.183413
0.079942 0.378836 0.187716
0.179675 0.390311 0.209979
0.293324 0.399741 0.240711
0.423865 0.41059 0.251881
0.553048 0.426001 0.253056
0.695323 0.441871 0.247074
0.819715 0.453513 0.237736
0.918669 0.472953 0.240803
0.0727703 0.490669 0.166918
0.0930495 0.493187 0.171557
0.191165 0.501427 0.196353
0.304417 0.508125 0.226169
0.447166 0.51519 0.245258
0.577966 0.536995 0.254627
0.717342 0.556252 0.262776
0.844236 0.579293 0.267643
0.94374 0.60441 0.276005
0.0996567 0.617136 0.16527
0.111391 0.619104 0.16875
0.214878 0.62797 0.197482
0.325124 0.63209 0.225376
0.466697 0.631907 0.245716
0.630854 0.644892 0.257923
0.747539 0.672999 0.268391
0.867048 0.693706 0.282078
0.963272 0.720302 0.297673
0.145235 0.74464 0.19118
0.145342 0.74551 0.19202
0.249363 0.753658 0.221805
0.366232 0.757183 0.251942
0.512474 0.753384 0.274113
0.678599 0.759457 0.283772
0.811719 0.783047 0.297108
0.911498 0.807752 0.311376
0.996323 0.830289 0.332906
0.20119 0.868055 0.246448
0.201007 0.868666 0.247456
0.306737 0.875029 0.276677
0.427817 0.875242 0.305913
0.576425 0.868009 0.32813
0.738582 0.870268 0.337896
0.888502 0.886427 0.353185
0.972854 0.914397 0.368902
1 0.937224 0.393851
0.0269932 0.0358129 0.17937
0.0269932 0.0364843 0.183017
0.0706188 0.0408331 0.206012
0.194125 0.0392615 0.227726
0.336019 0.0380713 0.210452
0.439704 0.0432746 0.182223
0.538079 0.0499275 0.16408
0.643366 0.051957 0.153048
0.734401 0.0645304 0.158083
0.0269932 0.097261 0.203738
0.0269932 0.0990616 0.207233
0.085481 0.107591 0.229007
0.206104 0.109224 0.256733
0.355505 0.106935 0.243931
0.455863 0.118364 0.220035
0.562432 0.125795 0.20708
0.670924 0.130587 0.199496
0.760357 0.13753 0.202625
0.0288548 0.177462 0.246448
0.0358434 0.179934 0.249165
0.114687 0.19202 0.26302
0.222156 0.199649 0.289357
0.378073 0.199634 0.285344
0.481483 0.214389 0.270848
0.599496 0.223346 0.263828
0.711254 0.231388 0.260105
0.802426 0.245533 0.26894
0.0434882 0.277089 0.293355
0.0597238 0.280949 0.297353
0.147021 0.296208 0.312993
0.250431 0.307256 0.323522
0.381643 0.311391 0.323033
0.509087 0.321218 0.315862
0.646143 0.330739 0.309117
0.767651 0.339605 0.30454
0.863676 0.356161 0.313573
0.0306859 0.393484 0.302403
0.0536812 0.39855 0.30663
0.146792 0.414252 0.320073
0.266926 0.422904 0.327932
0.414755 0.424964 0.348363
0.545388 0.437751 0.345068
0.68867 0.451682 0.336629
0.812802 0.465278 0.328969
0.909148 0.485115 0.334096
0.0312963 0.517098 0.27866
0.0523232 0.519844 0.281025
0.15491 0.527276 0.291905
0.279622 0.530953 0.311223
0.42916 0.534478 0.344091
0.57171 0.550546 0.3561
0.710307 0.571435 0.364385
0.839826 0.595987 0.37026
0.938811 0.619196 0.378775
0.0554818 0.642969 0.268696
0.0682078 0.644755 0.271183
0.175799 0.650874 0.289326
0.292912 0.650217 0.30956
0.439948 0.644755 0.337407
0.604471 0.653925 0.356817
0.734203 0.682765 0.372442
0.855756 0.706493 0.38941
0.953933 0.735256 0.406165
0.0997177 0.769696 0.296162
0.0996872 0.770565 0.29723
0.209064 0.77586 0.318303
0.332067 0.774975 0.341543
0.481453 0.765225 0.367575
0.640467 0.765148 0.384985
0.796551 0.787045 0.40293
0.895521 0.816358 0.419974
0.986862 0.840543 0.442832
0.152621 0.892424 0.35404
0.152361 0.89305 0.355184
0.267704 0.896437 0.376318
0.394415 0.891798 0.397955
0.544488 0.87924 0.422766
0.701152 0.874739 0.440513
0.862226 0.889143 0.456703
0.955932 0.918898 0.477089
1 0.944183 0.502556
0.0269932 0.0403143 0.263462
0.0269932 0.0411841 0.267124
0.0515908 0.0440375 0.288731
0.170855 0.0402838 0.315007
0.35021 0.0341497 0.320562
0.498772 0.0319677 0.292134
0.607919 0.032929 0.26125
0.697826 0.0355535 0.24332
0.779736 0.0555276 0.249744
0.0269932 0.0970169 0.282765
0.0269932 0.0984512 0.286458
0.0631723 0.104479 0.307454
0.176928 0.105653 0.335302
0.366445 0.0999313 0.352834
0.517617 0.0977798 0.327779
0.624292 0.107179 0.300832
0.716655 0.117464 0.288197
0.798383 0.126223 0.291356
0.0269932 0.174228 0.313436
0.0269932 0.17615 0.316854
0.0853285 0.184955 0.3355
0.194171 0.191165 0.362432
0.389105 0.190829 0.393912
0.543175 0.193561 0.373297
0.648081 0.209339 0.353277
0.745968 0.223423 0.348531
0.831495 0.239673 0.358526
0.0270237 0.274479 0.365286
0.0378729 0.277958 0.368063
0.11632 0.290318 0.376593
0.217472 0.29929 0.389883
0.393378 0.303059 0.425986
0.546838 0.310719 0.411368
0.655116 0.330678 0.403311
0.7617 0.346151 0.405554
0.85005 0.365332 0.418158
0.0276646 0.399405 0.412116
0.0497444 0.404349 0.417029
0.141436 0.420722 0.433921
0.253193 0.433509 0.447211
0.393759 0.439475 0.451743
0.53402 0.44448 0.447562
0.669612 0.459159 0.446159
0.794202 0.476265 0.449775
0.890791 0.49662 0.461402
0.0269932 0.535576 0.423026
0.0306401 0.539376 0.426398
0.124773 0.552987 0.438621
0.24004 0.562402 0.445136
0.402716 0.562692 0.448096
0.564706 0.566567 0.47187
0.700893 0.586038 0.475029
0.830839 0.608408 0.479118
0.930694 0.632105 0.490379
0.0269932 0.671336 0.4177
0.0295872 0.673609 0.419699
0.127596 0.682918 0.42739
0.247379 0.681224 0.427558
0.411353 0.670573 0.437583
0.580056 0.674403 0.473182
0.723964 0.697353 0.489158
0.845182 0.722225 0.505486
0.947692 0.754055 0.523964
0.0482338 0.800656 0.439887
0.048249 0.80148 0.441138
0.158221 0.807446 0.449363
0.286458 0.803159 0.453605
0.445747 0.783673 0.461982
0.609308 0.777127 0.491341
0.775555 0.793957 0.513664
0.878889 0.82594 0.534417
0.972702 0.852354 0.559182
0.097673 0.92314 0.494881
0.102144 0.923858 0.496361
0.221027 0.926604 0.503822
0.353231 0.917174 0.5075
0.510582 0.89572 0.517601
0.666804 0.881651 0.541192
0.822538 0.891737 0.561791
0.93817 0.921584 0.588861
0.999756 0.950484 0.616129
0.0269932 0.0373083 0.359335
0.0269932 0.0375219 0.362676
0.0320439 0.0385748 0.383185
0.145525 0.0326238 0.407187
0.335958 0.0269932 0.42826
0.518273 0.0269932 0.414618
0.667292 0.0269932 0.38616
0.779263 0.0269932 0.365133
0.859937 0.0335699 0.365438
0.0269932 0.0913863 0.375204
0.0269932 0.0924239 0.378592
0.0380407 0.09514 0.397543
0.148745 0.0920729 0.420935
0.342184 0.0810407 0.451286
0.534646 0.0747234 0.44625
0.68513 0.0708324 0.419104
0.794095 0.0768292 0.398001
0.872404 0.0879225 0.395224
0.0269932 0.168994 0.399802
0.0269932 0.170199 0.403159
0.0544747 0.173999 0.419715
0.161837 0.17438 0.441871
0.352834 0.17113 0.481346
0.561532 0.175296 0.492546
0.714565 0.178134 0.47013
0.820172 0.192798 0.455314
0.897597 0.213504 0.45919
0.0269932 0.268132 0.432578
0.0269932 0.270054 0.434791
0.071519 0.274968 0.443442
0.174685 0.278294 0.459785
0.342657 0.2813 0.496681
0.56936 0.294865 0.530617
0.722316 0.304799 0.512612
0.819623 0.327886 0.504097
0.89662 0.35375 0.513787
0.0269932 0.400244 0.500191
0.0304265 0.403952 0.503182
0.114641 0.415198 0.510826
0.213306 0.421042 0.510719
0.348791 0.423957 0.517098
0.552163 0.434852 0.560006
0.699825 0.450477 0.546349
0.798459 0.477592 0.550408
0.884688 0.503761 0.566888
0.0269932 0.543145 0.542672
0.0289311 0.546807 0.546319
0.122713 0.561151 0.561318
0.233433 0.571099 0.572076
0.38352 0.578973 0.58117
0.543389 0.584924 0.587442
0.683055 0.593271 0.584817
0.810117 0.613504 0.590387
0.911635 0.639567 0.606668
0.0269932 0.686442 0.563317
0.0269932 0.688518 0.565362
0.108522 0.702693 0.579187
0.221195 0.709453 0.584741
0.375326 0.707607 0.579309
0.558511 0.705379 0.584543
0.718975 0.714702 0.611536
0.83566 0.738674 0.622812
0.939406 0.76817 0.639902
0.0269932 0.822217 0.597894
0.0270085 0.822934 0.598978
0.126452 0.83418 0.609079
0.247364 0.836774 0.608896
0.405615 0.818891 0.589166
0.587015 0.806088 0.599008
0.752758 0.815229 0.635508
0.8692 0.841886 0.655695
0.961547 0.868009 0.678431
0.0638285 0.9467 0.654505
0.0827039 0.948592 0.656718
0.190478 0.955871 0.661997
0.317327 0.949996 0.653635
0.47541 0.924666 0.633631
0.642985 0.903304 0.642313
0.798856 0.9093 0.678828
0.926863 0.932021 0.705669
0.997497 0.961181 0.732021
0.0269932 0.0443122 0.460563
0.0269932 0.0444953 0.462821
0.0269932 0.045716 0.482948
0.124346 0.0395972 0.505531
0.31075 0.0269932 0.531151
0.516686 0.0269932 0.536187
0.691844 0.0269932 0.514778
0.82916 0.0269932 0.495949
0.926925 0.0269932 0.494835
0.0269932 0.0720226 0.469871
0.0269932 0.0729076 0.472511
0.0269932 0.075227 0.492103
0.128695 0.0702525 0.514397
0.315084 0.0525978 0.542626
0.52549 0.038529 0.552789
0.702846 0.0322728 0.532738
0.838651 0.0281682 0.512673
0.934127 0.03888 0.50811
0.0269932 0.160647 0.493462
0.0269932 0.161975 0.496651
0.034287 0.16585 0.514672
0.141405 0.163378 0.534829
0.318883 0.152468 0.566888
0.54609 0.151202 0.597726
0.734462 0.152514 0.588144
0.870588 0.158846 0.573907
0.965835 0.176104 0.575113
0.0269932 0.264485 0.516167
0.0269932 0.266529 0.519066
0.0437324 0.271229 0.531746
0.14609 0.268849 0.545235
0.300969 0.260716 0.56997
0.536934 0.272755 0.623941
0.744823 0.288594 0.632609
0.879118 0.301961 0.622568
0.969635 0.326406 0.626459
0.0269932 0.399527 0.570397
0.0269932 0.402167 0.572
0.0702831 0.408789 0.574121
0.159396 0.40264 0.567788
0.29337 0.394751 0.574914
0.492088 0.406104 0.624567
0.729168 0.434638 0.663752
0.860807 0.453773 0.657343
0.943481 0.484184 0.6645
0.0269932 0.546258 0.639323
0.0269932 0.549187 0.641932
0.109499 0.562188 0.653468
0.213107 0.567147 0.655833
0.346487 0.563516 0.645045
0.496956 0.566323 0.64712
0.707454 0.58529 0.693492
0.826703 0.608087 0.68835
0.907485 0.640894 0.704326
0.0269932 0.694652 0.679988
0.0269932 0.695918 0.681086
0.106584 0.710979 0.69691
0.220935 0.719463 0.706355
0.371344 0.719219 0.707378
0.539727 0.727184 0.716625
0.700252 0.734722 0.724208
0.82179 0.746593 0.726513
0.920836 0.771038 0.73962
0.0269932 0.833036 0.727214
0.0269932 0.833661 0.728038
0.123751 0.846616 0.741817
0.242603 0.852827 0.748119
0.393042 0.84651 0.740353
0.560876 0.844205 0.733669
0.73933 0.844938 0.744717
0.865156 0.859449 0.770291
0.953292 0.883803 0.787213
0.056733 0.958144 0.785489
0.100603 0.962768 0.790311
0.196262 0.97145 0.79884
0.317754 0.969512 0.795468
0.463157 0.955596 0.778347
0.626093 0.938293 0.759915
0.793072 0.938018 0.783948
0.914626 0.952346 0.816098
0.993912 0.976089 0.838941
0.0269932 0.052369 0.55021
0.0269932 0.0524453 0.550942
0.0269932 0.0538033 0.570733
0.107836 0.047776 0.592782
0.289921 0.028336 0.618738
0.505745 0.0269932 0.635386
0.701259 0.0269932 0.624521
0.851575 0.0269932 0.608103
0.960723 0.0269932 0.606165
0.0269932 0.0526741 0.552834
0.0269932 0.0527504 0.553506
0.0269932 0.0541085 0.573816
0.111711 0.0476081 0.595804
0.294362 0.0282902 0.621637
0.510658 0.0269932 0.637842
0.70544 0.0269932 0.626703
0.85449 0.0269932 0.610498
0.962798 0.0269932 0.608667
0.0269932 0.135912 0.572503
0.0269932 0.137377 0.574105
0.0269932 0.141894 0.5935
0.124132 0.139742 0.61442
0.298817 0.126665 0.643091
0.524773 0.117754 0.675273
0.73341 0.118563 0.677852
0.885313 0.126329 0.66775
0.990509 0.14342 0.668818
0.0269932 0.257893 0.594659
0.0269932 0.259617 0.596185
0.0269932 0.265476 0.612085
0.13193 0.26453 0.627939
0.286931 0.254505 0.650339
0.510567 0.254322 0.697002
0.744183 0.270695 0.725109
0.899214 0.285313 0.721736
0.997681 0.30663 0.72433
0.0269932 0.396567 0.630411
0.0269932 0.398383 0.63154
0.0378271 0.40444 0.636561
0.132433 0.399985 0.637079
0.264607 0.382742 0.639307
0.44979 0.38056 0.674647
0.710719 0.416358 0.742962
0.880568 0.441703 0.753597
0.985229 0.466789 0.758328
0.0269932 0.547723 0.706615
0.0269932 0.549416 0.707759
0.082414 0.561151 0.71426
0.180117 0.562844 0.708721
0.294865 0.541268 0.679057
0.446723 0.534813 0.684108
0.662959 0.561791 0.748348
0.855909 0.596704 0.781582
0.956359 0.624491 0.787396
0.0269932 0.70132 0.764187
0.0269932 0.702281 0.764736
0.102281 0.71664 0.778607
0.217762 0.724605 0.786313
0.36463 0.719295 0.78027
0.523003 0.719371 0.776349
0.673259 0.726818 0.778668
0.839002 0.745754 0.813748
0.922698 0.773144 0.818982
0.027924 0.841917 0.816754
0.0280003 0.842512 0.817258
0.130816 0.85568 0.83125
0.251225 0.861769 0.838361
0.40235 0.856474 0.834257
0.565438 0.856352 0.835233
0.727291 0.867445 0.846738
0.858061 0.876173 0.85745
0.947707 0.893233 0.868894
0.0695811 0.965591 0.872587
0.148653 0.973495 0.881254
0.229297 0.979278 0.887877
0.350988 0.975357 0.884871
0.489952 0.965621 0.875563
0.641138 0.96173 0.870542
0.792172 0.96585 0.872663
0.913756 0.973449 0.8972
0.993408 0.988739 0.917464
0.0269932 0.0613718 0.626596
0.0269932 0.0613718 0.626596
0.0269932 0.0626841 0.643626
0.0920577 0.0572061 0.665446
0.272633 0.0363622 0.690166
0.495048 0.0269932 0.711757
0.70573 0.0269932 0.708934
0.865049 0.0269932 0.695567
0.979095 0.0269932 0.692607
0.0269932 0.0613718 0.626596
0.0269932 0.0613718 0.626596
0.0269932 0.0626993 0.64416
0.095491 0.0568399 0.665934
0.27628 0.0359197 0.690623
0.499062 0.0269932 0.711955
0.708858 0.0269932 0.708721
0.866743 0.0269932 0.695491
0.980133 0.0269932 0.692592
0.0269932 0.0721752 0.628504
0.0269932 0.0747845 0.628962
0.0269932 0.0801556 0.647669
0.101091 0.0796216 0.669993
0.28127 0.0665599 0.696513
0.507454 0.0534371 0.72369
0.722744 0.0517128 0.727977
0.88217 0.0630045 0.721141
0.99585 0.0864576 0.72372
0.0269932 0.234943 0.657038
0.0269932 0.236759 0.657176
0.0269932 0.243458 0.674037
0.117464 0.244877 0.691981
0.281987 0.234897 0.715282
0.504723 0.229938 0.756939
0.743832 0.242344 0.788296
0.90927 0.260319 0.790967
1 0.284566 0.793912
0.0269932 0.386419 0.677516
0.0269932 0.387976 0.677928
0.0269932 0.394415 0.685725
0.114504 0.392905 0.691783
0.257282 0.377997 0.69839
0.440909 0.3691 0.726818
0.696025 0.397024 0.792554
0.884962 0.429709 0.817899
0.996323 0.45716 0.824506
0.0269932 0.546548 0.747127
0.0269932 0.547906 0.747814
0.0559854 0.558053 0.751202
0.154406 0.558404 0.743496
0.272633 0.53312 0.714839
0.42092 0.515526 0.713726
0.63061 0.539132 0.773754
0.851637 0.589761 0.836667
0.97116 0.620447 0.848142
0.0269932 0.707317 0.815137
0.0269932 0.70837 0.815503
0.099733 0.722194 0.827619
0.216831 0.728786 0.831998
0.359533 0.719524 0.817838
0.499992 0.707012 0.794675
0.650858 0.714046 0.803265
0.826627 0.744976 0.859251
0.948745 0.773327 0.874739
0.0301976 0.853758 0.871672
0.0495155 0.856825 0.874556
0.154818 0.869337 0.887526
0.276585 0.872663 0.891295
0.424887 0.866484 0.885527
0.583215 0.86482 0.884031
0.73962 0.876478 0.895094
0.858717 0.889921 0.90454
0.950607 0.906355 0.917571
0.195621 0.980514 0.932006
0.247669 0.982528 0.934524
0.329305 0.979919 0.932616
0.441062 0.973388 0.926955
0.570291 0.96556 0.919936
0.709468 0.970092 0.924636
0.829465 0.979416 0.932479
0.92491 0.986908 0.940887
0.995132 0.996674 0.958267
