luts/horizons.cube
TITLE "Generated by Resolve"
LUT_3D_SIZE 5
0.0269932 0.0269932 0.0269932
0.0827192 0.0269932 0.0269932
0.261814 0.0332189 0.0269932
0.524361 0.0350042 0.0269932
0.764492 0.0410468 0.0269932
0.0747997 0.157214 0.0556497
0.159991 0.170291 0.0732586
0.352148 0.193835 0.0708476
0.615763 0.200092 0.0294347
0.845289 0.216205 0.0269932
0.105013 0.341314 0.0538186
0.2121 0.358785 0.085481
0.43122 0.390585 0.105821
0.700954 0.418875 0.102312
0.927031 0.452659 0.094377
0.146487 0.588418 0.0451057
0.256199 0.602579 0.0772412
0.50901 0.61735 0.10573
0.764477 0.656779 0.11693
0.977401 0.69929 0.140383
0.251331 0.841581 0.118181
0.350027 0.850996 0.146715
0.619303 0.854963 0.180285
0.911711 0.879332 0.18909
1 0.923278 0.213474
0.0269932 0.0278477 0.106172
0.0875257 0.0316777 0.132097
0.283177 0.0445106 0.116487
0.502983 0.052903 0.0898756
0.713008 0.0650645 0.0809796
0.0460212 0.173648 0.184695
0.134997 0.188876 0.200214
0.34049 0.20647 0.20145
0.610758 0.213779 0.174517
0.833402 0.230274 0.168719
0.0561837 0.375204 0.183413
0.179675 0.390311 0.209979
0.423865 0.41059 0.251881
0.695323 0.441871 0.247074
0.918669 0.472953 0.240803
0.0996567 0.617136 0.16527
0.214878 0.62797 0.197482
0.466697 0.631907 0.245716
0.747539 0.672999 0.268391
0.963272 0.720302 0.297673
0.20119 0.868055 0.246448
0.306737 0.875029 0.276677
0.576425 0.868009 0.32813
0.888502 0.886427 0.353185
1 0.937224 0.393851
0.0269932 0.0403143 0.263462
0.0515908 0.0440375 0.288731
0.35021 0.0341497 0.320562
0.607919 0.032929 0.26125
0.779736 0.0555276 0.249744
0.0269932 0.174228 0.313436
0.0853285 0.184955 0.3355
0.389105 0.190829 0.393912
0.648081 0.209339 0.353277
0.831495 0.239673 0.358526
0.0276646 0.399405 0.412116
0.141436 0.420722 0.433921
0.393759 0.439475 0.451743
0.669612 0.459159 0.446159
0.890791 0.49662 0.461402
0.0269932 0.671336 0.4177
0.127596 0.682918 0.42739
0.411353 0.670573 0.437583
0.723964 0.697353 0.489158
0.947692 0.754055 0.523964
0.097673 0.92314 0.494881
0.221027 0.926604 0.503822
0.510582 0.89572 0.517601
0.822538 0.891737 0.561791
0.999756 0.950484 0.616129
0.0269932 0.0443122 0.460563
0.0269932 0.045716 0.482948
0.31075 0.0269932 0.531151
0.691844 0.0269932 0.514778
0.926925 0.0269932 0.494835
0.0269932 0.160647 0.493462
0.034287 0.16585 0.514672
0.318883 0.152468 0.566888
0.734462 0.152514 0.588144
0.965835 0.176104 0.575113
0.0269932 0.399527 0.570397
0.0702831 0.408789 0.574121
0.29337 0.394751 0.574914
0.729168 0.434638 0.663752
0.943481 0.484184 0.6645
0.0269932 0.694652 0.679988
0.106584 0.710979 0.69691
0.371344 0.719219 0.707378
0.700252 0.734722 0.724208
0.920836 0.771038 0.73962
0.056733 0.958144 0.785489
0.196262 0.97145 0.79884
0.463157 0.955596 0.778347
0.793072 0.938018 0.783948
0.993912 0.976089 0.838941
0.0269932 0.0613718 0.626596
0.0269932 0.0626841 0.643626
0.272633 0.0363622 0.690166
0.70573 0.0269932 0.708934
0.979095 0.0269932 0.692607
0.0269932 0.0721752 0.628504
0.0269932 0.0801556 0.647669
0.28127 0.0665599 0.696513
0.722744 0.0517128 0.727977
0.99585 0.0864576 0.72372
0.0269932 0.386419 0.677516
0.0269932 0.394415 0.685725
0.257282 0.377997 0.69839
0.696025 0.397024 0.792554
0.996323 0.45716 0.824506
0.0269932 0.707317 0.815137
0.099733 0.722194 0.827619
0.359533 0.719524 0.817838
0.650858 0.714046 0.803265
0.948745 0.773327 0.874739
0.195621 0.980514 0.932006
0.329305 0.979919 0.932616
0.570291 0.96556 0.919936
0.829465 0.979416 0.932479
0.995132 0.996674 0.958267
