luts/horizons.cube
TITLE "Generated by Resolve"
LUT_3D_SIZE 33
0.0269932 0.0269932 0.0269932
0.0269932 0.0269932 0.0269932
0.0269932 0.0269932 0.0269932
0.0269932 0.0269932 0.0269932
0.0269932 0.0269932 0.0269932
0.030869 0.0269932 0.0269932
0.0479133 0.0269932 0.0269932
0.0666209 0.0269932 0.0269932
0.0827192 0.0269932 0.0269932
0.0991836 0.0269932 0.0269932
0.116457 0.0278019 0.0269932
0.135088 0.0298466 0.0269932
0.155612 0.0314183 0.0269932
0.17966 0.0322423 0.0269932
0.205524 0.0327611 0.0269932
0.232929 0.033051 0.0269932
0.261814 0.0332189 0.0269932
0.292271 0.0339818 0.0269932
0.324239 0.0355688 0.0269932
0.357092 0.0367285 0.0269932
0.3906 0.0373236 0.0269932
0.424445 0.0373999 0.0269932
0.457664 0.0369573 0.0269932
0.490944 0.0361334 0.0269932
0.524361 0.0350042 0.0269932
0.557656 0.033875 0.0269932
0.590509 0.0328222 0.0269932
0.622782 0.031754 0.0269932
0.654215 0.0308232 0.0269932
0.684474 0.0314641 0.0269932
0.712551 0.0339666 0.0269932
0.738857 0.037232 0.0269932
0.764492 0.0410468 0.0269932
0.0269932 0.0285801 0.0269932
0.0269932 0.028687 0.0269932
0.0269932 0.0287938 0.0269932
0.0269932 0.0289006 0.0269932
0.0269932 0.0289616 0.0269932
0.0331884 0.0298466 0.0269932
0.0493935 0.0311589 0.0269932
0.0679332 0.0328679 0.0269932
0.0854047 0.03505 0.0269932
0.103059 0.0375677 0.0269932
0.121294 0.0399786 0.0269932
0.140856 0.0437171 0.0269932
0.162325 0.0470588 0.0269932
0.187152 0.0497444 0.0269932
0.214359 0.051957 0.0269932
0.24303 0.0536965 0.0269932
0.272892 0.0550546 0.0269932
0.304021 0.0559854 0.0269932
0.336263 0.0565042 0.0269932
0.369299 0.0565652 0.0269932
0.40267 0.0560616 0.0269932
0.436286 0.0551614 0.0269932
0.469245 0.0541848 0.0269932
0.50251 0.0531472 0.0269932
0.535988 0.0521096 0.0269932
0.569238 0.0509957 0.0269932
0.602014 0.049958 0.0269932
0.634211 0.0490578 0.0269932
0.665675 0.0483253 0.0269932
0.695201 0.0479133 0.0269932
0.721889 0.0481117 0.0269932
0.746609 0.0485847 0.0269932
0.770428 0.049134 0.0269932
0.0273594 0.0387274 0.0270695
0.027451 0.0390173 0.0270848
0.0275425 0.039292 0.0271
0.0276341 0.0396277 0.0271153
0.0277867 0.0401007 0.0271458
0.0413214 0.0429236 0.0277409
0.0582132 0.0467231 0.028275
0.0758068 0.050721 0.0289921
0.0938125 0.0547036 0.0294957
0.111925 0.0585184 0.0299382
0.130632 0.0621195 0.0301823
0.150301 0.0654154 0.0302281
0.171954 0.0681926 0.029984
0.196796 0.0701457 0.0292973
0.224109 0.0715801 0.0274968
0.252522 0.0727092 0.0269932
0.282139 0.0735332 0.0269932
0.313024 0.0740215 0.0269932
0.345083 0.0741588 0.0269932
0.378119 0.0740215 0.0269932
0.41146 0.0735027 0.0269932
0.445136 0.0726635 0.0269932
0.47808 0.0717479 0.0269932
0.511452 0.0706951 0.0269932
0.545052 0.0696574 0.0269932
0.5785 0.0686046 0.0269932
0.611536 0.0676585 0.0269932
0.643839 0.0667887 0.0269932
0.675517 0.0661021 0.0269932
0.705196 0.0658122 0.0269932
0.732174 0.066041 0.0269932
0.757259 0.0666056 0.0269932
0.781262 0.067216 0.0269932
0.0339055 0.059678 0.028275
0.0339361 0.0597238 0.028275
0.0339513 0.0597848 0.028275
0.0339971 0.0599222 0.0282902
0.0340734 0.0601816 0.0283055
0.0516976 0.0623178 0.0319219
0.0674601 0.0657816 0.0339208
0.084062 0.0696269 0.0357671
0.101823 0.0734264 0.0367742
0.119982 0.0768902 0.037171
0.138857 0.0800488 0.0372473
0.158923 0.0828717 0.0367895
0.181064 0.0852522 0.035523
0.206058 0.0869001 0.0331121
0.233219 0.0881514 0.0295109
0.261524 0.0893416 0.028336
0.291035 0.0903334 0.0276799
0.321767 0.0910506 0.0269932
0.353628 0.0914168 0.0269932
0.386374 0.0914473 0.0269932
0.419608 0.0910964 0.0269932
0.452979 0.0904402 0.0269932
0.485954 0.0896468 0.0269932
0.519417 0.0886549 0.0269932
0.552987 0.0876478 0.0269932
0.58648 0.0866712 0.0269932
0.619623 0.085832 0.0269932
0.65211 0.0850996 0.0269932
0.683787 0.0844739 0.0269932
0.713497 0.0842908 0.0269932
0.740383 0.0846113 0.0269932
0.765454 0.0853437 0.0269932
0.789807 0.0858778 0.0269932
0.042298 0.0792248 0.0337682
0.0422522 0.0791485 0.0337377
0.0422522 0.0791333 0.0337377
0.042298 0.0792248 0.0337682
0.0433661 0.0795148 0.0340734
0.0615702 0.081651 0.0385138
0.0793774 0.0841688 0.0409857
0.0942855 0.0884413 0.0431983
0.111574 0.0922713 0.0453498
0.129427 0.0958877 0.0461891
0.148302 0.0992294 0.0464332
0.168582 0.102159 0.0460517
0.191104 0.10454 0.0448005
0.216388 0.106264 0.0424048
0.243931 0.107607 0.0390478
0.27277 0.108812 0.0357214
0.302739 0.109728 0.0314641
0.333501 0.110552 0.0272068
0.365087 0.111208 0.0269932
0.397223 0.111681 0.0269932
0.429908 0.111757 0.0269932
0.462654 0.111406 0.0269932
0.495384 0.110857 0.0269932
0.528756 0.110109 0.0269932
0.562356 0.109346 0.0269932
0.595804 0.108644 0.0269932
0.628885 0.107958 0.0269932
0.661418 0.107347 0.0269932
0.693049 0.106828 0.0269932
0.722637 0.106691 0.0269932
0.749371 0.10695 0.0269932
0.774563 0.107759 0.0269932
0.7991 0.1084 0.0269932
0.0509041 0.0985122 0.0399023
0.0509194 0.098558 0.0399176
0.0509651 0.0986801 0.0399481
0.0510567 0.0988632 0.0400092
0.054551 0.0994583 0.0409857
0.0715801 0.101503 0.0454261
0.0889296 0.10396 0.048188
0.107485 0.107408 0.0507515
0.122591 0.112001 0.0529793
0.140078 0.115648 0.055024
0.158541 0.119066 0.0557717
0.178805 0.122148 0.0554971
0.201709 0.124651 0.0543526
0.227466 0.126513 0.0521096
0.255375 0.127916 0.0489662
0.28452 0.129137 0.045304
0.314733 0.130129 0.0410773
0.345937 0.130953 0.0365148
0.378027 0.131716 0.0328069
0.410315 0.13225 0.0285954
0.442878 0.132555 0.0269932
0.474983 0.132631 0.0269932
0.507378 0.132403 0.0269932
0.540322 0.132128 0.0269932
0.573419 0.131701 0.0269932
0.606592 0.131273 0.0269932
0.639368 0.130922 0.0269932
0.671672 0.130678 0.0269932
0.703304 0.130602 0.0269932
0.732754 0.13109 0.0269932
0.759441 0.132265 0.0269932
0.78468 0.133684 0.0269932
0.809369 0.135103 0.0269932
0.0593423 0.117937 0.0457923
0.0594186 0.11812 0.0458381
0.0595102 0.118334 0.0458991
0.059617 0.118593 0.0459602
0.0648356 0.119417 0.0474556
0.0806897 0.121309 0.0517128
0.0982681 0.123842 0.0549935
0.118685 0.12697 0.057847
0.135637 0.131228 0.0603799
0.151324 0.135546 0.0625162
0.169589 0.138994 0.06421
0.1897 0.142107 0.0645762
0.212634 0.144778 0.0636149
0.238758 0.146914 0.0616312
0.267063 0.14847 0.058732
0.296529 0.149844 0.055314
0.327108 0.150988 0.0513466
0.358679 0.151904 0.0469062
0.391073 0.152697 0.0420081
0.423621 0.153246 0.0364385
0.456504 0.153582 0.0324865
0.488594 0.15375 0.0293584
0.520958 0.153735 0.0269932
0.553689 0.153704 0.0269932
0.58645 0.153689 0.0269932
0.619074 0.15375 0.0269932
0.651484 0.153918 0.0269932
0.683406 0.154269 0.0269932
0.714656 0.15494 0.0269932
0.743816 0.156176 0.0269932
0.770382 0.158038 0.0269932
0.79559 0.16022 0.0269932
0.82034 0.162402 0.0269932
0.0674449 0.137499 0.051194
0.0675517 0.137758 0.0512551
0.0676585 0.138048 0.0513161
0.0677653 0.138354 0.0513924
0.0737926 0.1393 0.0531014
0.0894484 0.141207 0.0574655
0.107591 0.143832 0.0614176
0.129015 0.146899 0.0644541
0.148501 0.15053 0.0673075
0.163699 0.155184 0.0695201
0.18088 0.159075 0.0715953
0.200977 0.162188 0.0727092
0.224125 0.164843 0.0722515
0.25037 0.167071 0.0704967
0.278828 0.168994 0.0679637
0.308659 0.170611 0.0648661
0.339651 0.172061 0.0612955
0.371542 0.173205 0.057145
0.404074 0.174121 0.0525521
0.436927 0.174792 0.0474708
0.470115 0.17525 0.0418708
0.502617 0.175586 0.0357824
0.535286 0.175738 0.0305791
0.568124 0.175937 0.0289769
0.60087 0.176287 0.0273899
0.63331 0.176867 0.0269932
0.665385 0.177646 0.0269932
0.696864 0.178653 0.0269932
0.727642 0.179965 0.0269932
0.756329 0.181704 0.0269932
0.782605 0.184054 0.0269932
0.807568 0.186755 0.0269932
0.832105 0.189517 0.0269932
0.0747997 0.157214 0.0556497
0.0749218 0.157534 0.0557107
0.0750439 0.15787 0.055787
0.0751659 0.158206 0.0558633
0.0817731 0.159228 0.0578012
0.0979629 0.161227 0.0623636
0.116762 0.163806 0.0668498
0.138262 0.167086 0.0704051
0.159991 0.170291 0.0732586
0.177584 0.174578 0.0761273
0.192386 0.179385 0.0779431
0.212238 0.18262 0.0796979
0.235676 0.185245 0.0799268
0.262196 0.187625 0.0787366
0.290822 0.18996 0.0767529
0.320897 0.19205 0.0741131
0.352148 0.193835 0.0708476
0.384329 0.195361 0.0670939
0.41706 0.196689 0.0628824
0.450095 0.197787 0.0582132
0.483223 0.198581 0.053193
0.516365 0.1991 0.047776
0.549523 0.199298 0.041825
0.582757 0.199603 0.035584
0.615763 0.200092 0.0294347
0.648356 0.200809 0.0275425
0.680278 0.201862 0.0271611
0.711681 0.203189 0.0269932
0.742016 0.204761 0.0269932
0.770367 0.206912 0.0269932
0.796353 0.20972 0.0269932
0.821027 0.212894 0.0269932
0.845289 0.216205 0.0269932
0.0812695 0.177615 0.058854
0.0813916 0.178027 0.0588998
0.0815137 0.178424 0.0589609
0.0816205 0.17882 0.0590066
0.0889906 0.179965 0.0611734
0.105669 0.182101 0.0659495
0.12517 0.184802 0.0708629
0.147097 0.188373 0.0751507
0.169009 0.191791 0.0781872
0.189425 0.195438 0.081117
0.206317 0.199969 0.0835126
0.223316 0.204501 0.084947
0.246662 0.207355 0.0861219
0.27332 0.209705 0.0857404
0.302052 0.212222 0.0843214
0.332387 0.214755 0.0822614
0.363928 0.217029 0.0795453
0.396353 0.218997 0.0762798
0.429358 0.220722 0.0725719
0.462821 0.222141 0.0683604
0.495796 0.223163 0.0636912
0.529076 0.223789 0.0584878
0.562539 0.224094 0.0528878
0.596033 0.224445 0.0472419
0.629465 0.224918 0.0416114
0.662379 0.225666 0.0364691
0.694636 0.22681 0.0317235
0.726055 0.22826 0.0281376
0.75642 0.230045 0.0269932
0.784604 0.232471 0.0269932
0.810422 0.23563 0.0269932
0.834943 0.239139 0.0269932
0.859022 0.242878 0.0269932
0.0868544 0.199329 0.0606699
0.0869459 0.199786 0.0606851
0.0870375 0.200198 0.0607004
0.087129 0.20058 0.0607156
0.0952621 0.201862 0.0631571
0.11249 0.20415 0.0681468
0.132753 0.206989 0.0734722
0.155016 0.210666 0.0784009
0.176837 0.214252 0.0818036
0.198947 0.217624 0.0847486
0.218906 0.221576 0.0874647
0.236713 0.226276 0.0892958
0.257282 0.230259 0.0901808
0.283696 0.232654 0.0905013
0.312337 0.23508 0.0898909
0.342824 0.237766 0.0885634
0.374762 0.240558 0.0866407
0.407446 0.243107 0.0840162
0.440665 0.245289 0.080827
0.474266 0.247074 0.0770581
0.507317 0.248402 0.0728161
0.540795 0.249287 0.0679332
0.57435 0.249851 0.0626535
0.607935 0.250401 0.0572976
0.641474 0.251057 0.0521096
0.674617 0.251942 0.0471656
0.707134 0.253086 0.0425574
0.738781 0.254551 0.0383154
0.769299 0.256413 0.0350652
0.797436 0.259037 0.0333562
0.823224 0.262364 0.0327764
0.847791 0.266133 0.0326085
0.872038 0.270146 0.0327916
0.091371 0.221561 0.0610819
0.0914473 0.222004 0.0610666
0.0915084 0.222385 0.0610666
0.0915694 0.222751 0.0610513
0.101061 0.224231 0.06392
0.118853 0.226658 0.0691539
0.139757 0.229664 0.0748608
0.162264 0.233371 0.0802472
0.183886 0.237095 0.0841993
0.206439 0.240589 0.0872053
0.229572 0.243931 0.0901198
0.249973 0.248234 0.0923934
0.269505 0.252888 0.0932631
0.293858 0.256092 0.0936904
0.322164 0.258488 0.0937972
0.352575 0.261097 0.0931411
0.38471 0.264042 0.0919203
0.417655 0.267094 0.0901656
0.451301 0.269886 0.0877394
0.484657 0.272236 0.0847639
0.518135 0.274037 0.0811475
0.551858 0.275288 0.0768139
0.585595 0.276158 0.0719921
0.619196 0.276997 0.0670481
0.652766 0.277958 0.0622416
0.685847 0.279042 0.0576028
0.718349 0.280369 0.0533303
0.750103 0.281941 0.0494087
0.780697 0.283909 0.0460365
0.808743 0.286671 0.0438544
0.834546 0.290166 0.0430457
0.859144 0.294102 0.0430304
0.883574 0.298314 0.0434119
0.09514 0.244221 0.0604715
0.095201 0.244617 0.0604562
0.0952468 0.244999 0.0604257
0.0952926 0.24535 0.0604105
0.106569 0.247028 0.0638437
0.12488 0.249592 0.069276
0.146258 0.252659 0.0752117
0.168978 0.256413 0.0809644
0.190631 0.260243 0.085481
0.212879 0.263905 0.0888533
0.237201 0.267262 0.0917067
0.262272 0.270512 0.0945144
0.28304 0.275242 0.0959945
0.304723 0.279759 0.0963912
0.331975 0.282536 0.0971237
0.362051 0.285054 0.0972915
0.39411 0.288014 0.0968795
0.427085 0.291279 0.095964
0.461067 0.294545 0.0944228
0.494453 0.297459 0.0922866
0.528344 0.29984 0.0893111
0.56231 0.301595 0.0855116
0.596277 0.302907 0.081178
0.629999 0.304097 0.0766766
0.663554 0.305364 0.072221
0.696635 0.306783 0.0679179
0.729015 0.308339 0.0638895
0.760632 0.31017 0.0602121
0.791165 0.312367 0.0571603
0.818906 0.315389 0.0554513
0.844495 0.319097 0.0548257
0.869154 0.323186 0.0547341
0.893645 0.32752 0.0549935
0.0983444 0.267247 0.0590829
0.0983902 0.267628 0.0590524
0.0984054 0.267994 0.0590982
0.0984054 0.268345 0.059144
0.111711 0.270298 0.0633402
0.130404 0.272938 0.0690013
0.152224 0.276158 0.0753033
0.175082 0.279988 0.0815137
0.19678 0.283879 0.0866407
0.218982 0.287709 0.0907149
0.243137 0.291157 0.0938582
0.269871 0.294255 0.0965438
0.296147 0.297856 0.0987716
0.317845 0.302968 0.0995651
0.341756 0.307286 0.100008
0.371496 0.309758 0.100877
0.403204 0.312596 0.101076
0.436042 0.315801 0.100694
0.469764 0.319295 0.0999008
0.503563 0.322713 0.098558
0.537957 0.325704 0.096376
0.572274 0.328084 0.0932479
0.606439 0.329946 0.0894942
0.64033 0.33164 0.0855116
0.67393 0.333303 0.0814679
0.706966 0.335027 0.0775158
0.739284 0.336904 0.0738079
0.770779 0.339025 0.0704051
0.8009 0.341558 0.0676738
0.828229 0.344915 0.0662547
0.853651 0.348852 0.0657511
0.878248 0.353201 0.0657816
0.902693 0.357733 0.0661021
0.100694 0.29099 0.0578164
0.10071 0.291371 0.0578622
0.10071 0.291737 0.0579232
0.100725 0.292073 0.057969
0.116152 0.294316 0.0628672
0.135332 0.297017 0.0687266
0.157824 0.300374 0.075349
0.180636 0.304234 0.0817884
0.202411 0.308125 0.0872663
0.224521 0.31194 0.0917525
0.248585 0.315526 0.095201
0.276219 0.318608 0.0978866
0.305653 0.321675 0.100206
0.33167 0.326009 0.101839
0.354284 0.331334 0.102403
0.381048 0.335302 0.103044
0.412222 0.337926 0.10396
0.444694 0.340948 0.104173
0.477684 0.34435 0.103975
0.51191 0.348074 0.103334
0.546746 0.351598 0.101991
0.581506 0.354635 0.0997177
0.615946 0.357183 0.0966964
0.650065 0.359503 0.0933394
0.683726 0.361669 0.0897688
0.716686 0.36379 0.0861982
0.748898 0.366049 0.0828412
0.780194 0.368521 0.0797894
0.81001 0.371389 0.0773785
0.837079 0.375021 0.0761578
0.862364 0.379202 0.0758068
0.886885 0.383795 0.0759747
0.911284 0.388556 0.0763867
0.1028 0.315587 0.0560311
0.102815 0.315953 0.0560616
0.102815 0.316304 0.0561074
0.104372 0.316838 0.0566415
0.120287 0.319158 0.0616922
0.139956 0.321874 0.0676738
0.162905 0.325368 0.0745556
0.185626 0.329168 0.0811017
0.207477 0.333013 0.0868544
0.229633 0.336828 0.0917372
0.25359 0.340444 0.0955825
0.281407 0.343618 0.0983291
0.313298 0.346334 0.100633
0.343328 0.349981 0.102815
0.368017 0.355276 0.104036
0.392248 0.360555 0.10454
0.421118 0.364202 0.105348
0.452857 0.36701 0.106203
0.485359 0.370214 0.106538
0.519463 0.3738 0.106432
0.554452 0.3776 0.105806
0.589715 0.381201 0.104463
0.624567 0.384482 0.102419
0.659037 0.387503 0.0998245
0.692729 0.390234 0.096849
0.725689 0.392874 0.0937972
0.757809 0.395544 0.0908217
0.788998 0.398398 0.0881208
0.818494 0.401648 0.0860456
0.84535 0.405585 0.085069
0.870542 0.41004 0.0849317
0.895048 0.414954 0.0852827
0.919448 0.420081 0.0858625
0.105013 0.341314 0.0538186
0.105028 0.34168 0.0538491
0.105028 0.342046 0.0538796
0.108019 0.342733 0.0548714
0.124163 0.345052 0.0599527
0.14432 0.347829 0.0660563
0.167529 0.351293 0.0729992
0.190188 0.355016 0.0795605
0.2121 0.358785 0.085481
0.234363 0.362524 0.0906844
0.258259 0.36611 0.0949416
0.285878 0.369329 0.0979019
0.318807 0.371969 0.100008
0.352499 0.374914 0.102388
0.38117 0.379583 0.104417
0.405219 0.385504 0.105241
0.43122 0.390585 0.105821
0.460685 0.394064 0.106783
0.492988 0.39704 0.107668
0.526741 0.400412 0.107988
0.561578 0.404105 0.107866
0.596887 0.407919 0.10724
0.632197 0.411688 0.106096
0.666941 0.415351 0.104387
0.700954 0.418875 0.102312
0.734005 0.422217 0.0999008
0.766064 0.425528 0.0974289
0.797147 0.428946 0.0951247
0.826413 0.4327 0.0935378
0.853086 0.43711 0.0928969
0.878264 0.441993 0.0930648
0.902739 0.447242 0.0936141
0.927031 0.452659 0.094377
0.10779 0.368566 0.0513466
0.10782 0.368948 0.0513619
0.107836 0.369329 0.0513771
0.11162 0.370123 0.0525826
0.127947 0.372396 0.0576181
0.148333 0.375097 0.0637064
0.171786 0.378561 0.0707103
0.194491 0.382193 0.0773022
0.216464 0.385885 0.0832685
0.238834 0.389517 0.0886091
0.262715 0.393042 0.0931716
0.290135 0.396201 0.0964828
0.323018 0.398901 0.098497
0.358602 0.401602 0.100587
0.392111 0.405219 0.103136
0.419013 0.410727 0.104768
0.442863 0.416815 0.105348
0.469566 0.421698 0.105989
0.500526 0.425238 0.107027
0.533928 0.428367 0.107958
0.568414 0.431861 0.108324
0.60351 0.435599 0.108232
0.638849 0.439521 0.107744
0.673899 0.44358 0.10695
0.708171 0.447547 0.105715
0.741482 0.451499 0.104234
0.773739 0.455406 0.102586
0.804898 0.459373 0.101015
0.833814 0.463706 0.0999771
0.860258 0.468559 0.099794
0.885344 0.473869 0.100313
0.909667 0.479408 0.101106
0.933898 0.485115 0.102052
0.111925 0.398352 0.0487526
0.111971 0.398733 0.0487678
0.112001 0.399115 0.0487831
0.114931 0.399771 0.0496986
0.131456 0.401907 0.0547189
0.151995 0.40444 0.0607462
0.175662 0.407599 0.0676432
0.19852 0.411048 0.0742046
0.220706 0.414481 0.0802167
0.243244 0.417853 0.0856947
0.267185 0.421103 0.090486
0.294438 0.424033 0.0941787
0.32694 0.426581 0.0963607
0.363012 0.429114 0.0982376
0.399542 0.432074 0.10071
0.431342 0.436454 0.103166
0.456458 0.442481 0.104417
0.480949 0.448692 0.104952
0.509163 0.45362 0.10573
0.541421 0.457191 0.106905
0.575616 0.460365 0.107851
0.610376 0.46392 0.108293
0.645457 0.467796 0.1084
0.680461 0.471855 0.108217
0.714839 0.476127 0.107774
0.748348 0.480491 0.107164
0.780804 0.484916 0.106401
0.811994 0.489418 0.105608
0.840681 0.494285 0.105318
0.866865 0.49958 0.105623
0.891737 0.505333 0.106477
0.915923 0.511223 0.107546
0.940124 0.51725 0.108827
0.116777 0.428885 0.0464179
0.116823 0.429252 0.0464332
0.116869 0.429603 0.0464637
0.118898 0.430152 0.0470893
0.135668 0.432364 0.0522164
0.156481 0.434836 0.0582895
0.180484 0.437919 0.0652171
0.203586 0.441184 0.0717784
0.225956 0.444419 0.077821
0.248646 0.447532 0.0833295
0.272633 0.450492 0.0882124
0.299748 0.453101 0.0920729
0.331762 0.455344 0.0945144
0.367361 0.457801 0.0962539
0.405112 0.460304 0.0982528
0.439887 0.46363 0.100862
0.46978 0.468681 0.10312
0.494926 0.475227 0.104189
0.52047 0.481514 0.104707
0.550088 0.48629 0.105592
0.583261 0.489769 0.106783
0.617746 0.49305 0.107805
0.652445 0.496742 0.108431
0.687205 0.500725 0.108782
0.721462 0.504982 0.108934
0.754925 0.509483 0.108934
0.787457 0.514199 0.108888
0.818616 0.519112 0.108812
0.846998 0.524407 0.109194
0.872923 0.530114 0.110094
0.897551 0.536248 0.111498
0.921645 0.542504 0.113329
0.945815 0.548867 0.115251
0.12195 0.459983 0.0441138
0.121996 0.460319 0.0440986
0.122042 0.46067 0.0440986
0.122698 0.461067 0.0443275
0.139727 0.463233 0.0495308
0.160937 0.465797 0.055787
0.185443 0.468864 0.0628824
0.208988 0.472114 0.0696422
0.231708 0.475273 0.0758068
0.254658 0.478309 0.0814832
0.27895 0.481102 0.0865797
0.306188 0.483482 0.0907301
0.337881 0.485451 0.0935073
0.372732 0.487663 0.0952316
0.409277 0.48986 0.0967575
0.446433 0.492515 0.0989395
0.48101 0.49633 0.101595
0.509712 0.502037 0.103456
0.534691 0.508843 0.104143
0.561288 0.514977 0.104555
0.592065 0.519539 0.105486
0.625864 0.523033 0.106813
0.660273 0.526436 0.107988
0.694575 0.530221 0.108751
0.728527 0.534356 0.109331
0.761776 0.538811 0.10985
0.794202 0.543572 0.110399
0.825147 0.548669 0.111162
0.853071 0.554299 0.112535
0.878691 0.560418 0.114427
0.90312 0.566751 0.116518
0.927138 0.57322 0.118669
0.951217 0.579828 0.120867
0.127123 0.491661 0.0432441
0.127184 0.491997 0.0432288
0.127245 0.492317 0.0432288
0.127291 0.492638 0.0432288
0.143572 0.494728 0.048188
0.165072 0.49723 0.0545052
0.190158 0.500237 0.0617533
0.214191 0.503426 0.0686503
0.237308 0.506539 0.0749218
0.260609 0.509499 0.0807202
0.285176 0.512169 0.0859846
0.312764 0.514397 0.0903792
0.344442 0.516274 0.0935531
0.377874 0.518196 0.0954299
0.413626 0.520256 0.0966964
0.451713 0.522454 0.0982986
0.489372 0.525414 0.100679
0.52282 0.529824 0.10312
0.550378 0.536095 0.104479
0.575555 0.543023 0.104845
0.603235 0.548928 0.105318
0.634913 0.553414 0.106477
0.668681 0.556893 0.107988
0.702647 0.560403 0.109392
0.736202 0.564401 0.110567
0.7691 0.568734 0.111666
0.801221 0.573434 0.11281
0.831693 0.578546 0.114122
0.85919 0.584207 0.11606
0.884611 0.590417 0.118441
0.908904 0.596857 0.120928
0.932799 0.603449 0.123445
0.956771 0.610193 0.125933
0.132906 0.523659 0.0430304
0.132952 0.523964 0.0430304
0.133013 0.524285 0.0430304
0.133074 0.524559 0.0430304
0.147539 0.526406 0.047425
0.169284 0.528923 0.0538338
0.194888 0.531914 0.0612192
0.219532 0.535103 0.0683146
0.243076 0.538247 0.0747997
0.266712 0.541192 0.080827
0.291615 0.543786 0.086305
0.319493 0.545876 0.0909895
0.350423 0.547555 0.0944991
0.383398 0.549233 0.0967727
0.418708 0.551125 0.0981308
0.456703 0.55314 0.0993668
0.496071 0.555489 0.101198
0.533349 0.558877 0.103731
0.565316 0.563973 0.105882
0.591821 0.570748 0.106737
0.617395 0.577661 0.10695
0.646128 0.583368 0.107622
0.678096 0.587655 0.108904
0.711498 0.591211 0.110628
0.744762 0.594903 0.112261
0.777218 0.5991 0.113787
0.808835 0.603647 0.115328
0.838834 0.608682 0.117113
0.866011 0.614343 0.119509
0.891173 0.620432 0.12224
0.915297 0.626764 0.125093
0.93904 0.633356 0.127947
0.962829 0.640116 0.130678
0.139208 0.555856 0.0434577
0.139269 0.556146 0.0434577
0.13933 0.55642 0.043473
0.139376 0.55671 0.0434882
0.151675 0.558312 0.0472419
0.173785 0.560876 0.0538338
0.199954 0.563897 0.0614328
0.225299 0.567147 0.0688029
0.249332 0.570275 0.0755169
0.273335 0.57322 0.0817426
0.298589 0.575769 0.0874495
0.32575 0.577752 0.0922713
0.356634 0.579232 0.0960708
0.389761 0.580697 0.0987716
0.424765 0.582376 0.100374
0.462364 0.584237 0.101457
0.502342 0.586236 0.102861
0.542016 0.588907 0.105028
0.578164 0.592859 0.10753
0.608377 0.598703 0.109209
0.634134 0.605875 0.109758
0.660288 0.612558 0.110048
0.68957 0.617929 0.110811
0.721355 0.622156 0.112322
0.754055 0.625849 0.11429
0.786236 0.62974 0.116243
0.817441 0.634134 0.118135
0.846952 0.639017 0.120317
0.873701 0.644572 0.123064
0.898528 0.650492 0.126085
0.922438 0.656733 0.129259
0.94609 0.663142 0.132448
0.969711 0.669734 0.135439
0.146487 0.588418 0.0451057
0.146563 0.588693 0.0451209
0.146624 0.588968 0.0451362
0.146685 0.589227 0.0451514
0.15639 0.590524 0.0481117
0.17879 0.593118 0.0548409
0.205524 0.596139 0.0626535
0.231678 0.599435 0.0702983
0.256199 0.602579 0.0772412
0.280385 0.605478 0.0836194
0.304875 0.607935 0.0893111
0.332372 0.609873 0.0944533
0.363668 0.611154 0.0985885
0.396994 0.612375 0.10161
0.4318 0.613825 0.103548
0.469093 0.615534 0.104646
0.50901 0.61735 0.10573
0.550118 0.619486 0.107424
0.589227 0.622629 0.109834
0.623499 0.627314 0.112062
0.651759 0.633906 0.113313
0.677012 0.641047 0.113619
0.703761 0.64741 0.114046
0.733242 0.652552 0.115145
0.764477 0.656779 0.11693
0.796231 0.660609 0.119142
0.827161 0.664744 0.121462
0.856168 0.669474 0.124025
0.882445 0.674769 0.127001
0.90695 0.680491 0.130282
0.930602 0.686519 0.1337
0.953964 0.692821 0.137118
0.977401 0.69929 0.140383
0.154757 0.62118 0.0479744
0.154818 0.621439 0.0480049
0.154894 0.621698 0.0480354
0.154955 0.621942 0.0480659
0.161715 0.622904 0.0501259
0.184421 0.625513 0.0569772
0.211673 0.62855 0.0650034
0.238712 0.63183 0.0729381
0.262837 0.634897 0.079881
0.286778 0.637736 0.0863355
0.31191 0.640192 0.0923018
0.339773 0.642054 0.097673
0.371435 0.643183 0.102083
0.405081 0.644175 0.105425
0.439887 0.645411 0.107713
0.476997 0.646876 0.108919
0.516716 0.648539 0.109789
0.558373 0.650355 0.11107
0.599466 0.652888 0.113115
0.637095 0.656672 0.115663
0.668879 0.662181 0.117494
0.695186 0.669139 0.118212
0.720333 0.676127 0.118517
0.747463 0.682139 0.119249
0.776745 0.687114 0.120745
0.807279 0.691356 0.12282
0.837812 0.695399 0.125383
0.866361 0.699794 0.128176
0.892226 0.704845 0.131395
0.91632 0.710414 0.13489
0.939696 0.716274 0.138537
0.962875 0.722408 0.142199
0.985183 0.728664 0.145678
0.164218 0.653956 0.0524147
0.164294 0.6542 0.0524453
0.16437 0.654444 0.0524758
0.164431 0.654688 0.0525216
0.168017 0.655283 0.0536355
0.190799 0.657862 0.0605936
