luts/ilford_delta_400.cube
TITLE Film LUT
LUT_3D_SIZE 5
DOMAIN_MIN 0.0 0.0 0.0
DOMAIN_MAX 1.0 1.0 1.0
0.000000 0.000000 0.000000
0.014744 0.014744 0.014744
0.076374 0.076374 0.076374
0.133174 0.133174 0.133174
0.183860 0.183860 0.183860
0.167804 0.167804 0.167804
0.232549 0.232549 0.232549
0.294178 0.294178 0.294178
0.350979 0.350979 0.350979
0.401664 0.401664 0.401664
0.375130 0.375130 0.375130
0.439874 0.439874 0.439874
0.501504 0.501504 0.501504
0.558304 0.558304 0.558304
0.608990 0.608990 0.608990
0.566210 0.566210 0.566210
0.630955 0.630955 0.630955
0.692584 0.692584 0.692584
0.749385 0.749385 0.749385
0.800070 0.800070 0.800070
0.736720 0.736720 0.736720
0.801464 0.801464 0.801464
0.863094 0.863094 0.863094
0.919894 0.919894 0.919894
0.970580 0.970580 0.970580
0.000000 0.000000 0.000000
0.036732 0.036732 0.036732
0.098361 0.098361 0.098361
0.155162 0.155162 0.155162
0.205848 0.205848 0.205848
0.189792 0.189792 0.189792
0.254536 0.254536 0.254536
0.316166 0.316166 0.316166
0.372966 0.372966 0.372966
0.423652 0.423652 0.423652
0.397118 0.397118 0.397118
0.461862 0.461862 0.461862
0.523492 0.523492 0.523492
0.580292 0.580292 0.580292
0.630978 0.630978 0.630978
0.588198 0.588198 0.588198
0.652942 0.652942 0.652942
0.714572 0.714572 0.714572
0.771372 0.771372 0.771372
0.822058 0.822058 0.822058
0.758708 0.758708 0.758708
0.823452 0.823452 0.823452
0.885081 0.885081 0.885081
0.941882 0.941882 0.941882
0.992568 0.992568 0.992568
0.000000 0.000000 0.000000
0.057662 0.057662 0.057662
0.119291 0.119291 0.119291
0.176092 0.176092 0.176092
0.226777 0.226777 0.226777
0.210721 0.210721 0.210721
0.275466 0.275466 0.275466
0.337095 0.337095 0.337095
0.393896 0.393896 0.393896
0.444581 0.444581 0.444581
0.418047 0.418047 0.418047
0.482792 0.482792 0.482792
0.544421 0.544421 0.544421
0.601222 0.601222 0.601222
0.651907 0.651907 0.651907
0.609127 0.609127 0.609127
0.673872 0.673872 0.673872
0.735501 0.735501 0.735501
0.792302 0.792302 0.792302
0.842987 0.842987 0.842987
0.779637 0.779637 0.779637
0.844382 0.844382 0.844382
0.906011 0.906011 0.906011
0.962812 0.962812 0.962812
1.000000 1.000000 1.000000
0.012207 0.012207 0.012207
0.076951 0.076951 0.076951
0.138581 0.138581 0.138581
0.195381 0.195381 0.195381
0.246067 0.246067 0.246067
0.230011 0.230011 0.230011
0.294755 0.294755 0.294755
0.356385 0.356385 0.356385
0.413185 0.413185 0.413185
0.463871 0.463871 0.463871
0.437337 0.437337 0.437337
0.502081 0.502081 0.502081
0.563711 0.563711 0.563711
0.620511 0.620511 0.620511
0.671197 0.671197 0.671197
0.628417 0.628417 0.628417
0.693162 0.693162 0.693162
0.754791 0.754791 0.754791
0.811592 0.811592 0.811592
0.862277 0.862277 0.862277
0.798927 0.798927 0.798927
0.863671 0.863671 0.863671
0.925301 0.925301 0.925301
0.982101 0.982101 0.982101
1.000000 1.000000 1.000000
0.029420 0.029420 0.029420
0.094164 0.094164 0.094164
0.155794 0.155794 0.155794
0.212594 0.212594 0.212594
0.263280 0.263280 0.263280
0.247224 0.247224 0.247224
0.311969 0.311969 0.311969
0.373598 0.373598 0.373598
0.430399 0.430399 0.430399
0.481084 0.481084 0.481084
0.454550 0.454550 0.454550
0.519294 0.519294 0.519294
0.580924 0.580924 0.580924
0.637724 0.637724 0.637724
0.688410 0.688410 0.688410
0.645630 0.645630 0.645630
0.710375 0.710375 0.710375
0.772004 0.772004 0.772004
0.828805 0.828805 0.828805
0.879490 0.879490 0.879490
0.816140 0.816140 0.816140
0.880884 0.880884 0.880884
0.942514 0.942514 0.942514
0.999314 0.999314 0.999314
1.000000 1.000000 1.000000
