luts/ilford_pan_f_plus_50.cube
TITLE Film LUT
LUT_3D_SIZE 5
DOMAIN_MIN 0.0 0.0 0.0
DOMAIN_MAX 1.0 1.0 1.0
0.000000 0.000000 0.000000
0.058244 0.058244 0.058244
0.113834 0.113834 0.113834
0.165592 0.165592 0.165592
0.212600 0.212600 0.212600
0.195938 0.195938 0.195938
0.254182 0.254182 0.254182
0.309772 0.309772 0.309772
0.361530 0.361530 0.361530
0.408538 0.408538 0.408538
0.382946 0.382946 0.382946
0.441190 0.441190 0.441190
0.496780 0.496780 0.496780
0.548538 0.548538 0.548538
0.595546 0.595546 0.595546
0.557062 0.557062 0.557062
0.615306 0.615306 0.615306
0.670896 0.670896 0.670896
0.722654 0.722654 0.722654
0.769662 0.769662 0.769662
0.715200 0.715200 0.715200
0.773444 0.773444 0.773444
0.829034 0.829034 0.829034
0.880792 0.880792 0.880792
0.927800 0.927800 0.927800
0.019780 0.019780 0.019780
0.078024 0.078024 0.078024
0.133614 0.133614 0.133614
0.185372 0.185372 0.185372
0.232380 0.232380 0.232380
0.215718 0.215718 0.215718
0.273962 0.273962 0.273962
0.329552 0.329552 0.329552
0.381310 0.381310 0.381310
0.428318 0.428318 0.428318
0.402726 0.402726 0.402726
0.460970 0.460970 0.460970
0.516560 0.516560 0.516560
0.568318 0.568318 0.568318
0.615326 0.615326 0.615326
0.576842 0.576842 0.576842
0.635087 0.635087 0.635087
0.690677 0.690677 0.690677
0.742434 0.742434 0.742434
0.789442 0.789442 0.789442
0.734980 0.734980 0.734980
0.793224 0.793224 0.793224
0.848814 0.848814 0.848814
0.900572 0.900572 0.900572
0.947580 0.947580 0.947580
0.038659 0.038659 0.038659
0.096903 0.096903 0.096903
0.152493 0.152493 0.152493
0.204251 0.204251 0.204251
0.251259 0.251259 0.251259
0.234596 0.234596 0.234596
0.292841 0.292841 0.292841
0.348431 0.348431 0.348431
0.400188 0.400188 0.400188
0.447196 0.447196 0.447196
0.421605 0.421605 0.421605
0.479849 0.479849 0.479849
0.535439 0.535439 0.535439
0.587197 0.587197 0.587197
0.634205 0.634205 0.634205
0.595721 0.595721 0.595721
0.653965 0.653965 0.653965
0.709555 0.709555 0.709555
0.761313 0.761313 0.761313
0.808321 0.808321 0.808321
0.753859 0.753859 0.753859
0.812103 0.812103 0.812103
0.867693 0.867693 0.867693
0.919451 0.919451 0.919451
0.966459 0.966459 0.966459
0.056236 0.056236 0.056236
0.114480 0.114480 0.114480
0.170070 0.170070 0.170070
0.221828 0.221828 0.221828
0.268836 0.268836 0.268836
0.252173 0.252173 0.252173
0.310418 0.310418 0.310418
0.366008 0.366008 0.366008
0.417765 0.417765 0.417765
0.464773 0.464773 0.464773
0.439182 0.439182 0.439182
0.497426 0.497426 0.497426
0.553016 0.553016 0.553016
0.604774 0.604774 0.604774
0.651782 0.651782 0.651782
0.613298 0.613298 0.613298
0.671542 0.671542 0.671542
0.727132 0.727132 0.727132
0.778890 0.778890 0.778890
0.825898 0.825898 0.825898
0.771436 0.771436 0.771436
0.829680 0.829680 0.829680
0.885270 0.885270 0.885270
0.937028 0.937028 0.937028
0.984036 0.984036 0.984036
0.072200 0.072200 0.072200
0.130444 0.130444 0.130444
0.186034 0.186034 0.186034
0.237792 0.237792 0.237792
0.284800 0.284800 0.284800
0.268138 0.268138 0.268138
0.326382 0.326382 0.326382
0.381972 0.381972 0.381972
0.433730 0.433730 0.433730
0.480738 0.480738 0.480738
0.455146 0.455146 0.455146
0.513390 0.513390 0.513390
0.568980 0.568980 0.568980
0.620738 0.620738 0.620738
0.667746 0.667746 0.667746
0.629262 0.629262 0.629262
0.687506 0.687506 0.687506
0.743096 0.743096 0.743096
0.794854 0.794854 0.794854
0.841862 0.841862 0.841862
0.787400 0.787400 0.787400
0.845644 0.845644 0.845644
0.901234 0.901234 0.901234
0.952992 0.952992 0.952992
1.000000 1.000000 1.000000
