luts/ilford_delta_400.cube
TITLE Film LUT
LUT_3D_SIZE 9
DOMAIN_MIN 0.0 0.0 0.0
DOMAIN_MAX 1.0 1.0 1.0
0.000000 0.000000 0.000000
0.000000 0.000000 0.000000
0.014744 0.014744 0.014744
0.046063 0.046063 0.046063
0.076374 0.076374 0.076374
0.105470 0.105470 0.105470
0.133174 0.133174 0.133174
0.159340 0.159340 0.159340
0.183860 0.183860 0.183860
0.059817 0.059817 0.059817
0.092461 0.092461 0.092461
0.124561 0.124561 0.124561
0.155880 0.155880 0.155880
0.186191 0.186191 0.186191
0.215287 0.215287 0.215287
0.242991 0.242991 0.242991
0.269157 0.269157 0.269157
0.293677 0.293677 0.293677
0.167804 0.167804 0.167804
0.200448 0.200448 0.200448
0.232549 0.232549 0.232549
0.263867 0.263867 0.263867
0.294178 0.294178 0.294178
0.323275 0.323275 0.323275
0.350979 0.350979 0.350979
0.377144 0.377144 0.377144
0.401664 0.401664 0.401664
0.273162 0.273162 0.273162
0.305806 0.305806 0.305806
0.337906 0.337906 0.337906
0.369225 0.369225 0.369225
0.399536 0.399536 0.399536
0.428632 0.428632 0.428632
0.456336 0.456336 0.456336
0.482502 0.482502 0.482502
0.507022 0.507022 0.507022
0.375130 0.375130 0.375130
0.407774 0.407774 0.407774
0.439874 0.439874 0.439874
0.471193 0.471193 0.471193
0.501504 0.501504 0.501504
0.530600 0.530600 0.530600
0.558304 0.558304 0.558304
0.584470 0.584470 0.584470
0.608990 0.608990 0.608990
0.473012 0.473012 0.473012
0.505656 0.505656 0.505656
0.537757 0.537757 0.537757
0.569075 0.569075 0.569075
0.599386 0.599386 0.599386
0.628483 0.628483 0.628483
0.656187 0.656187 0.656187
0.682352 0.682352 0.682352
0.706872 0.706872 0.706872
0.566210 0.566210 0.566210
0.598854 0.598854 0.598854
0.630955 0.630955 0.630955
0.662273 0.662273 0.662273
0.692584 0.692584 0.692584
0.721681 0.721681 0.721681
0.749385 0.749385 0.749385
0.775550 0.775550 0.775550
0.800070 0.800070 0.800070
0.654234 0.654234 0.654234
0.686878 0.686878 0.686878
0.718978 0.718978 0.718978
0.750297 0.750297 0.750297
0.780608 0.780608 0.780608
0.809704 0.809704 0.809704
0.837408 0.837408 0.837408
0.863574 0.863574 0.863574
0.888094 0.888094 0.888094
0.736720 0.736720 0.736720
0.769364 0.769364 0.769364
0.801464 0.801464 0.801464
0.832783 0.832783 0.832783
0.863094 0.863094 0.863094
0.892190 0.892190 0.892190
0.919894 0.919894 0.919894
0.946060 0.946060 0.946060
0.970580 0.970580 0.970580
0.000000 0.000000 0.000000
0.000000 0.000000 0.000000
0.025830 0.025830 0.025830
0.057149 0.057149 0.057149
0.087460 0.087460 0.087460
0.116556 0.116556 0.116556
0.144260 0.144260 0.144260
0.170426 0.170426 0.170426
0.194946 0.194946 0.194946
0.070903 0.070903 0.070903
0.103547 0.103547 0.103547
0.135647 0.135647 0.135647
0.166966 0.166966 0.166966
0.197277 0.197277 0.197277
0.226373 0.226373 0.226373
0.254077 0.254077 0.254077
0.280243 0.280243 0.280243
0.304763 0.304763 0.304763
0.178890 0.178890 0.178890
0.211534 0.211534 0.211534
0.243635 0.243635 0.243635
0.274953 0.274953 0.274953
0.305264 0.305264 0.305264
0.334361 0.334361 0.334361
0.362065 0.362065 0.362065
0.388231 0.388231 0.388231
0.412750 0.412750 0.412750
0.284248 0.284248 0.284248
0.316892 0.316892 0.316892
0.348992 0.348992 0.348992
0.380311 0.380311 0.380311
0.410622 0.410622 0.410622
0.439718 0.439718 0.439718
0.467422 0.467422 0.467422
0.493588 0.493588 0.493588
0.518108 0.518108 0.518108
0.386216 0.386216 0.386216
0.418860 0.418860 0.418860
0.450961 0.450961 0.450961
0.482279 0.482279 0.482279
0.512590 0.512590 0.512590
0.541687 0.541687 0.541687
0.569391 0.569391 0.569391
0.595556 0.595556 0.595556
0.620076 0.620076 0.620076
0.484098 0.484098 0.484098
0.516742 0.516742 0.516742
0.548843 0.548843 0.548843
0.580161 0.580161 0.580161
0.610472 0.610472 0.610472
0.639569 0.639569 0.639569
0.667273 0.667273 0.667273
0.693439 0.693439 0.693439
0.717958 0.717958 0.717958
0.577296 0.577296 0.577296
0.609940 0.609940 0.609940
0.642041 0.642041 0.642041
0.673359 0.673359 0.673359
0.703670 0.703670 0.703670
0.732767 0.732767 0.732767
0.760471 0.760471 0.760471
0.786637 0.786637 0.786637
0.811156 0.811156 0.811156
0.665320 0.665320 0.665320
0.697964 0.697964 0.697964
0.730064 0.730064 0.730064
0.761383 0.761383 0.761383
0.791694 0.791694 0.791694
0.820790 0.820790 0.820790
0.848494 0.848494 0.848494
0.874660 0.874660 0.874660
0.899180 0.899180 0.899180
0.747806 0.747806 0.747806
0.780450 0.780450 0.780450
0.812550 0.812550 0.812550
0.843869 0.843869 0.843869
0.874180 0.874180 0.874180
0.903276 0.903276 0.903276
0.930980 0.930980 0.930980
0.957146 0.957146 0.957146
0.981666 0.981666 0.981666
0.000000 0.000000 0.000000
0.004632 0.004632 0.004632
0.036732 0.036732 0.036732
0.068050 0.068050 0.068050
0.098361 0.098361 0.098361
0.127458 0.127458 0.127458
0.155162 0.155162 0.155162
0.181328 0.181328 0.181328
0.205848 0.205848 0.205848
0.081804 0.081804 0.081804
0.114448 0.114448 0.114448
0.146549 0.146549 0.146549
0.177867 0.177867 0.177867
0.208178 0.208178 0.208178
0.237275 0.237275 0.237275
0.264979 0.264979 0.264979
0.291144 0.291144 0.291144
0.315664 0.315664 0.315664
0.189792 0.189792 0.189792
0.222436 0.222436 0.222436
0.254536 0.254536 0.254536
0.285855 0.285855 0.285855
0.316166 0.316166 0.316166
0.345262 0.345262 0.345262
0.372966 0.372966 0.372966
0.399132 0.399132 0.399132
0.423652 0.423652 0.423652
0.295149 0.295149 0.295149
0.327793 0.327793 0.327793
0.359894 0.359894 0.359894
0.391212 0.391212 0.391212
0.421523 0.421523 0.421523
0.450620 0.450620 0.450620
0.478324 0.478324 0.478324
0.504490 0.504490 0.504490
0.529009 0.529009 0.529009
0.397118 0.397118 0.397118
0.429762 0.429762 0.429762
0.461862 0.461862 0.461862
0.493181 0.493181 0.493181
0.523492 0.523492 0.523492
0.552588 0.552588 0.552588
0.580292 0.580292 0.580292
0.606458 0.606458 0.606458
0.630978 0.630978 0.630978
0.495000 0.495000 0.495000
0.527644 0.527644 0.527644
0.559744 0.559744 0.559744
0.591063 0.591063 0.591063
0.621374 0.621374 0.621374
0.650470 0.650470 0.650470
0.678174 0.678174 0.678174
0.704340 0.704340 0.704340
0.728860 0.728860 0.728860
0.588198 0.588198 0.588198
0.620842 0.620842 0.620842
0.652942 0.652942 0.652942
0.684261 0.684261 0.684261
0.714572 0.714572 0.714572
0.743668 0.743668 0.743668
0.771372 0.771372 0.771372
0.797538 0.797538 0.797538
0.822058 0.822058 0.822058
0.676221 0.676221 0.676221
0.708866 0.708866 0.708866
0.740966 0.740966 0.740966
0.772284 0.772284 0.772284
0.802595 0.802595 0.802595
0.831692 0.831692 0.831692
0.859396 0.859396 0.859396
0.885562 0.885562 0.885562
0.910081 0.910081 0.910081
0.758708 0.758708 0.758708
0.791352 0.791352 0.791352
0.823452 0.823452 0.823452
0.854770 0.854770 0.854770
0.885081 0.885081 0.885081
0.914178 0.914178 0.914178
0.941882 0.941882 0.941882
0.968048 0.968048 0.968048
0.992568 0.992568 0.992568
0.000000 0.000000 0.000000
0.015267 0.015267 0.015267
0.047368 0.047368 0.047368
0.078686 0.078686 0.078686
0.108997 0.108997 0.108997
0.138094 0.138094 0.138094
0.165798 0.165798 0.165798
0.191964 0.191964 0.191964
0.216483 0.216483 0.216483
0.092440 0.092440 0.092440
0.125084 0.125084 0.125084
0.157184 0.157184 0.157184
0.188503 0.188503 0.188503
0.218814 0.218814 0.218814
0.247910 0.247910 0.247910
0.275614 0.275614 0.275614
0.301780 0.301780 0.301780
0.326300 0.326300 0.326300
0.200428 0.200428 0.200428
0.233072 0.233072 0.233072
0.265172 0.265172 0.265172
0.296491 0.296491 0.296491
0.326802 0.326802 0.326802
0.355898 0.355898 0.355898
0.383602 0.383602 0.383602
0.409768 0.409768 0.409768
0.434288 0.434288 0.434288
0.305785 0.305785 0.305785
0.338429 0.338429 0.338429
0.370530 0.370530 0.370530
0.401848 0.401848 0.401848
0.432159 0.432159 0.432159
0.461256 0.461256 0.461256
0.488960 0.488960 0.488960
0.515125 0.515125 0.515125
0.539645 0.539645 0.539645
0.407754 0.407754 0.407754
0.440398 0.440398 0.440398
0.472498 0.472498 0.472498
0.503816 0.503816 0.503816
0.534128 0.534128 0.534128
0.563224 0.563224 0.563224
0.590928 0.590928 0.590928
0.617094 0.617094 0.617094
0.641614 0.641614 0.641614
0.505636 0.505636 0.505636
0.538280 0.538280 0.538280
0.570380 0.570380 0.570380
0.601699 0.601699 0.601699
0.632010 0.632010 0.632010
0.661106 0.661106 0.661106
0.688810 0.688810 0.688810
0.714976 0.714976 0.714976
0.739496 0.739496 0.739496
0.598834 0.598834 0.598834
0.631478 0.631478 0.631478
0.663578 0.663578 0.663578
0.694897 0.694897 0.694897
0.725208 0.725208 0.725208
0.754304 0.754304 0.754304
0.782008 0.782008 0.782008
0.808174 0.808174 0.808174
0.832694 0.832694 0.832694
0.686857 0.686857 0.686857
0.719501 0.719501 0.719501
0.751602 0.751602 0.751602
0.782920 0.782920 0.782920
0.813231 0.813231 0.813231
0.842328 0.842328 0.842328
0.870032 0.870032 0.870032
0.896198 0.896198 0.896198
0.920717 0.920717 0.920717
0.769343 0.769343 0.769343
0.801987 0.801987 0.801987
0.834088 0.834088 0.834088
0.865406 0.865406 0.865406
0.895717 0.895717 0.895717
0.924814 0.924814 0.924814
0.952518 0.952518 0.952518
0.978684 0.978684 0.978684
1.000000 1.000000 1.000000
0.000000 0.000000 0.000000
0.025561 0.025561 0.025561
0.057662 0.057662 0.057662
0.088980 0.088980 0.088980
0.119291 0.119291 0.119291
0.148388 0.148388 0.148388
0.176092 0.176092 0.176092
0.202257 0.202257 0.202257
0.226777 0.226777 0.226777
0.102734 0.102734 0.102734
0.135378 0.135378 0.135378
0.167478 0.167478 0.167478
0.198797 0.198797 0.198797
0.229108 0.229108 0.229108
0.258204 0.258204 0.258204
0.285908 0.285908 0.285908
0.312074 0.312074 0.312074
0.336594 0.336594 0.336594
0.210721 0.210721 0.210721
0.243365 0.243365 0.243365
0.275466 0.275466 0.275466
0.306784 0.306784 0.306784
0.337095 0.337095 0.337095
0.366192 0.366192 0.366192
0.393896 0.393896 0.393896
0.420062 0.420062 0.420062
0.444581 0.444581 0.444581
0.316079 0.316079 0.316079
0.348723 0.348723 0.348723
0.380823 0.380823 0.380823
0.412142 0.412142 0.412142
0.442453 0.442453 0.442453
0.471549 0.471549 0.471549
0.499253 0.499253 0.499253
0.525419 0.525419 0.525419
0.549939 0.549939 0.549939
0.418047 0.418047 0.418047
0.450691 0.450691 0.450691
0.482792 0.482792 0.482792
0.514110 0.514110 0.514110
0.544421 0.544421 0.544421
0.573518 0.573518 0.573518
0.601222 0.601222 0.601222
0.627388 0.627388 0.627388
0.651907 0.651907 0.651907
0.515929 0.515929 0.515929
0.548574 0.548574 0.548574
0.580674 0.580674 0.580674
0.611992 0.611992 0.611992
0.642303 0.642303 0.642303
0.671400 0.671400 0.671400
0.699104 0.699104 0.699104
0.725270 0.725270 0.725270
0.749789 0.749789 0.749789
0.609127 0.609127 0.609127
0.641772 0.641772 0.641772
0.673872 0.673872 0.673872
0.705190 0.705190 0.705190
0.735501 0.735501 0.735501
0.764598 0.764598 0.764598
0.792302 0.792302 0.792302
0.818468 0.818468 0.818468
0.842987 0.842987 0.842987
0.697151 0.697151 0.697151
0.729795 0.729795 0.729795
0.761896 0.761896 0.761896
0.793214 0.793214 0.793214
0.823525 0.823525 0.823525
0.852622 0.852622 0.852622
0.880326 0.880326 0.880326
0.906491 0.906491 0.906491
0.931011 0.931011 0.931011
0.779637 0.779637 0.779637
0.812281 0.812281 0.812281
0.844382 0.844382 0.844382
0.875700 0.875700 0.875700
0.906011 0.906011 0.906011
0.935108 0.935108 0.935108
0.962812 0.962812 0.962812
0.988977 0.988977 0.988977
1.000000 1.000000 1.000000
0.002798 0.002798 0.002798
0.035443 0.035443 0.035443
0.067543 0.067543 0.067543
0.098861 0.098861 0.098861
0.129172 0.129172 0.129172
0.158269 0.158269 0.158269
0.185973 0.185973 0.185973
0.212139 0.212139 0.212139
0.236658 0.236658 0.236658
0.112615 0.112615 0.112615
0.145259 0.145259 0.145259
0.177360 0.177360 0.177360
0.208678 0.208678 0.208678
0.238989 0.238989 0.238989
0.268086 0.268086 0.268086
0.295790 0.295790 0.295790
0.321955 0.321955 0.321955
0.346475 0.346475 0.346475
0.220603 0.220603 0.220603
0.253247 0.253247 0.253247
0.285347 0.285347 0.285347
0.316666 0.316666 0.316666
0.346977 0.346977 0.346977
0.376073 0.376073 0.376073
0.403777 0.403777 0.403777
0.429943 0.429943 0.429943
0.454463 0.454463 0.454463
0.325960 0.325960 0.325960
0.358604 0.358604 0.358604
0.390705 0.390705 0.390705
0.422023 0.422023 0.422023
0.452334 0.452334 0.452334
0.481431 0.481431 0.481431
0.509135 0.509135 0.509135
0.535301 0.535301 0.535301
0.559820 0.559820 0.559820
0.427929 0.427929 0.427929
0.460573 0.460573 0.460573
0.492673 0.492673 0.492673
0.523992 0.523992 0.523992
0.554303 0.554303 0.554303
0.583399 0.583399 0.583399
0.611103 0.611103 0.611103
0.637269 0.637269 0.637269
0.661789 0.661789 0.661789
0.525811 0.525811 0.525811
0.558455 0.558455 0.558455
0.590555 0.590555 0.590555
0.621874 0.621874 0.621874
0.652185 0.652185 0.652185
0.681281 0.681281 0.681281
0.708985 0.708985 0.708985
0.735151 0.735151 0.735151
0.759671 0.759671 0.759671
0.619009 0.619009 0.619009
0.651653 0.651653 0.651653
0.683753 0.683753 0.683753
0.715072 0.715072 0.715072
0.745383 0.745383 0.745383
0.774479 0.774479 0.774479
0.802183 0.802183 0.802183
0.828349 0.828349 0.828349
0.852869 0.852869 0.852869
0.707032 0.707032 0.707032
0.739677 0.739677 0.739677
0.771777 0.771777 0.771777
0.803095 0.803095 0.803095
0.833406 0.833406 0.833406
0.862503 0.862503 0.862503
0.890207 0.890207 0.890207
0.916373 0.916373 0.916373
0.940892 0.940892 0.940892
0.789518 0.789518 0.789518
0.822163 0.822163 0.822163
0.854263 0.854263 0.854263
0.885581 0.885581 0.885581
0.915892 0.915892 0.915892
0.944989 0.944989 0.944989
0.972693 0.972693 0.972693
0.998859 0.998859 0.998859
1.000000 1.000000 1.000000
0.012207 0.012207 0.012207
0.044851 0.044851 0.044851
0.076951 0.076951 0.076951
0.108270 0.108270 0.108270
0.138581 0.138581 0.138581
0.167677 0.167677 0.167677
0.195381 0.195381 0.195381
0.221547 0.221547 0.221547
0.246067 0.246067 0.246067
0.122024 0.122024 0.122024
0.154668 0.154668 0.154668
0.186768 0.186768 0.186768
0.218086 0.218086 0.218086
0.248398 0.248398 0.248398
0.277494 0.277494 0.277494
0.305198 0.305198 0.305198
0.331364 0.331364 0.331364
0.355884 0.355884 0.355884
0.230011 0.230011 0.230011
0.262655 0.262655 0.262655
0.294755 0.294755 0.294755
0.326074 0.326074 0.326074
0.356385 0.356385 0.356385
0.385481 0.385481 0.385481
0.413185 0.413185 0.413185
0.439351 0.439351 0.439351
0.463871 0.463871 0.463871
0.335369 0.335369 0.335369
0.368013 0.368013 0.368013
0.400113 0.400113 0.400113
0.431432 0.431432 0.431432
0.461743 0.461743 0.461743
0.490839 0.490839 0.490839
0.518543 0.518543 0.518543
0.544709 0.544709 0.544709
0.569229 0.569229 0.569229
0.437337 0.437337 0.437337
0.469981 0.469981 0.469981
0.502081 0.502081 0.502081
0.533400 0.533400 0.533400
0.563711 0.563711 0.563711
0.592807 0.592807 0.592807
0.620511 0.620511 0.620511
0.646677 0.646677 0.646677
0.671197 0.671197 0.671197
0.535219 0.535219 0.535219
0.567863 0.567863 0.567863
0.599964 0.599964 0.599964
0.631282 0.631282 0.631282
0.661593 0.661593 0.661593
0.690690 0.690690 0.690690
0.718394 0.718394 0.718394
0.744559 0.744559 0.744559
0.769079 0.769079 0.769079
0.628417 0.628417 0.628417
0.661061 0.661061 0.661061
0.693162 0.693162 0.693162
0.724480 0.724480 0.724480
0.754791 0.754791 0.754791
0.783888 0.783888 0.783888
0.811592 0.811592 0.811592
0.837757 0.837757 0.837757
0.862277 0.862277 0.862277
0.716441 0.716441 0.716441
0.749085 0.749085 0.749085
0.781185 0.781185 0.781185
0.812504 0.812504 0.812504
0.842815 0.842815 0.842815
0.871911 0.871911 0.871911
0.899615 0.899615 0.899615
0.925781 0.925781 0.925781
0.950301 0.950301 0.950301
0.798927 0.798927 0.798927
0.831571 0.831571 0.831571
0.863671 0.863671 0.863671
0.894990 0.894990 0.894990
0.925301 0.925301 0.925301
0.954397 0.954397 0.954397
0.982101 0.982101 0.982101
1.000000 1.000000 1.000000
1.000000 1.000000 1.000000
0.021093 0.021093 0.021093
0.053737 0.053737 0.053737
0.085837 0.085837 0.085837
0.117156 0.117156 0.117156
0.147467 0.147467 0.147467
0.176563 0.176563 0.176563
0.204267 0.204267 0.204267
0.230433 0.230433 0.230433
0.254953 0.254953 0.254953
0.130910 0.130910 0.130910
0.163554 0.163554 0.163554
0.195654 0.195654 0.195654
0.226973 0.226973 0.226973
0.257284 0.257284 0.257284
0.286380 0.286380 0.286380
0.314084 0.314084 0.314084
0.340250 0.340250 0.340250
0.364770 0.364770 0.364770
0.238897 0.238897 0.238897
0.271541 0.271541 0.271541
0.303642 0.303642 0.303642
0.334960 0.334960 0.334960
0.365271 0.365271 0.365271
0.394368 0.394368 0.394368
0.422072 0.422072 0.422072
0.448237 0.448237 0.448237
0.472757 0.472757 0.472757
0.344255 0.344255 0.344255
0.376899 0.376899 0.376899
0.408999 0.408999 0.408999
0.440318 0.440318 0.440318
0.470629 0.470629 0.470629
0.499725 0.499725 0.499725
0.527429 0.527429 0.527429
0.553595 0.553595 0.553595
0.578115 0.578115 0.578115
0.446223 0.446223 0.446223
0.478867 0.478867 0.478867
0.510967 0.510967 0.510967
0.542286 0.542286 0.542286
0.572597 0.572597 0.572597
0.601693 0.601693 0.601693
0.629397 0.629397 0.629397
0.655563 0.655563 0.655563
0.680083 0.680083 0.680083
0.544105 0.544105 0.544105
0.576749 0.576749 0.576749
0.608850 0.608850 0.608850
0.640168 0.640168 0.640168
0.670479 0.670479 0.670479
0.699576 0.699576 0.699576
0.727280 0.727280 0.727280
0.753445 0.753445 0.753445
0.777965 0.777965 0.777965
0.637303 0.637303 0.637303
0.669947 0.669947 0.669947
0.702048 0.702048 0.702048
0.733366 0.733366 0.733366
0.763677 0.763677 0.763677
0.792774 0.792774 0.792774
0.820478 0.820478 0.820478
0.846643 0.846643 0.846643
0.871163 0.871163 0.871163
0.725327 0.725327 0.725327
0.757971 0.757971 0.757971
0.790071 0.790071 0.790071
0.821390 0.821390 0.821390
0.851701 0.851701 0.851701
0.880797 0.880797 0.880797
0.908501 0.908501 0.908501
0.934667 0.934667 0.934667
0.959187 0.959187 0.959187
0.807813 0.807813 0.807813
0.840457 0.840457 0.840457
0.872557 0.872557 0.872557
0.903876 0.903876 0.903876
0.934187 0.934187 0.934187
0.963283 0.963283 0.963283
0.990987 0.990987 0.990987
1.000000 1.000000 1.000000
1.000000 1.000000 1.000000
0.029420 0.029420 0.029420
0.062064 0.062064 0.062064
0.094164 0.094164 0.094164
0.125483 0.125483 0.125483
0.155794 0.155794 0.155794
0.184890 0.184890 0.184890
0.212594 0.212594 0.212594
0.238760 0.238760 0.238760
0.263280 0.263280 0.263280
0.139237 0.139237 0.139237
0.171881 0.171881 0.171881
0.203981 0.203981 0.203981
0.235300 0.235300 0.235300
0.265611 0.265611 0.265611
0.294707 0.294707 0.294707
0.322411 0.322411 0.322411
0.348577 0.348577 0.348577
0.373097 0.373097 0.373097
0.247224 0.247224 0.247224
0.279868 0.279868 0.279868
0.311969 0.311969 0.311969
0.343287 0.343287 0.343287
0.373598 0.373598 0.373598
0.402695 0.402695 0.402695
0.430399 0.430399 0.430399
0.456564 0.456564 0.456564
0.481084 0.481084 0.481084
0.352582 0.352582 0.352582
0.385226 0.385226 0.385226
0.417326 0.417326 0.417326
0.448645 0.448645 0.448645
0.478956 0.478956 0.478956
0.508052 0.508052 0.508052
0.535756 0.535756 0.535756
0.561922 0.561922 0.561922
0.586442 0.586442 0.586442
0.454550 0.454550 0.454550
0.487194 0.487194 0.487194
0.519294 0.519294 0.519294
0.550613 0.550613 0.550613
0.580924 0.580924 0.580924
0.610020 0.610020 0.610020
0.637724 0.637724 0.637724
0.663890 0.663890 0.663890
0.688410 0.688410 0.688410
0.552432 0.552432 0.552432
0.585076 0.585076 0.585076
0.617177 0.617177 0.617177
0.648495 0.648495 0.648495
0.678806 0.678806 0.678806
0.707903 0.707903 0.707903
0.735607 0.735607 0.735607
0.761772 0.761772 0.761772
0.786292 0.786292 0.786292
0.645630 0.645630 0.645630
0.678274 0.678274 0.678274
0.710375 0.710375 0.710375
0.741693 0.741693 0.741693
0.772004 0.772004 0.772004
0.801101 0.801101 0.801101
0.828805 0.828805 0.828805
0.854970 0.854970 0.854970
0.879490 0.879490 0.879490
0.733654 0.733654 0.733654
0.766298 0.766298 0.766298
0.798398 0.798398 0.798398
0.829717 0.829717 0.829717
0.860028 0.860028 0.860028
0.889124 0.889124 0.889124
0.916828 0.916828 0.916828
0.942994 0.942994 0.942994
0.967514 0.967514 0.967514
0.816140 0.816140 0.816140
0.848784 0.848784 0.848784
0.880884 0.880884 0.880884
0.912203 0.912203 0.912203
0.942514 0.942514 0.942514
0.971610 0.971610 0.971610
0.999314 0.999314 0.999314
1.000000 1.000000 1.000000
1.000000 1.000000 1.000000
