luts/ilford_pan_f_plus_50.cube
TITLE Film LUT
LUT_3D_SIZE 9
DOMAIN_MIN 0.0 0.0 0.0
DOMAIN_MAX 1.0 1.0 1.0
0.000000 0.000000 0.000000
0.029373 0.029373 0.029373
0.058244 0.058244 0.058244
0.086451 0.086451 0.086451
0.113834 0.113834 0.113834
0.140256 0.140256 0.140256
0.165592 0.165592 0.165592
0.189734 0.189734 0.189734
0.212600 0.212600 0.212600
0.098811 0.098811 0.098811
0.128184 0.128184 0.128184
0.157056 0.157056 0.157056
0.185262 0.185262 0.185262
0.212646 0.212646 0.212646
0.239067 0.239067 0.239067
0.264403 0.264403 0.264403
0.288545 0.288545 0.288545
0.311411 0.311411 0.311411
0.195938 0.195938 0.195938
0.225310 0.225310 0.225310
0.254182 0.254182 0.254182
0.282388 0.282388 0.282388
0.309772 0.309772 0.309772
0.336193 0.336193 0.336193
0.361530 0.361530 0.361530
0.385671 0.385671 0.385671
0.408538 0.408538 0.408538
0.290825 0.290825 0.290825
0.320198 0.320198 0.320198
0.349070 0.349070 0.349070
0.377276 0.377276 0.377276
0.404660 0.404660 0.404660
0.431081 0.431081 0.431081
0.456417 0.456417 0.456417
0.480559 0.480559 0.480559
0.503425 0.503425 0.503425
0.382946 0.382946 0.382946
0.412319 0.412319 0.412319
0.441190 0.441190 0.441190
0.469397 0.469397 0.469397
0.496780 0.496780 0.496780
0.523202 0.523202 0.523202
0.548538 0.548538 0.548538
0.572680 0.572680 0.572680
0.595546 0.595546 0.595546
0.471829 0.471829 0.471829
0.501201 0.501201 0.501201
0.530073 0.530073 0.530073
0.558279 0.558279 0.558279
0.585663 0.585663 0.585663
0.612085 0.612085 0.612085
0.637421 0.637421 0.637421
0.661562 0.661562 0.661562
0.684429 0.684429 0.684429
0.557062 0.557062 0.557062
0.586435 0.586435 0.586435
0.615306 0.615306 0.615306
0.643513 0.643513 0.643513
0.670896 0.670896 0.670896
0.697318 0.697318 0.697318
0.722654 0.722654 0.722654
0.746796 0.746796 0.746796
0.769662 0.769662 0.769662
0.638276 0.638276 0.638276
0.667649 0.667649 0.667649
0.696520 0.696520 0.696520
0.724727 0.724727 0.724727
0.752110 0.752110 0.752110
0.778532 0.778532 0.778532
0.803868 0.803868 0.803868
0.828010 0.828010 0.828010
0.850876 0.850876 0.850876
0.715200 0.715200 0.715200
0.744573 0.744573 0.744573
0.773444 0.773444 0.773444
0.801651 0.801651 0.801651
0.829034 0.829034 0.829034
0.855456 0.855456 0.855456
0.880792 0.880792 0.880792
0.904934 0.904934 0.904934
0.927800 0.927800 0.927800
0.009975 0.009975 0.009975
0.039348 0.039348 0.039348
0.068219 0.068219 0.068219
0.096426 0.096426 0.096426
0.123809 0.123809 0.123809
0.150231 0.150231 0.150231
0.175567 0.175567 0.175567
0.199709 0.199709 0.199709
0.222575 0.222575 0.222575
0.108786 0.108786 0.108786
0.138159 0.138159 0.138159
0.167031 0.167031 0.167031
0.195237 0.195237 0.195237
0.222621 0.222621 0.222621
0.249042 0.249042 0.249042
0.274378 0.274378 0.274378
0.298520 0.298520 0.298520
0.321386 0.321386 0.321386
0.205913 0.205913 0.205913
0.235285 0.235285 0.235285
0.264157 0.264157 0.264157
0.292363 0.292363 0.292363
0.319747 0.319747 0.319747
0.346168 0.346168 0.346168
0.371505 0.371505 0.371505
0.395646 0.395646 0.395646
0.418513 0.418513 0.418513
0.300800 0.300800 0.300800
0.330173 0.330173 0.330173
0.359045 0.359045 0.359045
0.387251 0.387251 0.387251
0.414635 0.414635 0.414635
0.441056 0.441056 0.441056
0.466392 0.466392 0.466392
0.490534 0.490534 0.490534
0.513400 0.513400 0.513400
0.392921 0.392921 0.392921
0.422294 0.422294 0.422294
0.451165 0.451165 0.451165
0.479372 0.479372 0.479372
0.506755 0.506755 0.506755
0.533177 0.533177 0.533177
0.558513 0.558513 0.558513
0.582655 0.582655 0.582655
0.605521 0.605521 0.605521
0.481804 0.481804 0.481804
0.511177 0.511177 0.511177
0.540048 0.540048 0.540048
0.568255 0.568255 0.568255
0.595638 0.595638 0.595638
0.622060 0.622060 0.622060
0.647396 0.647396 0.647396
0.671538 0.671538 0.671538
0.694404 0.694404 0.694404
0.567037 0.567037 0.567037
0.596410 0.596410 0.596410
0.625282 0.625282 0.625282
0.653488 0.653488 0.653488
0.680872 0.680872 0.680872
0.707293 0.707293 0.707293
0.732629 0.732629 0.732629
0.756771 0.756771 0.756771
0.779637 0.779637 0.779637
0.648251 0.648251 0.648251
0.677624 0.677624 0.677624
0.706495 0.706495 0.706495
0.734702 0.734702 0.734702
0.762085 0.762085 0.762085
0.788507 0.788507 0.788507
0.813843 0.813843 0.813843
0.837985 0.837985 0.837985
0.860851 0.860851 0.860851
0.725175 0.725175 0.725175
0.754548 0.754548 0.754548
0.783419 0.783419 0.783419
0.811626 0.811626 0.811626
0.839009 0.839009 0.839009
0.865431 0.865431 0.865431
0.890767 0.890767 0.890767
0.914909 0.914909 0.914909
0.937775 0.937775 0.937775
0.019780 0.019780 0.019780
0.049153 0.049153 0.049153
0.078024 0.078024 0.078024
0.106231 0.106231 0.106231
0.133614 0.133614 0.133614
0.160036 0.160036 0.160036
0.185372 0.185372 0.185372
0.209514 0.209514 0.209514
0.232380 0.232380 0.232380
0.118591 0.118591 0.118591
0.147964 0.147964 0.147964
0.176836 0.176836 0.176836
0.205042 0.205042 0.205042
0.232426 0.232426 0.232426
0.258847 0.258847 0.258847
0.284183 0.284183 0.284183
0.308325 0.308325 0.308325
0.331191 0.331191 0.331191
0.215718 0.215718 0.215718
0.245090 0.245090 0.245090
0.273962 0.273962 0.273962
0.302168 0.302168 0.302168
0.329552 0.329552 0.329552
0.355973 0.355973 0.355973
0.381310 0.381310 0.381310
0.405451 0.405451 0.405451
0.428318 0.428318 0.428318
0.310605 0.310605 0.310605
0.339978 0.339978 0.339978
0.368850 0.368850 0.368850
0.397056 0.397056 0.397056
0.424440 0.424440 0.424440
0.450861 0.450861 0.450861
0.476197 0.476197 0.476197
0.500339 0.500339 0.500339
0.523205 0.523205 0.523205
0.402726 0.402726 0.402726
0.432099 0.432099 0.432099
0.460970 0.460970 0.460970
0.489177 0.489177 0.489177
0.516560 0.516560 0.516560
0.542982 0.542982 0.542982
0.568318 0.568318 0.568318
0.592460 0.592460 0.592460
0.615326 0.615326 0.615326
0.491609 0.491609 0.491609
0.520982 0.520982 0.520982
0.549853 0.549853 0.549853
0.578060 0.578060 0.578060
0.605443 0.605443 0.605443
0.631865 0.631865 0.631865
0.657201 0.657201 0.657201
0.681343 0.681343 0.681343
0.704209 0.704209 0.704209
0.576842 0.576842 0.576842
0.606215 0.606215 0.606215
0.635087 0.635087 0.635087
0.663293 0.663293 0.663293
0.690677 0.690677 0.690677
0.717098 0.717098 0.717098
0.742434 0.742434 0.742434
0.766576 0.766576 0.766576
0.789442 0.789442 0.789442
0.658056 0.658056 0.658056
0.687429 0.687429 0.687429
0.716300 0.716300 0.716300
0.744507 0.744507 0.744507
0.771890 0.771890 0.771890
0.798312 0.798312 0.798312
0.823648 0.823648 0.823648
0.847790 0.847790 0.847790
0.870656 0.870656 0.870656
0.734980 0.734980 0.734980
0.764353 0.764353 0.764353
0.793224 0.793224 0.793224
0.821431 0.821431 0.821431
0.848814 0.848814 0.848814
0.875236 0.875236 0.875236
0.900572 0.900572 0.900572
0.924714 0.924714 0.924714
0.947580 0.947580 0.947580
0.029359 0.029359 0.029359
0.058732 0.058732 0.058732
0.087603 0.087603 0.087603
0.115810 0.115810 0.115810
0.143193 0.143193 0.143193
0.169615 0.169615 0.169615
0.194951 0.194951 0.194951
0.219093 0.219093 0.219093
0.241959 0.241959 0.241959
0.128170 0.128170 0.128170
0.157543 0.157543 0.157543
0.186415 0.186415 0.186415
0.214621 0.214621 0.214621
0.242005 0.242005 0.242005
0.268426 0.268426 0.268426
0.293762 0.293762 0.293762
0.317904 0.317904 0.317904
0.340770 0.340770 0.340770
0.225297 0.225297 0.225297
0.254669 0.254669 0.254669
0.283541 0.283541 0.283541
0.311747 0.311747 0.311747
0.339131 0.339131 0.339131
0.365552 0.365552 0.365552
0.390889 0.390889 0.390889
0.415030 0.415030 0.415030
0.437897 0.437897 0.437897
0.320184 0.320184 0.320184
0.349557 0.349557 0.349557
0.378429 0.378429 0.378429
0.406635 0.406635 0.406635
0.434019 0.434019 0.434019
0.460440 0.460440 0.460440
0.485776 0.485776 0.485776
0.509918 0.509918 0.509918
0.532784 0.532784 0.532784
0.412305 0.412305 0.412305
0.441678 0.441678 0.441678
0.470549 0.470549 0.470549
0.498756 0.498756 0.498756
0.526139 0.526139 0.526139
0.552561 0.552561 0.552561
0.577897 0.577897 0.577897
0.602039 0.602039 0.602039
0.624905 0.624905 0.624905
0.501188 0.501188 0.501188
0.530561 0.530561 0.530561
0.559432 0.559432 0.559432
0.587639 0.587639 0.587639
0.615022 0.615022 0.615022
0.641444 0.641444 0.641444
0.666780 0.666780 0.666780
0.690922 0.690922 0.690922
0.713788 0.713788 0.713788
0.586421 0.586421 0.586421
0.615794 0.615794 0.615794
0.644665 0.644665 0.644665
0.672872 0.672872 0.672872
0.700256 0.700256 0.700256
0.726677 0.726677 0.726677
0.752013 0.752013 0.752013
0.776155 0.776155 0.776155
0.799021 0.799021 0.799021
0.667635 0.667635 0.667635
0.697008 0.697008 0.697008
0.725879 0.725879 0.725879
0.754086 0.754086 0.754086
0.781469 0.781469 0.781469
0.807891 0.807891 0.807891
0.833227 0.833227 0.833227
0.857369 0.857369 0.857369
0.880235 0.880235 0.880235
0.744559 0.744559 0.744559
0.773932 0.773932 0.773932
0.802803 0.802803 0.802803
0.831010 0.831010 0.831010
0.858393 0.858393 0.858393
0.884815 0.884815 0.884815
0.910151 0.910151 0.910151
0.934293 0.934293 0.934293
0.957159 0.957159 0.957159
0.038659 0.038659 0.038659
0.068031 0.068031 0.068031
0.096903 0.096903 0.096903
0.125109 0.125109 0.125109
0.152493 0.152493 0.152493
0.178914 0.178914 0.178914
0.204251 0.204251 0.204251
0.228392 0.228392 0.228392
0.251259 0.251259 0.251259
0.137470 0.137470 0.137470
0.166843 0.166843 0.166843
0.195714 0.195714 0.195714
0.223921 0.223921 0.223921
0.251304 0.251304 0.251304
0.277726 0.277726 0.277726
0.303062 0.303062 0.303062
0.327204 0.327204 0.327204
0.350070 0.350070 0.350070
0.234596 0.234596 0.234596
0.263969 0.263969 0.263969
0.292841 0.292841 0.292841
0.321047 0.321047 0.321047
0.348431 0.348431 0.348431
0.374852 0.374852 0.374852
0.400188 0.400188 0.400188
0.424330 0.424330 0.424330
0.447196 0.447196 0.447196
0.329484 0.329484 0.329484
0.358857 0.358857 0.358857
0.387728 0.387728 0.387728
0.415935 0.415935 0.415935
0.443318 0.443318 0.443318
0.469740 0.469740 0.469740
0.495076 0.495076 0.495076
0.519218 0.519218 0.519218
0.542084 0.542084 0.542084
0.421605 0.421605 0.421605
0.450977 0.450977 0.450977
0.479849 0.479849 0.479849
0.508055 0.508055 0.508055
0.535439 0.535439 0.535439
0.561860 0.561860 0.561860
0.587197 0.587197 0.587197
0.611338 0.611338 0.611338
0.634205 0.634205 0.634205
0.510488 0.510488 0.510488
0.539860 0.539860 0.539860
0.568732 0.568732 0.568732
0.596938 0.596938 0.596938
0.624322 0.624322 0.624322
0.650743 0.650743 0.650743
0.676080 0.676080 0.676080
0.700221 0.700221 0.700221
0.723088 0.723088 0.723088
0.595721 0.595721 0.595721
0.625093 0.625093 0.625093
0.653965 0.653965 0.653965
0.682171 0.682171 0.682171
0.709555 0.709555 0.709555
0.735976 0.735976 0.735976
0.761313 0.761313 0.761313
0.785454 0.785454 0.785454
0.808321 0.808321 0.808321
0.676935 0.676935 0.676935
0.706307 0.706307 0.706307
0.735179 0.735179 0.735179
0.763385 0.763385 0.763385
0.790769 0.790769 0.790769
0.817190 0.817190 0.817190
0.842527 0.842527 0.842527
0.866668 0.866668 0.866668
0.889535 0.889535 0.889535
0.753859 0.753859 0.753859
0.783231 0.783231 0.783231
0.812103 0.812103 0.812103
0.840309 0.840309 0.840309
0.867693 0.867693 0.867693
0.894114 0.894114 0.894114
0.919451 0.919451 0.919451
0.943592 0.943592 0.943592
0.966459 0.966459 0.966459
0.047631 0.047631 0.047631
0.077004 0.077004 0.077004
0.105876 0.105876 0.105876
0.134082 0.134082 0.134082
0.161466 0.161466 0.161466
0.187887 0.187887 0.187887
0.213224 0.213224 0.213224
0.237365 0.237365 0.237365
0.260231 0.260231 0.260231
0.146443 0.146443 0.146443
0.175815 0.175815 0.175815
0.204687 0.204687 0.204687
0.232893 0.232893 0.232893
0.260277 0.260277 0.260277
0.286698 0.286698 0.286698
0.312035 0.312035 0.312035
0.336176 0.336176 0.336176
0.359043 0.359043 0.359043
0.243569 0.243569 0.243569
0.272942 0.272942 0.272942
0.301813 0.301813 0.301813
0.330020 0.330020 0.330020
0.357403 0.357403 0.357403
0.383825 0.383825 0.383825
0.409161 0.409161 0.409161
0.433303 0.433303 0.433303
0.456169 0.456169 0.456169
0.338457 0.338457 0.338457
0.367829 0.367829 0.367829
0.396701 0.396701 0.396701
0.424907 0.424907 0.424907
0.452291 0.452291 0.452291
0.478712 0.478712 0.478712
0.504049 0.504049 0.504049
0.528190 0.528190 0.528190
0.551057 0.551057 0.551057
0.430577 0.430577 0.430577
0.459950 0.459950 0.459950
0.488822 0.488822 0.488822
0.517028 0.517028 0.517028
0.544412 0.544412 0.544412
0.570833 0.570833 0.570833
0.596169 0.596169 0.596169
0.620311 0.620311 0.620311
0.643177 0.643177 0.643177
0.519460 0.519460 0.519460
0.548833 0.548833 0.548833
0.577705 0.577705 0.577705
0.605911 0.605911 0.605911
0.633295 0.633295 0.633295
0.659716 0.659716 0.659716
0.685052 0.685052 0.685052
0.709194 0.709194 0.709194
0.732060 0.732060 0.732060
0.604694 0.604694 0.604694
0.634066 0.634066 0.634066
0.662938 0.662938 0.662938
0.691144 0.691144 0.691144
0.718528 0.718528 0.718528
0.744949 0.744949 0.744949
0.770286 0.770286 0.770286
0.794427 0.794427 0.794427
0.817294 0.817294 0.817294
0.685907 0.685907 0.685907
0.715280 0.715280 0.715280
0.744152 0.744152 0.744152
0.772358 0.772358 0.772358
0.799742 0.799742 0.799742
0.826163 0.826163 0.826163
0.851499 0.851499 0.851499
0.875641 0.875641 0.875641
0.898507 0.898507 0.898507
0.762831 0.762831 0.762831
0.792204 0.792204 0.792204
0.821076 0.821076 0.821076
0.849282 0.849282 0.849282
0.876666 0.876666 0.876666
0.903087 0.903087 0.903087
0.928424 0.928424 0.928424
0.952565 0.952565 0.952565
0.975431 0.975431 0.975431
0.056236 0.056236 0.056236
0.085608 0.085608 0.085608
0.114480 0.114480 0.114480
0.142686 0.142686 0.142686
0.170070 0.170070 0.170070
0.196491 0.196491 0.196491
0.221828 0.221828 0.221828
0.245969 0.245969 0.245969
0.268836 0.268836 0.268836
0.155047 0.155047 0.155047
0.184420 0.184420 0.184420
0.213291 0.213291 0.213291
0.241498 0.241498 0.241498
0.268882 0.268882 0.268882
0.295303 0.295303 0.295303
0.320639 0.320639 0.320639
0.344781 0.344781 0.344781
0.367647 0.367647 0.367647
0.252173 0.252173 0.252173
0.281546 0.281546 0.281546
0.310418 0.310418 0.310418
0.338624 0.338624 0.338624
0.366008 0.366008 0.366008
0.392429 0.392429 0.392429
0.417765 0.417765 0.417765
0.441907 0.441907 0.441907
0.464773 0.464773 0.464773
0.347061 0.347061 0.347061
0.376434 0.376434 0.376434
0.405306 0.405306 0.405306
0.433512 0.433512 0.433512
0.460896 0.460896 0.460896
0.487317 0.487317 0.487317
0.512653 0.512653 0.512653
0.536795 0.536795 0.536795
0.559661 0.559661 0.559661
0.439182 0.439182 0.439182
0.468554 0.468554 0.468554
0.497426 0.497426 0.497426
0.525632 0.525632 0.525632
0.553016 0.553016 0.553016
0.579437 0.579437 0.579437
0.604774 0.604774 0.604774
0.628915 0.628915 0.628915
0.651782 0.651782 0.651782
0.528065 0.528065 0.528065
0.557437 0.557437 0.557437
0.586309 0.586309 0.586309
0.614515 0.614515 0.614515
0.641899 0.641899 0.641899
0.668320 0.668320 0.668320
0.693657 0.693657 0.693657
0.717798 0.717798 0.717798
0.740665 0.740665 0.740665
0.613298 0.613298 0.613298
0.642671 0.642671 0.642671
0.671542 0.671542 0.671542
0.699749 0.699749 0.699749
0.727132 0.727132 0.727132
0.753554 0.753554 0.753554
0.778890 0.778890 0.778890
0.803032 0.803032 0.803032
0.825898 0.825898 0.825898
0.694512 0.694512 0.694512
0.723884 0.723884 0.723884
0.752756 0.752756 0.752756
0.780962 0.780962 0.780962
0.808346 0.808346 0.808346
0.834767 0.834767 0.834767
0.860104 0.860104 0.860104
0.884245 0.884245 0.884245
0.907112 0.907112 0.907112
0.771436 0.771436 0.771436
0.800808 0.800808 0.800808
0.829680 0.829680 0.829680
0.857886 0.857886 0.857886
0.885270 0.885270 0.885270
0.911691 0.911691 0.911691
0.937028 0.937028 0.937028
0.961169 0.961169 0.961169
0.984036 0.984036 0.984036
0.064434 0.064434 0.064434
0.093807 0.093807 0.093807
0.122679 0.122679 0.122679
0.150885 0.150885 0.150885
0.178269 0.178269 0.178269
0.204690 0.204690 0.204690
0.230026 0.230026 0.230026
0.254168 0.254168 0.254168
0.277034 0.277034 0.277034
0.163246 0.163246 0.163246
0.192618 0.192618 0.192618
0.221490 0.221490 0.221490
0.249696 0.249696 0.249696
0.277080 0.277080 0.277080
0.303501 0.303501 0.303501
0.328838 0.328838 0.328838
0.352979 0.352979 0.352979
0.375846 0.375846 0.375846
0.260372 0.260372 0.260372
0.289745 0.289745 0.289745
0.318616 0.318616 0.318616
0.346823 0.346823 0.346823
0.374206 0.374206 0.374206
0.400628 0.400628 0.400628
0.425964 0.425964 0.425964
0.450106 0.450106 0.450106
0.472972 0.472972 0.472972
0.355260 0.355260 0.355260
0.384632 0.384632 0.384632
0.413504 0.413504 0.413504
0.441710 0.441710 0.441710
0.469094 0.469094 0.469094
0.495515 0.495515 0.495515
0.520852 0.520852 0.520852
0.544993 0.544993 0.544993
0.567860 0.567860 0.567860
0.447380 0.447380 0.447380
0.476753 0.476753 0.476753
0.505625 0.505625 0.505625
0.533831 0.533831 0.533831
0.561215 0.561215 0.561215
0.587636 0.587636 0.587636
0.612972 0.612972 0.612972
0.637114 0.637114 0.637114
0.659980 0.659980 0.659980
0.536263 0.536263 0.536263
0.565636 0.565636 0.565636
0.594508 0.594508 0.594508
0.622714 0.622714 0.622714
0.650098 0.650098 0.650098
0.676519 0.676519 0.676519
0.701855 0.701855 0.701855
0.725997 0.725997 0.725997
0.748863 0.748863 0.748863
0.621497 0.621497 0.621497
0.650869 0.650869 0.650869
0.679741 0.679741 0.679741
0.707947 0.707947 0.707947
0.735331 0.735331 0.735331
0.761752 0.761752 0.761752
0.787089 0.787089 0.787089
0.811230 0.811230 0.811230
0.834097 0.834097 0.834097
0.702710 0.702710 0.702710
0.732083 0.732083 0.732083
0.760955 0.760955 0.760955
0.789161 0.789161 0.789161
0.816545 0.816545 0.816545
0.842966 0.842966 0.842966
0.868302 0.868302 0.868302
0.892444 0.892444 0.892444
0.915310 0.915310 0.915310
0.779634 0.779634 0.779634
0.809007 0.809007 0.809007
0.837879 0.837879 0.837879
0.866085 0.866085 0.866085
0.893469 0.893469 0.893469
0.919890 0.919890 0.919890
0.945226 0.945226 0.945226
0.969368 0.969368 0.969368
0.992234 0.992234 0.992234
0.072200 0.072200 0.072200
0.101573 0.101573 0.101573
0.130444 0.130444 0.130444
0.158651 0.158651 0.158651
0.186034 0.186034 0.186034
0.212456 0.212456 0.212456
0.237792 0.237792 0.237792
0.261934 0.261934 0.261934
0.284800 0.284800 0.284800
0.171011 0.171011 0.171011
0.200384 0.200384 0.200384
0.229256 0.229256 0.229256
0.257462 0.257462 0.257462
0.284846 0.284846 0.284846
0.311267 0.311267 0.311267
0.336603 0.336603 0.336603
0.360745 0.360745 0.360745
0.383611 0.383611 0.383611
0.268138 0.268138 0.268138
0.297510 0.297510 0.297510
0.326382 0.326382 0.326382
0.354588 0.354588 0.354588
0.381972 0.381972 0.381972
0.408393 0.408393 0.408393
0.433730 0.433730 0.433730
0.457871 0.457871 0.457871
0.480738 0.480738 0.480738
0.363025 0.363025 0.363025
0.392398 0.392398 0.392398
0.421270 0.421270 0.421270
0.449476 0.449476 0.449476
0.476860 0.476860 0.476860
0.503281 0.503281 0.503281
0.528617 0.528617 0.528617
0.552759 0.552759 0.552759
0.575625 0.575625 0.575625
0.455146 0.455146 0.455146
0.484519 0.484519 0.484519
0.513390 0.513390 0.513390
0.541597 0.541597 0.541597
0.568980 0.568980 0.568980
0.595402 0.595402 0.595402
0.620738 0.620738 0.620738
0.644880 0.644880 0.644880
0.667746 0.667746 0.667746
0.544029 0.544029 0.544029
0.573401 0.573401 0.573401
0.602273 0.602273 0.602273
0.630479 0.630479 0.630479
0.657863 0.657863 0.657863
0.684285 0.684285 0.684285
0.709621 0.709621 0.709621
0.733762 0.733762 0.733762
0.756629 0.756629 0.756629
0.629262 0.629262 0.629262
0.658635 0.658635 0.658635
0.687506 0.687506 0.687506
0.715713 0.715713 0.715713
0.743096 0.743096 0.743096
0.769518 0.769518 0.769518
0.794854 0.794854 0.794854
0.818996 0.818996 0.818996
0.841862 0.841862 0.841862
0.710476 0.710476 0.710476
0.739849 0.739849 0.739849
0.768720 0.768720 0.768720
0.796927 0.796927 0.796927
0.824310 0.824310 0.824310
0.850732 0.850732 0.850732
0.876068 0.876068 0.876068
0.900210 0.900210 0.900210
0.923076 0.923076 0.923076
0.787400 0.787400 0.787400
0.816773 0.816773 0.816773
0.845644 0.845644 0.845644
0.873851 0.873851 0.873851
0.901234 0.901234 0.901234
0.927656 0.927656 0.927656
0.952992 0.952992 0.952992
0.977134 0.977134 0.977134
1.000000 1.000000 1.000000
