luts/ilford_hp5_plus_400.cube
TITLE Film LUT
LUT_3D_SIZE 33
DOMAIN_MIN 0.0 0.0 0.0
DOMAIN_MAX 1.0 1.0 1.0
0.000000 0.000000 0.000000
0.000000 0.000000 0.000000
0.000000 0.000000 0.000000
0.000000 0.000000 0.000000
0.000000 0.000000 0.000000
0.000000 0.000000 0.000000
0.000000 0.000000 0.000000
0.000000 0.000000 0.000000
0.000000 0.000000 0.000000
0.000000 0.000000 0.000000
0.000000 0.000000 0.000000
0.000000 0.000000 0.000000
0.000000 0.000000 0.000000
0.000000 0.000000 0.000000
0.000000 0.000000 0.000000
0.000000 0.000000 0.000000
0.000254 0.000254 0.000254
0.009016 0.009016 0.009016
0.017675 0.017675 0.017675
0.026229 0.026229 0.026229
0.034674 0.034674 0.034674
0.043005 0.043005 0.043005
0.051221 0.051221 0.051221
0.059316 0.059316 0.059316
0.067289 0.067289 0.067289
0.075137 0.075137 0.075137
0.082858 0.082858 0.082858
0.090448 0.090448 0.090448
0.097904 0.097904 0.097904
0.105229 0.105229 0.105229
0.112417 0.112417 0.112417
0.119467 0.119467 0.119467
0.126380 0.126380 0.126380
0.000000 0.000000 0.000000
0.000000 0.000000 0.000000
0.000000 0.000000 0.000000
0.000000 0.000000 0.000000
0.000000 0.000000 0.000000
0.000000 0.000000 0.000000
0.000000 0.000000 0.000000
0.000000 0.000000 0.000000
0.000000 0.000000 0.000000
0.000000 0.000000 0.000000
0.000000 0.000000 0.000000
0.000000 0.000000 0.000000
0.000000 0.000000 0.000000
0.006184 0.006184 0.006184
0.015226 0.015226 0.015226
0.024179 0.024179 0.024179
0.033037 0.033037 0.033037
0.041799 0.041799 0.041799
0.050459 0.050459 0.050459
0.059012 0.059012 0.059012
0.067458 0.067458 0.067458
0.075788 0.075788 0.075788
0.084004 0.084004 0.084004
0.092099 0.092099 0.092099
0.100072 0.100072 0.100072
0.107920 0.107920 0.107920
0.115641 0.115641 0.115641
0.123231 0.123231 0.123231
0.130688 0.130688 0.130688
0.138012 0.138012 0.138012
0.145201 0.145201 0.145201
0.152251 0.152251 0.152251
0.159163 0.159163 0.159163
0.000000 0.000000 0.000000
0.000000 0.000000 0.000000
0.000000 0.000000 0.000000
0.000000 0.000000 0.000000
0.000000 0.000000 0.000000
0.000000 0.000000 0.000000
0.000000 0.000000 0.000000
0.000000 0.000000 0.000000
0.000000 0.000000 0.000000
0.001928 0.001928 0.001928
0.011277 0.011277 0.011277
0.020558 0.020558 0.020558
0.029763 0.029763 0.029763
0.038889 0.038889 0.038889
0.047930 0.047930 0.047930
0.056883 0.056883 0.056883
0.065741 0.065741 0.065741
0.074503 0.074503 0.074503
0.083163 0.083163 0.083163
0.091717 0.091717 0.091717
0.100162 0.100162 0.100162
0.108492 0.108492 0.108492
0.116709 0.116709 0.116709
0.124803 0.124803 0.124803
0.132777 0.132777 0.132777
0.140624 0.140624 0.140624
0.148345 0.148345 0.148345
0.155935 0.155935 0.155935
0.163392 0.163392 0.163392
0.170717 0.170717 0.170717
0.177905 0.177905 0.177905
0.184955 0.184955 0.184955
0.191868 0.191868 0.191868
0.000000 0.000000 0.000000
0.000000 0.000000 0.000000
0.000000 0.000000 0.000000
0.000000 0.000000 0.000000
0.000000 0.000000 0.000000
0.000000 0.000000 0.000000
0.006121 0.006121 0.006121
0.015651 0.015651 0.015651
0.025125 0.025125 0.025125
0.034540 0.034540 0.034540
0.043889 0.043889 0.043889
0.053170 0.053170 0.053170
0.062375 0.062375 0.062375
0.071500 0.071500 0.071500
0.080542 0.080542 0.080542
0.089494 0.089494 0.089494
0.098353 0.098353 0.098353
0.107114 0.107114 0.107114
0.115774 0.115774 0.115774
0.124328 0.124328 0.124328
0.132773 0.132773 0.132773
0.141104 0.141104 0.141104
0.149320 0.149320 0.149320
0.157415 0.157415 0.157415
0.165388 0.165388 0.165388
0.173236 0.173236 0.173236
0.180957 0.180957 0.180957
0.188547 0.188547 0.188547
0.196003 0.196003 0.196003
0.203328 0.203328 0.203328
0.210516 0.210516 0.210516
0.217566 0.217566 0.217566
0.224479 0.224479 0.224479
0.000000 0.000000 0.000000
0.000000 0.000000 0.000000
0.000068 0.000068 0.000068
0.009762 0.009762 0.009762
0.019424 0.019424 0.019424
0.029046 0.029046 0.029046
0.038624 0.038624 0.038624
0.048153 0.048153 0.048153
0.057628 0.057628 0.057628
0.067042 0.067042 0.067042
0.076391 0.076391 0.076391
0.085672 0.085672 0.085672
0.094877 0.094877 0.094877
0.104002 0.104002 0.104002
0.113044 0.113044 0.113044
0.121997 0.121997 0.121997
0.130855 0.130855 0.130855
0.139617 0.139617 0.139617
0.148277 0.148277 0.148277
0.156831 0.156831 0.156831
0.165276 0.165276 0.165276
0.173606 0.173606 0.173606
0.181822 0.181822 0.181822
0.189917 0.189917 0.189917
0.197891 0.197891 0.197891
0.205738 0.205738 0.205738
0.213459 0.213459 0.213459
0.221049 0.221049 0.221049
0.228506 0.228506 0.228506
0.235830 0.235830 0.235830
0.243019 0.243019 0.243019
0.250069 0.250069 0.250069
0.256982 0.256982 0.256982
0.012971 0.012971 0.012971
0.022716 0.022716 0.022716
0.032438 0.032438 0.032438
0.042132 0.042132 0.042132
0.051794 0.051794 0.051794
0.061416 0.061416 0.061416
0.070994 0.070994 0.070994
0.080523 0.080523 0.080523
0.089997 0.089997 0.089997
0.099412 0.099412 0.099412
0.108761 0.108761 0.108761
0.118042 0.118042 0.118042
0.127247 0.127247 0.127247
0.136372 0.136372 0.136372
0.145414 0.145414 0.145414
0.154366 0.154366 0.154366
0.163225 0.163225 0.163225
0.171987 0.171987 0.171987
0.180646 0.180646 0.180646
0.189200 0.189200 0.189200
0.197645 0.197645 0.197645
0.205976 0.205976 0.205976
0.214192 0.214192 0.214192
0.222287 0.222287 0.222287
0.230260 0.230260 0.230260
0.238108 0.238108 0.238108
0.245829 0.245829 0.245829
0.253419 0.253419 0.253419
0.260875 0.260875 0.260875
0.268200 0.268200 0.268200
0.275388 0.275388 0.275388
0.282439 0.282439 0.282439
0.289351 0.289351 0.289351
0.045191 0.045191 0.045191
0.054936 0.054936 0.054936
0.064658 0.064658 0.064658
0.074352 0.074352 0.074352
0.084014 0.084014 0.084014
0.093636 0.093636 0.093636
0.103213 0.103213 0.103213
0.112743 0.112743 0.112743
0.122217 0.122217 0.122217
0.131632 0.131632 0.131632
0.140981 0.140981 0.140981
0.150262 0.150262 0.150262
0.159467 0.159467 0.159467
0.168592 0.168592 0.168592
0.177634 0.177634 0.177634
0.186586 0.186586 0.186586
0.195445 0.195445 0.195445
0.204207 0.204207 0.204207
0.212866 0.212866 0.212866
0.221420 0.221420 0.221420
0.229865 0.229865 0.229865
0.238196 0.238196 0.238196
0.246412 0.246412 0.246412
0.254507 0.254507 0.254507
0.262480 0.262480 0.262480
0.270328 0.270328 0.270328
0.278049 0.278049 0.278049
0.285639 0.285639 0.285639
0.293095 0.293095 0.293095
0.300420 0.300420 0.300420
0.307608 0.307608 0.307608
0.314658 0.314658 0.314658
0.321571 0.321571 0.321571
0.077249 0.077249 0.077249
0.086994 0.086994 0.086994
0.096716 0.096716 0.096716
0.106410 0.106410 0.106410
0.116072 0.116072 0.116072
0.125694 0.125694 0.125694
0.135272 0.135272 0.135272
0.144801 0.144801 0.144801
0.154275 0.154275 0.154275
0.163690 0.163690 0.163690
0.173039 0.173039 0.173039
0.182320 0.182320 0.182320
0.191525 0.191525 0.191525
0.200650 0.200650 0.200650
0.209692 0.209692 0.209692
0.218644 0.218644 0.218644
0.227503 0.227503 0.227503
0.236265 0.236265 0.236265
0.244924 0.244924 0.244924
0.253478 0.253478 0.253478
0.261924 0.261924 0.261924
0.270254 0.270254 0.270254
0.278470 0.278470 0.278470
0.286565 0.286565 0.286565
0.294538 0.294538 0.294538
0.302386 0.302386 0.302386
0.310107 0.310107 0.310107
0.317697 0.317697 0.317697
0.325153 0.325153 0.325153
0.332478 0.332478 0.332478
0.339666 0.339666 0.339666
0.346717 0.346717 0.346717
0.353629 0.353629 0.353629
0.109121 0.109121 0.109121
0.118866 0.118866 0.118866
0.128588 0.128588 0.128588
0.138282 0.138282 0.138282
0.147944 0.147944 0.147944
0.157566 0.157566 0.157566
0.167144 0.167144 0.167144
0.176673 0.176673 0.176673
0.186148 0.186148 0.186148
0.195562 0.195562 0.195562
0.204911 0.204911 0.204911
0.214192 0.214192 0.214192
0.223397 0.223397 0.223397
0.232522 0.232522 0.232522
0.241564 0.241564 0.241564
0.250517 0.250517 0.250517
0.259375 0.259375 0.259375
0.268137 0.268137 0.268137
0.276797 0.276797 0.276797
0.285350 0.285350 0.285350
0.293796 0.293796 0.293796
0.302126 0.302126 0.302126
0.310342 0.310342 0.310342
0.318437 0.318437 0.318437
0.326410 0.326410 0.326410
0.334258 0.334258 0.334258
0.341979 0.341979 0.341979
0.349569 0.349569 0.349569
0.357026 0.357026 0.357026
0.364350 0.364350 0.364350
0.371539 0.371539 0.371539
0.378589 0.378589 0.378589
0.385501 0.385501 0.385501
0.140792 0.140792 0.140792
0.150537 0.150537 0.150537
0.160259 0.160259 0.160259
0.169953 0.169953 0.169953
0.179614 0.179614 0.179614
0.189236 0.189236 0.189236
0.198814 0.198814 0.198814
0.208344 0.208344 0.208344
0.217818 0.217818 0.217818
0.227232 0.227232 0.227232
0.236581 0.236581 0.236581
0.245862 0.245862 0.245862
0.255067 0.255067 0.255067
0.264193 0.264193 0.264193
0.273234 0.273234 0.273234
0.282187 0.282187 0.282187
0.291045 0.291045 0.291045
0.299807 0.299807 0.299807
0.308467 0.308467 0.308467
0.317021 0.317021 0.317021
0.325466 0.325466 0.325466
0.333796 0.333796 0.333796
0.342013 0.342013 0.342013
0.350108 0.350108 0.350108
0.358081 0.358081 0.358081
0.365928 0.365928 0.365928
0.373649 0.373649 0.373649
0.381239 0.381239 0.381239
0.388696 0.388696 0.388696
0.396021 0.396021 0.396021
0.403209 0.403209 0.403209
0.410259 0.410259 0.410259
0.417172 0.417172 0.417172
0.172243 0.172243 0.172243
0.181988 0.181988 0.181988
0.191710 0.191710 0.191710
0.201404 0.201404 0.201404
0.211065 0.211065 0.211065
0.220687 0.220687 0.220687
0.230265 0.230265 0.230265
0.239795 0.239795 0.239795
0.249269 0.249269 0.249269
0.258683 0.258683 0.258683
0.268032 0.268032 0.268032
0.277313 0.277313 0.277313
0.286518 0.286518 0.286518
0.295644 0.295644 0.295644
0.304685 0.304685 0.304685
0.313638 0.313638 0.313638
0.322496 0.322496 0.322496
0.331258 0.331258 0.331258
0.339918 0.339918 0.339918
0.348472 0.348472 0.348472
0.356917 0.356917 0.356917
0.365247 0.365247 0.365247
0.373464 0.373464 0.373464
0.381559 0.381559 0.381559
0.389532 0.389532 0.389532
0.397379 0.397379 0.397379
0.405100 0.405100 0.405100
0.412690 0.412690 0.412690
0.420147 0.420147 0.420147
0.427472 0.427472 0.427472
0.434660 0.434660 0.434660
0.441710 0.441710 0.441710
0.448623 0.448623 0.448623
0.203464 0.203464 0.203464
0.213209 0.213209 0.213209
0.222931 0.222931 0.222931
0.232625 0.232625 0.232625
0.242287 0.242287 0.242287
0.251909 0.251909 0.251909
0.261486 0.261486 0.261486
0.271016 0.271016 0.271016
0.280490 0.280490 0.280490
0.289905 0.289905 0.289905
0.299254 0.299254 0.299254
0.308535 0.308535 0.308535
0.317740 0.317740 0.317740
0.326865 0.326865 0.326865
0.335907 0.335907 0.335907
0.344859 0.344859 0.344859
0.353718 0.353718 0.353718
0.362480 0.362480 0.362480
0.371139 0.371139 0.371139
0.379693 0.379693 0.379693
0.388138 0.388138 0.388138
0.396469 0.396469 0.396469
0.404685 0.404685 0.404685
0.412780 0.412780 0.412780
0.420753 0.420753 0.420753
0.428601 0.428601 0.428601
0.436322 0.436322 0.436322
0.443912 0.443912 0.443912
0.451368 0.451368 0.451368
0.458693 0.458693 0.458693
0.465881 0.465881 0.465881
0.472932 0.472932 0.472932
0.479844 0.479844 0.479844
0.234431 0.234431 0.234431
0.244176 0.244176 0.244176
0.253897 0.253897 0.253897
0.263592 0.263592 0.263592
0.273253 0.273253 0.273253
0.282875 0.282875 0.282875
0.292453 0.292453 0.292453
0.301983 0.301983 0.301983
0.311457 0.311457 0.311457
0.320871 0.320871 0.320871
0.330220 0.330220 0.330220
0.339501 0.339501 0.339501
0.348706 0.348706 0.348706
0.357832 0.357832 0.357832
0.366873 0.366873 0.366873
0.375826 0.375826 0.375826
0.384684 0.384684 0.384684
0.393446 0.393446 0.393446
0.402106 0.402106 0.402106
0.410660 0.410660 0.410660
0.419105 0.419105 0.419105
0.427435 0.427435 0.427435
0.435652 0.435652 0.435652
0.443746 0.443746 0.443746
0.451720 0.451720 0.451720
0.459567 0.459567 0.459567
0.467288 0.467288 0.467288
0.474878 0.474878 0.474878
0.482335 0.482335 0.482335
0.489660 0.489660 0.489660
0.496848 0.496848 0.496848
0.503898 0.503898 0.503898
0.510811 0.510811 0.510811
0.265129 0.265129 0.265129
0.274874 0.274874 0.274874
0.284595 0.284595 0.284595
0.294289 0.294289 0.294289
0.303951 0.303951 0.303951
0.313573 0.313573 0.313573
0.323151 0.323151 0.323151
0.332681 0.332681 0.332681
0.342155 0.342155 0.342155
0.351569 0.351569 0.351569
0.360918 0.360918 0.360918
0.370199 0.370199 0.370199
0.379404 0.379404 0.379404
0.388529 0.388529 0.388529
0.397571 0.397571 0.397571
0.406524 0.406524 0.406524
0.415382 0.415382 0.415382
0.424144 0.424144 0.424144
0.432804 0.432804 0.432804
0.441358 0.441358 0.441358
0.449803 0.449803 0.449803
0.458133 0.458133 0.458133
0.466349 0.466349 0.466349
0.474444 0.474444 0.474444
0.482418 0.482418 0.482418
0.490265 0.490265 0.490265
0.497986 0.497986 0.497986
0.505576 0.505576 0.505576
0.513033 0.513033 0.513033
0.520357 0.520357 0.520357
0.527546 0.527546 0.527546
0.534596 0.534596 0.534596
0.541509 0.541509 0.541509
0.295546 0.295546 0.295546
0.305291 0.305291 0.305291
0.315012 0.315012 0.315012
0.324706 0.324706 0.324706
0.334368 0.334368 0.334368
0.343990 0.343990 0.343990
0.353568 0.353568 0.353568
0.363098 0.363098 0.363098
0.372572 0.372572 0.372572
0.381986 0.381986 0.381986
0.391335 0.391335 0.391335
0.400616 0.400616 0.400616
0.409821 0.409821 0.409821
0.418947 0.418947 0.418947
0.427988 0.427988 0.427988
0.436941 0.436941 0.436941
0.445799 0.445799 0.445799
0.454561 0.454561 0.454561
0.463221 0.463221 0.463221
0.471775 0.471775 0.471775
0.480220 0.480220 0.480220
0.488550 0.488550 0.488550
0.496767 0.496767 0.496767
0.504861 0.504861 0.504861
0.512835 0.512835 0.512835
0.520682 0.520682 0.520682
0.528403 0.528403 0.528403
0.535993 0.535993 0.535993
0.543450 0.543450 0.543450
0.550775 0.550775 0.550775
0.557963 0.557963 0.557963
0.565013 0.565013 0.565013
0.571926 0.571926 0.571926
0.325662 0.325662 0.325662
0.335408 0.335408 0.335408
0.345129 0.345129 0.345129
0.354823 0.354823 0.354823
0.364485 0.364485 0.364485
0.374107 0.374107 0.374107
0.383685 0.383685 0.383685
0.393214 0.393214 0.393214
0.402689 0.402689 0.402689
0.412103 0.412103 0.412103
0.421452 0.421452 0.421452
0.430733 0.430733 0.430733
0.439938 0.439938 0.439938
0.449063 0.449063 0.449063
0.458105 0.458105 0.458105
0.467058 0.467058 0.467058
0.475916 0.475916 0.475916
0.484678 0.484678 0.484678
0.493338 0.493338 0.493338
0.501891 0.501891 0.501891
0.510337 0.510337 0.510337
0.518667 0.518667 0.518667
0.526883 0.526883 0.526883
0.534978 0.534978 0.534978
0.542952 0.542952 0.542952
0.550799 0.550799 0.550799
0.558520 0.558520 0.558520
0.566110 0.566110 0.566110
0.573567 0.573567 0.573567
0.580891 0.580891 0.580891
0.588080 0.588080 0.588080
0.595130 0.595130 0.595130
0.602042 0.602042 0.602042
0.355463 0.355463 0.355463
0.365208 0.365208 0.365208
0.374930 0.374930 0.374930
0.384624 0.384624 0.384624
0.394286 0.394286 0.394286
0.403908 0.403908 0.403908
0.413485 0.413485 0.413485
0.423015 0.423015 0.423015
0.432489 0.432489 0.432489
0.441904 0.441904 0.441904
0.451253 0.451253 0.451253
0.460534 0.460534 0.460534
0.469739 0.469739 0.469739
0.478864 0.478864 0.478864
0.487906 0.487906 0.487906
0.496858 0.496858 0.496858
0.505717 0.505717 0.505717
0.514479 0.514479 0.514479
0.523138 0.523138 0.523138
0.531692 0.531692 0.531692
0.540137 0.540137 0.540137
0.548468 0.548468 0.548468
0.556684 0.556684 0.556684
0.564779 0.564779 0.564779
0.572752 0.572752 0.572752
0.580600 0.580600 0.580600
0.588321 0.588321 0.588321
0.595911 0.595911 0.595911
0.603367 0.603367 0.603367
0.610692 0.610692 0.610692
0.617880 0.617880 0.617880
0.624931 0.624931 0.624931
0.631843 0.631843 0.631843
0.384938 0.384938 0.384938
0.394684 0.394684 0.394684
0.404405 0.404405 0.404405
0.414099 0.414099 0.414099
0.423761 0.423761 0.423761
0.433383 0.433383 0.433383
0.442961 0.442961 0.442961
0.452490 0.452490 0.452490
0.461965 0.461965 0.461965
0.471379 0.471379 0.471379
0.480728 0.480728 0.480728
0.490009 0.490009 0.490009
0.499214 0.499214 0.499214
0.508339 0.508339 0.508339
0.517381 0.517381 0.517381
0.526334 0.526334 0.526334
0.535192 0.535192 0.535192
0.543954 0.543954 0.543954
0.552614 0.552614 0.552614
0.561167 0.561167 0.561167
0.569613 0.569613 0.569613
0.577943 0.577943 0.577943
0.586159 0.586159 0.586159
0.594254 0.594254 0.594254
0.602227 0.602227 0.602227
0.610075 0.610075 0.610075
0.617796 0.617796 0.617796
0.625386 0.625386 0.625386
0.632843 0.632843 0.632843
0.640167 0.640167 0.640167
0.647356 0.647356 0.647356
0.654406 0.654406 0.654406
0.661318 0.661318 0.661318
0.414071 0.414071 0.414071
0.423816 0.423816 0.423816
0.433537 0.433537 0.433537
0.443231 0.443231 0.443231
0.452893 0.452893 0.452893
0.462515 0.462515 0.462515
0.472093 0.472093 0.472093
0.481622 0.481622 0.481622
0.491097 0.491097 0.491097
0.500511 0.500511 0.500511
0.509860 0.509860 0.509860
0.519141 0.519141 0.519141
0.528346 0.528346 0.528346
0.537471 0.537471 0.537471
0.546513 0.546513 0.546513
0.555466 0.555466 0.555466
0.564324 0.564324 0.564324
0.573086 0.573086 0.573086
0.581746 0.581746 0.581746
0.590300 0.590300 0.590300
0.598745 0.598745 0.598745
0.607075 0.607075 0.607075
0.615291 0.615291 0.615291
0.623386 0.623386 0.623386
0.631360 0.631360 0.631360
0.639207 0.639207 0.639207
0.646928 0.646928 0.646928
0.654518 0.654518 0.654518
0.661975 0.661975 0.661975
0.669299 0.669299 0.669299
0.676488 0.676488 0.676488
0.683538 0.683538 0.683538
0.690451 0.690451 0.690451
0.442846 0.442846 0.442846
0.452591 0.452591 0.452591
0.462312 0.462312 0.462312
0.472007 0.472007 0.472007
0.481668 0.481668 0.481668
0.491290 0.491290 0.491290
0.500868 0.500868 0.500868
0.510398 0.510398 0.510398
0.519872 0.519872 0.519872
0.529286 0.529286 0.529286
0.538635 0.538635 0.538635
0.547916 0.547916 0.547916
0.557121 0.557121 0.557121
0.566247 0.566247 0.566247
0.575288 0.575288 0.575288
0.584241 0.584241 0.584241
0.593099 0.593099 0.593099
0.601861 0.601861 0.601861
0.610521 0.610521 0.610521
0.619075 0.619075 0.619075
0.627520 0.627520 0.627520
0.635850 0.635850 0.635850
0.644067 0.644067 0.644067
0.652161 0.652161 0.652161
0.660135 0.660135 0.660135
0.667982 0.667982 0.667982
0.675703 0.675703 0.675703
0.683293 0.683293 0.683293
0.690750 0.690750 0.690750
0.698075 0.698075 0.698075
0.705263 0.705263 0.705263
0.712313 0.712313 0.712313
0.719226 0.719226 0.719226
0.471256 0.471256 0.471256
0.481001 0.481001 0.481001
0.490723 0.490723 0.490723
0.500417 0.500417 0.500417
0.510079 0.510079 0.510079
0.519701 0.519701 0.519701
0.529279 0.529279 0.529279
0.538808 0.538808 0.538808
0.548283 0.548283 0.548283
0.557697 0.557697 0.557697
0.567046 0.567046 0.567046
0.576327 0.576327 0.576327
0.585532 0.585532 0.585532
0.594657 0.594657 0.594657
0.603699 0.603699 0.603699
0.612652 0.612652 0.612652
0.621510 0.621510 0.621510
0.630272 0.630272 0.630272
0.638932 0.638932 0.638932
0.647485 0.647485 0.647485
0.655931 0.655931 0.655931
0.664261 0.664261 0.664261
0.672477 0.672477 0.672477
0.680572 0.680572 0.680572
0.688545 0.688545 0.688545
0.696393 0.696393 0.696393
0.704114 0.704114 0.704114
0.711704 0.711704 0.711704
0.719161 0.719161 0.719161
0.726485 0.726485 0.726485
0.733674 0.733674 0.733674
0.740724 0.740724 0.740724
0.747636 0.747636 0.747636
0.499280 0.499280 0.499280
0.509025 0.509025 0.509025
0.518747 0.518747 0.518747
0.528441 0.528441 0.528441
0.538103 0.538103 0.538103
0.547725 0.547725 0.547725
0.557303 0.557303 0.557303
0.566832 0.566832 0.566832
0.576307 0.576307 0.576307
0.585721 0.585721 0.585721
0.595070 0.595070 0.595070
0.604351 0.604351 0.604351
0.613556 0.613556 0.613556
0.622681 0.622681 0.622681
0.631723 0.631723 0.631723
0.640675 0.640675 0.640675
0.649534 0.649534 0.649534
0.658296 0.658296 0.658296
0.666956 0.666956 0.666956
0.675509 0.675509 0.675509
0.683955 0.683955 0.683955
0.692285 0.692285 0.692285
0.700501 0.700501 0.700501
0.708596 0.708596 0.708596
0.716569 0.716569 0.716569
0.724417 0.724417 0.724417
0.732138 0.732138 0.732138
0.739728 0.739728 0.739728
0.747185 0.747185 0.747185
0.754509 0.754509 0.754509
0.761698 0.761698 0.761698
0.768748 0.768748 0.768748
0.775660 0.775660 0.775660
0.526920 0.526920 0.526920
0.536665 0.536665 0.536665
0.546387 0.546387 0.546387
0.556081 0.556081 0.556081
0.565743 0.565743 0.565743
0.575365 0.575365 0.575365
0.584943 0.584943 0.584943
0.594472 0.594472 0.594472
0.603946 0.603946 0.603946
0.613361 0.613361 0.613361
0.622710 0.622710 0.622710
0.631991 0.631991 0.631991
0.641196 0.641196 0.641196
0.650321 0.650321 0.650321
0.659363 0.659363 0.659363
0.668315 0.668315 0.668315
0.677174 0.677174 0.677174
0.685936 0.685936 0.685936
0.694595 0.694595 0.694595
0.703149 0.703149 0.703149
0.711594 0.711594 0.711594
0.719925 0.719925 0.719925
0.728141 0.728141 0.728141
0.736236 0.736236 0.736236
0.744209 0.744209 0.744209
0.752057 0.752057 0.752057
0.759778 0.759778 0.759778
0.767368 0.767368 0.767368
0.774824 0.774824 0.774824
0.782149 0.782149 0.782149
0.789337 0.789337 0.789337
0.796388 0.796388 0.796388
0.803300 0.803300 0.803300
0.554152 0.554152 0.554152
0.563897 0.563897 0.563897
0.573619 0.573619 0.573619
0.583313 0.583313 0.583313
0.592974 0.592974 0.592974
0.602597 0.602597 0.602597
0.612174 0.612174 0.612174
0.621704 0.621704 0.621704
0.631178 0.631178 0.631178
0.640592 0.640592 0.640592
0.649942 0.649942 0.649942
0.659222 0.659222 0.659222
0.668428 0.668428 0.668428
0.677553 0.677553 0.677553
0.686595 0.686595 0.686595
0.695547 0.695547 0.695547
0.704406 0.704406 0.704406
0.713167 0.713167 0.713167
0.721827 0.721827 0.721827
0.730381 0.730381 0.730381
0.738826 0.738826 0.738826
0.747157 0.747157 0.747157
0.755373 0.755373 0.755373
0.763468 0.763468 0.763468
0.771441 0.771441 0.771441
0.779289 0.779289 0.779289
0.787009 0.787009 0.787009
0.794599 0.794599 0.794599
0.802056 0.802056 0.802056
0.809381 0.809381 0.809381
0.816569 0.816569 0.816569
0.823619 0.823619 0.823619
0.830532 0.830532 0.830532
0.580975 0.580975 0.580975
0.590720 0.590720 0.590720
0.600441 0.600441 0.600441
0.610135 0.610135 0.610135
0.619797 0.619797 0.619797
0.629419 0.629419 0.629419
0.638997 0.638997 0.638997
0.648526 0.648526 0.648526
0.658001 0.658001 0.658001
0.667415 0.667415 0.667415
0.676764 0.676764 0.676764
0.686045 0.686045 0.686045
0.695250 0.695250 0.695250
0.704375 0.704375 0.704375
0.713417 0.713417 0.713417
0.722370 0.722370 0.722370
0.731228 0.731228 0.731228
0.739990 0.739990 0.739990
0.748650 0.748650 0.748650
0.757204 0.757204 0.757204
0.765649 0.765649 0.765649
0.773979 0.773979 0.773979
0.782195 0.782195 0.782195
0.790290 0.790290 0.790290
0.798264 0.798264 0.798264
0.806111 0.806111 0.806111
0.813832 0.813832 0.813832
0.821422 0.821422 0.821422
0.828879 0.828879 0.828879
0.836203 0.836203 0.836203
0.843392 0.843392 0.843392
0.850442 0.850442 0.850442
0.857355 0.857355 0.857355
0.607374 0.607374 0.607374
0.617119 0.617119 0.617119
0.626841 0.626841 0.626841
0.636535 0.636535 0.636535
0.646197 0.646197 0.646197
0.655819 0.655819 0.655819
0.665397 0.665397 0.665397
0.674926 0.674926 0.674926
0.684400 0.684400 0.684400
0.693815 0.693815 0.693815
0.703164 0.703164 0.703164
0.712445 0.712445 0.712445
0.721650 0.721650 0.721650
0.730775 0.730775 0.730775
0.739817 0.739817 0.739817
0.748769 0.748769 0.748769
0.757628 0.757628 0.757628
0.766390 0.766390 0.766390
0.775049 0.775049 0.775049
0.783603 0.783603 0.783603
0.792048 0.792048 0.792048
0.800379 0.800379 0.800379
0.808595 0.808595 0.808595
0.816690 0.816690 0.816690
0.824663 0.824663 0.824663
0.832511 0.832511 0.832511
0.840232 0.840232 0.840232
0.847822 0.847822 0.847822
0.855278 0.855278 0.855278
0.862603 0.862603 0.862603
0.869791 0.869791 0.869791
0.876842 0.876842 0.876842
0.883754 0.883754 0.883754
0.633348 0.633348 0.633348
0.643093 0.643093 0.643093
0.652815 0.652815 0.652815
0.662509 0.662509 0.662509
0.672170 0.672170 0.672170
0.681793 0.681793 0.681793
0.691370 0.691370 0.691370
0.700900 0.700900 0.700900
0.710374 0.710374 0.710374
0.719789 0.719789 0.719789
0.729138 0.729138 0.729138
0.738418 0.738418 0.738418
0.747624 0.747624 0.747624
0.756749 0.756749 0.756749
0.765791 0.765791 0.765791
0.774743 0.774743 0.774743
0.783602 0.783602 0.783602
0.792363 0.792363 0.792363
0.801023 0.801023 0.801023
0.809577 0.809577 0.809577
0.818022 0.818022 0.818022
0.826353 0.826353 0.826353
0.834569 0.834569 0.834569
0.842664 0.842664 0.842664
0.850637 0.850637 0.850637
0.858485 0.858485 0.858485
0.866206 0.866206 0.866206
0.873795 0.873795 0.873795
