luts/ilford_delta_400.cube
TITLE Film LUT
LUT_3D_SIZE 33
DOMAIN_MIN 0.0 0.0 0.0
DOMAIN_MAX 1.0 1.0 1.0
0.000000 0.000000 0.000000
0.000000 0.000000 0.000000
0.000000 0.000000 0.000000
0.000000 0.000000 0.000000
0.000000 0.000000 0.000000
0.000000 0.000000 0.000000
0.000000 0.000000 0.000000
0.006784 0.006784 0.006784
0.014744 0.014744 0.014744
0.022657 0.022657 0.022657
0.030516 0.030516 0.030516
0.038320 0.038320 0.038320
0.046063 0.046063 0.046063
0.053745 0.053745 0.053745
0.061359 0.061359 0.061359
0.068902 0.068902 0.068902
0.076374 0.076374 0.076374
0.083769 0.083769 0.083769
0.091085 0.091085 0.091085
0.098320 0.098320 0.098320
0.105470 0.105470 0.105470
0.112533 0.112533 0.112533
0.119506 0.119506 0.119506
0.126388 0.126388 0.126388
0.133174 0.133174 0.133174
0.139864 0.139864 0.139864
0.146458 0.146458 0.146458
0.152949 0.152949 0.152949
0.159340 0.159340 0.159340
0.165627 0.165627 0.165627
0.171812 0.171812 0.171812
0.177890 0.177890 0.177890
0.183860 0.183860 0.183860
0.000000 0.000000 0.000000
0.000000 0.000000 0.000000
0.000000 0.000000 0.000000
0.002105 0.002105 0.002105
0.010224 0.010224 0.010224
0.018310 0.018310 0.018310
0.026357 0.026357 0.026357
0.034364 0.034364 0.034364
0.042324 0.042324 0.042324
0.050237 0.050237 0.050237
0.058096 0.058096 0.058096
0.065900 0.065900 0.065900
0.073643 0.073643 0.073643
0.081325 0.081325 0.081325
0.088939 0.088939 0.088939
0.096482 0.096482 0.096482
0.103954 0.103954 0.103954
0.111349 0.111349 0.111349
0.118665 0.118665 0.118665
0.125900 0.125900 0.125900
0.133050 0.133050 0.133050
0.140113 0.140113 0.140113
0.147086 0.147086 0.147086
0.153968 0.153968 0.153968
0.160754 0.160754 0.160754
0.167444 0.167444 0.167444
0.174038 0.174038 0.174038
0.180529 0.180529 0.180529
0.186920 0.186920 0.186920
0.193207 0.193207 0.193207
0.199392 0.199392 0.199392
0.205470 0.205470 0.205470
0.211440 0.211440 0.211440
0.005088 0.005088 0.005088
0.013286 0.013286 0.013286
0.021463 0.021463 0.021463
0.029612 0.029612 0.029612
0.037732 0.037732 0.037732
0.045818 0.045818 0.045818
0.053864 0.053864 0.053864
0.061871 0.061871 0.061871
0.069832 0.069832 0.069832
0.077745 0.077745 0.077745
0.085604 0.085604 0.085604
0.093408 0.093408 0.093408
0.101151 0.101151 0.101151
0.108833 0.108833 0.108833
0.116446 0.116446 0.116446
0.123990 0.123990 0.123990
0.131462 0.131462 0.131462
0.138857 0.138857 0.138857
0.146173 0.146173 0.146173
0.153408 0.153408 0.153408
0.160558 0.160558 0.160558
0.167621 0.167621 0.167621
0.174594 0.174594 0.174594
0.181475 0.181475 0.181475
0.188262 0.188262 0.188262
0.194952 0.194952 0.194952
0.201545 0.201545 0.201545
0.208037 0.208037 0.208037
0.214428 0.214428 0.214428
0.220715 0.220715 0.220715
0.226899 0.226899 0.226899
0.232977 0.232977 0.232977
0.238948 0.238948 0.238948
0.032503 0.032503 0.032503
0.040701 0.040701 0.040701
0.048878 0.048878 0.048878
0.057027 0.057027 0.057027
0.065147 0.065147 0.065147
0.073233 0.073233 0.073233
0.081279 0.081279 0.081279
0.089286 0.089286 0.089286
0.097247 0.097247 0.097247
0.105160 0.105160 0.105160
0.113018 0.113018 0.113018
0.120823 0.120823 0.120823
0.128565 0.128565 0.128565
0.136248 0.136248 0.136248
0.143861 0.143861 0.143861
0.151405 0.151405 0.151405
0.158877 0.158877 0.158877
0.166272 0.166272 0.166272
0.173588 0.173588 0.173588
0.180823 0.180823 0.180823
0.187973 0.187973 0.187973
0.195036 0.195036 0.195036
0.202009 0.202009 0.202009
0.208890 0.208890 0.208890
0.215677 0.215677 0.215677
0.222367 0.222367 0.222367
0.228960 0.228960 0.228960
0.235452 0.235452 0.235452
0.241843 0.241843 0.241843
0.248130 0.248130 0.248130
0.254314 0.254314 0.254314
0.260392 0.260392 0.260392
0.266363 0.266363 0.266363
0.059817 0.059817 0.059817
0.068015 0.068015 0.068015
0.076192 0.076192 0.076192
0.084341 0.084341 0.084341
0.092461 0.092461 0.092461
0.100547 0.100547 0.100547
0.108593 0.108593 0.108593
0.116600 0.116600 0.116600
0.124561 0.124561 0.124561
0.132474 0.132474 0.132474
0.140333 0.140333 0.140333
0.148137 0.148137 0.148137
0.155880 0.155880 0.155880
0.163562 0.163562 0.163562
0.171175 0.171175 0.171175
0.178719 0.178719 0.178719
0.186191 0.186191 0.186191
0.193586 0.193586 0.193586
0.200902 0.200902 0.200902
0.208137 0.208137 0.208137
0.215287 0.215287 0.215287
0.222350 0.222350 0.222350
0.229323 0.229323 0.229323
0.236204 0.236204 0.236204
0.242991 0.242991 0.242991
0.249681 0.249681 0.249681
0.256274 0.256274 0.256274
0.262766 0.262766 0.262766
0.269157 0.269157 0.269157
0.275444 0.275444 0.275444
0.281628 0.281628 0.281628
0.287706 0.287706 0.287706
0.293677 0.293677 0.293677
0.087019 0.087019 0.087019
0.095218 0.095218 0.095218
0.103394 0.103394 0.103394
0.111544 0.111544 0.111544
0.119663 0.119663 0.119663
0.127749 0.127749 0.127749
0.135796 0.135796 0.135796
0.143803 0.143803 0.143803
0.151763 0.151763 0.151763
0.159676 0.159676 0.159676
0.167535 0.167535 0.167535
0.175339 0.175339 0.175339
0.183082 0.183082 0.183082
0.190764 0.190764 0.190764
0.198378 0.198378 0.198378
0.205921 0.205921 0.205921
0.213393 0.213393 0.213393
0.220788 0.220788 0.220788
0.228104 0.228104 0.228104
0.235339 0.235339 0.235339
0.242489 0.242489 0.242489
0.249552 0.249552 0.249552
0.256525 0.256525 0.256525
0.263407 0.263407 0.263407
0.270193 0.270193 0.270193
0.276883 0.276883 0.276883
0.283477 0.283477 0.283477
0.289968 0.289968 0.289968
0.296359 0.296359 0.296359
0.302646 0.302646 0.302646
0.308831 0.308831 0.308831
0.314909 0.314909 0.314909
0.320879 0.320879 0.320879
0.114088 0.114088 0.114088
0.122286 0.122286 0.122286
0.130463 0.130463 0.130463
0.138612 0.138612 0.138612
0.146732 0.146732 0.146732
0.154818 0.154818 0.154818
0.162864 0.162864 0.162864
0.170872 0.170872 0.170872
0.178832 0.178832 0.178832
0.186745 0.186745 0.186745
0.194604 0.194604 0.194604
0.202408 0.202408 0.202408
0.210151 0.210151 0.210151
0.217833 0.217833 0.217833
0.225447 0.225447 0.225447
0.232990 0.232990 0.232990
0.240462 0.240462 0.240462
0.247857 0.247857 0.247857
0.255173 0.255173 0.255173
0.262408 0.262408 0.262408
0.269558 0.269558 0.269558
0.276621 0.276621 0.276621
0.283594 0.283594 0.283594
0.290475 0.290475 0.290475
0.297262 0.297262 0.297262
0.303952 0.303952 0.303952
0.310545 0.310545 0.310545
0.317037 0.317037 0.317037
0.323428 0.323428 0.323428
0.329715 0.329715 0.329715
0.335899 0.335899 0.335899
0.341977 0.341977 0.341977
0.347948 0.347948 0.347948
0.141024 0.141024 0.141024
0.149223 0.149223 0.149223
0.157400 0.157400 0.157400
0.165549 0.165549 0.165549
0.173668 0.173668 0.173668
0.181754 0.181754 0.181754
0.189801 0.189801 0.189801
0.197808 0.197808 0.197808
0.205769 0.205769 0.205769
0.213681 0.213681 0.213681
0.221540 0.221540 0.221540
0.229344 0.229344 0.229344
0.237087 0.237087 0.237087
0.244769 0.244769 0.244769
0.252383 0.252383 0.252383
0.259926 0.259926 0.259926
0.267398 0.267398 0.267398
0.274793 0.274793 0.274793
0.282109 0.282109 0.282109
0.289345 0.289345 0.289345
0.296495 0.296495 0.296495
0.303557 0.303557 0.303557
0.310531 0.310531 0.310531
0.317412 0.317412 0.317412
0.324199 0.324199 0.324199
0.330889 0.330889 0.330889
0.337482 0.337482 0.337482
0.343973 0.343973 0.343973
0.350365 0.350365 0.350365
0.356652 0.356652 0.356652
0.362836 0.362836 0.362836
0.368914 0.368914 0.368914
0.374884 0.374884 0.374884
0.167804 0.167804 0.167804
0.176003 0.176003 0.176003
0.184180 0.184180 0.184180
0.192329 0.192329 0.192329
0.200448 0.200448 0.200448
0.208534 0.208534 0.208534
0.216581 0.216581 0.216581
0.224588 0.224588 0.224588
0.232549 0.232549 0.232549
0.240461 0.240461 0.240461
0.248320 0.248320 0.248320
0.256124 0.256124 0.256124
0.263867 0.263867 0.263867
0.271549 0.271549 0.271549
0.279163 0.279163 0.279163
0.286706 0.286706 0.286706
0.294178 0.294178 0.294178
0.301573 0.301573 0.301573
0.308889 0.308889 0.308889
0.316125 0.316125 0.316125
0.323275 0.323275 0.323275
0.330337 0.330337 0.330337
0.337311 0.337311 0.337311
0.344192 0.344192 0.344192
0.350979 0.350979 0.350979
0.357669 0.357669 0.357669
0.364262 0.364262 0.364262
0.370753 0.370753 0.370753
0.377144 0.377144 0.377144
0.383432 0.383432 0.383432
0.389616 0.389616 0.389616
0.395694 0.395694 0.395694
0.401664 0.401664 0.401664
0.194423 0.194423 0.194423
0.202621 0.202621 0.202621
0.210798 0.210798 0.210798
0.218948 0.218948 0.218948
0.227067 0.227067 0.227067
0.235153 0.235153 0.235153
0.243200 0.243200 0.243200
0.251207 0.251207 0.251207
0.259167 0.259167 0.259167
0.267080 0.267080 0.267080
0.274939 0.274939 0.274939
0.282743 0.282743 0.282743
0.290486 0.290486 0.290486
0.298168 0.298168 0.298168
0.305782 0.305782 0.305782
0.313325 0.313325 0.313325
0.320797 0.320797 0.320797
0.328192 0.328192 0.328192
0.335508 0.335508 0.335508
0.342743 0.342743 0.342743
0.349893 0.349893 0.349893
0.356956 0.356956 0.356956
0.363929 0.363929 0.363929
0.370811 0.370811 0.370811
0.377597 0.377597 0.377597
0.384287 0.384287 0.384287
0.390880 0.390880 0.390880
0.397372 0.397372 0.397372
0.403763 0.403763 0.403763
0.410050 0.410050 0.410050
0.416234 0.416234 0.416234
0.422312 0.422312 0.422312
0.428283 0.428283 0.428283
0.220861 0.220861 0.220861
0.229059 0.229059 0.229059
0.237236 0.237236 0.237236
0.245385 0.245385 0.245385
0.253505 0.253505 0.253505
0.261591 0.261591 0.261591
0.269637 0.269637 0.269637
0.277644 0.277644 0.277644
0.285605 0.285605 0.285605
0.293518 0.293518 0.293518
0.301377 0.301377 0.301377
0.309181 0.309181 0.309181
0.316924 0.316924 0.316924
0.324606 0.324606 0.324606
0.332219 0.332219 0.332219
0.339763 0.339763 0.339763
0.347235 0.347235 0.347235
0.354630 0.354630 0.354630
0.361946 0.361946 0.361946
0.369181 0.369181 0.369181
0.376331 0.376331 0.376331
0.383394 0.383394 0.383394
0.390367 0.390367 0.390367
0.397248 0.397248 0.397248
0.404035 0.404035 0.404035
0.410725 0.410725 0.410725
0.417318 0.417318 0.417318
0.423810 0.423810 0.423810
0.430201 0.430201 0.430201
0.436488 0.436488 0.436488
0.442672 0.442672 0.442672
0.448750 0.448750 0.448750
0.454721 0.454721 0.454721
0.247114 0.247114 0.247114
0.255313 0.255313 0.255313
0.263490 0.263490 0.263490
0.271639 0.271639 0.271639
0.279758 0.279758 0.279758
0.287844 0.287844 0.287844
0.295891 0.295891 0.295891
0.303898 0.303898 0.303898
0.311859 0.311859 0.311859
0.319771 0.319771 0.319771
0.327630 0.327630 0.327630
0.335434 0.335434 0.335434
0.343177 0.343177 0.343177
0.350859 0.350859 0.350859
0.358473 0.358473 0.358473
0.366016 0.366016 0.366016
0.373488 0.373488 0.373488
0.380883 0.380883 0.380883
0.388199 0.388199 0.388199
0.395435 0.395435 0.395435
0.402585 0.402585 0.402585
0.409647 0.409647 0.409647
0.416621 0.416621 0.416621
0.423502 0.423502 0.423502
0.430289 0.430289 0.430289
0.436979 0.436979 0.436979
0.443572 0.443572 0.443572
0.450063 0.450063 0.450063
0.456454 0.456454 0.456454
0.462742 0.462742 0.462742
0.468926 0.468926 0.468926
0.475004 0.475004 0.475004
0.480974 0.480974 0.480974
0.273162 0.273162 0.273162
0.281360 0.281360 0.281360
0.289537 0.289537 0.289537
0.297686 0.297686 0.297686
0.305806 0.305806 0.305806
0.313892 0.313892 0.313892
0.321938 0.321938 0.321938
0.329946 0.329946 0.329946
0.337906 0.337906 0.337906
0.345819 0.345819 0.345819
0.353678 0.353678 0.353678
0.361482 0.361482 0.361482
0.369225 0.369225 0.369225
0.376907 0.376907 0.376907
0.384521 0.384521 0.384521
0.392064 0.392064 0.392064
0.399536 0.399536 0.399536
0.406931 0.406931 0.406931
0.414247 0.414247 0.414247
0.421482 0.421482 0.421482
0.428632 0.428632 0.428632
0.435695 0.435695 0.435695
0.442668 0.442668 0.442668
0.449549 0.449549 0.449549
0.456336 0.456336 0.456336
0.463026 0.463026 0.463026
0.469619 0.469619 0.469619
0.476111 0.476111 0.476111
0.482502 0.482502 0.482502
0.488789 0.488789 0.488789
0.494973 0.494973 0.494973
0.501051 0.501051 0.501051
0.507022 0.507022 0.507022
0.299005 0.299005 0.299005
0.307203 0.307203 0.307203
0.315380 0.315380 0.315380
0.323529 0.323529 0.323529
0.331649 0.331649 0.331649
0.339735 0.339735 0.339735
0.347781 0.347781 0.347781
0.355789 0.355789 0.355789
0.363749 0.363749 0.363749
0.371662 0.371662 0.371662
0.379521 0.379521 0.379521
0.387325 0.387325 0.387325
0.395068 0.395068 0.395068
0.402750 0.402750 0.402750
0.410363 0.410363 0.410363
0.417907 0.417907 0.417907
0.425379 0.425379 0.425379
0.432774 0.432774 0.432774
0.440090 0.440090 0.440090
0.447325 0.447325 0.447325
0.454475 0.454475 0.454475
0.461538 0.461538 0.461538
0.468511 0.468511 0.468511
0.475392 0.475392 0.475392
0.482179 0.482179 0.482179
0.488869 0.488869 0.488869
0.495462 0.495462 0.495462
0.501954 0.501954 0.501954
0.508345 0.508345 0.508345
0.514632 0.514632 0.514632
0.520816 0.520816 0.520816
0.526894 0.526894 0.526894
0.532865 0.532865 0.532865
0.324618 0.324618 0.324618
0.332816 0.332816 0.332816
0.340993 0.340993 0.340993
0.349143 0.349143 0.349143
0.357262 0.357262 0.357262
0.365348 0.365348 0.365348
0.373395 0.373395 0.373395
0.381402 0.381402 0.381402
0.389362 0.389362 0.389362
0.397275 0.397275 0.397275
0.405134 0.405134 0.405134
0.412938 0.412938 0.412938
0.420681 0.420681 0.420681
0.428363 0.428363 0.428363
0.435977 0.435977 0.435977
0.443520 0.443520 0.443520
0.450992 0.450992 0.450992
0.458387 0.458387 0.458387
0.465703 0.465703 0.465703
0.472938 0.472938 0.472938
0.480088 0.480088 0.480088
0.487151 0.487151 0.487151
0.494124 0.494124 0.494124
0.501006 0.501006 0.501006
0.507792 0.507792 0.507792
0.514482 0.514482 0.514482
0.521076 0.521076 0.521076
0.527567 0.527567 0.527567
0.533958 0.533958 0.533958
0.540245 0.540245 0.540245
0.546430 0.546430 0.546430
0.552508 0.552508 0.552508
0.558478 0.558478 0.558478
0.349994 0.349994 0.349994
0.358193 0.358193 0.358193
0.366370 0.366370 0.366370
0.374519 0.374519 0.374519
0.382638 0.382638 0.382638
0.390725 0.390725 0.390725
0.398771 0.398771 0.398771
0.406778 0.406778 0.406778
0.414739 0.414739 0.414739
0.422651 0.422651 0.422651
0.430510 0.430510 0.430510
0.438314 0.438314 0.438314
0.446057 0.446057 0.446057
0.453739 0.453739 0.453739
0.461353 0.461353 0.461353
0.468897 0.468897 0.468897
0.476368 0.476368 0.476368
0.483763 0.483763 0.483763
0.491080 0.491080 0.491080
0.498315 0.498315 0.498315
0.505465 0.505465 0.505465
0.512528 0.512528 0.512528
0.519501 0.519501 0.519501
0.526382 0.526382 0.526382
0.533169 0.533169 0.533169
0.539859 0.539859 0.539859
0.546452 0.546452 0.546452
0.552943 0.552943 0.552943
0.559335 0.559335 0.559335
0.565622 0.565622 0.565622
0.571806 0.571806 0.571806
0.577884 0.577884 0.577884
0.583854 0.583854 0.583854
0.375130 0.375130 0.375130
0.383329 0.383329 0.383329
0.391505 0.391505 0.391505
0.399655 0.399655 0.399655
0.407774 0.407774 0.407774
0.415860 0.415860 0.415860
0.423907 0.423907 0.423907
0.431914 0.431914 0.431914
0.439874 0.439874 0.439874
0.447787 0.447787 0.447787
0.455646 0.455646 0.455646
0.463450 0.463450 0.463450
0.471193 0.471193 0.471193
0.478875 0.478875 0.478875
0.486489 0.486489 0.486489
0.494032 0.494032 0.494032
0.501504 0.501504 0.501504
0.508899 0.508899 0.508899
0.516215 0.516215 0.516215
0.523450 0.523450 0.523450
0.530600 0.530600 0.530600
0.537663 0.537663 0.537663
0.544637 0.544637 0.544637
0.551518 0.551518 0.551518
0.558304 0.558304 0.558304
0.564994 0.564994 0.564994
0.571588 0.571588 0.571588
0.578079 0.578079 0.578079
0.584470 0.584470 0.584470
0.590757 0.590757 0.590757
0.596942 0.596942 0.596942
0.603020 0.603020 0.603020
0.608990 0.608990 0.608990
0.400008 0.400008 0.400008
0.408206 0.408206 0.408206
0.416383 0.416383 0.416383
0.424532 0.424532 0.424532
0.432652 0.432652 0.432652
0.440738 0.440738 0.440738
0.448784 0.448784 0.448784
0.456792 0.456792 0.456792
0.464752 0.464752 0.464752
0.472665 0.472665 0.472665
0.480524 0.480524 0.480524
0.488328 0.488328 0.488328
0.496071 0.496071 0.496071
0.503753 0.503753 0.503753
0.511367 0.511367 0.511367
0.518910 0.518910 0.518910
0.526382 0.526382 0.526382
0.533777 0.533777 0.533777
0.541093 0.541093 0.541093
0.548328 0.548328 0.548328
0.555478 0.555478 0.555478
0.562541 0.562541 0.562541
0.569514 0.569514 0.569514
0.576396 0.576396 0.576396
0.583182 0.583182 0.583182
0.589872 0.589872 0.589872
0.596465 0.596465 0.596465
0.602957 0.602957 0.602957
0.609348 0.609348 0.609348
0.615635 0.615635 0.615635
0.621819 0.621819 0.621819
0.627897 0.627897 0.627897
0.633868 0.633868 0.633868
0.424620 0.424620 0.424620
0.432818 0.432818 0.432818
0.440995 0.440995 0.440995
0.449144 0.449144 0.449144
0.457264 0.457264 0.457264
0.465350 0.465350 0.465350
0.473396 0.473396 0.473396
0.481403 0.481403 0.481403
0.489364 0.489364 0.489364
0.497277 0.497277 0.497277
0.505135 0.505135 0.505135
0.512940 0.512940 0.512940
0.520682 0.520682 0.520682
0.528364 0.528364 0.528364
0.535978 0.535978 0.535978
0.543522 0.543522 0.543522
0.550993 0.550993 0.550993
0.558389 0.558389 0.558389
0.565705 0.565705 0.565705
0.572940 0.572940 0.572940
0.580090 0.580090 0.580090
0.587153 0.587153 0.587153
0.594126 0.594126 0.594126
0.601007 0.601007 0.601007
0.607794 0.607794 0.607794
0.614484 0.614484 0.614484
0.621077 0.621077 0.621077
0.627569 0.627569 0.627569
0.633960 0.633960 0.633960
0.640247 0.640247 0.640247
0.646431 0.646431 0.646431
0.652509 0.652509 0.652509
0.658480 0.658480 0.658480
0.448959 0.448959 0.448959
0.457157 0.457157 0.457157
0.465334 0.465334 0.465334
0.473484 0.473484 0.473484
0.481603 0.481603 0.481603
0.489689 0.489689 0.489689
0.497736 0.497736 0.497736
0.505743 0.505743 0.505743
0.513703 0.513703 0.513703
0.521616 0.521616 0.521616
0.529475 0.529475 0.529475
0.537279 0.537279 0.537279
0.545022 0.545022 0.545022
0.552704 0.552704 0.552704
0.560318 0.560318 0.560318
0.567861 0.567861 0.567861
0.575333 0.575333 0.575333
0.582728 0.582728 0.582728
0.590044 0.590044 0.590044
0.597279 0.597279 0.597279
0.604429 0.604429 0.604429
0.611492 0.611492 0.611492
0.618465 0.618465 0.618465
0.625347 0.625347 0.625347
0.632133 0.632133 0.632133
0.638823 0.638823 0.638823
0.645417 0.645417 0.645417
0.651908 0.651908 0.651908
0.658299 0.658299 0.658299
0.664586 0.664586 0.664586
0.670771 0.670771 0.670771
0.676849 0.676849 0.676849
0.682819 0.682819 0.682819
0.473012 0.473012 0.473012
0.481211 0.481211 0.481211
0.489388 0.489388 0.489388
0.497537 0.497537 0.497537
0.505656 0.505656 0.505656
0.513742 0.513742 0.513742
0.521789 0.521789 0.521789
0.529796 0.529796 0.529796
0.537757 0.537757 0.537757
0.545669 0.545669 0.545669
0.553528 0.553528 0.553528
0.561332 0.561332 0.561332
0.569075 0.569075 0.569075
0.576757 0.576757 0.576757
0.584371 0.584371 0.584371
0.591914 0.591914 0.591914
0.599386 0.599386 0.599386
0.606781 0.606781 0.606781
0.614097 0.614097 0.614097
0.621333 0.621333 0.621333
0.628483 0.628483 0.628483
0.635545 0.635545 0.635545
0.642519 0.642519 0.642519
0.649400 0.649400 0.649400
0.656187 0.656187 0.656187
0.662877 0.662877 0.662877
0.669470 0.669470 0.669470
0.675961 0.675961 0.675961
0.682352 0.682352 0.682352
0.688640 0.688640 0.688640
0.694824 0.694824 0.694824
0.700902 0.700902 0.700902
0.706872 0.706872 0.706872
0.496772 0.496772 0.496772
0.504970 0.504970 0.504970
0.513147 0.513147 0.513147
0.521297 0.521297 0.521297
0.529416 0.529416 0.529416
0.537502 0.537502 0.537502
0.545549 0.545549 0.545549
0.553556 0.553556 0.553556
0.561516 0.561516 0.561516
0.569429 0.569429 0.569429
0.577288 0.577288 0.577288
0.585092 0.585092 0.585092
0.592835 0.592835 0.592835
0.600517 0.600517 0.600517
0.608131 0.608131 0.608131
0.615674 0.615674 0.615674
0.623146 0.623146 0.623146
0.630541 0.630541 0.630541
0.637857 0.637857 0.637857
0.645092 0.645092 0.645092
0.652242 0.652242 0.652242
0.659305 0.659305 0.659305
0.666278 0.666278 0.666278
0.673160 0.673160 0.673160
0.679946 0.679946 0.679946
0.686636 0.686636 0.686636
0.693230 0.693230 0.693230
0.699721 0.699721 0.699721
0.706112 0.706112 0.706112
0.712399 0.712399 0.712399
0.718584 0.718584 0.718584
0.724662 0.724662 0.724662
0.730632 0.730632 0.730632
0.520230 0.520230 0.520230
0.528429 0.528429 0.528429
0.536606 0.536606 0.536606
0.544755 0.544755 0.544755
0.552874 0.552874 0.552874
0.560961 0.560961 0.560961
0.569007 0.569007 0.569007
0.577014 0.577014 0.577014
0.584975 0.584975 0.584975
0.592887 0.592887 0.592887
0.600746 0.600746 0.600746
0.608550 0.608550 0.608550
0.616293 0.616293 0.616293
0.623975 0.623975 0.623975
0.631589 0.631589 0.631589
0.639133 0.639133 0.639133
0.646604 0.646604 0.646604
0.653999 0.653999 0.653999
0.661316 0.661316 0.661316
0.668551 0.668551 0.668551
0.675701 0.675701 0.675701
0.682764 0.682764 0.682764
0.689737 0.689737 0.689737
0.696618 0.696618 0.696618
0.703405 0.703405 0.703405
0.710095 0.710095 0.710095
0.716688 0.716688 0.716688
0.723179 0.723179 0.723179
0.729571 0.729571 0.729571
0.735858 0.735858 0.735858
0.742042 0.742042 0.742042
0.748120 0.748120 0.748120
0.754090 0.754090 0.754090
0.543380 0.543380 0.543380
0.551578 0.551578 0.551578
0.559755 0.559755 0.559755
0.567904 0.567904 0.567904
0.576024 0.576024 0.576024
0.584110 0.584110 0.584110
0.592156 0.592156 0.592156
0.600163 0.600163 0.600163
0.608124 0.608124 0.608124
0.616037 0.616037 0.616037
0.623896 0.623896 0.623896
0.631700 0.631700 0.631700
0.639443 0.639443 0.639443
0.647125 0.647125 0.647125
0.654738 0.654738 0.654738
0.662282 0.662282 0.662282
0.669754 0.669754 0.669754
0.677149 0.677149 0.677149
0.684465 0.684465 0.684465
0.691700 0.691700 0.691700
0.698850 0.698850 0.698850
0.705913 0.705913 0.705913
0.712886 0.712886 0.712886
0.719767 0.719767 0.719767
0.726554 0.726554 0.726554
0.733244 0.733244 0.733244
0.739837 0.739837 0.739837
0.746329 0.746329 0.746329
0.752720 0.752720 0.752720
0.759007 0.759007 0.759007
0.765191 0.765191 0.765191
0.771269 0.771269 0.771269
0.777240 0.777240 0.777240
0.566210 0.566210 0.566210
0.574409 0.574409 0.574409
0.582586 0.582586 0.582586
0.590735 0.590735 0.590735
0.598854 0.598854 0.598854
0.606940 0.606940 0.606940
0.614987 0.614987 0.614987
0.622994 0.622994 0.622994
0.630955 0.630955 0.630955
0.638867 0.638867 0.638867
0.646726 0.646726 0.646726
0.654530 0.654530 0.654530
0.662273 0.662273 0.662273
0.669955 0.669955 0.669955
0.677569 0.677569 0.677569
0.685112 0.685112 0.685112
0.692584 0.692584 0.692584
0.699979 0.699979 0.699979
0.707295 0.707295 0.707295
0.714531 0.714531 0.714531
0.721681 0.721681 0.721681
0.728743 0.728743 0.728743
0.735717 0.735717 0.735717
0.742598 0.742598 0.742598
0.749385 0.749385 0.749385
0.756075 0.756075 0.756075
0.762668 0.762668 0.762668
0.769159 0.769159 0.769159
0.775550 0.775550 0.775550
0.781838 0.781838 0.781838
0.788022 0.788022 0.788022
0.794100 0.794100 0.794100
0.800070 0.800070 0.800070
0.588716 0.588716 0.588716
0.596914 0.596914 0.596914
0.605091 0.605091 0.605091
0.613241 0.613241 0.613241
0.621360 0.621360 0.621360
0.629446 0.629446 0.629446
0.637493 0.637493 0.637493
0.645500 0.645500 0.645500
0.653460 0.653460 0.653460
0.661373 0.661373 0.661373
0.669232 0.669232 0.669232
0.677036 0.677036 0.677036
0.684779 0.684779 0.684779
0.692461 0.692461 0.692461
0.700075 0.700075 0.700075
0.707618 0.707618 0.707618
0.715090 0.715090 0.715090
0.722485 0.722485 0.722485
0.729801 0.729801 0.729801
0.737036 0.737036 0.737036
0.744186 0.744186 0.744186
0.751249 0.751249 0.751249
0.758222 0.758222 0.758222
0.765104 0.765104 0.765104
0.771890 0.771890 0.771890
0.778580 0.778580 0.778580
0.785174 0.785174 0.785174
0.791665 0.791665 0.791665
0.798056 0.798056 0.798056
0.804343 0.804343 0.804343
0.810527 0.810527 0.810527
0.816605 0.816605 0.816605
0.822576 0.822576 0.822576
0.610896 0.610896 0.610896
0.619094 0.619094 0.619094
0.627271 0.627271 0.627271
0.635421 0.635421 0.635421
0.643540 0.643540 0.643540
0.651626 0.651626 0.651626
0.659673 0.659673 0.659673
0.667680 0.667680 0.667680
0.675640 0.675640 0.675640
0.683553 0.683553 0.683553
0.691412 0.691412 0.691412
0.699216 0.699216 0.699216
0.706959 0.706959 0.706959
0.714641 0.714641 0.714641
0.722255 0.722255 0.722255
0.729798 0.729798 0.729798
0.737270 0.737270 0.737270
0.744665 0.744665 0.744665
0.751981 0.751981 0.751981
0.759216 0.759216 0.759216
0.766366 0.766366 0.766366
0.773429 0.773429 0.773429
0.780402 0.780402 0.780402
0.787284 0.787284 0.787284
0.794070 0.794070 0.794070
0.800760 0.800760 0.800760
0.807354 0.807354 0.807354
0.813845 0.813845 0.813845
