luts/ilford_pan_f_plus_50.cube
TITLE Film LUT
LUT_3D_SIZE 33
DOMAIN_MIN 0.0 0.0 0.0
DOMAIN_MAX 1.0 1.0 1.0
0.000000 0.000000 0.000000
0.007381 0.007381 0.007381
0.014738 0.014738 0.014738
0.022070 0.022070 0.022070
0.029373 0.029373 0.029373
0.036645 0.036645 0.036645
0.043882 0.043882 0.043882
0.051082 0.051082 0.051082
0.058244 0.058244 0.058244
0.065364 0.065364 0.065364
0.072441 0.072441 0.072441
0.079469 0.079469 0.079469
0.086451 0.086451 0.086451
0.093379 0.093379 0.093379
0.100254 0.100254 0.100254
0.107073 0.107073 0.107073
0.113834 0.113834 0.113834
0.120535 0.120535 0.120535
0.127173 0.127173 0.127173
0.133749 0.133749 0.133749
0.140256 0.140256 0.140256
0.146696 0.146696 0.146696
0.153067 0.153067 0.153067
0.159366 0.159366 0.159366
0.165592 0.165592 0.165592
0.171742 0.171742 0.171742
0.177817 0.177817 0.177817
0.183815 0.183815 0.183815
0.189734 0.189734 0.189734
0.195573 0.195573 0.195573
0.201330 0.201330 0.201330
0.207006 0.207006 0.207006
0.212600 0.212600 0.212600
0.024830 0.024830 0.024830
0.032210 0.032210 0.032210
0.039568 0.039568 0.039568
0.046899 0.046899 0.046899
0.054202 0.054202 0.054202
0.061474 0.061474 0.061474
0.068712 0.068712 0.068712
0.075912 0.075912 0.075912
0.083074 0.083074 0.083074
0.090194 0.090194 0.090194
0.097270 0.097270 0.097270
0.104299 0.104299 0.104299
0.111280 0.111280 0.111280
0.118208 0.118208 0.118208
0.125083 0.125083 0.125083
0.131903 0.131903 0.131903
0.138664 0.138664 0.138664
0.145364 0.145364 0.145364
0.152003 0.152003 0.152003
0.158579 0.158579 0.158579
0.165085 0.165085 0.165085
0.171526 0.171526 0.171526
0.177896 0.177896 0.177896
0.184196 0.184196 0.184196
0.190422 0.190422 0.190422
0.196572 0.196572 0.196572
0.202647 0.202647 0.202647
0.208644 0.208644 0.208644
0.214563 0.214563 0.214563
0.220403 0.220403 0.220403
0.226160 0.226160 0.226160
0.231836 0.231836 0.231836
0.237430 0.237430 0.237430
0.049581 0.049581 0.049581
0.056961 0.056961 0.056961
0.064319 0.064319 0.064319
0.071650 0.071650 0.071650
0.078953 0.078953 0.078953
0.086225 0.086225 0.086225
0.093463 0.093463 0.093463
0.100663 0.100663 0.100663
0.107825 0.107825 0.107825
0.114945 0.114945 0.114945
0.122021 0.122021 0.122021
0.129050 0.129050 0.129050
0.136031 0.136031 0.136031
0.142959 0.142959 0.142959
0.149834 0.149834 0.149834
0.156654 0.156654 0.156654
0.163415 0.163415 0.163415
0.170115 0.170115 0.170115
0.176754 0.176754 0.176754
0.183330 0.183330 0.183330
0.189836 0.189836 0.189836
0.196277 0.196277 0.196277
0.202647 0.202647 0.202647
0.208947 0.208947 0.208947
0.215173 0.215173 0.215173
0.221323 0.221323 0.221323
0.227397 0.227397 0.227397
0.233395 0.233395 0.233395
0.239314 0.239314 0.239314
0.245154 0.245154 0.245154
0.250911 0.250911 0.250911
0.256587 0.256587 0.256587
0.262181 0.262181 0.262181
0.074244 0.074244 0.074244
0.081625 0.081625 0.081625
0.088982 0.088982 0.088982
0.096314 0.096314 0.096314
0.103617 0.103617 0.103617
0.110889 0.110889 0.110889
0.118126 0.118126 0.118126
0.125327 0.125327 0.125327
0.132489 0.132489 0.132489
0.139608 0.139608 0.139608
0.146685 0.146685 0.146685
0.153713 0.153713 0.153713
0.160695 0.160695 0.160695
0.167623 0.167623 0.167623
0.174498 0.174498 0.174498
0.181317 0.181317 0.181317
0.188079 0.188079 0.188079
0.194779 0.194779 0.194779
0.201418 0.201418 0.201418
0.207993 0.207993 0.207993
0.214500 0.214500 0.214500
0.220941 0.220941 0.220941
0.227311 0.227311 0.227311
0.233611 0.233611 0.233611
0.239836 0.239836 0.239836
0.245987 0.245987 0.245987
0.252061 0.252061 0.252061
0.258059 0.258059 0.258059
0.263978 0.263978 0.263978
0.269817 0.269817 0.269817
0.275574 0.275574 0.275574
0.281251 0.281251 0.281251
0.286844 0.286844 0.286844
0.098811 0.098811 0.098811
0.106192 0.106192 0.106192
0.113550 0.113550 0.113550
0.120881 0.120881 0.120881
0.128184 0.128184 0.128184
0.135456 0.135456 0.135456
0.142693 0.142693 0.142693
0.149894 0.149894 0.149894
0.157056 0.157056 0.157056
0.164176 0.164176 0.164176
0.171252 0.171252 0.171252
0.178281 0.178281 0.178281
0.185262 0.185262 0.185262
0.192190 0.192190 0.192190
0.199065 0.199065 0.199065
0.205884 0.205884 0.205884
0.212646 0.212646 0.212646
0.219346 0.219346 0.219346
0.225985 0.225985 0.225985
0.232561 0.232561 0.232561
0.239067 0.239067 0.239067
0.245508 0.245508 0.245508
0.251878 0.251878 0.251878
0.258178 0.258178 0.258178
0.264403 0.264403 0.264403
0.270554 0.270554 0.270554
0.276628 0.276628 0.276628
0.282626 0.282626 0.282626
0.288545 0.288545 0.288545
0.294385 0.294385 0.294385
0.300141 0.300141 0.300141
0.305818 0.305818 0.305818
0.311411 0.311411 0.311411
0.123275 0.123275 0.123275
0.130656 0.130656 0.130656
0.138014 0.138014 0.138014
0.145345 0.145345 0.145345
0.152648 0.152648 0.152648
0.159920 0.159920 0.159920
0.167158 0.167158 0.167158
0.174358 0.174358 0.174358
0.181520 0.181520 0.181520
0.188640 0.188640 0.188640
0.195716 0.195716 0.195716
0.202745 0.202745 0.202745
0.209726 0.209726 0.209726
0.216654 0.216654 0.216654
0.223529 0.223529 0.223529
0.230348 0.230348 0.230348
0.237110 0.237110 0.237110
0.243810 0.243810 0.243810
0.250449 0.250449 0.250449
0.257025 0.257025 0.257025
0.263531 0.263531 0.263531
0.269972 0.269972 0.269972
0.276342 0.276342 0.276342
0.282642 0.282642 0.282642
0.288867 0.288867 0.288867
0.295018 0.295018 0.295018
0.301092 0.301092 0.301092
0.307090 0.307090 0.307090
0.313009 0.313009 0.313009
0.318849 0.318849 0.318849
0.324606 0.324606 0.324606
0.330282 0.330282 0.330282
0.335875 0.335875 0.335875
0.147622 0.147622 0.147622
0.155003 0.155003 0.155003
0.162361 0.162361 0.162361
0.169692 0.169692 0.169692
0.176995 0.176995 0.176995
0.184267 0.184267 0.184267
0.191504 0.191504 0.191504
0.198705 0.198705 0.198705
0.205867 0.205867 0.205867
0.212987 0.212987 0.212987
0.220063 0.220063 0.220063
0.227092 0.227092 0.227092
0.234073 0.234073 0.234073
0.241001 0.241001 0.241001
0.247876 0.247876 0.247876
0.254695 0.254695 0.254695
0.261457 0.261457 0.261457
0.268157 0.268157 0.268157
0.274796 0.274796 0.274796
0.281371 0.281371 0.281371
0.287878 0.287878 0.287878
0.294319 0.294319 0.294319
0.300689 0.300689 0.300689
0.306989 0.306989 0.306989
0.313214 0.313214 0.313214
0.319365 0.319365 0.319365
0.325439 0.325439 0.325439
0.331437 0.331437 0.331437
0.337356 0.337356 0.337356
0.343196 0.343196 0.343196
0.348952 0.348952 0.348952
0.354629 0.354629 0.354629
0.360222 0.360222 0.360222
0.171845 0.171845 0.171845
0.179226 0.179226 0.179226
0.186583 0.186583 0.186583
0.193914 0.193914 0.193914
0.201217 0.201217 0.201217
0.208489 0.208489 0.208489
0.215727 0.215727 0.215727
0.222927 0.222927 0.222927
0.230089 0.230089 0.230089
0.237209 0.237209 0.237209
0.244286 0.244286 0.244286
0.251314 0.251314 0.251314
0.258295 0.258295 0.258295
0.265223 0.265223 0.265223
0.272099 0.272099 0.272099
0.278918 0.278918 0.278918
0.285679 0.285679 0.285679
0.292380 0.292380 0.292380
0.299018 0.299018 0.299018
0.305594 0.305594 0.305594
0.312100 0.312100 0.312100
0.318541 0.318541 0.318541
0.324911 0.324911 0.324911
0.331211 0.331211 0.331211
0.337437 0.337437 0.337437
0.343587 0.343587 0.343587
0.349662 0.349662 0.349662
0.355659 0.355659 0.355659
0.361578 0.361578 0.361578
0.367418 0.367418 0.367418
0.373175 0.373175 0.373175
0.378851 0.378851 0.378851
0.384445 0.384445 0.384445
0.195938 0.195938 0.195938
0.203318 0.203318 0.203318
0.210676 0.210676 0.210676
0.218007 0.218007 0.218007
0.225310 0.225310 0.225310
0.232582 0.232582 0.232582
0.239820 0.239820 0.239820
0.247020 0.247020 0.247020
0.254182 0.254182 0.254182
0.261302 0.261302 0.261302
0.268379 0.268379 0.268379
0.275407 0.275407 0.275407
0.282388 0.282388 0.282388
0.289316 0.289316 0.289316
0.296191 0.296191 0.296191
0.303011 0.303011 0.303011
0.309772 0.309772 0.309772
0.316472 0.316472 0.316472
0.323111 0.323111 0.323111
0.329687 0.329687 0.329687
0.336193 0.336193 0.336193
0.342634 0.342634 0.342634
0.349004 0.349004 0.349004
0.355304 0.355304 0.355304
0.361530 0.361530 0.361530
0.367680 0.367680 0.367680
0.373755 0.373755 0.373755
0.379752 0.379752 0.379752
0.385671 0.385671 0.385671
0.391511 0.391511 0.391511
0.397268 0.397268 0.397268
0.402944 0.402944 0.402944
0.408538 0.408538 0.408538
0.219890 0.219890 0.219890
0.227271 0.227271 0.227271
0.234628 0.234628 0.234628
0.241959 0.241959 0.241959
0.249262 0.249262 0.249262
0.256534 0.256534 0.256534
0.263772 0.263772 0.263772
0.270972 0.270972 0.270972
0.278134 0.278134 0.278134
0.285254 0.285254 0.285254
0.292331 0.292331 0.292331
0.299359 0.299359 0.299359
0.306340 0.306340 0.306340
0.313268 0.313268 0.313268
0.320144 0.320144 0.320144
0.326963 0.326963 0.326963
0.333724 0.333724 0.333724
0.340425 0.340425 0.340425
0.347063 0.347063 0.347063
0.353639 0.353639 0.353639
0.360145 0.360145 0.360145
0.366586 0.366586 0.366586
0.372956 0.372956 0.372956
0.379256 0.379256 0.379256
0.385482 0.385482 0.385482
0.391632 0.391632 0.391632
0.397707 0.397707 0.397707
0.403704 0.403704 0.403704
0.409623 0.409623 0.409623
0.415463 0.415463 0.415463
0.421220 0.421220 0.421220
0.426896 0.426896 0.426896
0.432490 0.432490 0.432490
0.243696 0.243696 0.243696
0.251077 0.251077 0.251077
0.258434 0.258434 0.258434
0.265766 0.265766 0.265766
0.273068 0.273068 0.273068
0.280341 0.280341 0.280341
0.287578 0.287578 0.287578
0.294778 0.294778 0.294778
0.301940 0.301940 0.301940
0.309060 0.309060 0.309060
0.316137 0.316137 0.316137
0.323165 0.323165 0.323165
0.330146 0.330146 0.330146
0.337075 0.337075 0.337075
0.343950 0.343950 0.343950
0.350769 0.350769 0.350769
0.357530 0.357530 0.357530
0.364231 0.364231 0.364231
0.370869 0.370869 0.370869
0.377445 0.377445 0.377445
0.383951 0.383951 0.383951
0.390392 0.390392 0.390392
0.396763 0.396763 0.396763
0.403062 0.403062 0.403062
0.409288 0.409288 0.409288
0.415438 0.415438 0.415438
0.421513 0.421513 0.421513
0.427511 0.427511 0.427511
0.433429 0.433429 0.433429
0.439269 0.439269 0.439269
0.445026 0.445026 0.445026
0.450702 0.450702 0.450702
0.456296 0.456296 0.456296
0.267340 0.267340 0.267340
0.274720 0.274720 0.274720
0.282078 0.282078 0.282078
0.289409 0.289409 0.289409
0.296712 0.296712 0.296712
0.303984 0.303984 0.303984
0.311222 0.311222 0.311222
0.318422 0.318422 0.318422
0.325584 0.325584 0.325584
0.332704 0.332704 0.332704
0.339781 0.339781 0.339781
0.346809 0.346809 0.346809
0.353790 0.353790 0.353790
0.360718 0.360718 0.360718
0.367593 0.367593 0.367593
0.374413 0.374413 0.374413
0.381174 0.381174 0.381174
0.387874 0.387874 0.387874
0.394513 0.394513 0.394513
0.401089 0.401089 0.401089
0.407595 0.407595 0.407595
0.414036 0.414036 0.414036
0.420406 0.420406 0.420406
0.426706 0.426706 0.426706
0.432932 0.432932 0.432932
0.439082 0.439082 0.439082
0.445157 0.445157 0.445157
0.451154 0.451154 0.451154
0.457073 0.457073 0.457073
0.462913 0.462913 0.462913
0.468670 0.468670 0.468670
0.474346 0.474346 0.474346
0.479940 0.479940 0.479940
0.290825 0.290825 0.290825
0.298206 0.298206 0.298206
0.305564 0.305564 0.305564
0.312895 0.312895 0.312895
0.320198 0.320198 0.320198
0.327470 0.327470 0.327470
0.334707 0.334707 0.334707
0.341908 0.341908 0.341908
0.349070 0.349070 0.349070
0.356190 0.356190 0.356190
0.363266 0.363266 0.363266
0.370295 0.370295 0.370295
0.377276 0.377276 0.377276
0.384204 0.384204 0.384204
0.391079 0.391079 0.391079
0.397898 0.397898 0.397898
0.404660 0.404660 0.404660
0.411360 0.411360 0.411360
0.417999 0.417999 0.417999
0.424575 0.424575 0.424575
0.431081 0.431081 0.431081
0.437522 0.437522 0.437522
0.443892 0.443892 0.443892
0.450192 0.450192 0.450192
0.456417 0.456417 0.456417
0.462568 0.462568 0.462568
0.468642 0.468642 0.468642
0.474640 0.474640 0.474640
0.480559 0.480559 0.480559
0.486399 0.486399 0.486399
0.492155 0.492155 0.492155
0.497832 0.497832 0.497832
0.503425 0.503425 0.503425
0.314132 0.314132 0.314132
0.321513 0.321513 0.321513
0.328871 0.328871 0.328871
0.336202 0.336202 0.336202
0.343505 0.343505 0.343505
0.350777 0.350777 0.350777
0.358014 0.358014 0.358014
0.365215 0.365215 0.365215
0.372377 0.372377 0.372377
0.379497 0.379497 0.379497
0.386573 0.386573 0.386573
0.393602 0.393602 0.393602
0.400583 0.400583 0.400583
0.407511 0.407511 0.407511
0.414386 0.414386 0.414386
0.421205 0.421205 0.421205
0.427967 0.427967 0.427967
0.434667 0.434667 0.434667
0.441306 0.441306 0.441306
0.447882 0.447882 0.447882
0.454388 0.454388 0.454388
0.460829 0.460829 0.460829
0.467199 0.467199 0.467199
0.473499 0.473499 0.473499
0.479724 0.479724 0.479724
0.485875 0.485875 0.485875
0.491949 0.491949 0.491949
0.497947 0.497947 0.497947
0.503866 0.503866 0.503866
0.509706 0.509706 0.509706
0.515462 0.515462 0.515462
0.521139 0.521139 0.521139
0.526732 0.526732 0.526732
0.337260 0.337260 0.337260
0.344641 0.344641 0.344641
0.351999 0.351999 0.351999
0.359330 0.359330 0.359330
0.366633 0.366633 0.366633
0.373905 0.373905 0.373905
0.381143 0.381143 0.381143
0.388343 0.388343 0.388343
0.395505 0.395505 0.395505
0.402625 0.402625 0.402625
0.409701 0.409701 0.409701
0.416730 0.416730 0.416730
0.423711 0.423711 0.423711
0.430639 0.430639 0.430639
0.437514 0.437514 0.437514
0.444333 0.444333 0.444333
0.451095 0.451095 0.451095
0.457795 0.457795 0.457795
0.464434 0.464434 0.464434
0.471010 0.471010 0.471010
0.477516 0.477516 0.477516
0.483957 0.483957 0.483957
0.490327 0.490327 0.490327
0.496627 0.496627 0.496627
0.502852 0.502852 0.502852
0.509003 0.509003 0.509003
0.515077 0.515077 0.515077
0.521075 0.521075 0.521075
0.526994 0.526994 0.526994
0.532834 0.532834 0.532834
0.538591 0.538591 0.538591
0.544267 0.544267 0.544267
0.549860 0.549860 0.549860
0.360200 0.360200 0.360200
0.367581 0.367581 0.367581
0.374939 0.374939 0.374939
0.382270 0.382270 0.382270
0.389573 0.389573 0.389573
0.396845 0.396845 0.396845
0.404083 0.404083 0.404083
0.411283 0.411283 0.411283
0.418445 0.418445 0.418445
0.425565 0.425565 0.425565
0.432641 0.432641 0.432641
0.439670 0.439670 0.439670
0.446651 0.446651 0.446651
0.453579 0.453579 0.453579
0.460454 0.460454 0.460454
0.467273 0.467273 0.467273
0.474035 0.474035 0.474035
0.480735 0.480735 0.480735
0.487374 0.487374 0.487374
0.493950 0.493950 0.493950
0.500456 0.500456 0.500456
0.506897 0.506897 0.506897
0.513267 0.513267 0.513267
0.519567 0.519567 0.519567
0.525792 0.525792 0.525792
0.531943 0.531943 0.531943
0.538017 0.538017 0.538017
0.544015 0.544015 0.544015
0.549934 0.549934 0.549934
0.555774 0.555774 0.555774
0.561531 0.561531 0.561531
0.567207 0.567207 0.567207
0.572800 0.572800 0.572800
0.382946 0.382946 0.382946
0.390327 0.390327 0.390327
0.397684 0.397684 0.397684
0.405016 0.405016 0.405016
0.412319 0.412319 0.412319
0.419591 0.419591 0.419591
0.426828 0.426828 0.426828
0.434028 0.434028 0.434028
0.441190 0.441190 0.441190
0.448310 0.448310 0.448310
0.455387 0.455387 0.455387
0.462415 0.462415 0.462415
0.469397 0.469397 0.469397
0.476325 0.476325 0.476325
0.483200 0.483200 0.483200
0.490019 0.490019 0.490019
0.496780 0.496780 0.496780
0.503481 0.503481 0.503481
0.510119 0.510119 0.510119
0.516695 0.516695 0.516695
0.523202 0.523202 0.523202
0.529642 0.529642 0.529642
0.536013 0.536013 0.536013
0.542312 0.542312 0.542312
0.548538 0.548538 0.548538
0.554688 0.554688 0.554688
0.560763 0.560763 0.560763
0.566761 0.566761 0.566761
0.572680 0.572680 0.572680
0.578519 0.578519 0.578519
0.584276 0.584276 0.584276
0.589952 0.589952 0.589952
0.595546 0.595546 0.595546
0.405487 0.405487 0.405487
0.412868 0.412868 0.412868
0.420225 0.420225 0.420225
0.427557 0.427557 0.427557
0.434860 0.434860 0.434860
0.442132 0.442132 0.442132
0.449369 0.449369 0.449369
0.456569 0.456569 0.456569
0.463731 0.463731 0.463731
0.470851 0.470851 0.470851
0.477928 0.477928 0.477928
0.484956 0.484956 0.484956
0.491938 0.491938 0.491938
0.498866 0.498866 0.498866
0.505741 0.505741 0.505741
0.512560 0.512560 0.512560
0.519321 0.519321 0.519321
0.526022 0.526022 0.526022
0.532660 0.532660 0.532660
0.539236 0.539236 0.539236
0.545743 0.545743 0.545743
0.552183 0.552183 0.552183
0.558554 0.558554 0.558554
0.564853 0.564853 0.564853
0.571079 0.571079 0.571079
0.577229 0.577229 0.577229
0.583304 0.583304 0.583304
0.589302 0.589302 0.589302
0.595221 0.595221 0.595221
0.601060 0.601060 0.601060
0.606817 0.606817 0.606817
0.612493 0.612493 0.612493
0.618087 0.618087 0.618087
0.427820 0.427820 0.427820
0.435201 0.435201 0.435201
0.442558 0.442558 0.442558
0.449890 0.449890 0.449890
0.457192 0.457192 0.457192
0.464465 0.464465 0.464465
0.471702 0.471702 0.471702
0.478902 0.478902 0.478902
0.486064 0.486064 0.486064
0.493184 0.493184 0.493184
0.500261 0.500261 0.500261
0.507289 0.507289 0.507289
0.514270 0.514270 0.514270
0.521199 0.521199 0.521199
0.528074 0.528074 0.528074
0.534893 0.534893 0.534893
0.541654 0.541654 0.541654
0.548355 0.548355 0.548355
0.554993 0.554993 0.554993
0.561569 0.561569 0.561569
0.568075 0.568075 0.568075
0.574516 0.574516 0.574516
0.580886 0.580886 0.580886
0.587186 0.587186 0.587186
0.593412 0.593412 0.593412
0.599562 0.599562 0.599562
0.605637 0.605637 0.605637
0.611635 0.611635 0.611635
0.617553 0.617553 0.617553
0.623393 0.623393 0.623393
0.629150 0.629150 0.629150
0.634826 0.634826 0.634826
0.640420 0.640420 0.640420
0.449941 0.449941 0.449941
0.457322 0.457322 0.457322
0.464679 0.464679 0.464679
0.472011 0.472011 0.472011
0.479314 0.479314 0.479314
0.486586 0.486586 0.486586
0.493823 0.493823 0.493823
0.501023 0.501023 0.501023
0.508185 0.508185 0.508185
0.515305 0.515305 0.515305
0.522382 0.522382 0.522382
0.529410 0.529410 0.529410
0.536392 0.536392 0.536392
0.543320 0.543320 0.543320
0.550195 0.550195 0.550195
0.557014 0.557014 0.557014
0.563775 0.563775 0.563775
0.570476 0.570476 0.570476
0.577114 0.577114 0.577114
0.583690 0.583690 0.583690
0.590197 0.590197 0.590197
0.596637 0.596637 0.596637
0.603008 0.603008 0.603008
0.609307 0.609307 0.609307
0.615533 0.615533 0.615533
0.621683 0.621683 0.621683
0.627758 0.627758 0.627758
0.633756 0.633756 0.633756
0.639674 0.639674 0.639674
0.645514 0.645514 0.645514
0.651271 0.651271 0.651271
0.656947 0.656947 0.656947
0.662541 0.662541 0.662541
0.471829 0.471829 0.471829
0.479210 0.479210 0.479210
0.486567 0.486567 0.486567
0.493899 0.493899 0.493899
0.501201 0.501201 0.501201
0.508474 0.508474 0.508474
0.515711 0.515711 0.515711
0.522911 0.522911 0.522911
0.530073 0.530073 0.530073
0.537193 0.537193 0.537193
0.544270 0.544270 0.544270
0.551298 0.551298 0.551298
0.558279 0.558279 0.558279
0.565208 0.565208 0.565208
0.572083 0.572083 0.572083
0.578902 0.578902 0.578902
0.585663 0.585663 0.585663
0.592364 0.592364 0.592364
0.599002 0.599002 0.599002
0.605578 0.605578 0.605578
0.612085 0.612085 0.612085
0.618525 0.618525 0.618525
0.624896 0.624896 0.624896
0.631195 0.631195 0.631195
0.637421 0.637421 0.637421
0.643571 0.643571 0.643571
0.649646 0.649646 0.649646
0.655644 0.655644 0.655644
0.661562 0.661562 0.661562
0.667402 0.667402 0.667402
0.673159 0.673159 0.673159
0.678835 0.678835 0.678835
0.684429 0.684429 0.684429
0.493496 0.493496 0.493496
0.500877 0.500877 0.500877
0.508234 0.508234 0.508234
0.515566 0.515566 0.515566
0.522868 0.522868 0.522868
0.530141 0.530141 0.530141
0.537378 0.537378 0.537378
0.544578 0.544578 0.544578
0.551740 0.551740 0.551740
0.558860 0.558860 0.558860
0.565937 0.565937 0.565937
0.572965 0.572965 0.572965
0.579946 0.579946 0.579946
0.586875 0.586875 0.586875
0.593750 0.593750 0.593750
0.600569 0.600569 0.600569
0.607330 0.607330 0.607330
0.614031 0.614031 0.614031
0.620669 0.620669 0.620669
0.627245 0.627245 0.627245
0.633751 0.633751 0.633751
0.640192 0.640192 0.640192
0.646563 0.646563 0.646563
0.652862 0.652862 0.652862
0.659088 0.659088 0.659088
0.665238 0.665238 0.665238
0.671313 0.671313 0.671313
0.677311 0.677311 0.677311
0.683229 0.683229 0.683229
0.689069 0.689069 0.689069
0.694826 0.694826 0.694826
0.700502 0.700502 0.700502
0.706096 0.706096 0.706096
0.514926 0.514926 0.514926
0.522307 0.522307 0.522307
0.529664 0.529664 0.529664
0.536996 0.536996 0.536996
0.544299 0.544299 0.544299
0.551571 0.551571 0.551571
0.558808 0.558808 0.558808
0.566009 0.566009 0.566009
0.573170 0.573170 0.573170
0.580290 0.580290 0.580290
0.587367 0.587367 0.587367
0.594395 0.594395 0.594395
0.601377 0.601377 0.601377
0.608305 0.608305 0.608305
0.615180 0.615180 0.615180
0.621999 0.621999 0.621999
0.628760 0.628760 0.628760
0.635461 0.635461 0.635461
0.642100 0.642100 0.642100
0.648675 0.648675 0.648675
0.655182 0.655182 0.655182
0.661622 0.661622 0.661622
0.667993 0.667993 0.667993
0.674293 0.674293 0.674293
0.680518 0.680518 0.680518
0.686668 0.686668 0.686668
0.692743 0.692743 0.692743
0.698741 0.698741 0.698741
0.704660 0.704660 0.704660
0.710499 0.710499 0.710499
0.716256 0.716256 0.716256
0.721933 0.721933 0.721933
0.727526 0.727526 0.727526
0.536119 0.536119 0.536119
0.543500 0.543500 0.543500
0.550857 0.550857 0.550857
0.558189 0.558189 0.558189
0.565492 0.565492 0.565492
0.572764 0.572764 0.572764
0.580001 0.580001 0.580001
0.587201 0.587201 0.587201
0.594363 0.594363 0.594363
0.601483 0.601483 0.601483
0.608560 0.608560 0.608560
0.615588 0.615588 0.615588
0.622570 0.622570 0.622570
0.629498 0.629498 0.629498
0.636373 0.636373 0.636373
0.643192 0.643192 0.643192
0.649953 0.649953 0.649953
0.656654 0.656654 0.656654
0.663292 0.663292 0.663292
0.669868 0.669868 0.669868
0.676375 0.676375 0.676375
0.682815 0.682815 0.682815
0.689186 0.689186 0.689186
0.695485 0.695485 0.695485
0.701711 0.701711 0.701711
0.707861 0.707861 0.707861
0.713936 0.713936 0.713936
0.719934 0.719934 0.719934
0.725853 0.725853 0.725853
0.731692 0.731692 0.731692
0.737449 0.737449 0.737449
0.743125 0.743125 0.743125
0.748719 0.748719 0.748719
0.557062 0.557062 0.557062
0.564443 0.564443 0.564443
0.571800 0.571800 0.571800
0.579132 0.579132 0.579132
0.586435 0.586435 0.586435
0.593707 0.593707 0.593707
0.600944 0.600944 0.600944
0.608145 0.608145 0.608145
0.615306 0.615306 0.615306
0.622426 0.622426 0.622426
0.629503 0.629503 0.629503
0.636531 0.636531 0.636531
0.643513 0.643513 0.643513
0.650441 0.650441 0.650441
0.657316 0.657316 0.657316
0.664135 0.664135 0.664135
0.670896 0.670896 0.670896
0.677597 0.677597 0.677597
0.684236 0.684236 0.684236
0.690811 0.690811 0.690811
0.697318 0.697318 0.697318
0.703758 0.703758 0.703758
0.710129 0.710129 0.710129
0.716429 0.716429 0.716429
0.722654 0.722654 0.722654
0.728804 0.728804 0.728804
0.734879 0.734879 0.734879
0.740877 0.740877 0.740877
0.746796 0.746796 0.746796
0.752635 0.752635 0.752635
0.758392 0.758392 0.758392
0.764069 0.764069 0.764069
0.769662 0.769662 0.769662
0.577752 0.577752 0.577752
0.585133 0.585133 0.585133
0.592490 0.592490 0.592490
0.599822 0.599822 0.599822
0.607125 0.607125 0.607125
0.614397 0.614397 0.614397
0.621634 0.621634 0.621634
0.628835 0.628835 0.628835
0.635996 0.635996 0.635996
0.643116 0.643116 0.643116
0.650193 0.650193 0.650193
0.657221 0.657221 0.657221
0.664203 0.664203 0.664203
0.671131 0.671131 0.671131
0.678006 0.678006 0.678006
0.684825 0.684825 0.684825
0.691586 0.691586 0.691586
0.698287 0.698287 0.698287
0.704926 0.704926 0.704926
0.711501 0.711501 0.711501
0.718008 0.718008 0.718008
0.724448 0.724448 0.724448
0.730819 0.730819 0.730819
0.737119 0.737119 0.737119
0.743344 0.743344 0.743344
0.749494 0.749494 0.749494
0.755569 0.755569 0.755569
0.761567 0.761567 0.761567
0.767486 0.767486 0.767486
0.773325 0.773325 0.773325
0.779082 0.779082 0.779082
0.784759 0.784759 0.784759
0.790352 0.790352 0.790352
0.598188 0.598188 0.598188
0.605568 0.605568 0.605568
0.612926 0.612926 0.612926
0.620257 0.620257 0.620257
0.627560 0.627560 0.627560
0.634832 0.634832 0.634832
0.642070 0.642070 0.642070
0.649270 0.649270 0.649270
0.656432 0.656432 0.656432
0.663552 0.663552 0.663552
0.670628 0.670628 0.670628
0.677657 0.677657 0.677657
0.684638 0.684638 0.684638
0.691566 0.691566 0.691566
0.698441 0.698441 0.698441
0.705261 0.705261 0.705261
0.712022 0.712022 0.712022
0.718722 0.718722 0.718722
0.725361 0.725361 0.725361
0.731937 0.731937 0.731937
0.738443 0.738443 0.738443
0.744884 0.744884 0.744884
0.751254 0.751254 0.751254
0.757554 0.757554 0.757554
0.763780 0.763780 0.763780
0.769930 0.769930 0.769930
0.776004 0.776004 0.776004
0.782002 0.782002 0.782002
