luts/ilford_hp5_plus_400.cube
TITLE Film LUT
LUT_3D_SIZE 5
DOMAIN_MIN 0.0 0.0 0.0
DOMAIN_MAX 1.0 1.0 1.0
0.000000 0.000000 0.000000
0.000000 0.000000 0.000000
0.000254 0.000254 0.000254
0.067289 0.067289 0.067289
0.126380 0.126380 0.126380
0.109121 0.109121 0.109121
0.186148 0.186148 0.186148
0.259375 0.259375 0.259375
0.326410 0.326410 0.326410
0.385501 0.385501 0.385501
0.355463 0.355463 0.355463
0.432489 0.432489 0.432489
0.505717 0.505717 0.505717
0.572752 0.572752 0.572752
0.631843 0.631843 0.631843
0.580975 0.580975 0.580975
0.658001 0.658001 0.658001
0.731228 0.731228 0.731228
0.798264 0.798264 0.798264
0.857355 0.857355 0.857355
0.779760 0.779760 0.779760
0.856786 0.856786 0.856786
0.930014 0.930014 0.930014
0.997049 0.997049 0.997049
1.000000 1.000000 1.000000
0.000000 0.000000 0.000000
0.000000 0.000000 0.000000
0.026412 0.026412 0.026412
0.093448 0.093448 0.093448
0.152539 0.152539 0.152539
0.135280 0.135280 0.135280
0.212306 0.212306 0.212306
0.285534 0.285534 0.285534
0.352569 0.352569 0.352569
0.411660 0.411660 0.411660
0.381622 0.381622 0.381622
0.458648 0.458648 0.458648
0.531875 0.531875 0.531875
0.598911 0.598911 0.598911
0.658002 0.658002 0.658002
0.607133 0.607133 0.607133
0.684159 0.684159 0.684159
0.757387 0.757387 0.757387
0.824422 0.824422 0.824422
0.883513 0.883513 0.883513
0.805919 0.805919 0.805919
0.882945 0.882945 0.882945
0.956172 0.956172 0.956172
1.000000 1.000000 1.000000
1.000000 1.000000 1.000000
0.000000 0.000000 0.000000
0.000000 0.000000 0.000000
0.051281 0.051281 0.051281
0.118316 0.118316 0.118316
0.177407 0.177407 0.177407
0.160148 0.160148 0.160148
0.237174 0.237174 0.237174
0.310402 0.310402 0.310402
0.377437 0.377437 0.377437
0.436528 0.436528 0.436528
0.406490 0.406490 0.406490
0.483516 0.483516 0.483516
0.556744 0.556744 0.556744
0.623779 0.623779 0.623779
0.682870 0.682870 0.682870
0.632001 0.632001 0.632001
0.709028 0.709028 0.709028
0.782255 0.782255 0.782255
0.849291 0.849291 0.849291
0.908381 0.908381 0.908381
0.830787 0.830787 0.830787
0.907813 0.907813 0.907813
0.981041 0.981041 0.981041
1.000000 1.000000 1.000000
1.000000 1.000000 1.000000
0.000000 0.000000 0.000000
0.000819 0.000819 0.000819
0.074046 0.074046 0.074046
0.141082 0.141082 0.141082
0.200172 0.200172 0.200172
0.182914 0.182914 0.182914
0.259940 0.259940 0.259940
0.333167 0.333167 0.333167
0.400203 0.400203 0.400203
0.459294 0.459294 0.459294
0.429256 0.429256 0.429256
0.506282 0.506282 0.506282
0.579509 0.579509 0.579509
0.646545 0.646545 0.646545
0.705636 0.705636 0.705636
0.654767 0.654767 0.654767
0.731793 0.731793 0.731793
0.805021 0.805021 0.805021
0.872056 0.872056 0.872056
0.931147 0.931147 0.931147
0.853552 0.853552 0.853552
0.930579 0.930579 0.930579
1.000000 1.000000 1.000000
1.000000 1.000000 1.000000
1.000000 1.000000 1.000000
0.000000 0.000000 0.000000
0.020886 0.020886 0.020886
0.094114 0.094114 0.094114
0.161149 0.161149 0.161149
0.220240 0.220240 0.220240
0.202981 0.202981 0.202981
0.280008 0.280008 0.280008
0.353235 0.353235 0.353235
0.420270 0.420270 0.420270
0.479361 0.479361 0.479361
0.449323 0.449323 0.449323
0.526349 0.526349 0.526349
0.599577 0.599577 0.599577
0.666612 0.666612 0.666612
0.725703 0.725703 0.725703
0.674835 0.674835 0.674835
0.751861 0.751861 0.751861
0.825088 0.825088 0.825088
0.892124 0.892124 0.892124
0.951215 0.951215 0.951215
0.873620 0.873620 0.873620
0.950646 0.950646 0.950646
1.000000 1.000000 1.000000
1.000000 1.000000 1.000000
1.000000 1.000000 1.000000
