luts/ilford_hp5_plus_400.cube
TITLE Film LUT
LUT_3D_SIZE 9
DOMAIN_MIN 0.0 0.0 0.0
DOMAIN_MAX 1.0 1.0 1.0
0.000000 0.000000 0.000000
0.000000 0.000000 0.000000
0.000000 0.000000 0.000000
0.000000 0.000000 0.000000
0.000254 0.000254 0.000254
0.034674 0.034674 0.034674
0.067289 0.067289 0.067289
0.097904 0.097904 0.097904
0.126380 0.126380 0.126380
0.000000 0.000000 0.000000
0.019424 0.019424 0.019424
0.057628 0.057628 0.057628
0.094877 0.094877 0.094877
0.130855 0.130855 0.130855
0.165276 0.165276 0.165276
0.197891 0.197891 0.197891
0.228506 0.228506 0.228506
0.256982 0.256982 0.256982
0.109121 0.109121 0.109121
0.147944 0.147944 0.147944
0.186148 0.186148 0.186148
0.223397 0.223397 0.223397
0.259375 0.259375 0.259375
0.293796 0.293796 0.293796
0.326410 0.326410 0.326410
0.357026 0.357026 0.357026
0.385501 0.385501 0.385501
0.234431 0.234431 0.234431
0.273253 0.273253 0.273253
0.311457 0.311457 0.311457
0.348706 0.348706 0.348706
0.384684 0.384684 0.384684
0.419105 0.419105 0.419105
0.451720 0.451720 0.451720
0.482335 0.482335 0.482335
0.510811 0.510811 0.510811
0.355463 0.355463 0.355463
0.394286 0.394286 0.394286
0.432489 0.432489 0.432489
0.469739 0.469739 0.469739
0.505717 0.505717 0.505717
0.540137 0.540137 0.540137
0.572752 0.572752 0.572752
0.603367 0.603367 0.603367
0.631843 0.631843 0.631843
0.471256 0.471256 0.471256
0.510079 0.510079 0.510079
0.548283 0.548283 0.548283
0.585532 0.585532 0.585532
0.621510 0.621510 0.621510
0.655931 0.655931 0.655931
0.688545 0.688545 0.688545
0.719161 0.719161 0.719161
0.747636 0.747636 0.747636
0.580975 0.580975 0.580975
0.619797 0.619797 0.619797
0.658001 0.658001 0.658001
0.695250 0.695250 0.695250
0.731228 0.731228 0.731228
0.765649 0.765649 0.765649
0.798264 0.798264 0.798264
0.828879 0.828879 0.828879
0.857355 0.857355 0.857355
0.683966 0.683966 0.683966
0.722788 0.722788 0.722788
0.760992 0.760992 0.760992
0.798242 0.798242 0.798242
0.834220 0.834220 0.834220
0.868640 0.868640 0.868640
0.901255 0.901255 0.901255
0.931870 0.931870 0.931870
0.960346 0.960346 0.960346
0.779760 0.779760 0.779760
0.818583 0.818583 0.818583
0.856786 0.856786 0.856786
0.894036 0.894036 0.894036
0.930014 0.930014 0.930014
0.964434 0.964434 0.964434
0.997049 0.997049 0.997049
1.000000 1.000000 1.000000
1.000000 1.000000 1.000000
0.000000 0.000000 0.000000
0.000000 0.000000 0.000000
0.000000 0.000000 0.000000
0.000000 0.000000 0.000000
0.013438 0.013438 0.013438
0.047859 0.047859 0.047859
0.080473 0.080473 0.080473
0.111089 0.111089 0.111089
0.139564 0.139564 0.139564
0.000000 0.000000 0.000000
0.032608 0.032608 0.032608
0.070812 0.070812 0.070812
0.108062 0.108062 0.108062
0.144040 0.144040 0.144040
0.178460 0.178460 0.178460
0.211075 0.211075 0.211075
0.241690 0.241690 0.241690
0.270166 0.270166 0.270166
0.122306 0.122306 0.122306
0.161128 0.161128 0.161128
0.199332 0.199332 0.199332
0.236581 0.236581 0.236581
0.272559 0.272559 0.272559
0.306980 0.306980 0.306980
0.339595 0.339595 0.339595
0.370210 0.370210 0.370210
0.398686 0.398686 0.398686
0.247615 0.247615 0.247615
0.286438 0.286438 0.286438
0.324641 0.324641 0.324641
0.361891 0.361891 0.361891
0.397869 0.397869 0.397869
0.432289 0.432289 0.432289
0.464904 0.464904 0.464904
0.495519 0.495519 0.495519
0.523995 0.523995 0.523995
0.368647 0.368647 0.368647
0.407470 0.407470 0.407470
0.445674 0.445674 0.445674
0.482923 0.482923 0.482923
0.518901 0.518901 0.518901
0.553322 0.553322 0.553322
0.585937 0.585937 0.585937
0.616552 0.616552 0.616552
0.645027 0.645027 0.645027
0.484441 0.484441 0.484441
0.523263 0.523263 0.523263
0.561467 0.561467 0.561467
0.598716 0.598716 0.598716
0.634694 0.634694 0.634694
0.669115 0.669115 0.669115
0.701730 0.701730 0.701730
0.732345 0.732345 0.732345
0.760821 0.760821 0.760821
0.594159 0.594159 0.594159
0.632981 0.632981 0.632981
0.671185 0.671185 0.671185
0.708435 0.708435 0.708435
0.744413 0.744413 0.744413
0.778833 0.778833 0.778833
0.811448 0.811448 0.811448
0.842063 0.842063 0.842063
0.870539 0.870539 0.870539
0.697150 0.697150 0.697150
0.735973 0.735973 0.735973
0.774177 0.774177 0.774177
0.811426 0.811426 0.811426
0.847404 0.847404 0.847404
0.881825 0.881825 0.881825
0.914439 0.914439 0.914439
0.945055 0.945055 0.945055
0.973530 0.973530 0.973530
0.792944 0.792944 0.792944
0.831767 0.831767 0.831767
0.869971 0.869971 0.869971
0.907220 0.907220 0.907220
0.943198 0.943198 0.943198
0.977619 0.977619 0.977619
1.000000 1.000000 1.000000
1.000000 1.000000 1.000000
1.000000 1.000000 1.000000
0.000000 0.000000 0.000000
0.000000 0.000000 0.000000
0.000000 0.000000 0.000000
0.000000 0.000000 0.000000
0.026412 0.026412 0.026412
0.060833 0.060833 0.060833
0.093448 0.093448 0.093448
0.124063 0.124063 0.124063
0.152539 0.152539 0.152539
0.006760 0.006760 0.006760
0.045583 0.045583 0.045583
0.083786 0.083786 0.083786
0.121036 0.121036 0.121036
0.157014 0.157014 0.157014
0.191434 0.191434 0.191434
0.224049 0.224049 0.224049
0.254664 0.254664 0.254664
0.283140 0.283140 0.283140
0.135280 0.135280 0.135280
0.174102 0.174102 0.174102
0.212306 0.212306 0.212306
0.249555 0.249555 0.249555
0.285534 0.285534 0.285534
0.319954 0.319954 0.319954
0.352569 0.352569 0.352569
0.383184 0.383184 0.383184
0.411660 0.411660 0.411660
0.260589 0.260589 0.260589
0.299412 0.299412 0.299412
0.337615 0.337615 0.337615
0.374865 0.374865 0.374865
0.410843 0.410843 0.410843
0.445264 0.445264 0.445264
0.477878 0.477878 0.477878
0.508493 0.508493 0.508493
0.536969 0.536969 0.536969
0.381622 0.381622 0.381622
0.420444 0.420444 0.420444
0.458648 0.458648 0.458648
0.495897 0.495897 0.495897
0.531875 0.531875 0.531875
0.566296 0.566296 0.566296
0.598911 0.598911 0.598911
0.629526 0.629526 0.629526
0.658002 0.658002 0.658002
0.497415 0.497415 0.497415
0.536237 0.536237 0.536237
0.574441 0.574441 0.574441
0.611691 0.611691 0.611691
0.647669 0.647669 0.647669
0.682089 0.682089 0.682089
0.714704 0.714704 0.714704
0.745319 0.745319 0.745319
0.773795 0.773795 0.773795
0.607133 0.607133 0.607133
0.645956 0.645956 0.645956
0.684159 0.684159 0.684159
0.721409 0.721409 0.721409
0.757387 0.757387 0.757387
0.791807 0.791807 0.791807
0.824422 0.824422 0.824422
0.855037 0.855037 0.855037
0.883513 0.883513 0.883513
0.710124 0.710124 0.710124
0.748947 0.748947 0.748947
0.787151 0.787151 0.787151
0.824400 0.824400 0.824400
0.860378 0.860378 0.860378
0.894799 0.894799 0.894799
0.927414 0.927414 0.927414
0.958029 0.958029 0.958029
0.986504 0.986504 0.986504
0.805919 0.805919 0.805919
0.844741 0.844741 0.844741
0.882945 0.882945 0.882945
0.920194 0.920194 0.920194
0.956172 0.956172 0.956172
0.990593 0.990593 0.990593
1.000000 1.000000 1.000000
1.000000 1.000000 1.000000
1.000000 1.000000 1.000000
0.000000 0.000000 0.000000
0.000000 0.000000 0.000000
0.000000 0.000000 0.000000
0.003084 0.003084 0.003084
0.039062 0.039062 0.039062
0.073483 0.073483 0.073483
0.106098 0.106098 0.106098
0.136713 0.136713 0.136713
0.165189 0.165189 0.165189
0.019410 0.019410 0.019410
0.058233 0.058233 0.058233
0.096436 0.096436 0.096436
0.133686 0.133686 0.133686
0.169664 0.169664 0.169664
0.204084 0.204084 0.204084
0.236699 0.236699 0.236699
0.267314 0.267314 0.267314
0.295790 0.295790 0.295790
0.147930 0.147930 0.147930
0.186752 0.186752 0.186752
0.224956 0.224956 0.224956
0.262206 0.262206 0.262206
0.298184 0.298184 0.298184
0.332604 0.332604 0.332604
0.365219 0.365219 0.365219
0.395834 0.395834 0.395834
0.424310 0.424310 0.424310
0.273239 0.273239 0.273239
0.312062 0.312062 0.312062
0.350266 0.350266 0.350266
0.387515 0.387515 0.387515
0.423493 0.423493 0.423493
0.457914 0.457914 0.457914
0.490528 0.490528 0.490528
0.521144 0.521144 0.521144
0.549619 0.549619 0.549619
0.394272 0.394272 0.394272
0.433094 0.433094 0.433094
0.471298 0.471298 0.471298
0.508547 0.508547 0.508547
0.544525 0.544525 0.544525
0.578946 0.578946 0.578946
0.611561 0.611561 0.611561
0.642176 0.642176 0.642176
0.670652 0.670652 0.670652
0.510065 0.510065 0.510065
0.548887 0.548887 0.548887
0.587091 0.587091 0.587091
0.624341 0.624341 0.624341
0.660319 0.660319 0.660319
0.694739 0.694739 0.694739
0.727354 0.727354 0.727354
0.757969 0.757969 0.757969
0.786445 0.786445 0.786445
0.619783 0.619783 0.619783
0.658606 0.658606 0.658606
0.696809 0.696809 0.696809
0.734059 0.734059 0.734059
0.770037 0.770037 0.770037
0.804457 0.804457 0.804457
0.837072 0.837072 0.837072
0.867687 0.867687 0.867687
0.896163 0.896163 0.896163
0.722774 0.722774 0.722774
0.761597 0.761597 0.761597
0.799801 0.799801 0.799801
0.837050 0.837050 0.837050
0.873028 0.873028 0.873028
0.907449 0.907449 0.907449
0.940064 0.940064 0.940064
0.970679 0.970679 0.970679
0.999154 0.999154 0.999154
0.818569 0.818569 0.818569
0.857391 0.857391 0.857391
0.895595 0.895595 0.895595
0.932844 0.932844 0.932844
0.968822 0.968822 0.968822
1.000000 1.000000 1.000000
1.000000 1.000000 1.000000
1.000000 1.000000 1.000000
1.000000 1.000000 1.000000
0.000000 0.000000 0.000000
0.000000 0.000000 0.000000
0.000000 0.000000 0.000000
0.015303 0.015303 0.015303
0.051281 0.051281 0.051281
0.085701 0.085701 0.085701
0.118316 0.118316 0.118316
0.148931 0.148931 0.148931
0.177407 0.177407 0.177407
0.031628 0.031628 0.031628
0.070451 0.070451 0.070451
0.108655 0.108655 0.108655
0.145904 0.145904 0.145904
0.181882 0.181882 0.181882
0.216303 0.216303 0.216303
0.248918 0.248918 0.248918
0.279533 0.279533 0.279533
0.308008 0.308008 0.308008
0.160148 0.160148 0.160148
0.198971 0.198971 0.198971
0.237174 0.237174 0.237174
0.274424 0.274424 0.274424
0.310402 0.310402 0.310402
0.344823 0.344823 0.344823
0.377437 0.377437 0.377437
0.408053 0.408053 0.408053
0.436528 0.436528 0.436528
0.285458 0.285458 0.285458
0.324280 0.324280 0.324280
0.362484 0.362484 0.362484
0.399733 0.399733 0.399733
0.435711 0.435711 0.435711
0.470132 0.470132 0.470132
0.502747 0.502747 0.502747
0.533362 0.533362 0.533362
0.561838 0.561838 0.561838
0.406490 0.406490 0.406490
0.445313 0.445313 0.445313
0.483516 0.483516 0.483516
0.520766 0.520766 0.520766
0.556744 0.556744 0.556744
0.591164 0.591164 0.591164
0.623779 0.623779 0.623779
0.654394 0.654394 0.654394
0.682870 0.682870 0.682870
0.522283 0.522283 0.522283
0.561106 0.561106 0.561106
0.599310 0.599310 0.599310
0.636559 0.636559 0.636559
0.672537 0.672537 0.672537
0.706958 0.706958 0.706958
0.739572 0.739572 0.739572
0.770188 0.770188 0.770188
0.798663 0.798663 0.798663
0.632001 0.632001 0.632001
0.670824 0.670824 0.670824
0.709028 0.709028 0.709028
0.746277 0.746277 0.746277
0.782255 0.782255 0.782255
0.816676 0.816676 0.816676
0.849291 0.849291 0.849291
0.879906 0.879906 0.879906
0.908381 0.908381 0.908381
0.734993 0.734993 0.734993
0.773815 0.773815 0.773815
0.812019 0.812019 0.812019
0.849268 0.849268 0.849268
0.885247 0.885247 0.885247
0.919667 0.919667 0.919667
0.952282 0.952282 0.952282
0.982897 0.982897 0.982897
1.000000 1.000000 1.000000
0.830787 0.830787 0.830787
0.869609 0.869609 0.869609
0.907813 0.907813 0.907813
0.945063 0.945063 0.945063
0.981041 0.981041 0.981041
1.000000 1.000000 1.000000
1.000000 1.000000 1.000000
1.000000 1.000000 1.000000
1.000000 1.000000 1.000000
0.000000 0.000000 0.000000
0.000000 0.000000 0.000000
0.000000 0.000000 0.000000
0.026992 0.026992 0.026992
0.062970 0.062970 0.062970
0.097391 0.097391 0.097391
0.130005 0.130005 0.130005
0.160621 0.160621 0.160621
0.189096 0.189096 0.189096
0.043318 0.043318 0.043318
0.082140 0.082140 0.082140
0.120344 0.120344 0.120344
0.157594 0.157594 0.157594
0.193572 0.193572 0.193572
0.227992 0.227992 0.227992
0.260607 0.260607 0.260607
0.291222 0.291222 0.291222
0.319698 0.319698 0.319698
0.171838 0.171838 0.171838
0.210660 0.210660 0.210660
0.248864 0.248864 0.248864
0.286113 0.286113 0.286113
0.322091 0.322091 0.322091
0.356512 0.356512 0.356512
0.389127 0.389127 0.389127
0.419742 0.419742 0.419742
0.448218 0.448218 0.448218
0.297147 0.297147 0.297147
0.335970 0.335970 0.335970
0.374173 0.374173 0.374173
0.411423 0.411423 0.411423
0.447401 0.447401 0.447401
0.481821 0.481821 0.481821
0.514436 0.514436 0.514436
0.545051 0.545051 0.545051
0.573527 0.573527 0.573527
0.418179 0.418179 0.418179
0.457002 0.457002 0.457002
0.495206 0.495206 0.495206
0.532455 0.532455 0.532455
0.568433 0.568433 0.568433
0.602854 0.602854 0.602854
0.635469 0.635469 0.635469
0.666084 0.666084 0.666084
0.694559 0.694559 0.694559
0.533973 0.533973 0.533973
0.572795 0.572795 0.572795
0.610999 0.610999 0.610999
0.648248 0.648248 0.648248
0.684226 0.684226 0.684226
0.718647 0.718647 0.718647
0.751262 0.751262 0.751262
0.781877 0.781877 0.781877
0.810353 0.810353 0.810353
0.643691 0.643691 0.643691
0.682513 0.682513 0.682513
0.720717 0.720717 0.720717
0.757967 0.757967 0.757967
0.793945 0.793945 0.793945
0.828365 0.828365 0.828365
0.860980 0.860980 0.860980
0.891595 0.891595 0.891595
0.920071 0.920071 0.920071
0.746682 0.746682 0.746682
0.785505 0.785505 0.785505
0.823708 0.823708 0.823708
0.860958 0.860958 0.860958
0.896936 0.896936 0.896936
0.931357 0.931357 0.931357
0.963971 0.963971 0.963971
0.994587 0.994587 0.994587
1.000000 1.000000 1.000000
0.842476 0.842476 0.842476
0.881299 0.881299 0.881299
0.919503 0.919503 0.919503
0.956752 0.956752 0.956752
0.992730 0.992730 0.992730
1.000000 1.000000 1.000000
1.000000 1.000000 1.000000
1.000000 1.000000 1.000000
1.000000 1.000000 1.000000
0.000000 0.000000 0.000000
0.000000 0.000000 0.000000
0.000819 0.000819 0.000819
0.038068 0.038068 0.038068
0.074046 0.074046 0.074046
0.108467 0.108467 0.108467
0.141082 0.141082 0.141082
0.171697 0.171697 0.171697
0.200172 0.200172 0.200172
0.054394 0.054394 0.054394
0.093217 0.093217 0.093217
0.131420 0.131420 0.131420
0.168670 0.168670 0.168670
0.204648 0.204648 0.204648
0.239068 0.239068 0.239068
0.271683 0.271683 0.271683
0.302298 0.302298 0.302298
0.330774 0.330774 0.330774
0.182914 0.182914 0.182914
0.221736 0.221736 0.221736
0.259940 0.259940 0.259940
0.297189 0.297189 0.297189
0.333167 0.333167 0.333167
0.367588 0.367588 0.367588
0.400203 0.400203 0.400203
0.430818 0.430818 0.430818
0.459294 0.459294 0.459294
0.308223 0.308223 0.308223
0.347046 0.347046 0.347046
0.385249 0.385249 0.385249
0.422499 0.422499 0.422499
0.458477 0.458477 0.458477
0.492897 0.492897 0.492897
0.525512 0.525512 0.525512
0.556127 0.556127 0.556127
0.584603 0.584603 0.584603
0.429256 0.429256 0.429256
0.468078 0.468078 0.468078
0.506282 0.506282 0.506282
0.543531 0.543531 0.543531
0.579509 0.579509 0.579509
0.613930 0.613930 0.613930
0.646545 0.646545 0.646545
0.677160 0.677160 0.677160
0.705636 0.705636 0.705636
0.545049 0.545049 0.545049
0.583871 0.583871 0.583871
0.622075 0.622075 0.622075
0.659324 0.659324 0.659324
0.695302 0.695302 0.695302
0.729723 0.729723 0.729723
0.762338 0.762338 0.762338
0.792953 0.792953 0.792953
0.821429 0.821429 0.821429
0.654767 0.654767 0.654767
0.693590 0.693590 0.693590
0.731793 0.731793 0.731793
0.769043 0.769043 0.769043
0.805021 0.805021 0.805021
0.839441 0.839441 0.839441
0.872056 0.872056 0.872056
0.902671 0.902671 0.902671
0.931147 0.931147 0.931147
0.757758 0.757758 0.757758
0.796581 0.796581 0.796581
0.834785 0.834785 0.834785
0.872034 0.872034 0.872034
0.908012 0.908012 0.908012
0.942433 0.942433 0.942433
0.975047 0.975047 0.975047
1.000000 1.000000 1.000000
1.000000 1.000000 1.000000
0.853552 0.853552 0.853552
0.892375 0.892375 0.892375
0.930579 0.930579 0.930579
0.967828 0.967828 0.967828
1.000000 1.000000 1.000000
1.000000 1.000000 1.000000
1.000000 1.000000 1.000000
1.000000 1.000000 1.000000
1.000000 1.000000 1.000000
0.000000 0.000000 0.000000
0.000000 0.000000 0.000000
0.011216 0.011216 0.011216
0.048465 0.048465 0.048465
0.084443 0.084443 0.084443
0.118864 0.118864 0.118864
0.151479 0.151479 0.151479
0.182094 0.182094 0.182094
0.210570 0.210570 0.210570
0.064791 0.064791 0.064791
0.103614 0.103614 0.103614
0.141817 0.141817 0.141817
0.179067 0.179067 0.179067
0.215045 0.215045 0.215045
0.249465 0.249465 0.249465
0.282080 0.282080 0.282080
0.312695 0.312695 0.312695
0.341171 0.341171 0.341171
0.193311 0.193311 0.193311
0.232133 0.232133 0.232133
0.270337 0.270337 0.270337
0.307587 0.307587 0.307587
0.343565 0.343565 0.343565
0.377985 0.377985 0.377985
0.410600 0.410600 0.410600
0.441215 0.441215 0.441215
0.469691 0.469691 0.469691
0.318620 0.318620 0.318620
0.357443 0.357443 0.357443
0.395646 0.395646 0.395646
0.432896 0.432896 0.432896
0.468874 0.468874 0.468874
0.503295 0.503295 0.503295
0.535909 0.535909 0.535909
0.566524 0.566524 0.566524
0.595000 0.595000 0.595000
0.439653 0.439653 0.439653
0.478475 0.478475 0.478475
0.516679 0.516679 0.516679
0.553928 0.553928 0.553928
0.589906 0.589906 0.589906
0.624327 0.624327 0.624327
0.656942 0.656942 0.656942
0.687557 0.687557 0.687557
0.716033 0.716033 0.716033
0.555446 0.555446 0.555446
0.594268 0.594268 0.594268
0.632472 0.632472 0.632472
0.669722 0.669722 0.669722
0.705700 0.705700 0.705700
0.740120 0.740120 0.740120
0.772735 0.772735 0.772735
0.803350 0.803350 0.803350
0.831826 0.831826 0.831826
0.665164 0.665164 0.665164
0.703987 0.703987 0.703987
0.742190 0.742190 0.742190
0.779440 0.779440 0.779440
0.815418 0.815418 0.815418
0.849838 0.849838 0.849838
0.882453 0.882453 0.882453
0.913068 0.913068 0.913068
0.941544 0.941544 0.941544
0.768155 0.768155 0.768155
0.806978 0.806978 0.806978
0.845182 0.845182 0.845182
0.882431 0.882431 0.882431
0.918409 0.918409 0.918409
0.952830 0.952830 0.952830
0.985445 0.985445 0.985445
1.000000 1.000000 1.000000
1.000000 1.000000 1.000000
0.863950 0.863950 0.863950
0.902772 0.902772 0.902772
0.940976 0.940976 0.940976
0.978225 0.978225 0.978225
1.000000 1.000000 1.000000
1.000000 1.000000 1.000000
1.000000 1.000000 1.000000
1.000000 1.000000 1.000000
1.000000 1.000000 1.000000
0.000000 0.000000 0.000000
0.000000 0.000000 0.000000
0.020886 0.020886 0.020886
0.058136 0.058136 0.058136
0.094114 0.094114 0.094114
0.128534 0.128534 0.128534
0.161149 0.161149 0.161149
0.191764 0.191764 0.191764
0.220240 0.220240 0.220240
0.074462 0.074462 0.074462
0.113284 0.113284 0.113284
0.151488 0.151488 0.151488
0.188737 0.188737 0.188737
0.224715 0.224715 0.224715
0.259136 0.259136 0.259136
0.291751 0.291751 0.291751
0.322366 0.322366 0.322366
0.350842 0.350842 0.350842
0.202981 0.202981 0.202981
0.241804 0.241804 0.241804
0.280008 0.280008 0.280008
0.317257 0.317257 0.317257
0.353235 0.353235 0.353235
0.387656 0.387656 0.387656
0.420270 0.420270 0.420270
0.450886 0.450886 0.450886
0.479361 0.479361 0.479361
0.328291 0.328291 0.328291
0.367113 0.367113 0.367113
0.405317 0.405317 0.405317
0.442566 0.442566 0.442566
0.478544 0.478544 0.478544
0.512965 0.512965 0.512965
0.545580 0.545580 0.545580
0.576195 0.576195 0.576195
0.604671 0.604671 0.604671
0.449323 0.449323 0.449323
0.488146 0.488146 0.488146
0.526349 0.526349 0.526349
0.563599 0.563599 0.563599
0.599577 0.599577 0.599577
0.633997 0.633997 0.633997
0.666612 0.666612 0.666612
0.697227 0.697227 0.697227
0.725703 0.725703 0.725703
0.565116 0.565116 0.565116
0.603939 0.603939 0.603939
0.642143 0.642143 0.642143
0.679392 0.679392 0.679392
0.715370 0.715370 0.715370
0.749791 0.749791 0.749791
0.782405 0.782405 0.782405
0.813021 0.813021 0.813021
0.841496 0.841496 0.841496
0.674835 0.674835 0.674835
0.713657 0.713657 0.713657
0.751861 0.751861 0.751861
0.789110 0.789110 0.789110
0.825088 0.825088 0.825088
0.859509 0.859509 0.859509
0.892124 0.892124 0.892124
0.922739 0.922739 0.922739
0.951215 0.951215 0.951215
0.777826 0.777826 0.777826
0.816648 0.816648 0.816648
0.854852 0.854852 0.854852
0.892102 0.892102 0.892102
0.928080 0.928080 0.928080
0.962500 0.962500 0.962500
0.995115 0.995115 0.995115
1.000000 1.000000 1.000000
1.000000 1.000000 1.000000
0.873620 0.873620 0.873620
0.912443 0.912443 0.912443
0.950646 0.950646 0.950646
0.987896 0.987896 0.987896
1.000000 1.000000 1.000000
1.000000 1.000000 1.000000
1.000000 1.000000 1.000000
1.000000 1.000000 1.000000
1.000000 1.000000 1.000000
