luts/kentmere.cube
TITLE "kentmere"
LUT_3D_SIZE 5
DOMAIN_MIN 0.0 0.0 0.0
DOMAIN_MAX 1.0 1.0 1.0
0.000000 0.000000 0.000000
0.000000 0.000000 0.000000
0.080000 0.080000 0.080000
0.170000 0.170000 0.170000
0.260000 0.260000 0.260000
0.077000 0.077000 0.077000
0.167000 0.167000 0.167000
0.257000 0.257000 0.257000
0.347000 0.347000 0.347000
0.437000 0.437000 0.437000
0.254000 0.254000 0.254000
0.344000 0.344000 0.344000
0.434000 0.434000 0.434000
0.524000 0.524000 0.524000
0.614000 0.614000 0.614000
0.431000 0.431000 0.431000
0.521000 0.521000 0.521000
0.611000 0.611000 0.611000
0.701000 0.701000 0.701000
0.791000 0.791000 0.791000
0.608000 0.608000 0.608000
0.698000 0.698000 0.698000
0.788000 0.788000 0.788000
0.878000 0.878000 0.878000
0.968000 0.968000 0.968000
0.000000 0.000000 0.000000
0.023000 0.023000 0.023000
0.113000 0.113000 0.113000
0.203000 0.203000 0.203000
0.293000 0.293000 0.293000
0.110000 0.110000 0.110000
0.200000 0.200000 0.200000
0.290000 0.290000 0.290000
0.380000 0.380000 0.380000
0.470000 0.470000 0.470000
0.287000 0.287000 0.287000
0.377000 0.377000 0.377000
0.467000 0.467000 0.467000
0.557000 0.557000 0.557000
0.647000 0.647000 0.647000
0.464000 0.464000 0.464000
0.554000 0.554000 0.554000
0.644000 0.644000 0.644000
0.734000 0.734000 0.734000
0.824000 0.824000 0.824000
0.641000 0.641000 0.641000
0.731000 0.731000 0.731000
0.821000 0.821000 0.821000
0.911000 0.911000 0.911000
1.000000 1.000000 1.000000
0.000000 0.000000 0.000000
0.056000 0.056000 0.056000
0.146000 0.146000 0.146000
0.236000 0.236000 0.236000
0.326000 0.326000 0.326000
0.143000 0.143000 0.143000
0.233000 0.233000 0.233000
0.323000 0.323000 0.323000
0.413000 0.413000 0.413000
0.503000 0.503000 0.503000
0.320000 0.320000 0.320000
0.410000 0.410000 0.410000
0.500000 0.500000 0.500000
0.590000 0.590000 0.590000
0.680000 0.680000 0.680000
0.497000 0.497000 0.497000
0.587000 0.587000 0.587000
0.677000 0.677000 0.677000
0.767000 0.767000 0.767000
0.857000 0.857000 0.857000
0.674000 0.674000 0.674000
0.764000 0.764000 0.764000
0.854000 0.854000 0.854000
0.944000 0.944000 0.944000
1.000000 1.000000 1.000000
0.000000 0.000000 0.000000
0.089000 0.089000 0.089000
0.179000 0.179000 0.179000
0.269000 0.269000 0.269000
0.359000 0.359000 0.359000
0.176000 0.176000 0.176000
0.266000 0.266000 0.266000
0.356000 0.356000 0.356000
0.446000 0.446000 0.446000
0.536000 0.536000 0.536000
0.353000 0.353000 0.353000
0.443000 0.443000 0.443000
0.533000 0.533000 0.533000
0.623000 0.623000 0.623000
0.713000 0.713000 0.713000
0.530000 0.530000 0.530000
0.620000 0.620000 0.620000
0.710000 0.710000 0.710000
0.800000 0.800000 0.800000
0.890000 0.890000 0.890000
0.707000 0.707000 0.707000
0.797000 0.797000 0.797000
0.887000 0.887000 0.887000
0.977000 0.977000 0.977000
1.000000 1.000000 1.000000
0.032000 0.032000 0.032000
0.122000 0.122000 0.122000
0.212000 0.212000 0.212000
0.302000 0.302000 0.302000
0.392000 0.392000 0.392000
0.209000 0.209000 0.209000
0.299000 0.299000 0.299000
0.389000 0.389000 0.389000
0.479000 0.479000 0.479000
0.569000 0.569000 0.569000
0.386000 0.386000 0.386000
0.476000 0.476000 0.476000
0.566000 0.566000 0.566000
0.656000 0.656000 0.656000
0.746000 0.746000 0.746000
0.563000 0.563000 0.563000
0.653000 0.653000 0.653000
0.743000 0.743000 0.743000
0.833000 0.833000 0.833000
0.923000 0.923000 0.923000
0.740000 0.740000 0.740000
0.830000 0.830000 0.830000
0.920000 0.920000 0.920000
1.000000 1.000000 1.000000
1.000000 1.000000 1.000000
