luts/kentmere.cube
TITLE "kentmere"
LUT_3D_SIZE 9
DOMAIN_MIN 0.0 0.0 0.0
DOMAIN_MAX 1.0 1.0 1.0
0.000000 0.000000 0.000000
0.000000 0.000000 0.000000
0.000000 0.000000 0.000000
0.035000 0.035000 0.035000
0.080000 0.080000 0.080000
0.125000 0.125000 0.125000
0.170000 0.170000 0.170000
0.215000 0.215000 0.215000
0.260000 0.260000 0.260000
0.000000 0.000000 0.000000
0.033500 0.033500 0.033500
0.078500 0.078500 0.078500
0.123500 0.123500 0.123500
0.168500 0.168500 0.168500
0.213500 0.213500 0.213500
0.258500 0.258500 0.258500
0.303500 0.303500 0.303500
0.348500 0.348500 0.348500
0.077000 0.077000 0.077000
0.122000 0.122000 0.122000
0.167000 0.167000 0.167000
0.212000 0.212000 0.212000
0.257000 0.257000 0.257000
0.302000 0.302000 0.302000
0.347000 0.347000 0.347000
0.392000 0.392000 0.392000
0.437000 0.437000 0.437000
0.165500 0.165500 0.165500
0.210500 0.210500 0.210500
0.255500 0.255500 0.255500
0.300500 0.300500 0.300500
0.345500 0.345500 0.345500
0.390500 0.390500 0.390500
0.435500 0.435500 0.435500
0.480500 0.480500 0.480500
0.525500 0.525500 0.525500
0.254000 0.254000 0.254000
0.299000 0.299000 0.299000
0.344000 0.344000 0.344000
0.389000 0.389000 0.389000
0.434000 0.434000 0.434000
0.479000 0.479000 0.479000
0.524000 0.524000 0.524000
0.569000 0.569000 0.569000
0.614000 0.614000 0.614000
0.342500 0.342500 0.342500
0.387500 0.387500 0.387500
0.432500 0.432500 0.432500
0.477500 0.477500 0.477500
0.522500 0.522500 0.522500
0.567500 0.567500 0.567500
0.612500 0.612500 0.612500
0.657500 0.657500 0.657500
0.702500 0.702500 0.702500
0.431000 0.431000 0.431000
0.476000 0.476000 0.476000
0.521000 0.521000 0.521000
0.566000 0.566000 0.566000
0.611000 0.611000 0.611000
0.656000 0.656000 0.656000
0.701000 0.701000 0.701000
0.746000 0.746000 0.746000
0.791000 0.791000 0.791000
0.519500 0.519500 0.519500
0.564500 0.564500 0.564500
0.609500 0.609500 0.609500
0.654500 0.654500 0.654500
0.699500 0.699500 0.699500
0.744500 0.744500 0.744500
0.789500 0.789500 0.789500
0.834500 0.834500 0.834500
0.879500 0.879500 0.879500
0.608000 0.608000 0.608000
0.653000 0.653000 0.653000
0.698000 0.698000 0.698000
0.743000 0.743000 0.743000
0.788000 0.788000 0.788000
0.833000 0.833000 0.833000
0.878000 0.878000 0.878000
0.923000 0.923000 0.923000
0.968000 0.968000 0.968000
0.000000 0.000000 0.000000
0.000000 0.000000 0.000000
0.006500 0.006500 0.006500
0.051500 0.051500 0.051500
0.096500 0.096500 0.096500
0.141500 0.141500 0.141500
0.186500 0.186500 0.186500
0.231500 0.231500 0.231500
0.276500 0.276500 0.276500
0.005000 0.005000 0.005000
0.050000 0.050000 0.050000
0.095000 0.095000 0.095000
0.140000 0.140000 0.140000
0.185000 0.185000 0.185000
0.230000 0.230000 0.230000
0.275000 0.275000 0.275000
0.320000 0.320000 0.320000
0.365000 0.365000 0.365000
0.093500 0.093500 0.093500
0.138500 0.138500 0.138500
0.183500 0.183500 0.183500
0.228500 0.228500 0.228500
0.273500 0.273500 0.273500
0.318500 0.318500 0.318500
0.363500 0.363500 0.363500
0.408500 0.408500 0.408500
0.453500 0.453500 0.453500
0.182000 0.182000 0.182000
0.227000 0.227000 0.227000
0.272000 0.272000 0.272000
0.317000 0.317000 0.317000
0.362000 0.362000 0.362000
0.407000 0.407000 0.407000
0.452000 0.452000 0.452000
0.497000 0.497000 0.497000
0.542000 0.542000 0.542000
0.270500 0.270500 0.270500
0.315500 0.315500 0.315500
0.360500 0.360500 0.360500
0.405500 0.405500 0.405500
0.450500 0.450500 0.450500
0.495500 0.495500 0.495500
0.540500 0.540500 0.540500
0.585500 0.585500 0.585500
0.630500 0.630500 0.630500
0.359000 0.359000 0.359000
0.404000 0.404000 0.404000
0.449000 0.449000 0.449000
0.494000 0.494000 0.494000
0.539000 0.539000 0.539000
0.584000 0.584000 0.584000
0.629000 0.629000 0.629000
0.674000 0.674000 0.674000
0.719000 0.719000 0.719000
0.447500 0.447500 0.447500
0.492500 0.492500 0.492500
0.537500 0.537500 0.537500
0.582500 0.582500 0.582500
0.627500 0.627500 0.627500
0.672500 0.672500 0.672500
0.717500 0.717500 0.717500
0.762500 0.762500 0.762500
0.807500 0.807500 0.807500
0.536000 0.536000 0.536000
0.581000 0.581000 0.581000
0.626000 0.626000 0.626000
0.671000 0.671000 0.671000
0.716000 0.716000 0.716000
0.761000 0.761000 0.761000
0.806000 0.806000 0.806000
0.851000 0.851000 0.851000
0.896000 0.896000 0.896000
0.624500 0.624500 0.624500
0.669500 0.669500 0.669500
0.714500 0.714500 0.714500
0.759500 0.759500 0.759500
0.804500 0.804500 0.804500
0.849500 0.849500 0.849500
0.894500 0.894500 0.894500
0.939500 0.939500 0.939500
0.984500 0.984500 0.984500
0.000000 0.000000 0.000000
0.000000 0.000000 0.000000
0.023000 0.023000 0.023000
0.068000 0.068000 0.068000
0.113000 0.113000 0.113000
0.158000 0.158000 0.158000
0.203000 0.203000 0.203000
0.248000 0.248000 0.248000
0.293000 0.293000 0.293000
0.021500 0.021500 0.021500
0.066500 0.066500 0.066500
0.111500 0.111500 0.111500
0.156500 0.156500 0.156500
0.201500 0.201500 0.201500
0.246500 0.246500 0.246500
0.291500 0.291500 0.291500
0.336500 0.336500 0.336500
0.381500 0.381500 0.381500
0.110000 0.110000 0.110000
0.155000 0.155000 0.155000
0.200000 0.200000 0.200000
0.245000 0.245000 0.245000
0.290000 0.290000 0.290000
0.335000 0.335000 0.335000
0.380000 0.380000 0.380000
0.425000 0.425000 0.425000
0.470000 0.470000 0.470000
0.198500 0.198500 0.198500
0.243500 0.243500 0.243500
0.288500 0.288500 0.288500
0.333500 0.333500 0.333500
0.378500 0.378500 0.378500
0.423500 0.423500 0.423500
0.468500 0.468500 0.468500
0.513500 0.513500 0.513500
0.558500 0.558500 0.558500
0.287000 0.287000 0.287000
0.332000 0.332000 0.332000
0.377000 0.377000 0.377000
0.422000 0.422000 0.422000
0.467000 0.467000 0.467000
0.512000 0.512000 0.512000
0.557000 0.557000 0.557000
0.602000 0.602000 0.602000
0.647000 0.647000 0.647000
0.375500 0.375500 0.375500
0.420500 0.420500 0.420500
0.465500 0.465500 0.465500
0.510500 0.510500 0.510500
0.555500 0.555500 0.555500
0.600500 0.600500 0.600500
0.645500 0.645500 0.645500
0.690500 0.690500 0.690500
0.735500 0.735500 0.735500
0.464000 0.464000 0.464000
0.509000 0.509000 0.509000
0.554000 0.554000 0.554000
0.599000 0.599000 0.599000
0.644000 0.644000 0.644000
0.689000 0.689000 0.689000
0.734000 0.734000 0.734000
0.779000 0.779000 0.779000
0.824000 0.824000 0.824000
0.552500 0.552500 0.552500
0.597500 0.597500 0.597500
0.642500 0.642500 0.642500
0.687500 0.687500 0.687500
0.732500 0.732500 0.732500
0.777500 0.777500 0.777500
0.822500 0.822500 0.822500
0.867500 0.867500 0.867500
0.912500 0.912500 0.912500
0.641000 0.641000 0.641000
0.686000 0.686000 0.686000
0.731000 0.731000 0.731000
0.776000 0.776000 0.776000
0.821000 0.821000 0.821000
0.866000 0.866000 0.866000
0.911000 0.911000 0.911000
0.956000 0.956000 0.956000
1.000000 1.000000 1.000000
0.000000 0.000000 0.000000
0.000000 0.000000 0.000000
0.039500 0.039500 0.039500
0.084500 0.084500 0.084500
0.129500 0.129500 0.129500
0.174500 0.174500 0.174500
0.219500 0.219500 0.219500
0.264500 0.264500 0.264500
0.309500 0.309500 0.309500
0.038000 0.038000 0.038000
0.083000 0.083000 0.083000
0.128000 0.128000 0.128000
0.173000 0.173000 0.173000
0.218000 0.218000 0.218000
0.263000 0.263000 0.263000
0.308000 0.308000 0.308000
0.353000 0.353000 0.353000
0.398000 0.398000 0.398000
0.126500 0.126500 0.126500
0.171500 0.171500 0.171500
0.216500 0.216500 0.216500
0.261500 0.261500 0.261500
0.306500 0.306500 0.306500
0.351500 0.351500 0.351500
0.396500 0.396500 0.396500
0.441500 0.441500 0.441500
0.486500 0.486500 0.486500
0.215000 0.215000 0.215000
0.260000 0.260000 0.260000
0.305000 0.305000 0.305000
0.350000 0.350000 0.350000
0.395000 0.395000 0.395000
0.440000 0.440000 0.440000
0.485000 0.485000 0.485000
0.530000 0.530000 0.530000
0.575000 0.575000 0.575000
0.303500 0.303500 0.303500
0.348500 0.348500 0.348500
0.393500 0.393500 0.393500
0.438500 0.438500 0.438500
0.483500 0.483500 0.483500
0.528500 0.528500 0.528500
0.573500 0.573500 0.573500
0.618500 0.618500 0.618500
0.663500 0.663500 0.663500
0.392000 0.392000 0.392000
0.437000 0.437000 0.437000
0.482000 0.482000 0.482000
0.527000 0.527000 0.527000
0.572000 0.572000 0.572000
0.617000 0.617000 0.617000
0.662000 0.662000 0.662000
0.707000 0.707000 0.707000
0.752000 0.752000 0.752000
0.480500 0.480500 0.480500
0.525500 0.525500 0.525500
0.570500 0.570500 0.570500
0.615500 0.615500 0.615500
0.660500 0.660500 0.660500
0.705500 0.705500 0.705500
0.750500 0.750500 0.750500
0.795500 0.795500 0.795500
0.840500 0.840500 0.840500
0.569000 0.569000 0.569000
0.614000 0.614000 0.614000
0.659000 0.659000 0.659000
0.704000 0.704000 0.704000
0.749000 0.749000 0.749000
0.794000 0.794000 0.794000
0.839000 0.839000 0.839000
0.884000 0.884000 0.884000
0.929000 0.929000 0.929000
0.657500 0.657500 0.657500
0.702500 0.702500 0.702500
0.747500 0.747500 0.747500
0.792500 0.792500 0.792500
0.837500 0.837500 0.837500
0.882500 0.882500 0.882500
0.927500 0.927500 0.927500
0.972500 0.972500 0.972500
1.000000 1.000000 1.000000
0.000000 0.000000 0.000000
0.011000 0.011000 0.011000
0.056000 0.056000 0.056000
0.101000 0.101000 0.101000
0.146000 0.146000 0.146000
0.191000 0.191000 0.191000
0.236000 0.236000 0.236000
0.281000 0.281000 0.281000
0.326000 0.326000 0.326000
0.054500 0.054500 0.054500
0.099500 0.099500 0.099500
0.144500 0.144500 0.144500
0.189500 0.189500 0.189500
0.234500 0.234500 0.234500
0.279500 0.279500 0.279500
0.324500 0.324500 0.324500
0.369500 0.369500 0.369500
0.414500 0.414500 0.414500
0.143000 0.143000 0.143000
0.188000 0.188000 0.188000
0.233000 0.233000 0.233000
0.278000 0.278000 0.278000
0.323000 0.323000 0.323000
0.368000 0.368000 0.368000
0.413000 0.413000 0.413000
0.458000 0.458000 0.458000
0.503000 0.503000 0.503000
0.231500 0.231500 0.231500
0.276500 0.276500 0.276500
0.321500 0.321500 0.321500
0.366500 0.366500 0.366500
0.411500 0.411500 0.411500
0.456500 0.456500 0.456500
0.501500 0.501500 0.501500
0.546500 0.546500 0.546500
0.591500 0.591500 0.591500
0.320000 0.320000 0.320000
0.365000 0.365000 0.365000
0.410000 0.410000 0.410000
0.455000 0.455000 0.455000
0.500000 0.500000 0.500000
0.545000 0.545000 0.545000
0.590000 0.590000 0.590000
0.635000 0.635000 0.635000
0.680000 0.680000 0.680000
0.408500 0.408500 0.408500
0.453500 0.453500 0.453500
0.498500 0.498500 0.498500
0.543500 0.543500 0.543500
0.588500 0.588500 0.588500
0.633500 0.633500 0.633500
0.678500 0.678500 0.678500
0.723500 0.723500 0.723500
0.768500 0.768500 0.768500
0.497000 0.497000 0.497000
0.542000 0.542000 0.542000
0.587000 0.587000 0.587000
0.632000 0.632000 0.632000
0.677000 0.677000 0.677000
0.722000 0.722000 0.722000
0.767000 0.767000 0.767000
0.812000 0.812000 0.812000
0.857000 0.857000 0.857000
0.585500 0.585500 0.585500
0.630500 0.630500 0.630500
0.675500 0.675500 0.675500
0.720500 0.720500 0.720500
0.765500 0.765500 0.765500
0.810500 0.810500 0.810500
0.855500 0.855500 0.855500
0.900500 0.900500 0.900500
0.945500 0.945500 0.945500
0.674000 0.674000 0.674000
0.719000 0.719000 0.719000
0.764000 0.764000 0.764000
0.809000 0.809000 0.809000
0.854000 0.854000 0.854000
0.899000 0.899000 0.899000
0.944000 0.944000 0.944000
0.989000 0.989000 0.989000
1.000000 1.000000 1.000000
0.000000 0.000000 0.000000
0.027500 0.027500 0.027500
0.072500 0.072500 0.072500
0.117500 0.117500 0.117500
0.162500 0.162500 0.162500
0.207500 0.207500 0.207500
0.252500 0.252500 0.252500
0.297500 0.297500 0.297500
0.342500 0.342500 0.342500
0.071000 0.071000 0.071000
0.116000 0.116000 0.116000
0.161000 0.161000 0.161000
0.206000 0.206000 0.206000
0.251000 0.251000 0.251000
0.296000 0.296000 0.296000
0.341000 0.341000 0.341000
0.386000 0.386000 0.386000
0.431000 0.431000 0.431000
0.159500 0.159500 0.159500
0.204500 0.204500 0.204500
0.249500 0.249500 0.249500
0.294500 0.294500 0.294500
0.339500 0.339500 0.339500
0.384500 0.384500 0.384500
0.429500 0.429500 0.429500
0.474500 0.474500 0.474500
0.519500 0.519500 0.519500
0.248000 0.248000 0.248000
0.293000 0.293000 0.293000
0.338000 0.338000 0.338000
0.383000 0.383000 0.383000
0.428000 0.428000 0.428000
0.473000 0.473000 0.473000
0.518000 0.518000 0.518000
0.563000 0.563000 0.563000
0.608000 0.608000 0.608000
0.336500 0.336500 0.336500
0.381500 0.381500 0.381500
0.426500 0.426500 0.426500
0.471500 0.471500 0.471500
0.516500 0.516500 0.516500
0.561500 0.561500 0.561500
0.606500 0.606500 0.606500
0.651500 0.651500 0.651500
0.696500 0.696500 0.696500
0.425000 0.425000 0.425000
0.470000 0.470000 0.470000
0.515000 0.515000 0.515000
0.560000 0.560000 0.560000
0.605000 0.605000 0.605000
0.650000 0.650000 0.650000
0.695000 0.695000 0.695000
0.740000 0.740000 0.740000
0.785000 0.785000 0.785000
0.513500 0.513500 0.513500
0.558500 0.558500 0.558500
0.603500 0.603500 0.603500
0.648500 0.648500 0.648500
0.693500 0.693500 0.693500
0.738500 0.738500 0.738500
0.783500 0.783500 0.783500
0.828500 0.828500 0.828500
0.873500 0.873500 0.873500
0.602000 0.602000 0.602000
0.647000 0.647000 0.647000
0.692000 0.692000 0.692000
0.737000 0.737000 0.737000
0.782000 0.782000 0.782000
0.827000 0.827000 0.827000
0.872000 0.872000 0.872000
0.917000 0.917000 0.917000
0.962000 0.962000 0.962000
0.690500 0.690500 0.690500
0.735500 0.735500 0.735500
0.780500 0.780500 0.780500
0.825500 0.825500 0.825500
0.870500 0.870500 0.870500
0.915500 0.915500 0.915500
0.960500 0.960500 0.960500
1.000000 1.000000 1.000000
1.000000 1.000000 1.000000
0.000000 0.000000 0.000000
0.044000 0.044000 0.044000
0.089000 0.089000 0.089000
0.134000 0.134000 0.134000
0.179000 0.179000 0.179000
0.224000 0.224000 0.224000
0.269000 0.269000 0.269000
0.314000 0.314000 0.314000
0.359000 0.359000 0.359000
0.087500 0.087500 0.087500
0.132500 0.132500 0.132500
0.177500 0.177500 0.177500
0.222500 0.222500 0.222500
0.267500 0.267500 0.267500
0.312500 0.312500 0.312500
0.357500 0.357500 0.357500
0.402500 0.402500 0.402500
0.447500 0.447500 0.447500
0.176000 0.176000 0.176000
0.221000 0.221000 0.221000
0.266000 0.266000 0.266000
0.311000 0.311000 0.311000
0.356000 0.356000 0.356000
0.401000 0.401000 0.401000
0.446000 0.446000 0.446000
0.491000 0.491000 0.491000
0.536000 0.536000 0.536000
0.264500 0.264500 0.264500
0.309500 0.309500 0.309500
0.354500 0.354500 0.354500
0.399500 0.399500 0.399500
0.444500 0.444500 0.444500
0.489500 0.489500 0.489500
0.534500 0.534500 0.534500
0.579500 0.579500 0.579500
0.624500 0.624500 0.624500
0.353000 0.353000 0.353000
0.398000 0.398000 0.398000
0.443000 0.443000 0.443000
0.488000 0.488000 0.488000
0.533000 0.533000 0.533000
0.578000 0.578000 0.578000
0.623000 0.623000 0.623000
0.668000 0.668000 0.668000
0.713000 0.713000 0.713000
0.441500 0.441500 0.441500
0.486500 0.486500 0.486500
0.531500 0.531500 0.531500
0.576500 0.576500 0.576500
0.621500 0.621500 0.621500
0.666500 0.666500 0.666500
0.711500 0.711500 0.711500
0.756500 0.756500 0.756500
0.801500 0.801500 0.801500
0.530000 0.530000 0.530000
0.575000 0.575000 0.575000
0.620000 0.620000 0.620000
0.665000 0.665000 0.665000
0.710000 0.710000 0.710000
0.755000 0.755000 0.755000
0.800000 0.800000 0.800000
0.845000 0.845000 0.845000
0.890000 0.890000 0.890000
0.618500 0.618500 0.618500
0.663500 0.663500 0.663500
0.708500 0.708500 0.708500
0.753500 0.753500 0.753500
0.798500 0.798500 0.798500
0.843500 0.843500 0.843500
0.888500 0.888500 0.888500
0.933500 0.933500 0.933500
0.978500 0.978500 0.978500
0.707000 0.707000 0.707000
0.752000 0.752000 0.752000
0.797000 0.797000 0.797000
0.842000 0.842000 0.842000
0.887000 0.887000 0.887000
0.932000 0.932000 0.932000
0.977000 0.977000 0.977000
1.000000 1.000000 1.000000
1.000000 1.000000 1.000000
0.015500 0.015500 0.015500
0.060500 0.060500 0.060500
0.105500 0.105500 0.105500
0.150500 0.150500 0.150500
0.195500 0.195500 0.195500
0.240500 0.240500 0.240500
0.285500 0.285500 0.285500
0.330500 0.330500 0.330500
0.375500 0.375500 0.375500
0.104000 0.104000 0.104000
0.149000 0.149000 0.149000
0.194000 0.194000 0.194000
0.239000 0.239000 0.239000
0.284000 0.284000 0.284000
0.329000 0.329000 0.329000
0.374000 0.374000 0.374000
0.419000 0.419000 0.419000
0.464000 0.464000 0.464000
0.192500 0.192500 0.192500
0.237500 0.237500 0.237500
0.282500 0.282500 0.282500
0.327500 0.327500 0.327500
0.372500 0.372500 0.372500
0.417500 0.417500 0.417500
0.462500 0.462500 0.462500
0.507500 0.507500 0.507500
0.552500 0.552500 0.552500
0.281000 0.281000 0.281000
0.326000 0.326000 0.326000
0.371000 0.371000 0.371000
0.416000 0.416000 0.416000
0.461000 0.461000 0.461000
0.506000 0.506000 0.506000
0.551000 0.551000 0.551000
0.596000 0.596000 0.596000
0.641000 0.641000 0.641000
0.369500 0.369500 0.369500
0.414500 0.414500 0.414500
0.459500 0.459500 0.459500
0.504500 0.504500 0.504500
0.549500 0.549500 0.549500
0.594500 0.594500 0.594500
0.639500 0.639500 0.639500
0.684500 0.684500 0.684500
0.729500 0.729500 0.729500
0.458000 0.458000 0.458000
0.503000 0.503000 0.503000
0.548000 0.548000 0.548000
0.593000 0.593000 0.593000
0.638000 0.638000 0.638000
0.683000 0.683000 0.683000
0.728000 0.728000 0.728000
0.773000 0.773000 0.773000
0.818000 0.818000 0.818000
0.546500 0.546500 0.546500
0.591500 0.591500 0.591500
0.636500 0.636500 0.636500
0.681500 0.681500 0.681500
0.726500 0.726500 0.726500
0.771500 0.771500 0.771500
0.816500 0.816500 0.816500
0.861500 0.861500 0.861500
0.906500 0.906500 0.906500
0.635000 0.635000 0.635000
0.680000 0.680000 0.680000
0.725000 0.725000 0.725000
0.770000 0.770000 0.770000
0.815000 0.815000 0.815000
0.860000 0.860000 0.860000
0.905000 0.905000 0.905000
0.950000 0.950000 0.950000
0.995000 0.995000 0.995000
0.723500 0.723500 0.723500
0.768500 0.768500 0.768500
0.813500 0.813500 0.813500
0.858500 0.858500 0.858500
0.903500 0.903500 0.903500
0.948500 0.948500 0.948500
0.993500 0.993500 0.993500
1.000000 1.000000 1.000000
1.000000 1.000000 1.000000
0.032000 0.032000 0.032000
0.077000 0.077000 0.077000
0.122000 0.122000 0.122000
0.167000 0.167000 0.167000
0.212000 0.212000 0.212000
0.257000 0.257000 0.257000
0.302000 0.302000 0.302000
0.347000 0.347000 0.347000
0.392000 0.392000 0.392000
0.120500 0.120500 0.120500
0.165500 0.165500 0.165500
0.210500 0.210500 0.210500
0.255500 0.255500 0.255500
0.300500 0.300500 0.300500
0.345500 0.345500 0.345500
0.390500 0.390500 0.390500
0.435500 0.435500 0.435500
0.480500 0.480500 0.480500
0.209000 0.209000 0.209000
0.254000 0.254000 0.254000
0.299000 0.299000 0.299000
0.344000 0.344000 0.344000
0.389000 0.389000 0.389000
0.434000 0.434000 0.434000
0.479000 0.479000 0.479000
0.524000 0.524000 0.524000
0.569000 0.569000 0.569000
0.297500 0.297500 0.297500
0.342500 0.342500 0.342500
0.387500 0.387500 0.387500
0.432500 0.432500 0.432500
0.477500 0.477500 0.477500
0.522500 0.522500 0.522500
0.567500 0.567500 0.567500
0.612500 0.612500 0.612500
0.657500 0.657500 0.657500
0.386000 0.386000 0.386000
0.431000 0.431000 0.431000
0.476000 0.476000 0.476000
0.521000 0.521000 0.521000
0.566000 0.566000 0.566000
0.611000 0.611000 0.611000
0.656000 0.656000 0.656000
0.701000 0.701000 0.701000
0.746000 0.746000 0.746000
0.474500 0.474500 0.474500
0.519500 0.519500 0.519500
0.564500 0.564500 0.564500
0.609500 0.609500 0.609500
0.654500 0.654500 0.654500
0.699500 0.699500 0.699500
0.744500 0.744500 0.744500
0.789500 0.789500 0.789500
0.834500 0.834500 0.834500
0.563000 0.563000 0.563000
0.608000 0.608000 0.608000
0.653000 0.653000 0.653000
0.698000 0.698000 0.698000
0.743000 0.743000 0.743000
0.788000 0.788000 0.788000
0.833000 0.833000 0.833000
0.878000 0.878000 0.878000
0.923000 0.923000 0.923000
0.651500 0.651500 0.651500
0.696500 0.696500 0.696500
0.741500 0.741500 0.741500
0.786500 0.786500 0.786500
0.831500 0.831500 0.831500
0.876500 0.876500 0.876500
0.921500 0.921500 0.921500
0.966500 0.966500 0.966500
1.000000 1.000000 1.000000
0.740000 0.740000 0.740000
0.785000 0.785000 0.785000
0.830000 0.830000 0.830000
0.875000 0.875000 0.875000
0.920000 0.920000 0.920000
0.965000 0.965000 0.965000
1.000000 1.000000 1.000000
1.000000 1.000000 1.000000
1.000000 1.000000 1.000000
