luts/kentmere.cube
TITLE "kentmere"
LUT_3D_SIZE 33
DOMAIN_MIN 0.0 0.0 0.0
DOMAIN_MAX 1.0 1.0 1.0
0.000000 0.000000 0.000000
0.000000 0.000000 0.000000
0.000000 0.000000 0.000000
0.000000 0.000000 0.000000
0.000000 0.000000 0.000000
0.000000 0.000000 0.000000
0.000000 0.000000 0.000000
0.000000 0.000000 0.000000
0.000000 0.000000 0.000000
0.001250 0.001250 0.001250
0.012500 0.012500 0.012500
0.023750 0.023750 0.023750
0.035000 0.035000 0.035000
0.046250 0.046250 0.046250
0.057500 0.057500 0.057500
0.068750 0.068750 0.068750
0.080000 0.080000 0.080000
0.091250 0.091250 0.091250
0.102500 0.102500 0.102500
0.113750 0.113750 0.113750
0.125000 0.125000 0.125000
0.136250 0.136250 0.136250
0.147500 0.147500 0.147500
0.158750 0.158750 0.158750
0.170000 0.170000 0.170000
0.181250 0.181250 0.181250
0.192500 0.192500 0.192500
0.203750 0.203750 0.203750
0.215000 0.215000 0.215000
0.226250 0.226250 0.226250
0.237500 0.237500 0.237500
0.248750 0.248750 0.248750
0.260000 0.260000 0.260000
0.000000 0.000000 0.000000
0.000000 0.000000 0.000000
0.000000 0.000000 0.000000
0.000000 0.000000 0.000000
0.000000 0.000000 0.000000
0.000000 0.000000 0.000000
0.000000 0.000000 0.000000
0.000875 0.000875 0.000875
0.012125 0.012125 0.012125
0.023375 0.023375 0.023375
0.034625 0.034625 0.034625
0.045875 0.045875 0.045875
0.057125 0.057125 0.057125
0.068375 0.068375 0.068375
0.079625 0.079625 0.079625
0.090875 0.090875 0.090875
0.102125 0.102125 0.102125
0.113375 0.113375 0.113375
0.124625 0.124625 0.124625
0.135875 0.135875 0.135875
0.147125 0.147125 0.147125
0.158375 0.158375 0.158375
0.169625 0.169625 0.169625
0.180875 0.180875 0.180875
0.192125 0.192125 0.192125
0.203375 0.203375 0.203375
0.214625 0.214625 0.214625
0.225875 0.225875 0.225875
0.237125 0.237125 0.237125
0.248375 0.248375 0.248375
0.259625 0.259625 0.259625
0.270875 0.270875 0.270875
0.282125 0.282125 0.282125
0.000000 0.000000 0.000000
0.000000 0.000000 0.000000
0.000000 0.000000 0.000000
0.000000 0.000000 0.000000
0.000000 0.000000 0.000000
0.000500 0.000500 0.000500
0.011750 0.011750 0.011750
0.023000 0.023000 0.023000
0.034250 0.034250 0.034250
0.045500 0.045500 0.045500
0.056750 0.056750 0.056750
0.068000 0.068000 0.068000
0.079250 0.079250 0.079250
0.090500 0.090500 0.090500
0.101750 0.101750 0.101750
0.113000 0.113000 0.113000
0.124250 0.124250 0.124250
0.135500 0.135500 0.135500
0.146750 0.146750 0.146750
0.158000 0.158000 0.158000
0.169250 0.169250 0.169250
0.180500 0.180500 0.180500
0.191750 0.191750 0.191750
0.203000 0.203000 0.203000
0.214250 0.214250 0.214250
0.225500 0.225500 0.225500
0.236750 0.236750 0.236750
0.248000 0.248000 0.248000
0.259250 0.259250 0.259250
0.270500 0.270500 0.270500
0.281750 0.281750 0.281750
0.293000 0.293000 0.293000
0.304250 0.304250 0.304250
0.000000 0.000000 0.000000
0.000000 0.000000 0.000000
0.000000 0.000000 0.000000
0.000125 0.000125 0.000125
0.011375 0.011375 0.011375
0.022625 0.022625 0.022625
0.033875 0.033875 0.033875
0.045125 0.045125 0.045125
0.056375 0.056375 0.056375
0.067625 0.067625 0.067625
0.078875 0.078875 0.078875
0.090125 0.090125 0.090125
0.101375 0.101375 0.101375
0.112625 0.112625 0.112625
0.123875 0.123875 0.123875
0.135125 0.135125 0.135125
0.146375 0.146375 0.146375
0.157625 0.157625 0.157625
0.168875 0.168875 0.168875
0.180125 0.180125 0.180125
0.191375 0.191375 0.191375
0.202625 0.202625 0.202625
0.213875 0.213875 0.213875
0.225125 0.225125 0.225125
0.236375 0.236375 0.236375
0.247625 0.247625 0.247625
0.258875 0.258875 0.258875
0.270125 0.270125 0.270125
0.281375 0.281375 0.281375
0.292625 0.292625 0.292625
0.303875 0.303875 0.303875
0.315125 0.315125 0.315125
0.326375 0.326375 0.326375
0.000000 0.000000 0.000000
0.000000 0.000000 0.000000
0.011000 0.011000 0.011000
0.022250 0.022250 0.022250
0.033500 0.033500 0.033500
0.044750 0.044750 0.044750
0.056000 0.056000 0.056000
0.067250 0.067250 0.067250
0.078500 0.078500 0.078500
0.089750 0.089750 0.089750
0.101000 0.101000 0.101000
0.112250 0.112250 0.112250
0.123500 0.123500 0.123500
0.134750 0.134750 0.134750
0.146000 0.146000 0.146000
0.157250 0.157250 0.157250
0.168500 0.168500 0.168500
0.179750 0.179750 0.179750
0.191000 0.191000 0.191000
0.202250 0.202250 0.202250
0.213500 0.213500 0.213500
0.224750 0.224750 0.224750
0.236000 0.236000 0.236000
0.247250 0.247250 0.247250
0.258500 0.258500 0.258500
0.269750 0.269750 0.269750
0.281000 0.281000 0.281000
0.292250 0.292250 0.292250
0.303500 0.303500 0.303500
0.314750 0.314750 0.314750
0.326000 0.326000 0.326000
0.337250 0.337250 0.337250
0.348500 0.348500 0.348500
0.010625 0.010625 0.010625
0.021875 0.021875 0.021875
0.033125 0.033125 0.033125
0.044375 0.044375 0.044375
0.055625 0.055625 0.055625
0.066875 0.066875 0.066875
0.078125 0.078125 0.078125
0.089375 0.089375 0.089375
0.100625 0.100625 0.100625
0.111875 0.111875 0.111875
0.123125 0.123125 0.123125
0.134375 0.134375 0.134375
0.145625 0.145625 0.145625
0.156875 0.156875 0.156875
0.168125 0.168125 0.168125
0.179375 0.179375 0.179375
0.190625 0.190625 0.190625
0.201875 0.201875 0.201875
0.213125 0.213125 0.213125
0.224375 0.224375 0.224375
0.235625 0.235625 0.235625
0.246875 0.246875 0.246875
0.258125 0.258125 0.258125
0.269375 0.269375 0.269375
0.280625 0.280625 0.280625
0.291875 0.291875 0.291875
0.303125 0.303125 0.303125
0.314375 0.314375 0.314375
0.325625 0.325625 0.325625
0.336875 0.336875 0.336875
0.348125 0.348125 0.348125
0.359375 0.359375 0.359375
0.370625 0.370625 0.370625
0.032750 0.032750 0.032750
0.044000 0.044000 0.044000
0.055250 0.055250 0.055250
0.066500 0.066500 0.066500
0.077750 0.077750 0.077750
0.089000 0.089000 0.089000
0.100250 0.100250 0.100250
0.111500 0.111500 0.111500
0.122750 0.122750 0.122750
0.134000 0.134000 0.134000
0.145250 0.145250 0.145250
0.156500 0.156500 0.156500
0.167750 0.167750 0.167750
0.179000 0.179000 0.179000
0.190250 0.190250 0.190250
0.201500 0.201500 0.201500
0.212750 0.212750 0.212750
0.224000 0.224000 0.224000
0.235250 0.235250 0.235250
0.246500 0.246500 0.246500
0.257750 0.257750 0.257750
0.269000 0.269000 0.269000
0.280250 0.280250 0.280250
0.291500 0.291500 0.291500
0.302750 0.302750 0.302750
0.314000 0.314000 0.314000
0.325250 0.325250 0.325250
0.336500 0.336500 0.336500
0.347750 0.347750 0.347750
0.359000 0.359000 0.359000
0.370250 0.370250 0.370250
0.381500 0.381500 0.381500
0.392750 0.392750 0.392750
0.054875 0.054875 0.054875
0.066125 0.066125 0.066125
0.077375 0.077375 0.077375
0.088625 0.088625 0.088625
0.099875 0.099875 0.099875
0.111125 0.111125 0.111125
0.122375 0.122375 0.122375
0.133625 0.133625 0.133625
0.144875 0.144875 0.144875
0.156125 0.156125 0.156125
0.167375 0.167375 0.167375
0.178625 0.178625 0.178625
0.189875 0.189875 0.189875
0.201125 0.201125 0.201125
0.212375 0.212375 0.212375
0.223625 0.223625 0.223625
0.234875 0.234875 0.234875
0.246125 0.246125 0.246125
0.257375 0.257375 0.257375
0.268625 0.268625 0.268625
0.279875 0.279875 0.279875
0.291125 0.291125 0.291125
0.302375 0.302375 0.302375
0.313625 0.313625 0.313625
0.324875 0.324875 0.324875
0.336125 0.336125 0.336125
0.347375 0.347375 0.347375
0.358625 0.358625 0.358625
0.369875 0.369875 0.369875
0.381125 0.381125 0.381125
0.392375 0.392375 0.392375
0.403625 0.403625 0.403625
0.414875 0.414875 0.414875
0.077000 0.077000 0.077000
0.088250 0.088250 0.088250
0.099500 0.099500 0.099500
0.110750 0.110750 0.110750
0.122000 0.122000 0.122000
0.133250 0.133250 0.133250
0.144500 0.144500 0.144500
0.155750 0.155750 0.155750
0.167000 0.167000 0.167000
0.178250 0.178250 0.178250
0.189500 0.189500 0.189500
0.200750 0.200750 0.200750
0.212000 0.212000 0.212000
0.223250 0.223250 0.223250
0.234500 0.234500 0.234500
0.245750 0.245750 0.245750
0.257000 0.257000 0.257000
0.268250 0.268250 0.268250
0.279500 0.279500 0.279500
0.290750 0.290750 0.290750
0.302000 0.302000 0.302000
0.313250 0.313250 0.313250
0.324500 0.324500 0.324500
0.335750 0.335750 0.335750
0.347000 0.347000 0.347000
0.358250 0.358250 0.358250
0.369500 0.369500 0.369500
0.380750 0.380750 0.380750
0.392000 0.392000 0.392000
0.403250 0.403250 0.403250
0.414500 0.414500 0.414500
0.425750 0.425750 0.425750
0.437000 0.437000 0.437000
0.099125 0.099125 0.099125
0.110375 0.110375 0.110375
0.121625 0.121625 0.121625
0.132875 0.132875 0.132875
0.144125 0.144125 0.144125
0.155375 0.155375 0.155375
0.166625 0.166625 0.166625
0.177875 0.177875 0.177875
0.189125 0.189125 0.189125
0.200375 0.200375 0.200375
0.211625 0.211625 0.211625
0.222875 0.222875 0.222875
0.234125 0.234125 0.234125
0.245375 0.245375 0.245375
0.256625 0.256625 0.256625
0.267875 0.267875 0.267875
0.279125 0.279125 0.279125
0.290375 0.290375 0.290375
0.301625 0.301625 0.301625
0.312875 0.312875 0.312875
0.324125 0.324125 0.324125
0.335375 0.335375 0.335375
0.346625 0.346625 0.346625
0.357875 0.357875 0.357875
0.369125 0.369125 0.369125
0.380375 0.380375 0.380375
0.391625 0.391625 0.391625
0.402875 0.402875 0.402875
0.414125 0.414125 0.414125
0.425375 0.425375 0.425375
0.436625 0.436625 0.436625
0.447875 0.447875 0.447875
0.459125 0.459125 0.459125
0.121250 0.121250 0.121250
0.132500 0.132500 0.132500
0.143750 0.143750 0.143750
0.155000 0.155000 0.155000
0.166250 0.166250 0.166250
0.177500 0.177500 0.177500
0.188750 0.188750 0.188750
0.200000 0.200000 0.200000
0.211250 0.211250 0.211250
0.222500 0.222500 0.222500
0.233750 0.233750 0.233750
0.245000 0.245000 0.245000
0.256250 0.256250 0.256250
0.267500 0.267500 0.267500
0.278750 0.278750 0.278750
0.290000 0.290000 0.290000
0.301250 0.301250 0.301250
0.312500 0.312500 0.312500
0.323750 0.323750 0.323750
0.335000 0.335000 0.335000
0.346250 0.346250 0.346250
0.357500 0.357500 0.357500
0.368750 0.368750 0.368750
0.380000 0.380000 0.380000
0.391250 0.391250 0.391250
0.402500 0.402500 0.402500
0.413750 0.413750 0.413750
0.425000 0.425000 0.425000
0.436250 0.436250 0.436250
0.447500 0.447500 0.447500
0.458750 0.458750 0.458750
0.470000 0.470000 0.470000
0.481250 0.481250 0.481250
0.143375 0.143375 0.143375
0.154625 0.154625 0.154625
0.165875 0.165875 0.165875
0.177125 0.177125 0.177125
0.188375 0.188375 0.188375
0.199625 0.199625 0.199625
0.210875 0.210875 0.210875
0.222125 0.222125 0.222125
0.233375 0.233375 0.233375
0.244625 0.244625 0.244625
0.255875 0.255875 0.255875
0.267125 0.267125 0.267125
0.278375 0.278375 0.278375
0.289625 0.289625 0.289625
0.300875 0.300875 0.300875
0.312125 0.312125 0.312125
0.323375 0.323375 0.323375
0.334625 0.334625 0.334625
0.345875 0.345875 0.345875
0.357125 0.357125 0.357125
0.368375 0.368375 0.368375
0.379625 0.379625 0.379625
0.390875 0.390875 0.390875
0.402125 0.402125 0.402125
0.413375 0.413375 0.413375
0.424625 0.424625 0.424625
0.435875 0.435875 0.435875
0.447125 0.447125 0.447125
0.458375 0.458375 0.458375
0.469625 0.469625 0.469625
0.480875 0.480875 0.480875
0.492125 0.492125 0.492125
0.503375 0.503375 0.503375
0.165500 0.165500 0.165500
0.176750 0.176750 0.176750
0.188000 0.188000 0.188000
0.199250 0.199250 0.199250
0.210500 0.210500 0.210500
0.221750 0.221750 0.221750
0.233000 0.233000 0.233000
0.244250 0.244250 0.244250
0.255500 0.255500 0.255500
0.266750 0.266750 0.266750
0.278000 0.278000 0.278000
0.289250 0.289250 0.289250
0.300500 0.300500 0.300500
0.311750 0.311750 0.311750
0.323000 0.323000 0.323000
0.334250 0.334250 0.334250
0.345500 0.345500 0.345500
0.356750 0.356750 0.356750
0.368000 0.368000 0.368000
0.379250 0.379250 0.379250
0.390500 0.390500 0.390500
0.401750 0.401750 0.401750
0.413000 0.413000 0.413000
0.424250 0.424250 0.424250
0.435500 0.435500 0.435500
0.446750 0.446750 0.446750
0.458000 0.458000 0.458000
0.469250 0.469250 0.469250
0.480500 0.480500 0.480500
0.491750 0.491750 0.491750
0.503000 0.503000 0.503000
0.514250 0.514250 0.514250
0.525500 0.525500 0.525500
0.187625 0.187625 0.187625
0.198875 0.198875 0.198875
0.210125 0.210125 0.210125
0.221375 0.221375 0.221375
0.232625 0.232625 0.232625
0.243875 0.243875 0.243875
0.255125 0.255125 0.255125
0.266375 0.266375 0.266375
0.277625 0.277625 0.277625
0.288875 0.288875 0.288875
0.300125 0.300125 0.300125
0.311375 0.311375 0.311375
0.322625 0.322625 0.322625
0.333875 0.333875 0.333875
0.345125 0.345125 0.345125
0.356375 0.356375 0.356375
0.367625 0.367625 0.367625
0.378875 0.378875 0.378875
0.390125 0.390125 0.390125
0.401375 0.401375 0.401375
0.412625 0.412625 0.412625
0.423875 0.423875 0.423875
0.435125 0.435125 0.435125
0.446375 0.446375 0.446375
0.457625 0.457625 0.457625
0.468875 0.468875 0.468875
0.480125 0.480125 0.480125
0.491375 0.491375 0.491375
0.502625 0.502625 0.502625
0.513875 0.513875 0.513875
0.525125 0.525125 0.525125
0.536375 0.536375 0.536375
0.547625 0.547625 0.547625
0.209750 0.209750 0.209750
0.221000 0.221000 0.221000
0.232250 0.232250 0.232250
0.243500 0.243500 0.243500
0.254750 0.254750 0.254750
0.266000 0.266000 0.266000
0.277250 0.277250 0.277250
0.288500 0.288500 0.288500
0.299750 0.299750 0.299750
0.311000 0.311000 0.311000
0.322250 0.322250 0.322250
0.333500 0.333500 0.333500
0.344750 0.344750 0.344750
0.356000 0.356000 0.356000
0.367250 0.367250 0.367250
0.378500 0.378500 0.378500
0.389750 0.389750 0.389750
0.401000 0.401000 0.401000
0.412250 0.412250 0.412250
0.423500 0.423500 0.423500
0.434750 0.434750 0.434750
0.446000 0.446000 0.446000
0.457250 0.457250 0.457250
0.468500 0.468500 0.468500
0.479750 0.479750 0.479750
0.491000 0.491000 0.491000
0.502250 0.502250 0.502250
0.513500 0.513500 0.513500
0.524750 0.524750 0.524750
0.536000 0.536000 0.536000
0.547250 0.547250 0.547250
0.558500 0.558500 0.558500
0.569750 0.569750 0.569750
0.231875 0.231875 0.231875
0.243125 0.243125 0.243125
0.254375 0.254375 0.254375
0.265625 0.265625 0.265625
0.276875 0.276875 0.276875
0.288125 0.288125 0.288125
0.299375 0.299375 0.299375
0.310625 0.310625 0.310625
0.321875 0.321875 0.321875
0.333125 0.333125 0.333125
0.344375 0.344375 0.344375
0.355625 0.355625 0.355625
0.366875 0.366875 0.366875
0.378125 0.378125 0.378125
0.389375 0.389375 0.389375
0.400625 0.400625 0.400625
0.411875 0.411875 0.411875
0.423125 0.423125 0.423125
0.434375 0.434375 0.434375
0.445625 0.445625 0.445625
0.456875 0.456875 0.456875
0.468125 0.468125 0.468125
0.479375 0.479375 0.479375
0.490625 0.490625 0.490625
0.501875 0.501875 0.501875
0.513125 0.513125 0.513125
0.524375 0.524375 0.524375
0.535625 0.535625 0.535625
0.546875 0.546875 0.546875
0.558125 0.558125 0.558125
0.569375 0.569375 0.569375
0.580625 0.580625 0.580625
0.591875 0.591875 0.591875
0.254000 0.254000 0.254000
0.265250 0.265250 0.265250
0.276500 0.276500 0.276500
0.287750 0.287750 0.287750
0.299000 0.299000 0.299000
0.310250 0.310250 0.310250
0.321500 0.321500 0.321500
0.332750 0.332750 0.332750
0.344000 0.344000 0.344000
0.355250 0.355250 0.355250
0.366500 0.366500 0.366500
0.377750 0.377750 0.377750
0.389000 0.389000 0.389000
0.400250 0.400250 0.400250
0.411500 0.411500 0.411500
0.422750 0.422750 0.422750
0.434000 0.434000 0.434000
0.445250 0.445250 0.445250
0.456500 0.456500 0.456500
0.467750 0.467750 0.467750
0.479000 0.479000 0.479000
0.490250 0.490250 0.490250
0.501500 0.501500 0.501500
0.512750 0.512750 0.512750
0.524000 0.524000 0.524000
0.535250 0.535250 0.535250
0.546500 0.546500 0.546500
0.557750 0.557750 0.557750
0.569000 0.569000 0.569000
0.580250 0.580250 0.580250
0.591500 0.591500 0.591500
0.602750 0.602750 0.602750
0.614000 0.614000 0.614000
0.276125 0.276125 0.276125
0.287375 0.287375 0.287375
0.298625 0.298625 0.298625
0.309875 0.309875 0.309875
0.321125 0.321125 0.321125
0.332375 0.332375 0.332375
0.343625 0.343625 0.343625
0.354875 0.354875 0.354875
0.366125 0.366125 0.366125
0.377375 0.377375 0.377375
0.388625 0.388625 0.388625
0.399875 0.399875 0.399875
0.411125 0.411125 0.411125
0.422375 0.422375 0.422375
0.433625 0.433625 0.433625
0.444875 0.444875 0.444875
0.456125 0.456125 0.456125
0.467375 0.467375 0.467375
0.478625 0.478625 0.478625
0.489875 0.489875 0.489875
0.501125 0.501125 0.501125
0.512375 0.512375 0.512375
0.523625 0.523625 0.523625
0.534875 0.534875 0.534875
0.546125 0.546125 0.546125
0.557375 0.557375 0.557375
0.568625 0.568625 0.568625
0.579875 0.579875 0.579875
0.591125 0.591125 0.591125
0.602375 0.602375 0.602375
0.613625 0.613625 0.613625
0.624875 0.624875 0.624875
0.636125 0.636125 0.636125
0.298250 0.298250 0.298250
0.309500 0.309500 0.309500
0.320750 0.320750 0.320750
0.332000 0.332000 0.332000
0.343250 0.343250 0.343250
0.354500 0.354500 0.354500
0.365750 0.365750 0.365750
0.377000 0.377000 0.377000
0.388250 0.388250 0.388250
0.399500 0.399500 0.399500
0.410750 0.410750 0.410750
0.422000 0.422000 0.422000
0.433250 0.433250 0.433250
0.444500 0.444500 0.444500
0.455750 0.455750 0.455750
0.467000 0.467000 0.467000
0.478250 0.478250 0.478250
0.489500 0.489500 0.489500
0.500750 0.500750 0.500750
0.512000 0.512000 0.512000
0.523250 0.523250 0.523250
0.534500 0.534500 0.534500
0.545750 0.545750 0.545750
0.557000 0.557000 0.557000
0.568250 0.568250 0.568250
0.579500 0.579500 0.579500
0.590750 0.590750 0.590750
0.602000 0.602000 0.602000
0.613250 0.613250 0.613250
0.624500 0.624500 0.624500
0.635750 0.635750 0.635750
0.647000 0.647000 0.647000
0.658250 0.658250 0.658250
0.320375 0.320375 0.320375
0.331625 0.331625 0.331625
0.342875 0.342875 0.342875
0.354125 0.354125 0.354125
0.365375 0.365375 0.365375
0.376625 0.376625 0.376625
0.387875 0.387875 0.387875
0.399125 0.399125 0.399125
0.410375 0.410375 0.410375
0.421625 0.421625 0.421625
0.432875 0.432875 0.432875
0.444125 0.444125 0.444125
0.455375 0.455375 0.455375
0.466625 0.466625 0.466625
0.477875 0.477875 0.477875
0.489125 0.489125 0.489125
0.500375 0.500375 0.500375
0.511625 0.511625 0.511625
0.522875 0.522875 0.522875
0.534125 0.534125 0.534125
0.545375 0.545375 0.545375
0.556625 0.556625 0.556625
0.567875 0.567875 0.567875
0.579125 0.579125 0.579125
0.590375 0.590375 0.590375
0.601625 0.601625 0.601625
0.612875 0.612875 0.612875
0.624125 0.624125 0.624125
0.635375 0.635375 0.635375
0.646625 0.646625 0.646625
0.657875 0.657875 0.657875
0.669125 0.669125 0.669125
0.680375 0.680375 0.680375
0.342500 0.342500 0.342500
0.353750 0.353750 0.353750
0.365000 0.365000 0.365000
0.376250 0.376250 0.376250
0.387500 0.387500 0.387500
0.398750 0.398750 0.398750
0.410000 0.410000 0.410000
0.421250 0.421250 0.421250
0.432500 0.432500 0.432500
0.443750 0.443750 0.443750
0.455000 0.455000 0.455000
0.466250 0.466250 0.466250
0.477500 0.477500 0.477500
0.488750 0.488750 0.488750
0.500000 0.500000 0.500000
0.511250 0.511250 0.511250
0.522500 0.522500 0.522500
0.533750 0.533750 0.533750
0.545000 0.545000 0.545000
0.556250 0.556250 0.556250
0.567500 0.567500 0.567500
0.578750 0.578750 0.578750
0.590000 0.590000 0.590000
0.601250 0.601250 0.601250
0.612500 0.612500 0.612500
0.623750 0.623750 0.623750
0.635000 0.635000 0.635000
0.646250 0.646250 0.646250
0.657500 0.657500 0.657500
0.668750 0.668750 0.668750
0.680000 0.680000 0.680000
0.691250 0.691250 0.691250
0.702500 0.702500 0.702500
0.364625 0.364625 0.364625
0.375875 0.375875 0.375875
0.387125 0.387125 0.387125
0.398375 0.398375 0.398375
0.409625 0.409625 0.409625
0.420875 0.420875 0.420875
0.432125 0.432125 0.432125
0.443375 0.443375 0.443375
0.454625 0.454625 0.454625
0.465875 0.465875 0.465875
0.477125 0.477125 0.477125
0.488375 0.488375 0.488375
0.499625 0.499625 0.499625
0.510875 0.510875 0.510875
0.522125 0.522125 0.522125
0.533375 0.533375 0.533375
0.544625 0.544625 0.544625
0.555875 0.555875 0.555875
0.567125 0.567125 0.567125
0.578375 0.578375 0.578375
0.589625 0.589625 0.589625
0.600875 0.600875 0.600875
0.612125 0.612125 0.612125
0.623375 0.623375 0.623375
0.634625 0.634625 0.634625
0.645875 0.645875 0.645875
0.657125 0.657125 0.657125
0.668375 0.668375 0.668375
0.679625 0.679625 0.679625
0.690875 0.690875 0.690875
0.702125 0.702125 0.702125
0.713375 0.713375 0.713375
0.724625 0.724625 0.724625
0.386750 0.386750 0.386750
0.398000 0.398000 0.398000
0.409250 0.409250 0.409250
0.420500 0.420500 0.420500
0.431750 0.431750 0.431750
0.443000 0.443000 0.443000
0.454250 0.454250 0.454250
0.465500 0.465500 0.465500
0.476750 0.476750 0.476750
0.488000 0.488000 0.488000
0.499250 0.499250 0.499250
0.510500 0.510500 0.510500
0.521750 0.521750 0.521750
0.533000 0.533000 0.533000
0.544250 0.544250 0.544250
0.555500 0.555500 0.555500
0.566750 0.566750 0.566750
0.578000 0.578000 0.578000
0.589250 0.589250 0.589250
0.600500 0.600500 0.600500
0.611750 0.611750 0.611750
0.623000 0.623000 0.623000
0.634250 0.634250 0.634250
0.645500 0.645500 0.645500
0.656750 0.656750 0.656750
0.668000 0.668000 0.668000
0.679250 0.679250 0.679250
0.690500 0.690500 0.690500
0.701750 0.701750 0.701750
0.713000 0.713000 0.713000
0.724250 0.724250 0.724250
0.735500 0.735500 0.735500
0.746750 0.746750 0.746750
0.408875 0.408875 0.408875
0.420125 0.420125 0.420125
0.431375 0.431375 0.431375
0.442625 0.442625 0.442625
0.453875 0.453875 0.453875
0.465125 0.465125 0.465125
0.476375 0.476375 0.476375
0.487625 0.487625 0.487625
0.498875 0.498875 0.498875
0.510125 0.510125 0.510125
0.521375 0.521375 0.521375
0.532625 0.532625 0.532625
0.543875 0.543875 0.543875
0.555125 0.555125 0.555125
0.566375 0.566375 0.566375
0.577625 0.577625 0.577625
0.588875 0.588875 0.588875
0.600125 0.600125 0.600125
0.611375 0.611375 0.611375
0.622625 0.622625 0.622625
0.633875 0.633875 0.633875
0.645125 0.645125 0.645125
0.656375 0.656375 0.656375
0.667625 0.667625 0.667625
0.678875 0.678875 0.678875
0.690125 0.690125 0.690125
0.701375 0.701375 0.701375
0.712625 0.712625 0.712625
0.723875 0.723875 0.723875
0.735125 0.735125 0.735125
0.746375 0.746375 0.746375
0.757625 0.757625 0.757625
0.768875 0.768875 0.768875
0.431000 0.431000 0.431000
0.442250 0.442250 0.442250
0.453500 0.453500 0.453500
0.464750 0.464750 0.464750
0.476000 0.476000 0.476000
0.487250 0.487250 0.487250
0.498500 0.498500 0.498500
0.509750 0.509750 0.509750
0.521000 0.521000 0.521000
0.532250 0.532250 0.532250
0.543500 0.543500 0.543500
0.554750 0.554750 0.554750
0.566000 0.566000 0.566000
0.577250 0.577250 0.577250
0.588500 0.588500 0.588500
0.599750 0.599750 0.599750
0.611000 0.611000 0.611000
0.622250 0.622250 0.622250
0.633500 0.633500 0.633500
0.644750 0.644750 0.644750
0.656000 0.656000 0.656000
0.667250 0.667250 0.667250
0.678500 0.678500 0.678500
0.689750 0.689750 0.689750
0.701000 0.701000 0.701000
0.712250 0.712250 0.712250
0.723500 0.723500 0.723500
0.734750 0.734750 0.734750
0.746000 0.746000 0.746000
0.757250 0.757250 0.757250
0.768500 0.768500 0.768500
0.779750 0.779750 0.779750
0.791000 0.791000 0.791000
0.453125 0.453125 0.453125
0.464375 0.464375 0.464375
0.475625 0.475625 0.475625
0.486875 0.486875 0.486875
0.498125 0.498125 0.498125
0.509375 0.509375 0.509375
0.520625 0.520625 0.520625
0.531875 0.531875 0.531875
0.543125 0.543125 0.543125
0.554375 0.554375 0.554375
0.565625 0.565625 0.565625
0.576875 0.576875 0.576875
0.588125 0.588125 0.588125
0.599375 0.599375 0.599375
0.610625 0.610625 0.610625
0.621875 0.621875 0.621875
0.633125 0.633125 0.633125
0.644375 0.644375 0.644375
0.655625 0.655625 0.655625
0.666875 0.666875 0.666875
0.678125 0.678125 0.678125
0.689375 0.689375 0.689375
0.700625 0.700625 0.700625
0.711875 0.711875 0.711875
0.723125 0.723125 0.723125
0.734375 0.734375 0.734375
0.745625 0.745625 0.745625
0.756875 0.756875 0.756875
0.768125 0.768125 0.768125
0.779375 0.779375 0.779375
0.790625 0.790625 0.790625
0.801875 0.801875 0.801875
0.813125 0.813125 0.813125
0.475250 0.475250 0.475250
0.486500 0.486500 0.486500
0.497750 0.497750 0.497750
0.509000 0.509000 0.509000
0.520250 0.520250 0.520250
0.531500 0.531500 0.531500
0.542750 0.542750 0.542750
0.554000 0.554000 0.554000
0.565250 0.565250 0.565250
0.576500 0.576500 0.576500
0.587750 0.587750 0.587750
0.599000 0.599000 0.599000
0.610250 0.610250 0.610250
0.621500 0.621500 0.621500
0.632750 0.632750 0.632750
0.644000 0.644000 0.644000
0.655250 0.655250 0.655250
0.666500 0.666500 0.666500
0.677750 0.677750 0.677750
0.689000 0.689000 0.689000
0.700250 0.700250 0.700250
0.711500 0.711500 0.711500
0.722750 0.722750 0.722750
0.734000 0.734000 0.734000
0.745250 0.745250 0.745250
0.756500 0.756500 0.756500
0.767750 0.767750 0.767750
0.779000 0.779000 0.779000
