luts/kodak_tmax_100.cube
TITLE Film LUT
LUT_3D_SIZE 9
DOMAIN_MIN 0.0 0.0 0.0
DOMAIN_MAX 1.0 1.0 1.0
0.000000 0.000000 0.000000
0.139588 0.000000 0.000000
0.276851 0.000000 0.000000
0.410771 0.000000 0.000000
0.540383 0.000000 0.000000
0.664801 0.000000 0.000000
0.783265 0.000000 0.000000
0.895152 0.000000 0.000000
1.000000 0.000000 0.000000
0.000000 0.139588 0.000000
0.139588 0.139588 0.000000
0.276851 0.139588 0.000000
0.410771 0.139588 0.000000
0.540383 0.139588 0.000000
0.664801 0.139588 0.000000
0.783265 0.139588 0.000000
0.895152 0.139588 0.000000
1.000000 0.139588 0.000000
0.000000 0.276851 0.000000
0.139588 0.276851 0.000000
0.276851 0.276851 0.000000
0.410771 0.276851 0.000000
0.540383 0.276851 0.000000
0.664801 0.276851 0.000000
0.783265 0.276851 0.000000
0.895152 0.276851 0.000000
1.000000 0.276851 0.000000
0.000000 0.410771 0.000000
0.139588 0.410771 0.000000
0.276851 0.410771 0.000000
0.410771 0.410771 0.000000
0.540383 0.410771 0.000000
0.664801 0.410771 0.000000
0.783265 0.410771 0.000000
0.895152 0.410771 0.000000
1.000000 0.410771 0.000000
0.000000 0.540383 0.000000
0.139588 0.540383 0.000000
0.276851 0.540383 0.000000
0.410771 0.540383 0.000000
0.540383 0.540383 0.000000
0.664801 0.540383 0.000000
0.783265 0.540383 0.000000
0.895152 0.540383 0.000000
1.000000 0.540383 0.000000
0.000000 0.664801 0.000000
0.139588 0.664801 0.000000
0.276851 0.664801 0.000000
0.410771 0.664801 0.000000
0.540383 0.664801 0.000000
0.664801 0.664801 0.000000
0.783265 0.664801 0.000000
0.895152 0.664801 0.000000
1.000000 0.664801 0.000000
0.000000 0.783265 0.000000
0.139588 0.783265 0.000000
0.276851 0.783265 0.000000
0.410771 0.783265 0.000000
0.540383 0.783265 0.000000
0.664801 0.783265 0.000000
0.783265 0.783265 0.000000
0.895152 0.783265 0.000000
1.000000 0.783265 0.000000
0.000000 0.895152 0.000000
0.139588 0.895152 0.000000
0.276851 0.895152 0.000000
0.410771 0.895152 0.000000
0.540383 0.895152 0.000000
0.664801 0.895152 0.000000
0.783265 0.895152 0.000000
0.895152 0.895152 0.000000
1.000000 0.895152 0.000000
0.000000 1.000000 0.000000
0.139588 1.000000 0.000000
0.276851 1.000000 0.000000
0.410771 1.000000 0.000000
0.540383 1.000000 0.000000
0.664801 1.000000 0.000000
0.783265 1.000000 0.000000
0.895152 1.000000 0.000000
1.000000 1.000000 0.000000
0.000000 0.000000 0.139588
0.139588 0.000000 0.139588
0.276851 0.000000 0.139588
0.410771 0.000000 0.139588
0.540383 0.000000 0.139588
0.664801 0.000000 0.139588
0.783265 0.000000 0.139588
0.895152 0.000000 0.139588
1.000000 0.000000 0.139588
0.000000 0.139588 0.139588
0.139588 0.139588 0.139588
0.276851 0.139588 0.139588
0.410771 0.139588 0.139588
0.540383 0.139588 0.139588
0.664801 0.139588 0.139588
0.783265 0.139588 0.139588
0.895152 0.139588 0.139588
1.000000 0.139588 0.139588
0.000000 0.276851 0.139588
0.139588 0.276851 0.139588
0.276851 0.276851 0.139588
0.410771 0.276851 0.139588
0.540383 0.276851 0.139588
0.664801 0.276851 0.139588
0.783265 0.276851 0.139588
0.895152 0.276851 0.139588
1.000000 0.276851 0.139588
0.000000 0.410771 0.139588
0.139588 0.410771 0.139588
0.276851 0.410771 0.139588
0.410771 0.410771 0.139588
0.540383 0.410771 0.139588
0.664801 0.410771 0.139588
0.783265 0.410771 0.139588
0.895152 0.410771 0.139588
1.000000 0.410771 0.139588
0.000000 0.540383 0.139588
0.139588 0.540383 0.139588
0.276851 0.540383 0.139588
0.410771 0.540383 0.139588
0.540383 0.540383 0.139588
0.664801 0.540383 0.139588
0.783265 0.540383 0.139588
0.895152 0.540383 0.139588
1.000000 0.540383 0.139588
0.000000 0.664801 0.139588
0.139588 0.664801 0.139588
0.276851 0.664801 0.139588
0.410771 0.664801 0.139588
0.540383 0.664801 0.139588
0.664801 0.664801 0.139588
0.783265 0.664801 0.139588
0.895152 0.664801 0.139588
1.000000 0.664801 0.139588
0.000000 0.783265 0.139588
0.139588 0.783265 0.139588
0.276851 0.783265 0.139588
0.410771 0.783265 0.139588
0.540383 0.783265 0.139588
0.664801 0.783265 0.139588
0.783265 0.783265 0.139588
0.895152 0.783265 0.139588
1.000000 0.783265 0.139588
0.000000 0.895152 0.139588
0.139588 0.895152 0.139588
0.276851 0.895152 0.139588
0.410771 0.895152 0.139588
0.540383 0.895152 0.139588
0.664801 0.895152 0.139588
0.783265 0.895152 0.139588
0.895152 0.895152 0.139588
1.000000 0.895152 0.139588
0.000000 1.000000 0.139588
0.139588 1.000000 0.139588
0.276851 1.000000 0.139588
0.410771 1.000000 0.139588
0.540383 1.000000 0.139588
0.664801 1.000000 0.139588
0.783265 1.000000 0.139588
0.895152 1.000000 0.139588
1.000000 1.000000 0.139588
0.000000 0.000000 0.276851
0.139588 0.000000 0.276851
0.276851 0.000000 0.276851
0.410771 0.000000 0.276851
0.540383 0.000000 0.276851
0.664801 0.000000 0.276851
0.783265 0.000000 0.276851
0.895152 0.000000 0.276851
1.000000 0.000000 0.276851
0.000000 0.139588 0.276851
0.139588 0.139588 0.276851
0.276851 0.139588 0.276851
0.410771 0.139588 0.276851
0.540383 0.139588 0.276851
0.664801 0.139588 0.276851
0.783265 0.139588 0.276851
0.895152 0.139588 0.276851
1.000000 0.139588 0.276851
0.000000 0.276851 0.276851
0.139588 0.276851 0.276851
0.276851 0.276851 0.276851
0.410771 0.276851 0.276851
0.540383 0.276851 0.276851
0.664801 0.276851 0.276851
0.783265 0.276851 0.276851
0.895152 0.276851 0.276851
1.000000 0.276851 0.276851
0.000000 0.410771 0.276851
0.139588 0.410771 0.276851
0.276851 0.410771 0.276851
0.410771 0.410771 0.276851
0.540383 0.410771 0.276851
0.664801 0.410771 0.276851
0.783265 0.410771 0.276851
0.895152 0.410771 0.276851
1.000000 0.410771 0.276851
0.000000 0.540383 0.276851
0.139588 0.540383 0.276851
0.276851 0.540383 0.276851
0.410771 0.540383 0.276851
0.540383 0.540383 0.276851
0.664801 0.540383 0.276851
0.783265 0.540383 0.276851
0.895152 0.540383 0.276851
1.000000 0.540383 0.276851
0.000000 0.664801 0.276851
0.139588 0.664801 0.276851
0.276851 0.664801 0.276851
0.410771 0.664801 0.276851
0.540383 0.664801 0.276851
0.664801 0.664801 0.276851
0.783265 0.664801 0.276851
0.895152 0.664801 0.276851
1.000000 0.664801 0.276851
0.000000 0.783265 0.276851
0.139588 0.783265 0.276851
0.276851 0.783265 0.276851
0.410771 0.783265 0.276851
0.540383 0.783265 0.276851
0.664801 0.783265 0.276851
0.783265 0.783265 0.276851
0.895152 0.783265 0.276851
1.000000 0.783265 0.276851
0.000000 0.895152 0.276851
0.139588 0.895152 0.276851
0.276851 0.895152 0.276851
0.410771 0.895152 0.276851
0.540383 0.895152 0.276851
0.664801 0.895152 0.276851
0.783265 0.895152 0.276851
0.895152 0.895152 0.276851
1.000000 0.895152 0.276851
0.000000 1.000000 0.276851
0.139588 1.000000 0.276851
0.276851 1.000000 0.276851
0.410771 1.000000 0.276851
0.540383 1.000000 0.276851
0.664801 1.000000 0.276851
0.783265 1.000000 0.276851
0.895152 1.000000 0.276851
1.000000 1.000000 0.276851
0.000000 0.000000 0.410771
0.139588 0.000000 0.410771
0.276851 0.000000 0.410771
0.410771 0.000000 0.410771
0.540383 0.000000 0.410771
0.664801 0.000000 0.410771
0.783265 0.000000 0.410771
0.895152 0.000000 0.410771
1.000000 0.000000 0.410771
0.000000 0.139588 0.410771
0.139588 0.139588 0.410771
0.276851 0.139588 0.410771
0.410771 0.139588 0.410771
0.540383 0.139588 0.410771
0.664801 0.139588 0.410771
0.783265 0.139588 0.410771
0.895152 0.139588 0.410771
1.000000 0.139588 0.410771
0.000000 0.276851 0.410771
0.139588 0.276851 0.410771
0.276851 0.276851 0.410771
0.410771 0.276851 0.410771
0.540383 0.276851 0.410771
0.664801 0.276851 0.410771
0.783265 0.276851 0.410771
0.895152 0.276851 0.410771
1.000000 0.276851 0.410771
0.000000 0.410771 0.410771
0.139588 0.410771 0.410771
0.276851 0.410771 0.410771
0.410771 0.410771 0.410771
0.540383 0.410771 0.410771
0.664801 0.410771 0.410771
0.783265 0.410771 0.410771
0.895152 0.410771 0.410771
1.000000 0.410771 0.410771
0.000000 0.540383 0.410771
0.139588 0.540383 0.410771
0.276851 0.540383 0.410771
0.410771 0.540383 0.410771
0.540383 0.540383 0.410771
0.664801 0.540383 0.410771
0.783265 0.540383 0.410771
0.895152 0.540383 0.410771
1.000000 0.540383 0.410771
0.000000 0.664801 0.410771
0.139588 0.664801 0.410771
0.276851 0.664801 0.410771
0.410771 0.664801 0.410771
0.540383 0.664801 0.410771
0.664801 0.664801 0.410771
0.783265 0.664801 0.410771
0.895152 0.664801 0.410771
1.000000 0.664801 0.410771
0.000000 0.783265 0.410771
0.139588 0.783265 0.410771
0.276851 0.783265 0.410771
0.410771 0.783265 0.410771
0.540383 0.783265 0.410771
0.664801 0.783265 0.410771
0.783265 0.783265 0.410771
0.895152 0.783265 0.410771
1.000000 0.783265 0.410771
0.000000 0.895152 0.410771
0.139588 0.895152 0.410771
0.276851 0.895152 0.410771
0.410771 0.895152 0.410771
0.540383 0.895152 0.410771
0.664801 0.895152 0.410771
0.783265 0.895152 0.410771
0.895152 0.895152 0.410771
1.000000 0.895152 0.410771
0.000000 1.000000 0.410771
0.139588 1.000000 0.410771
0.276851 1.000000 0.410771
0.410771 1.000000 0.410771
0.540383 1.000000 0.410771
0.664801 1.000000 0.410771
0.783265 1.000000 0.410771
0.895152 1.000000 0.410771
1.000000 1.000000 0.410771
0.000000 0.000000 0.540383
0.139588 0.000000 0.540383
0.276851 0.000000 0.540383
0.410771 0.000000 0.540383
0.540383 0.000000 0.540383
0.664801 0.000000 0.540383
0.783265 0.000000 0.540383
0.895152 0.000000 0.540383
1.000000 0.000000 0.540383
0.000000 0.139588 0.540383
0.139588 0.139588 0.540383
0.276851 0.139588 0.540383
0.410771 0.139588 0.540383
0.540383 0.139588 0.540383
0.664801 0.139588 0.540383
0.783265 0.139588 0.540383
0.895152 0.139588 0.540383
1.000000 0.139588 0.540383
0.000000 0.276851 0.540383
0.139588 0.276851 0.540383
0.276851 0.276851 0.540383
0.410771 0.276851 0.540383
0.540383 0.276851 0.540383
0.664801 0.276851 0.540383
0.783265 0.276851 0.540383
0.895152 0.276851 0.540383
1.000000 0.276851 0.540383
0.000000 0.410771 0.540383
0.139588 0.410771 0.540383
0.276851 0.410771 0.540383
0.410771 0.410771 0.540383
0.540383 0.410771 0.540383
0.664801 0.410771 0.540383
0.783265 0.410771 0.540383
0.895152 0.410771 0.540383
1.000000 0.410771 0.540383
0.000000 0.540383 0.540383
0.139588 0.540383 0.540383
0.276851 0.540383 0.540383
0.410771 0.540383 0.540383
0.540383 0.540383 0.540383
0.664801 0.540383 0.540383
0.783265 0.540383 0.540383
0.895152 0.540383 0.540383
1.000000 0.540383 0.540383
0.000000 0.664801 0.540383
0.139588 0.664801 0.540383
0.276851 0.664801 0.540383
0.410771 0.664801 0.540383
0.540383 0.664801 0.540383
0.664801 0.664801 0.540383
0.783265 0.664801 0.540383
0.895152 0.664801 0.540383
1.000000 0.664801 0.540383
0.000000 0.783265 0.540383
0.139588 0.783265 0.540383
0.276851 0.783265 0.540383
0.410771 0.783265 0.540383
0.540383 0.783265 0.540383
0.664801 0.783265 0.540383
0.783265 0.783265 0.540383
0.895152 0.783265 0.540383
1.000000 0.783265 0.540383
0.000000 0.895152 0.540383
0.139588 0.895152 0.540383
0.276851 0.895152 0.540383
0.410771 0.895152 0.540383
0.540383 0.895152 0.540383
0.664801 0.895152 0.540383
0.783265 0.895152 0.540383
0.895152 0.895152 0.540383
1.000000 0.895152 0.540383
0.000000 1.000000 0.540383
0.139588 1.000000 0.540383
0.276851 1.000000 0.540383
0.410771 1.000000 0.540383
0.540383 1.000000 0.540383
0.664801 1.000000 0.540383
0.783265 1.000000 0.540383
0.895152 1.000000 0.540383
1.000000 1.000000 0.540383
0.000000 0.000000 0.664801
0.139588 0.000000 0.664801
0.276851 0.000000 0.664801
0.410771 0.000000 0.664801
0.540383 0.000000 0.664801
0.664801 0.000000 0.664801
0.783265 0.000000 0.664801
0.895152 0.000000 0.664801
1.000000 0.000000 0.664801
0.000000 0.139588 0.664801
0.139588 0.139588 0.664801
0.276851 0.139588 0.664801
0.410771 0.139588 0.664801
0.540383 0.139588 0.664801
0.664801 0.139588 0.664801
0.783265 0.139588 0.664801
0.895152 0.139588 0.664801
1.000000 0.139588 0.664801
0.000000 0.276851 0.664801
0.139588 0.276851 0.664801
0.276851 0.276851 0.664801
0.410771 0.276851 0.664801
0.540383 0.276851 0.664801
0.664801 0.276851 0.664801
0.783265 0.276851 0.664801
0.895152 0.276851 0.664801
1.000000 0.276851 0.664801
0.000000 0.410771 0.664801
0.139588 0.410771 0.664801
0.276851 0.410771 0.664801
0.410771 0.410771 0.664801
0.540383 0.410771 0.664801
0.664801 0.410771 0.664801
0.783265 0.410771 0.664801
0.895152 0.410771 0.664801
1.000000 0.410771 0.664801
0.000000 0.540383 0.664801
0.139588 0.540383 0.664801
0.276851 0.540383 0.664801
0.410771 0.540383 0.664801
0.540383 0.540383 0.664801
0.664801 0.540383 0.664801
0.783265 0.540383 0.664801
0.895152 0.540383 0.664801
1.000000 0.540383 0.664801
0.000000 0.664801 0.664801
0.139588 0.664801 0.664801
0.276851 0.664801 0.664801
0.410771 0.664801 0.664801
0.540383 0.664801 0.664801
0.664801 0.664801 0.664801
0.783265 0.664801 0.664801
0.895152 0.664801 0.664801
1.000000 0.664801 0.664801
0.000000 0.783265 0.664801
0.139588 0.783265 0.664801
0.276851 0.783265 0.664801
0.410771 0.783265 0.664801
0.540383 0.783265 0.664801
0.664801 0.783265 0.664801
0.783265 0.783265 0.664801
0.895152 0.783265 0.664801
1.000000 0.783265 0.664801
0.000000 0.895152 0.664801
0.139588 0.895152 0.664801
0.276851 0.895152 0.664801
0.410771 0.895152 0.664801
0.540383 0.895152 0.664801
0.664801 0.895152 0.664801
0.783265 0.895152 0.664801
0.895152 0.895152 0.664801
1.000000 0.895152 0.664801
0.000000 1.000000 0.664801
0.139588 1.000000 0.664801
0.276851 1.000000 0.664801
0.410771 1.000000 0.664801
0.540383 1.000000 0.664801
0.664801 1.000000 0.664801
0.783265 1.000000 0.664801
0.895152 1.000000 0.664801
1.000000 1.000000 0.664801
0.000000 0.000000 0.783265
0.139588 0.000000 0.783265
0.276851 0.000000 0.783265
0.410771 0.000000 0.783265
0.540383 0.000000 0.783265
0.664801 0.000000 0.783265
0.783265 0.000000 0.783265
0.895152 0.000000 0.783265
1.000000 0.000000 0.783265
0.000000 0.139588 0.783265
0.139588 0.139588 0.783265
0.276851 0.139588 0.783265
0.410771 0.139588 0.783265
0.540383 0.139588 0.783265
0.664801 0.139588 0.783265
0.783265 0.139588 0.783265
0.895152 0.139588 0.783265
1.000000 0.139588 0.783265
0.000000 0.276851 0.783265
0.139588 0.276851 0.783265
0.276851 0.276851 0.783265
0.410771 0.276851 0.783265
0.540383 0.276851 0.783265
0.664801 0.276851 0.783265
0.783265 0.276851 0.783265
0.895152 0.276851 0.783265
1.000000 0.276851 0.783265
0.000000 0.410771 0.783265
0.139588 0.410771 0.783265
0.276851 0.410771 0.783265
0.410771 0.410771 0.783265
0.540383 0.410771 0.783265
0.664801 0.410771 0.783265
0.783265 0.410771 0.783265
0.895152 0.410771 0.783265
1.000000 0.410771 0.783265
0.000000 0.540383 0.783265
0.139588 0.540383 0.783265
0.276851 0.540383 0.783265
0.410771 0.540383 0.783265
0.540383 0.540383 0.783265
0.664801 0.540383 0.783265
0.783265 0.540383 0.783265
0.895152 0.540383 0.783265
1.000000 0.540383 0.783265
0.000000 0.664801 0.783265
0.139588 0.664801 0.783265
0.276851 0.664801 0.783265
0.410771 0.664801 0.783265
0.540383 0.664801 0.783265
0.664801 0.664801 0.783265
0.783265 0.664801 0.783265
0.895152 0.664801 0.783265
1.000000 0.664801 0.783265
0.000000 0.783265 0.783265
0.139588 0.783265 0.783265
0.276851 0.783265 0.783265
0.410771 0.783265 0.783265
0.540383 0.783265 0.783265
0.664801 0.783265 0.783265
0.783265 0.783265 0.783265
0.895152 0.783265 0.783265
1.000000 0.783265 0.783265
0.000000 0.895152 0.783265
0.139588 0.895152 0.783265
0.276851 0.895152 0.783265
0.410771 0.895152 0.783265
0.540383 0.895152 0.783265
0.664801 0.895152 0.783265
0.783265 0.895152 0.783265
0.895152 0.895152 0.783265
1.000000 0.895152 0.783265
0.000000 1.000000 0.783265
0.139588 1.000000 0.783265
0.276851 1.000000 0.783265
0.410771 1.000000 0.783265
0.540383 1.000000 0.783265
0.664801 1.000000 0.783265
0.783265 1.000000 0.783265
0.895152 1.000000 0.783265
1.000000 1.000000 0.783265
0.000000 0.000000 0.895152
0.139588 0.000000 0.895152
0.276851 0.000000 0.895152
0.410771 0.000000 0.895152
0.540383 0.000000 0.895152
0.664801 0.000000 0.895152
0.783265 0.000000 0.895152
0.895152 0.000000 0.895152
1.000000 0.000000 0.895152
0.000000 0.139588 0.895152
0.139588 0.139588 0.895152
0.276851 0.139588 0.895152
0.410771 0.139588 0.895152
0.540383 0.139588 0.895152
0.664801 0.139588 0.895152
0.783265 0.139588 0.895152
0.895152 0.139588 0.895152
1.000000 0.139588 0.895152
0.000000 0.276851 0.895152
0.139588 0.276851 0.895152
0.276851 0.276851 0.895152
0.410771 0.276851 0.895152
0.540383 0.276851 0.895152
0.664801 0.276851 0.895152
0.783265 0.276851 0.895152
0.895152 0.276851 0.895152
1.000000 0.276851 0.895152
0.000000 0.410771 0.895152
0.139588 0.410771 0.895152
0.276851 0.410771 0.895152
0.410771 0.410771 0.895152
0.540383 0.410771 0.895152
0.664801 0.410771 0.895152
0.783265 0.410771 0.895152
0.895152 0.410771 0.895152
1.000000 0.410771 0.895152
0.000000 0.540383 0.895152
0.139588 0.540383 0.895152
0.276851 0.540383 0.895152
0.410771 0.540383 0.895152
0.540383 0.540383 0.895152
0.664801 0.540383 0.895152
0.783265 0.540383 0.895152
0.895152 0.540383 0.895152
1.000000 0.540383 0.895152
0.000000 0.664801 0.895152
0.139588 0.664801 0.895152
0.276851 0.664801 0.895152
0.410771 0.664801 0.895152
0.540383 0.664801 0.895152
0.664801 0.664801 0.895152
0.783265 0.664801 0.895152
0.895152 0.664801 0.895152
1.000000 0.664801 0.895152
0.000000 0.783265 0.895152
0.139588 0.783265 0.895152
0.276851 0.783265 0.895152
0.410771 0.783265 0.895152
0.540383 0.783265 0.895152
0.664801 0.783265 0.895152
0.783265 0.783265 0.895152
0.895152 0.783265 0.895152
1.000000 0.783265 0.895152
0.000000 0.895152 0.895152
0.139588 0.895152 0.895152
0.276851 0.895152 0.895152
0.410771 0.895152 0.895152
0.540383 0.895152 0.895152
0.664801 0.895152 0.895152
0.783265 0.895152 0.895152
0.895152 0.895152 0.895152
1.000000 0.895152 0.895152
0.000000 1.000000 0.895152
0.139588 1.000000 0.895152
0.276851 1.000000 0.895152
0.410771 1.000000 0.895152
0.540383 1.000000 0.895152
0.664801 1.000000 0.895152
0.783265 1.000000 0.895152
0.895152 1.000000 0.895152
1.000000 1.000000 0.895152
0.000000 0.000000 1.000000
0.139588 0.000000 1.000000
0.276851 0.000000 1.000000
0.410771 0.000000 1.000000
0.540383 0.000000 1.000000
0.664801 0.000000 1.000000
0.783265 0.000000 1.000000
0.895152 0.000000 1.000000
1.000000 0.000000 1.000000
0.000000 0.139588 1.000000
0.139588 0.139588 1.000000
0.276851 0.139588 1.000000
0.410771 0.139588 1.000000
0.540383 0.139588 1.000000
0.664801 0.139588 1.000000
0.783265 0.139588 1.000000
0.895152 0.139588 1.000000
1.000000 0.139588 1.000000
0.000000 0.276851 1.000000
0.139588 0.276851 1.000000
0.276851 0.276851 1.000000
0.410771 0.276851 1.000000
0.540383 0.276851 1.000000
0.664801 0.276851 1.000000
0.783265 0.276851 1.000000
0.895152 0.276851 1.000000
1.000000 0.276851 1.000000
0.000000 0.410771 1.000000
0.139588 0.410771 1.000000
0.276851 0.410771 1.000000
0.410771 0.410771 1.000000
0.540383 0.410771 1.000000
0.664801 0.410771 1.000000
0.783265 0.410771 1.000000
0.895152 0.410771 1.000000
1.000000 0.410771 1.000000
0.000000 0.540383 1.000000
0.139588 0.540383 1.000000
0.276851 0.540383 1.000000
0.410771 0.540383 1.000000
0.540383 0.540383 1.000000
0.664801 0.540383 1.000000
0.783265 0.540383 1.000000
0.895152 0.540383 1.000000
1.000000 0.540383 1.000000
0.000000 0.664801 1.000000
0.139588 0.664801 1.000000
0.276851 0.664801 1.000000
0.410771 0.664801 1.000000
0.540383 0.664801 1.000000
0.664801 0.664801 1.000000
0.783265 0.664801 1.000000
0.895152 0.664801 1.000000
1.000000 0.664801 1.000000
0.000000 0.783265 1.000000
0.139588 0.783265 1.000000
0.276851 0.783265 1.000000
0.410771 0.783265 1.000000
0.540383 0.783265 1.000000
0.664801 0.783265 1.000000
0.783265 0.783265 1.000000
0.895152 0.783265 1.000000
1.000000 0.783265 1.000000
0.000000 0.895152 1.000000
0.139588 0.895152 1.000000
0.276851 0.895152 1.000000
0.410771 0.895152 1.000000
0.540383 0.895152 1.000000
0.664801 0.895152 1.000000
0.783265 0.895152 1.000000
0.895152 0.895152 1.000000
1.000000 0.895152 1.000000
0.000000 1.000000 1.000000
0.139588 1.000000 1.000000
0.276851 1.000000 1.000000
0.410771 1.000000 1.000000
0.540383 1.000000 1.000000
0.664801 1.000000 1.000000
0.783265 1.000000 1.000000
0.895152 1.000000 1.000000
1.000000 1.000000 1.000000
