luts/kodak_gold_200.cube
TITLE Film LUT
LUT_3D_SIZE 9
DOMAIN_MIN 0.0 0.0 0.0
DOMAIN_MAX 1.0 1.0 1.0
0.000000 0.000000 0.000000
0.136939 0.032865 0.000000
0.271549 0.065172 0.000000
0.403245 0.096779 0.000000
0.531457 0.127550 0.000000
0.655675 0.157362 0.000000
0.775415 0.186100 0.000000
0.890307 0.213674 0.000000
1.000000 0.240000 0.000000
0.000000 0.136935 0.032864
0.104078 0.136939 0.000000
0.271549 0.202107 0.000000
0.403245 0.233714 0.000000
0.531457 0.264485 0.000000
0.655675 0.294297 0.000000
0.775415 0.323035 0.000000
0.890307 0.350609 0.000000
1.000000 0.376935 0.000000
0.000000 0.271550 0.065172
0.071767 0.271550 0.000000
0.206377 0.271550 0.000000
0.403245 0.368329 0.000000
0.531457 0.399100 0.000000
0.655675 0.428912 0.000000
0.775415 0.457650 0.000000
0.890307 0.485224 0.000000
1.000000 0.511550 0.000000
0.000000 0.403243 0.096778
0.040161 0.403243 0.000000
0.174771 0.403243 0.000000
0.306468 0.403245 0.000000
0.531457 0.530793 0.000000
0.655675 0.560605 0.000000
0.775415 0.589343 0.000000
0.890307 0.616917 0.000000
1.000000 0.643243 0.000000
0.000000 0.531459 0.127550
0.009389 0.531459 0.000000
0.143999 0.531459 0.000000
0.275695 0.531459 0.000000
0.403907 0.531459 0.000000
0.622529 0.655675 0.000000
0.775415 0.717559 0.000000
0.890307 0.745133 0.000000
1.000000 0.771459 0.000000
0.000000 0.655675 0.157362
0.000000 0.655675 0.020423
0.114187 0.655675 0.000000
0.245883 0.655675 0.000000
0.374095 0.655675 0.000000
0.498313 0.655675 0.000000
0.709055 0.775415 0.000000
0.890307 0.869349 0.000000
1.000000 0.895675 0.000000
0.000000 0.775424 0.186102
0.000000 0.775424 0.049163
0.085447 0.775424 0.000000
0.217143 0.775424 0.000000
0.345355 0.775424 0.000000
0.469573 0.775424 0.000000
0.589313 0.775424 0.000000
0.791516 0.890307 0.000000
0.984576 1.000000 0.000000
0.000000 0.890307 0.213674
0.000000 0.890307 0.076735
0.057875 0.890307 0.000000
0.189571 0.890307 0.000000
0.317783 0.890307 0.000000
0.442001 0.890307 0.000000
0.561741 0.890307 0.000000
0.676633 0.890307 0.000000
0.869693 1.000000 0.000000
0.000000 1.000000 0.240000
0.000000 1.000000 0.103061
0.031549 1.000000 0.000000
0.163245 1.000000 0.000000
0.291457 1.000000 0.000000
0.415675 1.000000 0.000000
0.535415 1.000000 0.000000
0.650307 1.000000 0.000000
0.760000 1.000000 0.000000
0.032865 0.000000 0.136936
0.136939 0.000000 0.104071
0.271549 0.000000 0.071764
0.403245 0.000000 0.040157
0.531457 0.000000 0.009386
0.655675 0.020426 0.000000
0.775415 0.049164 0.000000
0.890307 0.076738 0.000000
1.000000 0.103064 0.000000
0.000000 0.104070 0.136936
0.136939 0.136934 0.136934
0.271549 0.153895 0.116743
0.403245 0.170489 0.096989
0.531457 0.186644 0.077757
0.655675 0.202295 0.059124
0.775415 0.217382 0.041163
0.890307 0.231859 0.023929
1.000000 0.245680 0.007475
0.000000 0.271550 0.202108
0.116744 0.271550 0.153894
0.234395 0.271550 0.116744
0.403245 0.325297 0.096990
0.531457 0.341452 0.077758
0.655675 0.357103 0.059125
0.775415 0.372190 0.041164
0.890307 0.386667 0.023930
1.000000 0.400488 0.007476
0.000000 0.403243 0.233714
0.096990 0.403243 0.170487
0.178294 0.403243 0.096990
0.329746 0.403245 0.096990
0.531457 0.492899 0.077758
0.655675 0.508550 0.059125
0.775415 0.523637 0.041164
0.890307 0.538114 0.023930
1.000000 0.551935 0.007476
0.000000 0.531459 0.264486
0.077758 0.531459 0.186642
0.123674 0.531459 0.077758
0.275125 0.531459 0.077758
0.422568 0.531459 0.077758
0.655351 0.655675 0.059125
0.775415 0.671086 0.041164
0.890307 0.685562 0.023930
1.000000 0.699384 0.007476
0.000000 0.655675 0.294298
0.059125 0.655675 0.202294
0.070758 0.655675 0.059125
0.222209 0.655675 0.059125
0.369652 0.655675 0.059125
0.512503 0.655675 0.059125
0.736896 0.775415 0.041164
0.890307 0.828411 0.023930
1.000000 0.842232 0.007476
0.000000 0.775424 0.323038
0.041163 0.775424 0.217382
0.041163 0.775424 0.062581
0.171195 0.775424 0.041163
0.318639 0.775424 0.041163
0.461490 0.775424 0.041163
0.599191 0.775424 0.041163
0.814492 0.890307 0.023930
1.000000 0.979943 0.007476
0.000000 0.890307 0.350610
0.023930 0.890307 0.231857
0.023930 0.890307 0.077056
0.122255 0.890307 0.023930
0.269699 0.890307 0.023930
0.412550 0.890307 0.023930
0.550251 0.890307 0.023930
0.682377 0.890307 0.023930
0.887941 1.000000 0.007476
0.000000 1.000000 0.376936
0.007476 1.000000 0.245679
0.007476 1.000000 0.090877
0.075526 1.000000 0.007476
0.222970 1.000000 0.007476
0.365821 1.000000 0.007476
0.503522 1.000000 0.007476
0.635647 1.000000 0.007476
0.761794 1.000000 0.007476
0.065172 0.000000 0.271548
0.202111 0.000000 0.271548
0.271549 0.000000 0.206376
0.403245 0.000000 0.174769
0.531457 0.000000 0.143998
0.655675 0.000000 0.114186
0.775415 0.000000 0.085448
0.890307 0.000000 0.057874
1.000000 0.000000 0.031548
0.000000 0.071763 0.271548
0.153901 0.116743 0.271548
0.271549 0.116743 0.234394
0.403245 0.096989 0.178292
0.531457 0.077757 0.123674
0.655675 0.059124 0.070757
0.775415 0.062579 0.041163
0.890307 0.077055 0.023929
1.000000 0.090876 0.007475
0.000000 0.206380 0.271550
0.116747 0.234400 0.271550
0.271548 0.271550 0.271548
0.403245 0.288144 0.251793
0.531457 0.304299 0.232562
0.655675 0.319950 0.213929
0.775415 0.335038 0.195968
0.890307 0.349514 0.178734
1.000000 0.363335 0.162280
0.000000 0.403243 0.368326
0.096993 0.403243 0.325294
0.251794 0.403243 0.288140
0.366899 0.403245 0.251793
0.531457 0.455746 0.232562
0.655675 0.471397 0.213929
0.775415 0.486484 0.195968
0.890307 0.500961 0.178734
1.000000 0.514782 0.162280
0.000000 0.531459 0.399098
0.077761 0.531459 0.341449
0.232561 0.531459 0.304296
0.312277 0.531459 0.232561
0.459721 0.531459 0.232561
0.655675 0.618846 0.213929
0.775415 0.633933 0.195968
0.890307 0.648409 0.178734
1.000000 0.662231 0.162280
0.000000 0.655675 0.428910
0.059129 0.655675 0.357100
0.213929 0.655675 0.319947
0.259361 0.655675 0.213929
0.406805 0.655675 0.213929
0.549656 0.655675 0.213929
0.774049 0.775415 0.195968
0.890307 0.791258 0.178734
1.000000 0.805079 0.162280
0.000000 0.775424 0.457650
0.041166 0.775424 0.372188
0.195967 0.775424 0.335035
0.208348 0.775424 0.195967
0.355792 0.775424 0.195967
0.498643 0.775424 0.195967
0.636344 0.775424 0.195967
0.851645 0.890307 0.178734
1.000000 0.942790 0.162280
0.000000 0.890307 0.485222
0.023934 0.890307 0.386664
0.178734 0.890307 0.349510
0.178734 0.890307 0.198060
0.306852 0.890307 0.178734
0.449703 0.890307 0.178734
0.587404 0.890307 0.178734
0.719530 0.890307 0.178734
0.925094 1.000000 0.162280
0.000000 1.000000 0.511548
0.007480 1.000000 0.400485
0.162280 1.000000 0.363332
0.162280 1.000000 0.211881
0.260123 1.000000 0.162280
0.402973 1.000000 0.162280
0.540674 1.000000 0.162280
0.672800 1.000000 0.162280
0.798947 1.000000 0.162280
0.096779 0.000000 0.403244
0.233718 0.000000 0.403244
0.368328 0.000000 0.403244
0.403245 0.000000 0.306465
0.531457 0.000000 0.275694
0.655675 0.000000 0.245882
0.775415 0.000000 0.217144
0.890307 0.000000 0.189570
1.000000 0.000000 0.163244
0.000000 0.040156 0.403244
0.170495 0.096989 0.403244
0.325296 0.096989 0.403244
0.403245 0.096989 0.329742
0.531457 0.077757 0.275124
0.655675 0.059124 0.222207
0.775415 0.041163 0.171198
0.890307 0.023929 0.122254
1.000000 0.007475 0.075525
0.000000 0.174771 0.403244
0.096993 0.178296 0.403244
0.288141 0.251795 0.403244
0.403245 0.251796 0.366896
0.531457 0.232564 0.312278
0.655675 0.213931 0.259361
0.775415 0.195970 0.208352
0.890307 0.198065 0.178736
1.000000 0.211887 0.162282
0.000000 0.306464 0.403244
0.096993 0.329743 0.403244
0.251795 0.366895 0.403244
0.403245 0.403243 0.403243
0.531457 0.419397 0.384011
0.655675 0.435048 0.365378
0.775415 0.450136 0.347417
0.890307 0.464612 0.330183
1.000000 0.478433 0.313729
0.000000 0.531459 0.530794
0.077761 0.531459 0.492899
0.232563 0.531459 0.455747
0.384012 0.531459 0.419398
0.496069 0.531459 0.384012
0.655675 0.582498 0.365379
0.775415 0.597585 0.347418
0.890307 0.612061 0.330185
1.000000 0.625883 0.313731
0.000000 0.655675 0.560606
0.059129 0.655675 0.508550
0.213930 0.655675 0.471398
0.365379 0.655675 0.435049
0.443153 0.655675 0.365379
0.586004 0.655675 0.365379
0.775415 0.740433 0.347418
0.890307 0.754910 0.330185
1.000000 0.768731 0.313731
0.000000 0.775424 0.589346
0.041166 0.775424 0.523639
0.195968 0.775424 0.486486
0.347417 0.775424 0.450138
0.392140 0.775424 0.347417
0.534991 0.775424 0.347417
0.672692 0.775424 0.347417
0.887993 0.890307 0.330185
1.000000 0.906442 0.313731
0.000000 0.890307 0.616918
0.023934 0.890307 0.538114
0.178735 0.890307 0.500962
0.330185 0.890307 0.464613
0.343200 0.890307 0.330185
0.486051 0.890307 0.330185
0.623752 0.890307 0.330185
0.755878 0.890307 0.330185
0.961442 1.000000 0.313731
0.000000 1.000000 0.643244
0.007480 1.000000 0.551935
0.162281 1.000000 0.514783
0.313731 1.000000 0.478434
0.313731 1.000000 0.330990
0.439322 1.000000 0.313731
0.577023 1.000000 0.313731
0.709148 1.000000 0.313731
0.835295 1.000000 0.313731
0.127549 0.000000 0.531453
0.264488 0.000000 0.531453
0.399098 0.000000 0.531453
0.530794 0.000000 0.531453
0.531457 0.000000 0.403903
0.655675 0.000000 0.374091
0.775415 0.000000 0.345353
0.890307 0.000000 0.317779
1.000000 0.000000 0.291453
0.000000 0.009386 0.531453
0.186649 0.077757 0.531453
0.341450 0.077757 0.531453
0.492901 0.077757 0.531453
0.531457 0.077757 0.422564
0.655675 0.059124 0.369647
0.775415 0.041163 0.318638
0.890307 0.023929 0.269694
1.000000 0.007475 0.222965
0.000000 0.144001 0.531453
0.077762 0.123679 0.531453
0.304296 0.232563 0.531453
0.455747 0.232565 0.531453
0.531457 0.232564 0.459718
0.655675 0.213931 0.406801
0.775415 0.195970 0.355792
0.890307 0.178736 0.306848
1.000000 0.162282 0.260119
0.000000 0.275694 0.531453
0.077762 0.275126 0.531453
0.232563 0.312278 0.531453
0.419400 0.384012 0.531453
0.531457 0.384011 0.496065
0.655675 0.365378 0.443148
0.775415 0.347417 0.392139
0.890307 0.330183 0.343195
1.000000 0.330993 0.313729
0.000000 0.403915 0.531459
0.077761 0.422578 0.531459
0.232563 0.459731 0.531459
0.384013 0.496079 0.531459
0.531455 0.531459 0.531452
0.655675 0.547112 0.512820
0.775415 0.562199 0.494859
0.890307 0.576676 0.477625
1.000000 0.590497 0.461171
0.000000 0.622535 0.655675
0.059129 0.655359 0.655675
0.213930 0.655675 0.618838
0.365381 0.655675 0.582490
0.512820 0.655675 0.547100
0.621390 0.655675 0.512820
0.775415 0.705048 0.494859
0.890307 0.719524 0.477625
1.000000 0.733345 0.461171
0.000000 0.775424 0.717555
0.041166 0.775424 0.671079
0.195968 0.775424 0.633927
0.347418 0.775424 0.597579
0.494857 0.775424 0.562189
0.570377 0.775424 0.494857
0.708078 0.775424 0.494857
0.890307 0.857235 0.477625
1.000000 0.871057 0.461171
0.000000 0.890307 0.745127
0.023934 0.890307 0.685554
0.178735 0.890307 0.648402
0.330186 0.890307 0.612054
0.477625 0.890307 0.576664
0.521436 0.890307 0.477625
0.659137 0.890307 0.477625
0.791263 0.890307 0.477625
0.996828 1.000000 0.461171
0.000000 1.000000 0.771453
0.007480 1.000000 0.699376
0.162281 1.000000 0.662223
0.313732 1.000000 0.625875
0.461171 1.000000 0.590485
0.474707 1.000000 0.461171
0.612408 1.000000 0.461171
0.744534 1.000000 0.461171
0.870681 1.000000 0.461171
0.157361 0.000000 0.655670
0.294300 0.000000 0.655670
0.428910 0.000000 0.655670
0.560606 0.000000 0.655670
0.655670 0.000000 0.622522
0.655675 0.000000 0.498308
0.775415 0.000000 0.469570
0.890307 0.000000 0.441996
1.000000 0.000000 0.415670
0.020426 0.000000 0.655670
0.202300 0.059125 0.655670
0.357102 0.059125 0.655670
0.508552 0.059125 0.655670
0.655670 0.059125 0.655344
0.655675 0.059124 0.512497
0.775415 0.041163 0.461488
0.890307 0.023929 0.412544
1.000000 0.007475 0.365815
0.000000 0.114189 0.655670
0.059129 0.070762 0.655670
0.319947 0.213931 0.655670
0.471398 0.213932 0.655670
0.618842 0.213932 0.655670
0.655675 0.213931 0.549651
0.775415 0.195970 0.498642
0.890307 0.178736 0.449698
1.000000 0.162282 0.402968
0.000000 0.245882 0.655670
0.059129 0.222209 0.655670
0.213931 0.259362 0.655670
0.435051 0.365379 0.655670
0.582495 0.365379 0.655670
0.655675 0.365378 0.585998
0.775415 0.347417 0.534989
0.890307 0.330183 0.486045
1.000000 0.313729 0.439316
0.000000 0.374098 0.655670
0.059129 0.369658 0.655670
0.213931 0.406810 0.655670
0.365381 0.443158 0.655670
0.547106 0.512825 0.655670
0.655675 0.512827 0.621386
0.775415 0.494866 0.570376
0.890307 0.477632 0.521432
1.000000 0.461178 0.474703
0.000000 0.498318 0.655675
0.059129 0.512510 0.655675
0.213930 0.549662 0.655675
0.365381 0.586010 0.655675
0.512824 0.621397 0.655675
0.655674 0.655675 0.655669
0.775415 0.670764 0.637708
0.890307 0.685240 0.620474
1.000000 0.699061 0.604021
0.000000 0.709076 0.775424
0.041166 0.736919 0.775424
0.195968 0.774072 0.775424
0.347418 0.775424 0.740428
0.494862 0.775424 0.705042
0.637707 0.775424 0.670753
0.742362 0.775424 0.637707
0.890307 0.822951 0.620474
1.000000 0.836773 0.604021
0.000000 0.890307 0.869344
0.023934 0.890307 0.828404
0.178735 0.890307 0.791252
0.330186 0.890307 0.754904
0.477629 0.890307 0.719517
0.620474 0.890307 0.685229
0.693421 0.890307 0.620474
0.825547 0.890307 0.620474
1.000000 0.968888 0.604021
0.000000 1.000000 0.895670
0.007480 1.000000 0.842225
0.162281 1.000000 0.805073
0.313732 1.000000 0.768725
0.461176 1.000000 0.733338
0.604021 1.000000 0.699050
0.646692 1.000000 0.604021
0.778818 1.000000 0.604021
0.904965 1.000000 0.604021
0.186102 0.000000 0.775424
0.323041 0.000000 0.775424
0.457651 0.000000 0.775424
0.589347 0.000000 0.775424
0.717559 0.000000 0.775424
0.775424 0.000000 0.709071
0.775424 0.000000 0.589331
0.890307 0.000000 0.561750
1.000000 0.000000 0.535424
0.049167 0.000000 0.775424
0.217389 0.041162 0.775424
0.372191 0.041162 0.775424
0.523641 0.041162 0.775424
0.671085 0.041162 0.775424
0.775424 0.041162 0.736912
0.775424 0.041162 0.599211
0.890307 0.023929 0.550261
1.000000 0.007475 0.503532
0.000000 0.085448 0.775424
0.062585 0.041166 0.775424
0.335036 0.195968 0.775424
0.486487 0.195969 0.775424
0.633931 0.195969 0.775424
0.775424 0.195969 0.774066
0.775424 0.195969 0.636365
0.890307 0.178736 0.587415
1.000000 0.162282 0.540685
0.000000 0.217141 0.775424
0.041166 0.171194 0.775424
0.195968 0.208346 0.775424
0.450140 0.347416 0.775424
0.597584 0.347416 0.775424
0.740435 0.347416 0.775424
0.775424 0.347416 0.672712
0.890307 0.330183 0.623762
1.000000 0.313729 0.577033
0.000000 0.345357 0.775424
0.041166 0.318642 0.775424
0.195968 0.355795 0.775424
0.347418 0.392143 0.775424
0.562195 0.494862 0.775424
0.705047 0.494864 0.775424
0.775424 0.494864 0.708100
0.890307 0.477632 0.659150
1.000000 0.461178 0.612420
0.000000 0.469573 0.775424
0.041166 0.461491 0.775424
0.195968 0.498643 0.775424
0.347418 0.534991 0.775424
0.494862 0.570378 0.775424
0.670763 0.637713 0.775424
0.775424 0.637713 0.742384
0.890307 0.620480 0.693433
1.000000 0.604026 0.646704
0.000000 0.589322 0.775424
0.041166 0.599202 0.775424
0.195968 0.636354 0.775424
0.347418 0.672703 0.775424
0.494862 0.708089 0.775424
0.637713 0.742373 0.775424
0.775414 0.775422 0.775424
0.890307 0.789899 0.758192
1.000000 0.803721 0.741738
0.000000 0.791516 0.890307
0.023934 0.814493 0.890307
0.178735 0.851645 0.890307
0.330186 0.887993 0.890307
0.477629 0.890307 0.857234
0.620480 0.890307 0.822950
0.758181 0.890307 0.789902
0.858599 0.890307 0.758192
1.000000 0.935836 0.741738
0.000000 0.984576 1.000000
0.007480 1.000000 0.979942
0.162281 1.000000 0.942790
0.313732 1.000000 0.906442
0.461176 1.000000 0.871055
0.604026 1.000000 0.836771
0.741727 1.000000 0.803723
0.811870 1.000000 0.741738
0.938017 1.000000 0.741738
0.213674 0.000000 0.890309
0.350613 0.000000 0.890309
0.485223 0.000000 0.890309
0.616919 0.000000 0.890309
0.745131 0.000000 0.890309
0.869349 0.000000 0.890309
0.890309 0.000000 0.791529
0.890309 0.000000 0.676637
1.000000 0.000000 0.650309
0.076739 0.000000 0.890309
0.231865 0.023929 0.890309
0.386666 0.023929 0.890309
0.538117 0.023929 0.890309
0.685560 0.023929 0.890309
0.828411 0.023929 0.890309
0.890309 0.023929 0.814506
0.890309 0.023929 0.682380
1.000000 0.007475 0.635649
0.000000 0.057876 0.890309
0.077061 0.023934 0.890309
0.349512 0.178735 0.890309
0.500963 0.178736 0.890309
0.648407 0.178736 0.890309
0.791257 0.178736 0.890309
0.890309 0.178736 0.851660
0.890309 0.178736 0.719534
1.000000 0.162282 0.672803
0.000000 0.189569 0.890309
0.023934 0.122253 0.890309
0.198065 0.178735 0.890309
0.464616 0.330183 0.890309
0.612059 0.330183 0.890309
0.754910 0.330183 0.890309
0.890309 0.330183 0.888007
0.890309 0.330183 0.755881
1.000000 0.313729 0.709150
0.000000 0.317785 0.890309
0.023934 0.269701 0.890309
0.178735 0.306854 0.890309
0.330185 0.343202 0.890309
0.576670 0.477629 0.890309
0.719523 0.477632 0.890309
0.857223 0.477632 0.890309
0.890309 0.477632 0.791269
1.000000 0.461178 0.744538
0.000000 0.442001 0.890309
0.023934 0.412550 0.890309
0.178735 0.449702 0.890309
0.330185 0.486050 0.890309
0.477629 0.521437 0.890309
0.685239 0.620480 0.890309
0.822940 0.620480 0.890309
0.890309 0.620480 0.825552
1.000000 0.604026 0.778822
0.000000 0.561750 0.890309
0.023934 0.550261 0.890309
0.178735 0.587413 0.890309
0.330185 0.623762 0.890309
0.477629 0.659148 0.890309
0.620480 0.693432 0.890309
0.789881 0.758181 0.890309
0.890309 0.758191 0.858603
1.000000 0.741738 0.811872
0.000000 0.676633 0.890309
0.023934 0.682377 0.890309
0.178735 0.719529 0.890309
0.330185 0.755877 0.890309
0.477629 0.791264 0.890309
0.620480 0.825548 0.890309
0.758181 0.858596 0.890309
0.890307 0.890307 0.890309
1.000000 0.904126 0.873853
0.000000 0.869691 1.000000
0.007480 0.887940 1.000000
0.162281 0.925092 1.000000
0.313732 0.961440 1.000000
0.461176 0.996827 1.000000
0.604026 1.000000 0.968889
0.741727 1.000000 0.935841
0.873853 1.000000 0.904131
0.969725 1.000000 0.873855
0.240000 0.000000 1.000000
0.376939 0.000000 1.000000
0.511549 0.000000 1.000000
0.643245 0.000000 1.000000
0.771457 0.000000 1.000000
0.895675 0.000000 1.000000
1.000000 0.000000 0.984585
1.000000 0.000000 0.869693
1.000000 0.000000 0.760000
0.103065 0.000000 1.000000
0.245686 0.007475 1.000000
0.400487 0.007475 1.000000
0.551938 0.007475 1.000000
0.699381 0.007475 1.000000
0.842232 0.007475 1.000000
0.979933 0.007475 1.000000
1.000000 0.007475 0.887941
1.000000 0.007475 0.761794
0.000000 0.031550 1.000000
0.090882 0.007480 1.000000
0.363333 0.162281 1.000000
0.514784 0.162282 1.000000
0.662228 0.162282 1.000000
0.805078 0.162282 1.000000
0.942779 0.162282 1.000000
1.000000 0.162282 0.925095
1.000000 0.162282 0.798948
0.000000 0.163243 1.000000
0.007480 0.075525 1.000000
0.211886 0.162281 1.000000
0.478437 0.313729 1.000000
0.625880 0.313729 1.000000
0.768731 0.313729 1.000000
0.906432 0.313729 1.000000
1.000000 0.313729 0.961442
1.000000 0.313729 0.835295
0.000000 0.291459 1.000000
0.007480 0.222973 1.000000
0.162281 0.260125 1.000000
0.330990 0.313732 1.000000
0.590491 0.461176 1.000000
0.733344 0.461178 1.000000
0.871045 0.461178 1.000000
1.000000 0.461178 0.996830
1.000000 0.461178 0.870683
0.000000 0.415675 1.000000
0.007480 0.365821 1.000000
0.162281 0.402974 1.000000
0.313732 0.439322 1.000000
0.461176 0.474708 1.000000
0.699060 0.604026 1.000000
0.836761 0.604026 1.000000
0.968887 0.604026 1.000000
1.000000 0.604026 0.904966
0.000000 0.535424 1.000000
0.007480 0.503533 1.000000
0.162281 0.540685 1.000000
0.313732 0.577033 1.000000
0.461176 0.612420 1.000000
0.604026 0.646704 1.000000
0.803702 0.741727 1.000000
0.935836 0.741738 1.000000
1.000000 0.741738 0.938017
0.000000 0.650307 1.000000
0.007480 0.635648 1.000000
0.162281 0.672801 1.000000
0.313732 0.709149 1.000000
0.461176 0.744535 1.000000
0.604026 0.778819 1.000000
0.741727 0.811868 1.000000
0.904128 0.873853 1.000000
1.000000 0.873853 0.969725
0.000000 0.760000 1.000000
0.007480 0.761795 1.000000
0.162281 0.798948 1.000000
0.313732 0.835296 1.000000
0.461176 0.870682 1.000000
0.604026 0.904966 1.000000
0.741727 0.938015 1.000000
0.873853 0.969725 1.000000
1.000000 1.000000 1.000000
