luts/KODAK FPE 01.cube
TITLE "Generated by Resolve"
LUT_3D_SIZE 9
0.0150912 0.0211795 0.0280919
0.078294 0.0390784 0.0347601
0.195987 0.0618143 0.0294652
0.337316 0.0798505 0.0163119
0.468315 0.0932174 0.025391
0.580133 0.107027 0.0413062
0.664775 0.129107 0.0467994
0.730999 0.152377 0.0577554
0.785214 0.170855 0.0914321
0.0151217 0.0831311 0.0638285
0.0909133 0.0931868 0.0611124
0.223774 0.115618 0.046128
0.368704 0.136767 0.0212253
0.498054 0.153414 0.0198062
0.605356 0.17406 0.0246433
0.697551 0.197024 0.0383917
0.770077 0.223148 0.0577554
0.812085 0.242481 0.0802014
0.0269169 0.184283 0.103578
0.0867018 0.201144 0.101335
0.256275 0.226795 0.0706493
0.41709 0.250172 0.0362554
0.5523 0.268101 0.0254368
0.65507 0.286885 0.0243229
0.742092 0.308003 0.0302586
0.812787 0.332631 0.0435645
0.851331 0.344411 0.0585489
0.0457618 0.306004 0.137194
0.0628672 0.337835 0.1308
0.267521 0.352636 0.0798047
0.439246 0.375326 0.0473487
0.581491 0.392752 0.0289006
0.694041 0.411231 0.0263371
0.785321 0.43003 0.0306249
0.85597 0.452461 0.0386053
0.894331 0.461845 0.0336156
0.0700542 0.424857 0.161501
0.0836957 0.46157 0.136019
0.263478 0.474052 0.099443
0.445274 0.49305 0.0599374
0.598215 0.512306 0.042649
0.715679 0.531594 0.0356451
0.810285 0.550072 0.033341
0.886091 0.570459 0.0364843
0.928954 0.58175 0.0349126
0.0977188 0.533654 0.182315
0.103517 0.571908 0.174243
0.241993 0.586114 0.135332
0.439979 0.597803 0.088838
0.604135 0.615976 0.062562
0.730724 0.636027 0.0609445
0.828748 0.654002 0.06009
0.908598 0.673075 0.0602121
0.949981 0.687419 0.0672465
0.126802 0.633921 0.216922
0.122652 0.670558 0.211963
0.201633 0.689219 0.180499
0.426017 0.689479 0.125811
0.595209 0.704494 0.0924239
0.731197 0.724315 0.0894484
0.840284 0.743282 0.0959029
0.921324 0.76463 0.100267
0.969284 0.77911 0.10515
0.155444 0.725048 0.25507
0.14725 0.759823 0.247395
0.199527 0.774487 0.215381
0.323857 0.767086 0.162829
0.527916 0.776715 0.135653
0.685054 0.795056 0.125689
0.822629 0.817761 0.13521
0.923247 0.846174 0.155184
0.980377 0.862531 0.168963
0.129503 0.765621 0.354818
0.13106 0.802533 0.312612
0.227466 0.798947 0.255909
0.317205 0.79527 0.223865
0.388235 0.797925 0.211841
0.443992 0.805966 0.218219
0.491173 0.822599 0.241779
0.725567 0.86949 0.299031
0.964202 0.957366 0.392477
0.0180972 0.030808 0.0790265
0.082536 0.0472877 0.0900435
0.22829 0.0632334 0.0926528
0.365072 0.0804456 0.100282
0.488441 0.0837415 0.114458
0.584527 0.102937 0.118914
0.668391 0.125307 0.123568
0.735683 0.149187 0.130449
0.790097 0.168307 0.155871
0.0078584 0.0941329 0.116152
0.0840162 0.102144 0.114824
0.22855 0.121309 0.11014
0.379644 0.138491 0.108186
0.507683 0.152178 0.109117
0.618051 0.169512 0.116869
0.723369 0.185061 0.133928
0.805219 0.205173 0.154986
0.838605 0.227695 0.157229
0.0203403 0.197253 0.156069
0.0481727 0.221897 0.165759
0.245655 0.236103 0.15108
0.417227 0.253697 0.131228
0.55169 0.270771 0.118395
0.657557 0.290166 0.108019
0.749142 0.312581 0.103014
0.823056 0.337346 0.107836
0.860548 0.34638 0.107408
0.0388952 0.318456 0.193286
0.0505226 0.350286 0.201266
0.244572 0.363531 0.179248
0.437171 0.382162 0.144137
0.585367 0.398337 0.111223
0.69926 0.419318 0.0869001
0.790494 0.438163 0.0873426
0.860975 0.461463 0.0912184
0.899763 0.469413 0.0798352
0.0599832 0.43505 0.224872
0.0705272 0.469566 0.225772
0.231403 0.489311 0.19266
0.441596 0.503487 0.130755
0.600809 0.522866 0.0932021
0.718166 0.541192 0.0819562
0.812879 0.558907 0.0801556
0.888747 0.57908 0.0872206
0.931548 0.590814 0.0699779
0.0866407 0.540352 0.266239
0.0921187 0.576669 0.260578
0.204791 0.603387 0.212345
0.433234 0.610376 0.126696
0.603311 0.626535 0.102235
0.730617 0.645594 0.0972152
0.828885 0.662669 0.0958877
0.909621 0.68127 0.0939803
0.953979 0.69546 0.0949111
0.114397 0.63711 0.309514
0.114366 0.672572 0.29778
0.169268 0.706127 0.243839
0.416129 0.701335 0.155138
0.590982 0.714458 0.122286
0.729427 0.733333 0.110994
0.839277 0.751781 0.117311
0.923201 0.77174 0.120943
0.968872 0.786618 0.127535
0.141726 0.725139 0.35198
0.137926 0.758541 0.338354
0.163134 0.789349 0.292805
0.313008 0.776822 0.191745
0.520363 0.784924 0.158007
0.681605 0.802792 0.146654
0.820645 0.825284 0.150958
0.921843 0.851728 0.170886
0.97966 0.868437 0.184924
0.113054 0.7682 0.441794
0.110292 0.799985 0.437201
0.161746 0.813016 0.412711
0.286778 0.79472 0.363226
0.365362 0.795087 0.343084
0.424903 0.802625 0.342184
0.474876 0.819669 0.356313
0.725872 0.863478 0.39527
0.964462 0.951659 0.484657
0.031632 0.0420691 0.17734
0.100633 0.0539712 0.194568
0.224231 0.0715953 0.207507
0.37673 0.074876 0.219165
0.512032 0.0851148 0.235599
0.603571 0.103441 0.244755
0.679423 0.124453 0.254475
0.742809 0.148714 0.264836
0.795254 0.165133 0.273167
0.0114595 0.110933 0.220127
0.0864271 0.119982 0.226596
0.228199 0.136446 0.23267
0.394247 0.144808 0.237095
0.533532 0.156191 0.240604
0.63444 0.170153 0.25478
0.727428 0.183322 0.280949
0.807767 0.203006 0.309697
0.835874 0.22504 0.293614
0.0168917 0.21796 0.268864
0.0284123 0.24506 0.285252
0.23357 0.251698 0.273274
0.415106 0.264729 0.262715
0.556771 0.275898 0.261677
0.659953 0.28867 0.265888
0.745174 0.307179 0.27599
0.815229 0.332952 0.29247
0.850996 0.340993 0.280491
0.0338903 0.337423 0.307256
0.0413672 0.36997 0.321614
0.198062 0.386603 0.308324
0.409445 0.39881 0.294301
0.568902 0.40734 0.280354
0.683009 0.421302 0.278416
0.773785 0.437598 0.282292
0.845487 0.459937 0.293019
0.883543 0.467338 0.281346
0.0517433 0.453986 0.339269
0.0560922 0.488411 0.347723
0.146792 0.519142 0.340993
0.40029 0.518624 0.312016
0.579248 0.529976 0.289815
0.703487 0.541161 0.280964
0.796719 0.558175 0.27982
0.870283 0.578744 0.283955
0.910567 0.592325 0.272496
0.0761273 0.555413 0.372702
0.0785229 0.590417 0.37705
0.135851 0.627008 0.368475
0.391531 0.619333 0.320958
0.581445 0.630152 0.296712
0.711223 0.646479 0.289799
0.80911 0.662089 0.282429
0.890135 0.680491 0.280919
0.93875 0.694331 0.272969
0.103258 0.646616 0.412482
0.100649 0.680507 0.412863
0.115373 0.721279 0.406683
0.374533 0.705272 0.339406
0.560708 0.715785 0.305013
0.706477 0.732982 0.293111
0.817929 0.751019 0.286564
0.908827 0.769741 0.283726
0.963684 0.784863 0.283299
0.130022 0.729244 0.449332
0.124392 0.761059 0.447059
0.121965 0.798535 0.439323
0.27219 0.776516 0.37229
0.479286 0.781491 0.33698
0.650477 0.79942 0.31928
0.795209 0.822019 0.315297
0.917662 0.846662 0.324163
0.977462 0.864302 0.334829
0.103853 0.77203 0.510231
0.100298 0.80322 0.510643
0.119158 0.82919 0.505241
0.262409 0.802121 0.453849
0.345754 0.799313 0.438193
0.406485 0.805478 0.441733
0.456611 0.820996 0.464042
0.721447 0.863676 0.510079
0.96556 0.950957 0.599557
0.0598306 0.0525978 0.288228
0.135531 0.0548714 0.310292
0.255085 0.0743114 0.328908
0.387839 0.0778058 0.337652
0.508919 0.0891585 0.345861
0.611292 0.110307 0.35613
0.692775 0.132052 0.367453
0.755459 0.157824 0.379751
0.806729 0.176776 0.388388
0.0359197 0.12845 0.33109
0.0963302 0.146914 0.342245
0.25127 0.154788 0.350362
0.395682 0.157824 0.356588
0.528222 0.162432 0.362295
0.643122 0.176669 0.376547
0.74258 0.189975 0.403861
0.818479 0.210605 0.431785
0.843595 0.236332 0.415976
0.0179446 0.24094 0.382177
0.0296025 0.268421 0.402152
0.242679 0.273381 0.392325
0.404822 0.283894 0.39205
0.550164 0.288609 0.389975
0.670237 0.299229 0.394156
0.758053 0.315206 0.402197
0.821241 0.338109 0.418082
0.851804 0.34992 0.40853
0.0308995 0.358297 0.425574
0.0372015 0.389425 0.4421
0.157137 0.413626 0.440192
0.402808 0.411093 0.418112
0.566262 0.41912 0.41001
0.685786 0.430457 0.409277
0.776883 0.441932 0.416297
0.844236 0.45861 0.425299
0.876997 0.469459 0.417105
0.0463264 0.469703 0.455085
0.0497749 0.503365 0.467658
0.0908064 0.544442 0.474083
0.379507 0.535775 0.437293
0.55613 0.54374 0.42707
0.684977 0.555077 0.421912
0.780789 0.567239 0.420081
0.856184 0.582925 0.426261
0.896742 0.594156 0.417884
0.0694743 0.569955 0.485527
0.0697032 0.604501 0.494774
0.0897078 0.648676 0.498405
0.35523 0.638498 0.45272
0.546715 0.646204 0.440543
0.692638 0.659602 0.430808
0.796689 0.667872 0.426841
0.875349 0.685161 0.429999
0.92076 0.700542 0.420462
0.0951553 0.659205 0.51693
0.0912947 0.692409 0.522103
0.0962234 0.733593 0.521691
0.340124 0.720882 0.467353
0.534798 0.727413 0.443046
0.686061 0.74255 0.437766
0.801846 0.756466 0.438407
0.888579 0.773785 0.438743
0.945754 0.789517 0.433417
0.121584 0.735546 0.547082
0.114931 0.766705 0.549691
0.111559 0.803784 0.547173
0.242863 0.787823 0.492164
0.438956 0.788663 0.461601
0.623316 0.805478 0.449866
0.773266 0.827466 0.448402
0.900267 0.851026 0.463355
0.973754 0.86894 0.469734
0.0987869 0.774929 0.572702
0.0944686 0.805875 0.576303
0.0965744 0.838758 0.579721
0.244816 0.809339 0.528191
0.333196 0.804181 0.512505
0.395377 0.809659 0.516716
0.445838 0.825452 0.537346
0.713863 0.868788 0.582101
0.967697 0.954955 0.669825
0.092958 0.0756237 0.382132
0.15758 0.0792706 0.399054
0.277974 0.0911879 0.419287
0.399481 0.101747 0.428717
0.513512 0.106126 0.437095
0.611658 0.12256 0.44831
0.698695 0.146777 0.459709
0.767346 0.172824 0.474174
0.821256 0.196002 0.486503
0.093904 0.139223 0.437446
0.115099 0.174594 0.441306
0.276738 0.173617 0.44538
0.408148 0.18085 0.452659
0.532982 0.178271 0.462348
0.646311 0.185138 0.481971
0.754849 0.198337 0.511177
0.829374 0.224659 0.532036
0.858274 0.252766 0.52221
0.0256352 0.263279 0.472892
0.0548714 0.292683 0.494255
0.259052 0.298955 0.493278
0.416785 0.307469 0.49099
0.550515 0.307164 0.49601
0.660502 0.314412 0.501091
0.757809 0.329702 0.506615
0.828809 0.351751 0.519814
0.858289 0.366079 0.51252
0.0321355 0.379568 0.516945
0.0369116 0.410483 0.538064
0.167803 0.437354 0.541115
0.404578 0.429847 0.519371
0.55462 0.437156 0.515908
0.67538 0.445319 0.516365
0.778973 0.453635 0.523903
0.851957 0.468315 0.530907
0.878599 0.477699 0.522316
0.0452125 0.488457 0.552758
0.0472725 0.521782 0.568689
0.0710307 0.56672 0.58172
0.370504 0.552621 0.543359
0.552911 0.555169 0.529931
0.683818 0.566262 0.529122
0.782025 0.576074 0.529198
0.858076 0.586343 0.535409
0.893538 0.593118 0.52668
0.0660868 0.585275 0.583673
0.0660563 0.61886 0.595117
0.0806439 0.662486 0.602472
0.315297 0.658503 0.56289
0.537438 0.660182 0.544823
0.67776 0.671946 0.542611
0.782895 0.681529 0.54165
0.863416 0.692561 0.5411
0.911772 0.701732 0.533104
0.0909743 0.671702 0.612329
0.0865492 0.704356 0.619959
0.0897536 0.744976 0.621805
0.308919 0.738949 0.574731
0.511864 0.742397 0.552422
0.662074 0.756298 0.553841
0.790936 0.768872 0.549538
0.882277 0.779202 0.551492
0.935927 0.795956 0.543099
0.117052 0.744015 0.636179
0.109773 0.774853 0.641062
0.105562 0.812039 0.641581
0.218799 0.803601 0.595361
0.40145 0.800122 0.562921
0.601617 0.81593 0.555215
0.758984 0.837324 0.555611
0.890135 0.858915 0.574273
0.965743 0.876768 0.573831
0.0967269 0.776577 0.633326
0.092256 0.807446 0.63769
0.0936294 0.840406 0.643
0.230625 0.81593 0.596567
0.325032 0.808347 0.579217
0.388434 0.813672 0.58265
0.438911 0.82977 0.60209
0.702846 0.874632 0.644343
0.970916 0.960357 0.725948
0.124514 0.112123 0.464363
0.174395 0.119509 0.480644
0.299535 0.122164 0.498497
0.417823 0.131197 0.511437
0.526543 0.13518 0.519905
0.618372 0.14464 0.530175
0.701366 0.163973 0.541619
0.773144 0.191959 0.555489
0.834287 0.217121 0.573632
0.136797 0.166323 0.521508
0.149126 0.202609 0.524453
0.300816 0.201328 0.529595
0.42797 0.206775 0.539254
0.548837 0.203265 0.552682
0.657694 0.202258 0.575113
0.759396 0.211841 0.601862
0.835889 0.242832 0.619699
0.878004 0.267063 0.621576
0.0568551 0.28867 0.554055
0.106157 0.319844 0.57467
0.27689 0.327947 0.576974
0.433646 0.330022 0.572641
0.557015 0.333196 0.57763
0.662058 0.33373 0.588235
0.754208 0.344182 0.59733
0.830732 0.368185 0.608713
0.866133 0.384039 0.602945
0.0357214 0.402365 0.594659
0.0474861 0.433494 0.616724
0.195834 0.463874 0.62826
0.418296 0.450828 0.607462
0.561929 0.457511 0.602884
0.677272 0.460777 0.611933
0.769009 0.468635 0.615198
0.849653 0.482994 0.621256
0.883848 0.491524 0.611002
0.0458839 0.507622 0.630533
0.0485542 0.540536 0.648981
0.1037 0.584451 0.667277
0.374228 0.570306 0.631907
0.550423 0.570932 0.619333
0.673457 0.580072 0.619959
0.7738 0.588296 0.619821
0.859632 0.596597 0.627848
0.898909 0.599786 0.616876
0.0661326 0.60206 0.665446
0.0647593 0.635843 0.679316
0.0731823 0.678447 0.689982
0.32195 0.674067 0.654536
0.531807 0.674632 0.636179
0.673609 0.681559 0.631617
0.781933 0.690883 0.633509
0.860594 0.70074 0.634958
0.912764 0.700404 0.625147
0.089662 0.686137 0.695262
0.0846418 0.718624 0.705165
0.0824903 0.75903 0.710842
0.283452 0.756374 0.669993
0.491341 0.758724 0.644739
0.656229 0.769085 0.64155
0.778897 0.781811 0.643168
0.871748 0.789624 0.64419
0.93193 0.797452 0.635645
0.115099 0.753719 0.714672
0.107424 0.784314 0.721431
0.102419 0.821729 0.724468
0.19675 0.821607 0.688457
0.371679 0.813046 0.651362
0.590326 0.827604 0.642695
0.74461 0.848844 0.653132
0.886427 0.868421 0.664225
0.962402 0.88426 0.661646
0.096788 0.777951 0.688624
0.0920729 0.808682 0.694423
0.0932021 0.841657 0.700877
0.220218 0.821622 0.65951
0.319615 0.81239 0.640574
0.384314 0.81799 0.642771
0.435386 0.834531 0.660807
0.687114 0.880964 0.699519
0.975097 0.967117 0.773922
0.152148 0.157855 0.536065
0.185321 0.171191 0.557717
0.317723 0.165042 0.568887
0.435172 0.170062 0.585122
0.544198 0.173419 0.596796
0.633585 0.178317 0.607782
0.709819 0.190295 0.617472
0.777661 0.212284 0.630045
0.843442 0.241032 0.651514
0.169299 0.203708 0.592371
0.185534 0.234867 0.602777
0.322103 0.237629 0.604715
0.450141 0.239567 0.619165
0.571283 0.235126 0.637232
0.67985 0.22974 0.664073
0.767346 0.237675 0.682124
0.841123 0.261967 0.70013
0.89247 0.28603 0.708949
0.1234 0.315953 0.627222
0.156939 0.350195 0.646906
0.289693 0.363775 0.649714
0.449042 0.357794 0.648966
0.568856 0.360723 0.651072
0.668345 0.362478 0.663539
0.756329 0.366171 0.677302
0.830823 0.383932 0.690059
0.871214 0.404578 0.683619
0.0634623 0.429038 0.665217
0.0988174 0.460197 0.687602
0.219318 0.493629 0.703838
0.431403 0.474937 0.683436
0.574273 0.477028 0.677012
0.675853 0.484581 0.683925
0.769192 0.483955 0.696193
0.845731 0.495232 0.702159
0.887388 0.507347 0.691035
0.0552071 0.528664 0.700267
0.0679789 0.561807 0.719646
0.167895 0.603159 0.738674
0.390555 0.589685 0.708568
0.561074 0.586847 0.697917
0.676707 0.596033 0.697902
0.776654 0.598657 0.707347
0.849622 0.609308 0.708247
0.902068 0.611643 0.697002
0.0678874 0.619577 0.734188
0.0670329 0.652613 0.749233
0.0971389 0.694362 0.762921
0.340475 0.690135 0.733684
0.536675 0.68629 0.714183
0.667933 0.693812 0.710445
0.771923 0.701564 0.714
0.856214 0.710704 0.714427
0.919539 0.706401 0.707652
0.0896162 0.700084 0.765484
0.084535 0.732052 0.776638
0.0818952 0.772686 0.785428
0.244709 0.778042 0.756832
0.499229 0.76875 0.725444
0.65211 0.780591 0.723186
0.774395 0.78909 0.723171
0.870222 0.797223 0.725368
0.933349 0.796582 0.718639
0.114763 0.764263 0.786099
0.106569 0.794629 0.792248
0.101183 0.831983 0.79585
0.165957 0.844633 0.778271
0.338476 0.825833 0.736675
0.58761 0.838224 0.72195
0.7411 0.860029 0.734646
0.880262 0.880461 0.746242
0.960754 0.889067 0.740917
0.0985122 0.779065 0.741665
0.0936446 0.809735 0.74226
0.0944686 0.842924 0.744854
0.211337 0.827604 0.720043
0.316213 0.8168 0.699779
0.382025 0.823072 0.702876
0.433799 0.840894 0.719661
0.669398 0.888747 0.754894
0.979965 0.974853 0.822766
0.172763 0.221561 0.606073
0.203387 0.236805 0.630274
0.331762 0.229358 0.638788
0.450156 0.231693 0.656352
0.560891 0.233783 0.670497
0.650858 0.239734 0.685603
0.727077 0.244129 0.699519
0.790158 0.253742 0.711818
0.851438 0.274449 0.729412
0.193027 0.260166 0.661967
0.214282 0.287312 0.679576
0.334096 0.296742 0.672816
0.46244 0.297978 0.690471
0.58703 0.293721 0.711254
0.694011 0.289662 0.740795
0.781872 0.292424 0.764828
0.850935 0.304219 0.782864
0.897292 0.319234 0.786572
0.16968 0.358068 0.696208
0.187015 0.394842 0.713909
0.296757 0.414313 0.714656
0.455833 0.406409 0.719814
0.585168 0.404532 0.724086
0.680354 0.409445 0.736385
0.763165 0.413458 0.75407
0.833356 0.420996 0.771695
0.870924 0.433143 0.760281
0.135775 0.466178 0.731212
0.165835 0.498756 0.753246
0.242603 0.53463 0.769345
0.439902 0.515251 0.751965
0.585885 0.510292 0.750698
0.687617 0.516075 0.753689
0.769207 0.52105 0.767178
0.841917 0.523888 0.784298
0.884474 0.528466 0.768887
0.129076 0.562493 0.768093
0.15288 0.595804 0.787381
0.217548 0.635615 0.805585
0.407782 0.621912 0.779309
0.567895 0.614618 0.769604
0.685283 0.618296 0.768353
0.770367 0.626017 0.77583
0.848219 0.626032 0.79176
0.897948 0.626734 0.774609
0.0990616 0.648005 0.80444
0.112993 0.680354 0.819364
0.191775 0.720027 0.832563
0.373068 0.715755 0.805417
0.54873 0.705669 0.785809
0.67451 0.71014 0.783658
0.774502 0.71751 0.788327
0.861158 0.719585 0.801633
0.913558 0.720317 0.78497
0.0923629 0.722179 0.835904
0.0883497 0.753719 0.847257
0.107103 0.792706 0.85034
0.290608 0.806348 0.836515
0.520485 0.78291 0.799313
0.659907 0.789151 0.795316
0.77052 0.799313 0.799603
0.868803 0.807218 0.809796
0.934173 0.806729 0.800641
0.116213 0.778714 0.835767
0.107774 0.808957 0.836698
0.102068 0.845914 0.840497
0.140627 0.867277 0.847639
0.340688 0.840085 0.813519
0.568826 0.852522 0.805295
0.737194 0.871321 0.814557
0.875181 0.88806 0.824399
0.960082 0.890883 0.822858
0.101961 0.781979 0.778012
0.0966812 0.812787 0.778744
0.0975204 0.842664 0.78175
0.204318 0.836271 0.784695
0.315038 0.824826 0.764157
0.381857 0.83357 0.76907
0.434089 0.854826 0.787991
0.655726 0.904143 0.822446
0.983993 0.983352 0.870329
0.21294 0.347082 0.704112
0.222141 0.371374 0.717433
0.321096 0.375097 0.707103
0.425559 0.377783 0.722301
0.544686 0.374228 0.750088
0.659434 0.367864 0.781857
0.747784 0.371191 0.793133
0.815366 0.379355 0.807599
0.874159 0.382193 0.831434
0.221347 0.392554 0.73579
0.212451 0.432776 0.7411
0.300725 0.448264 0.73489
0.421439 0.448585 0.740642
0.534173 0.452308 0.753063
0.637629 0.457359 0.769757
0.732891 0.460868 0.785855
0.8056 0.47013 0.804517
0.845106 0.473014 0.806561
0.209781 0.480125 0.762188
0.216266 0.512871 0.781338
0.271275 0.541695 0.787213
0.42504 0.529259 0.773388
0.543328 0.531868 0.780056
0.647181 0.537224 0.793576
0.744381 0.540673 0.806424
0.818814 0.549035 0.821347
0.856992 0.545678 0.820096
0.217929 0.565637 0.799954
0.226841 0.597223 0.819593
0.258274 0.634287 0.835065
0.424826 0.616144 0.806821
0.550652 0.615686 0.80589
0.654032 0.620523 0.816007
0.751904 0.623056 0.826581
0.832135 0.628489 0.838437
0.871916 0.62153 0.835004
0.242191 0.649104 0.837827
0.247105 0.680888 0.855161
0.26865 0.71812 0.869963
0.419837 0.705028 0.839445
0.557 0.698283 0.828107
0.658854 0.702251 0.833173
0.752285 0.705226 0.841825
0.840955 0.70724 0.851484
0.88719 0.698405 0.848783
0.273594 0.725719 0.877211
0.274723 0.756725 0.891371
0.290379 0.792889 0.902617
0.417426 0.788098 0.874861
0.568078 0.772869 0.850858
0.669612 0.775692 0.850065
0.758465 0.779736 0.856382
0.850263 0.780758 0.865217
0.906966 0.769375 0.864607
0.307637 0.794003 0.914763
0.305684 0.82414 0.915145
0.316457 0.859449 0.916518
0.387533 0.874876 0.919066
0.581079 0.839597 0.874128
0.684077 0.840711 0.867964
0.772808 0.845914 0.871626
0.862257 0.849287 0.880766
0.932006 0.836164 0.883284
0.314641 0.852125 0.920699
0.310185 0.881651 0.92108
0.318883 0.915923 0.922744
0.380179 0.931868 0.925765
0.577218 0.89662 0.902815
0.688899 0.896773 0.893584
0.793057 0.903197 0.894224
0.886564 0.911742 0.904585
0.964172 0.9019 0.909545
0.102068 0.855879 0.905806
0.0987106 0.886488 0.906401
0.100053 0.913176 0.908904
0.196323 0.916472 0.913756
0.312657 0.905455 0.904707
0.380453 0.918883 0.9075
0.475547 0.94432 0.92166
0.777829 0.975158 0.939574
0.983551 0.986542 0.942657
