luts/KODAK FPE 01.cube
TITLE "Generated by Resolve"
LUT_3D_SIZE 33
0.0150912 0.0211795 0.0280919
0.018677 0.0249943 0.0311284
0.0297398 0.0287633 0.0331884
0.0512551 0.0327306 0.0340124
0.078294 0.0390784 0.0347601
0.103136 0.0468605 0.0364843
0.130999 0.0528878 0.0366064
0.162707 0.0576791 0.0337224
0.195987 0.0618143 0.0294652
0.230442 0.0661479 0.0253147
0.265553 0.0706951 0.0229191
0.302022 0.0755474 0.0173495
0.337316 0.0798505 0.0163119
0.371389 0.08336 0.0171511
0.404669 0.0868544 0.0178073
0.436652 0.0901808 0.0207828
0.468315 0.0932174 0.025391
0.499352 0.0951553 0.0310369
0.530053 0.0971847 0.0372168
0.555535 0.101823 0.0393378
0.580133 0.107027 0.0413062
0.603372 0.112291 0.0423743
0.625101 0.117632 0.0436255
0.64593 0.123323 0.0449226
0.664775 0.129107 0.0467994
0.682612 0.134905 0.0485389
0.699565 0.141054 0.0509499
0.715648 0.146685 0.054139
0.730999 0.152377 0.0577554
0.745754 0.157824 0.0634318
0.759457 0.162707 0.0704814
0.772595 0.166796 0.0801099
0.785214 0.170855 0.0914321
0.0162051 0.0311589 0.0354467
0.0226444 0.0331273 0.0362554
0.0344854 0.0362707 0.0372931
0.05449 0.0392462 0.0371405
0.0791638 0.04448 0.0369726
0.103059 0.0514992 0.0379492
0.131106 0.0571298 0.0370794
0.163409 0.0614481 0.0335088
0.196994 0.0652323 0.0279393
0.231952 0.069337 0.0222171
0.267216 0.073579 0.0182345
0.304189 0.0783551 0.0161593
0.339803 0.0827649 0.0164645
0.374014 0.0861677 0.0173495
0.407355 0.0897993 0.0170748
0.438941 0.0935988 0.0177157
0.469184 0.0977646 0.018555
0.49749 0.101747 0.0188602
0.525093 0.106111 0.0202029
0.55433 0.108186 0.0264744
0.58381 0.110109 0.0334783
0.612558 0.11162 0.040177
0.635035 0.116701 0.0420844
0.656016 0.122454 0.0435035
0.675395 0.128801 0.0459907
0.694224 0.135744 0.0487831
0.712123 0.143023 0.0524453
0.729198 0.149905 0.0569314
0.745541 0.156832 0.0617227
0.761257 0.16347 0.0686046
0.776043 0.169726 0.0770733
0.790249 0.175128 0.0880903
0.801694 0.178378 0.098558
0.0176547 0.0438239 0.043473
0.0240787 0.0445258 0.0430915
0.0376135 0.0479744 0.0443122
0.0594034 0.051667 0.0441901
0.0822919 0.057084 0.0438849
0.10544 0.063508 0.0442206
0.13463 0.0691691 0.0425269
0.167575 0.0734569 0.0386053
0.202274 0.0777142 0.0331884
0.238239 0.0821393 0.0271153
0.27451 0.0865339 0.0225376
0.311528 0.0910048 0.0168917
0.347005 0.0946822 0.0171054
0.381445 0.0982986 0.0179751
0.414542 0.101595 0.0174563
0.446128 0.105745 0.0179751
0.476204 0.109972 0.0189059
0.504662 0.114778 0.0191196
0.53225 0.119402 0.0189517
0.559426 0.124163 0.0218204
0.586297 0.128771 0.0259098
0.615183 0.131136 0.0330968
0.64184 0.135058 0.0394446
0.667887 0.138552 0.0462043
0.688594 0.144732 0.0500038
0.709361 0.150469 0.055024
0.728695 0.156466 0.0604868
0.745861 0.16347 0.0653239
0.76228 0.170474 0.070222
0.778042 0.177295 0.0770123
0.792737 0.183597 0.0856947
0.806455 0.189273 0.0963912
0.811963 0.192538 0.100832
0.0140078 0.063035 0.053315
0.0227207 0.061677 0.050721
0.0368505 0.0641947 0.0515297
0.0612345 0.0678874 0.0513161
0.0858015 0.0742351 0.0520333
0.110262 0.0808118 0.051606
0.140826 0.0863966 0.0489509
0.175937 0.0907301 0.043473
0.211521 0.09514 0.0380407
0.247242 0.100069 0.0315251
0.28333 0.105211 0.0260471
0.320073 0.11017 0.018555
0.355779 0.114153 0.0188754
0.390494 0.117922 0.0191196
0.423941 0.121645 0.0184939
0.455543 0.125719 0.0189059
0.485878 0.130404 0.0193484
0.514199 0.135271 0.0194553
0.541588 0.140627 0.0191196
0.568338 0.145998 0.0213474
0.594293 0.151049 0.0243992
0.619791 0.156329 0.0276493
0.643931 0.161456 0.0317693
0.667231 0.166629 0.0360266
0.689509 0.172 0.0411994
0.711238 0.177096 0.0478828
0.732265 0.181842 0.0551766
0.751064 0.187884 0.0619669
0.767651 0.194659 0.0669566
0.783169 0.201312 0.073167
0.797375 0.207965 0.0813611
0.808682 0.213275 0.0900435
0.808728 0.218463 0.0884871
0.0151217 0.0831311 0.0638285
0.0179141 0.0834669 0.062562
0.0388952 0.0833448 0.0606241
0.0643015 0.0862593 0.0601663
0.0909133 0.0931868 0.0611124
0.116838 0.100649 0.0614328
0.14847 0.106172 0.0580606
0.185031 0.110643 0.0528878
0.223774 0.115618 0.046128
0.261814 0.121386 0.0390326
0.298436 0.127367 0.0317998
0.33402 0.132479 0.0238956
0.368704 0.136767 0.0212253
0.402899 0.140719 0.0205386
0.435966 0.144488 0.0199893
0.467689 0.148592 0.0200656
0.498054 0.153414 0.0198062
0.526314 0.158434 0.0193027
0.553338 0.163546 0.0203861
0.57969 0.168826 0.022385
0.605356 0.17406 0.0246433
0.630365 0.179171 0.0279088
0.654063 0.184939 0.0313115
0.676783 0.190661 0.0344701
0.697551 0.197024 0.0383917
0.717113 0.203555 0.0425116
0.735668 0.210056 0.0471962
0.753445 0.21651 0.0525216
0.770077 0.223148 0.0577554
0.785306 0.229862 0.0632029
0.799008 0.236851 0.0708171
0.808698 0.241093 0.0780804
0.812085 0.242481 0.0802014
0.019501 0.104311 0.0748455
0.0192416 0.105287 0.0740368
0.0339208 0.10782 0.0745708
0.0672313 0.107332 0.0709697
0.0961471 0.113664 0.0715038
0.123827 0.121981 0.0726787
0.156756 0.128252 0.070161
0.194705 0.133181 0.0646067
0.234516 0.138613 0.0574807
0.274937 0.144533 0.0494698
0.314565 0.151156 0.0402838
0.351308 0.156909 0.0316014
0.386252 0.161654 0.0265049
0.419471 0.165789 0.0249485
0.451774 0.16965 0.0236973
0.48307 0.17377 0.0220645
0.512718 0.178225 0.0215763
0.54023 0.182956 0.0224308
0.567056 0.187778 0.0231022
0.592996 0.193027 0.0246586
0.618341 0.198169 0.0265965
0.643198 0.20351 0.029221
0.666835 0.209094 0.032105
0.689357 0.215 0.0350652
0.709804 0.221271 0.0383154
0.729168 0.227619 0.0419318
0.747585 0.234241 0.0463874
0.765057 0.240772 0.0506294
0.781491 0.247425 0.0553292
0.796613 0.254002 0.0611734
0.8103 0.260594 0.0682536
0.819745 0.264225 0.0748302
0.821988 0.264607 0.0763714
0.0221714 0.128435 0.085069
0.0218967 0.129519 0.0839399
0.033814 0.133669 0.0857099
0.0646983 0.134035 0.0826886
0.0971542 0.138521 0.08159
0.127779 0.146883 0.0822003
0.163088 0.154009 0.0803998
0.202411 0.159762 0.0750134
0.243046 0.165454 0.0670787
0.284566 0.171649 0.0558633
0.325216 0.178531 0.0420844
0.364019 0.184298 0.0353399
0.401587 0.189746 0.0313573
0.435126 0.193942 0.0288853
0.467994 0.19794 0.0263981
0.498344 0.201846 0.0251621
0.527123 0.206073 0.0241398
0.55407 0.210651 0.0238956
0.580362 0.215564 0.0239414
0.6056 0.220722 0.0245365
0.630564 0.225864 0.025864
0.65507 0.2309 0.0278172
0.678218 0.236362 0.030457
0.700435 0.242115 0.0331426
0.720821 0.248386 0.0356909
0.740093 0.254658 0.0393072
0.758282 0.261051 0.043473
0.775616 0.267369 0.0479744
0.792004 0.273991 0.0522469
0.807279 0.280629 0.0578164
0.821042 0.287083 0.0641794
0.829969 0.290181 0.06981
0.831876 0.289174 0.0725872
0.0252232 0.15555 0.0943313
0.0250553 0.157427 0.0934005
0.0334325 0.163302 0.0961318
0.0569619 0.165713 0.094316
0.0939956 0.168612 0.091371
0.128237 0.176089 0.0905165
0.166613 0.183261 0.0874495
0.208469 0.189456 0.0807813
0.249958 0.195789 0.0693523
0.291798 0.201953 0.0576028
0.33286 0.208362 0.0450141
0.372 0.213657 0.0387274
0.409659 0.219059 0.0346075
0.44538 0.223941 0.0313878
0.480247 0.228504 0.0283513
0.511269 0.232593 0.0255283
0.540795 0.236912 0.0238804
0.567605 0.241398 0.023682
0.593271 0.24625 0.0230564
0.618067 0.251209 0.0231022
0.642542 0.256062 0.0247044
0.666133 0.260975 0.0260624
0.688731 0.266194 0.0277714
0.710765 0.271672 0.0299229
0.730831 0.277806 0.0325322
0.749996 0.284001 0.0357977
0.768261 0.290318 0.0396887
0.785519 0.296651 0.043122
0.801907 0.302953 0.0474708
0.817121 0.3093 0.0522774
0.830884 0.315633 0.0582437
0.839094 0.317433 0.0625925
0.84126 0.316365 0.0659037
0.0269169 0.184283 0.103578
0.0271611 0.187274 0.103136
0.0327001 0.194339 0.106142
0.0496986 0.199115 0.105791
0.0867018 0.201144 0.101335
0.126848 0.207218 0.0987259
0.167575 0.213718 0.0934768
0.212345 0.219959 0.083238
0.256275 0.226795 0.0706493
0.298375 0.233448 0.0580758
0.339086 0.239673 0.0474708
0.378912 0.245045 0.0410163
0.41709 0.250172 0.0362554
0.45333 0.254932 0.0327611
0.488396 0.259449 0.0290379
0.521553 0.263905 0.0269322
0.5523 0.268101 0.0254368
0.57966 0.272618 0.0241703
0.606119 0.277226 0.0234379
0.630808 0.282032 0.0236667
0.65507 0.286885 0.0243229
0.678614 0.291768 0.0255589
0.700771 0.296818 0.0267643
0.722148 0.302144 0.0281987
0.742092 0.308003 0.0302586
0.761044 0.314137 0.0324712
0.779019 0.320424 0.0354314
0.796353 0.326421 0.0397955
0.812787 0.332631 0.0435645
0.827985 0.338704 0.0475776
0.841733 0.344945 0.0523537
0.84918 0.345708 0.0559091
0.851331 0.344411 0.0585489
0.0292668 0.213642 0.112596
0.0299992 0.217762 0.112535
0.0344244 0.225055 0.114794
0.043183 0.232959 0.116762
0.0769665 0.235203 0.111498
0.120089 0.239246 0.106203
0.1673 0.245197 0.0984817
0.214984 0.251514 0.0846418
0.261219 0.258015 0.0721752
0.304814 0.26508 0.0594492
0.345083 0.271153 0.051606
0.385061 0.276509 0.0444038
0.423468 0.281483 0.0395209
0.460807 0.286213 0.0351415
0.496071 0.290608 0.0310979
0.529442 0.294881 0.0278325
0.560769 0.299245 0.0256199
0.590082 0.303944 0.0247501
0.61735 0.308675 0.0239719
0.64271 0.313359 0.0236667
0.66743 0.318013 0.0248417
0.690867 0.322698 0.0255894
0.713359 0.327703 0.0269932
0.734676 0.332753 0.0279698
0.754131 0.338384 0.0295109
0.772778 0.344228 0.0319677
0.790677 0.350179 0.0350042
0.807843 0.356359 0.0377508
0.824308 0.362234 0.0407111
0.839521 0.368429 0.043946
0.85333 0.374441 0.049073
0.860059 0.374212 0.0488594
0.862089 0.372763 0.0518807
0.0343786 0.244205 0.121981
0.0346532 0.248142 0.120989
0.0394293 0.255634 0.122683
0.0462043 0.264057 0.124147
0.0623789 0.272389 0.124056
0.11162 0.272496 0.113787
0.165515 0.277394 0.10248
0.216861 0.283543 0.0851148
0.265507 0.289464 0.072343
0.309636 0.295781 0.0632792
0.351247 0.302419 0.0558633
0.391135 0.308049 0.0476539
0.429862 0.313115 0.0411231
0.467201 0.317769 0.0362707
0.503273 0.322133 0.0315862
0.537163 0.326406 0.0289311
0.568795 0.330663 0.0265202
0.598459 0.335195 0.0255589
0.626719 0.339879 0.0242161
0.653544 0.344656 0.0250401
0.678294 0.34905 0.025452
0.702434 0.353475 0.026978
0.724956 0.358267 0.0280613
0.746563 0.36318 0.0291142
0.766339 0.368704 0.0306554
0.784756 0.374258 0.0318151
0.802365 0.380026 0.0341344
0.819501 0.385824 0.0367895
0.835859 0.391943 0.0389563
0.851209 0.397894 0.0417639
0.86508 0.403983 0.0442359
0.871275 0.403235 0.0438697
0.873457 0.401694 0.0461738
0.0402686 0.275135 0.129885
0.040116 0.279286 0.128328
0.0443122 0.286931 0.129351
0.0499733 0.295628 0.129809
0.0606394 0.305058 0.129
0.102007 0.308141 0.119097
0.162753 0.310933 0.100557
0.216983 0.315633 0.0890364
0.266835 0.321004 0.0758831
0.313588 0.326925 0.0665446
0.35555 0.333349 0.0584115
0.396353 0.339437 0.0511635
0.434958 0.344564 0.0445716
0.472358 0.349096 0.038468
0.508568 0.353323 0.0334936
0.54316 0.357595 0.0293736
0.575906 0.361975 0.0272526
0.605631 0.366445 0.026276
0.634104 0.370977 0.0251469
0.661082 0.375616 0.0241703
0.687114 0.380118 0.0243229
0.711681 0.384543 0.0251316
0.734722 0.389181 0.0270848
0.756649 0.393927 0.0287938
0.776455 0.399283 0.0303197
0.795392 0.404913 0.0332952
0.812909 0.410452 0.0348974
0.829938 0.416144 0.0371099
0.846326 0.422034 0.0387427
0.861723 0.428336 0.0395666
0.875456 0.434012 0.0420844
0.881788 0.433173 0.0392767
0.884123 0.43154 0.0383459
0.0457618 0.306004 0.137194
0.0453193 0.310414 0.134874
0.0489204 0.318395 0.134951
0.0539254 0.327306 0.13373
0.0628672 0.337835 0.1308
0.0946365 0.344778 0.120974
0.157336 0.344839 0.102266
0.216159 0.347906 0.0907301
0.267521 0.352636 0.0798047
0.315679 0.35787 0.069398
0.359396 0.36405 0.0614786
0.399725 0.369879 0.0540169
0.439246 0.375326 0.0473487
0.476997 0.379934 0.0407568
0.513619 0.384115 0.0345464
0.548501 0.388357 0.0306706
0.581491 0.392752 0.0289006
0.612421 0.397589 0.0272526
0.640909 0.402152 0.0259556
0.667903 0.406744 0.026154
0.694041 0.411231 0.0263371
0.719371 0.415778 0.0261387
0.743038 0.420523 0.0259251
0.765164 0.425025 0.0275731
0.785321 0.43003 0.0306249
0.804288 0.435462 0.0327306
0.822492 0.441138 0.035874
0.839597 0.446677 0.0374914
0.85597 0.452461 0.0386053
0.871519 0.458625 0.0389868
0.884855 0.464042 0.0381323
0.8916 0.463508 0.0337377
0.894331 0.461845 0.0336156
0.0509957 0.336721 0.143938
0.0504158 0.341512 0.140581
0.0534981 0.349676 0.139925
0.0590677 0.358755 0.137209
0.0694285 0.369757 0.130114
0.0862135 0.382025 0.120317
0.151949 0.378515 0.106798
0.213138 0.379828 0.0960098
0.266728 0.383825 0.0851759
0.315999 0.38883 0.0741894
0.360662 0.394476 0.0632181
0.402533 0.400275 0.0562142
0.441871 0.405707 0.0502327
0.480812 0.410681 0.043946
0.517983 0.414923 0.0375525
0.553185 0.41912 0.0329137
0.586404 0.423529 0.031342
0.617334 0.428397 0.0297551
0.646906 0.433265 0.0283665
0.674067 0.437827 0.0270085
0.700267 0.442237 0.026566
0.725628 0.446738 0.026276
0.74963 0.451469 0.0257267
0.772396 0.456214 0.0256504
0.792599 0.461006 0.0275883
0.812024 0.466148 0.0312047
0.83032 0.471565 0.0334478
0.84799 0.477348 0.0368353
0.864576 0.482979 0.0376745
0.880278 0.48925 0.0382086
0.893309 0.494194 0.0366522
0.900664 0.494133 0.0320134
0.903792 0.492653 0.0285039
0.0577401 0.366766 0.149554
0.0572366 0.37203 0.145525
0.0607614 0.380621 0.142367
0.0657664 0.390311 0.135607
0.0730602 0.401343 0.128374
0.088014 0.413367 0.124437
0.1393 0.415259 0.115877
0.2121 0.411063 0.100359
0.266011 0.414466 0.0898604
0.315465 0.419409 0.0789044
0.361013 0.424674 0.0682536
0.403632 0.430137 0.0591897
0.443931 0.43566 0.0522774
0.482658 0.440665 0.0468147
0.521202 0.445212 0.0404212
0.557076 0.449485 0.0363165
0.590631 0.45391 0.033814
0.62179 0.458762 0.030518
0.651316 0.463584 0.0300298
0.679423 0.468376 0.0296178
0.705898 0.472816 0.0289616
0.731243 0.477287 0.0283665
0.755215 0.48191 0.0275731
0.778149 0.48658 0.0269169
0.799146 0.491676 0.0275731
0.818723 0.496574 0.0283665
0.837476 0.501747 0.0319066
0.855283 0.507286 0.0349126
0.872374 0.513268 0.0374456
0.888228 0.519371 0.0379644
0.901045 0.523949 0.0358129
0.909041 0.524514 0.0292058
0.912596 0.52311 0.0281376
0.0634165 0.396231 0.155276
0.0628977 0.402045 0.150591
0.0660105 0.411017 0.145129
0.0704662 0.421012 0.136538
0.0799115 0.432212 0.128832
0.0917525 0.44361 0.130022
0.131167 0.449378 0.124788
0.205814 0.444282 0.107805
0.264897 0.444526 0.0943465
0.313741 0.448981 0.0838941
0.360388 0.454261 0.0717937
0.403494 0.459388 0.0626383
0.444785 0.464637 0.0549172
0.484596 0.469749 0.0481575
0.523003 0.474372 0.0433356
0.560296 0.47892 0.0404517
0.59469 0.483543 0.0380865
0.626108 0.488396 0.035523
0.655726 0.493233 0.0337987
0.683818 0.498039 0.0324559
0.711131 0.502708 0.0313115
0.736858 0.507225 0.0304723
0.7608 0.511788 0.0299687
0.783719 0.516381 0.0298161
0.804685 0.521355 0.0296178
0.824918 0.526574 0.0297093
0.84387 0.531518 0.030869
0.861997 0.536706 0.0345769
0.879301 0.542428 0.0366522
0.895674 0.548699 0.038117
0.90837 0.552956 0.036347
0.91696 0.553887 0.0297856
0.920943 0.552972 0.0311284
0.0700542 0.424857 0.161501
0.0699168 0.431464 0.15555
0.0738231 0.441093 0.14522
0.0783246 0.451102 0.137423
0.0836957 0.46157 0.136019
0.0949874 0.47306 0.135683
0.124315 0.482322 0.133577
0.201358 0.4748 0.113787
0.263478 0.474052 0.099443
0.311788 0.477928 0.0893873
0.358282 0.482918 0.0789502
0.403479 0.488029 0.0688182
0.445274 0.49305 0.0599374
0.48574 0.498024 0.0532082
0.525093 0.502754 0.0479896
0.562463 0.507424 0.044892
0.598215 0.512306 0.042649
0.630472 0.51725 0.0400244
0.660227 0.522087 0.0379644
0.688365 0.526909 0.0369268
0.715679 0.531594 0.0356451
0.741985 0.536233 0.0333715
0.766339 0.540825 0.0327611
0.789258 0.545266 0.0330663
0.810285 0.550072 0.033341
0.830594 0.555062 0.0329595
0.850141 0.560159 0.033402
0.868452 0.565072 0.0341039
0.886091 0.570459 0.0364843
0.902724 0.576608 0.0383001
0.915648 0.580865 0.0377966
0.924834 0.582101 0.0341344
0.928954 0.58175 0.0349126
0.0765545 0.452522 0.168688
0.0771191 0.460273 0.159503
0.0801556 0.469993 0.14963
0.0834821 0.479805 0.144488
0.0887617 0.490196 0.144701
0.0999619 0.501549 0.144457
0.123629 0.511269 0.141619
0.193988 0.505257 0.122683
0.261189 0.502525 0.106325
0.310872 0.505882 0.0951095
0.35639 0.510643 0.0855421
0.401755 0.515572 0.0748455
0.445731 0.520485 0.066041
0.486763 0.52517 0.0579843
0.526772 0.529839 0.0515908
0.564904 0.534676 0.0485237
0.600702 0.539559 0.0469673
0.634119 0.544701 0.0449836
0.664698 0.549661 0.0437934
0.692851 0.554406 0.04271
0.720287 0.559091 0.0415351
0.746593 0.563607 0.0400397
0.771435 0.568246 0.0384833
0.794827 0.572717 0.0381628
0.815839 0.577371 0.0377661
0.836118 0.582193 0.0372931
0.855833 0.587152 0.0373693
0.874754 0.592233 0.0387579
0.892653 0.597314 0.039765
0.909575 0.60322 0.0397803
0.922652 0.607706 0.0421149
0.931594 0.609476 0.0407721
0.935531 0.609659 0.0403449
0.083299 0.479454 0.175189
0.0849622 0.488624 0.161868
0.0877852 0.498451 0.153353
0.0904707 0.507713 0.153796
0.0939956 0.518029 0.153628
0.101991 0.529351 0.152956
0.123369 0.538964 0.149859
0.190799 0.533516 0.130907
0.255451 0.53106 0.114931
0.308904 0.53312 0.102281
0.355276 0.537408 0.0920424
0.399939 0.542138 0.0829328
0.444312 0.546868 0.0734112
0.487282 0.551553 0.0650339
0.527733 0.556054 0.0587015
0.56643 0.560815 0.0536202
0.602853 0.565774 0.0524605
0.636316 0.57084 0.0510414
0.668101 0.575921 0.0501869
0.697169 0.580804 0.0487068
0.724605 0.585412 0.0468757
0.751003 0.589899 0.0456703
0.775906 0.594476 0.043946
0.799634 0.598993 0.0437324
0.821225 0.603738 0.0437476
0.841535 0.608438 0.0430152
0.861326 0.613245 0.0415808
0.880461 0.618173 0.0422217
0.898985 0.623255 0.0433356
0.916182 0.62887 0.0446784
0.929473 0.633158 0.0467384
0.937835 0.635874 0.0471351
0.940993 0.636515 0.0475776
0.0903334 0.50631 0.178164
0.0919051 0.516381 0.16791
0.0932631 0.525704 0.164218
0.0952621 0.53492 0.164416
0.098024 0.54522 0.163912
0.105104 0.556466 0.162951
0.122911 0.566415 0.160021
0.18172 0.562631 0.14287
0.249699 0.558419 0.123613
0.305928 0.559777 0.11043
0.353246 0.563668 0.0996262
0.398077 0.568109 0.0900893
0.442298 0.572656 0.0811627
0.486107 0.577173 0.0729229
0.528328 0.581735 0.0653086
0.5673 0.586343 0.058732
0.604059 0.591241 0.0577554
0.637949 0.596399 0.0567178
0.669917 0.601465 0.0549935
0.700084 0.606546 0.0551308
0.728283 0.611215 0.0538796
0.754772 0.615641 0.0525368
0.779614 0.620142 0.0513924
0.803326 0.624552 0.05066
0.82533 0.629297 0.0510872
0.846159 0.634012 0.0514992
0.866041 0.638682 0.0504311
0.885374 0.643503 0.0495918
0.904311 0.648478 0.0500649
0.92076 0.654292 0.0510719
0.933379 0.658778 0.0534524
0.942046 0.661768 0.0562753
0.945708 0.662455 0.0575875
0.0977188 0.533654 0.182315
0.0983444 0.543481 0.174884
0.0985275 0.552453 0.174746
0.0999466 0.561669 0.174792
0.103517 0.571908 0.174243
0.107759 0.582986 0.173373
0.120348 0.593332 0.170687
0.1738 0.59089 0.154696
0.241993 0.586114 0.135332
0.301259 0.58584 0.119646
0.350179 0.589349 0.108232
0.395636 0.5935 0.0978866
0.439979 0.597803 0.088838
0.483726 0.602197 0.0798657
0.526772 0.606622 0.0725719
0.567468 0.611261 0.0660258
0.604135 0.615976 0.062562
0.638437 0.621088 0.0623484
0.671031 0.6262 0.0620432
0.701488 0.631251 0.0615702
0.730724 0.636027 0.0609445
0.7579 0.640482 0.0602426
0.782773 0.644907 0.06009
0.806546 0.649271 0.0599985
0.828748 0.654002 0.06009
0.850065 0.658747 0.0603647
0.870405 0.663447 0.0601511
0.889723 0.668193 0.0597391
0.908598 0.673075 0.0602121
0.924819 0.679026 0.0606394
0.937072 0.683528 0.0612039
0.945785 0.686473 0.0638437
0.949981 0.687419 0.0672465
0.105943 0.560342 0.187366
0.105364 0.569619 0.185153
0.10544 0.578531 0.184741
0.106081 0.587701 0.184619
0.106706 0.597848 0.183871
0.109743 0.608927 0.182895
0.118715 0.619989 0.18117
0.162188 0.620188 0.167895
0.229709 0.613993 0.147311
0.295491 0.611337 0.129747
0.346273 0.614404 0.117311
0.392584 0.618204 0.107225
0.437079 0.622278 0.0972915
0.480934 0.626398 0.0878157
0.524147 0.63064 0.0800946
0.565377 0.635065 0.0733959
0.603723 0.639857 0.0690013
0.6383 0.644877 0.0683146
0.671199 0.650004 0.0682536
0.702205 0.655085 0.0686046
0.731731 0.659876 0.068986
0.759609 0.664424 0.069337
0.785229 0.66891 0.0700084
0.809232 0.673243 0.0691844
0.831693 0.677943 0.0690623
0.85333 0.682658 0.0697642
0.874296 0.687358 0.0706035
0.89395 0.692042 0.0699016
0.911376 0.697307 0.0693828
0.927428 0.70309 0.0699168
0.940337 0.707698 0.0706798
0.949325 0.710323 0.0725414
0.954223 0.711528 0.0766918
0.112276 0.585672 0.196811
0.111147 0.594812 0.195666
0.110811 0.603708 0.19498
0.111055 0.612833 0.194583
0.111543 0.622904 0.193713
0.113725 0.633799 0.19263
0.120577 0.644984 0.19118
0.151995 0.64741 0.180499
0.220096 0.639857 0.158923
0.288899 0.635691 0.139467
0.341878 0.638376 0.127291
0.389181 0.641825 0.116091
0.434333 0.645579 0.106233
0.47834 0.649439 0.0972305
0.521492 0.653422 0.0886854
0.562829 0.657679 0.0813916
0.60206 0.662379 0.0750896
0.638102 0.667506 0.0753033
0.671183 0.672572 0.075349
0.702647 0.677653 0.0749218
0.732509 0.682445 0.0759289
0.760678 0.686961 0.077409
0.787106 0.691524 0.0780957
0.812131 0.695933 0.0781872
0.834913 0.700618 0.0783246
0.856825 0.705318 0.079469
0.87747 0.710216 0.0802014
0.897414 0.715068 0.0800641
0.914397 0.720424 0.0796521
0.930388 0.726085 0.0802777
0.944137 0.730831 0.0808118
0.953414 0.733288 0.0823072
0.958862 0.734737 0.0856794
0.119203 0.610315 0.206699
0.117754 0.619455 0.205188
0.117098 0.628321 0.204334
0.11696 0.637354 0.203784
0.117556 0.647288 0.202731
0.118654 0.658076 0.201389
0.120958 0.669352 0.20029
0.149386 0.672908 0.191135
0.209049 0.666468 0.170871
0.280201 0.659403 0.149523
0.335882 0.661677 0.136889
0.385275 0.66482 0.125872
0.431205 0.668254 0.115801
0.475303 0.671794 0.106096
0.518288 0.675547 0.0977035
0.559869 0.679576 0.0900587
0.599252 0.684108 0.0836042
0.635828 0.689143 0.0810712
0.670542 0.694316 0.081651
0.702098 0.699275 0.0824903
0.732204 0.704005 0.0831617
0.760952 0.708568 0.0836042
0.787915 0.713191 0.0854505
0.814023 0.717784 0.0869459
0.837873 0.722591 0.0875715
0.860136 0.727337 0.0881666
0.88098 0.73228 0.0894331
0.900038 0.73756 0.089601
0.917479 0.743023 0.090013
0.933577 0.748562 0.0902876
0.946838 0.753597 0.0922866
0.957488 0.755901 0.0928817
0.963607 0.757473 0.0959793
0.126802 0.633921 0.216922
0.125032 0.64303 0.215122
0.124086 0.651789 0.214023
0.123568 0.660716 0.213214
0.122652 0.670558 0.211963
0.122164 0.681178 0.21059
0.124758 0.692287 0.209552
0.149065 0.695689 0.200488
0.201633 0.689219 0.180499
0.269612 0.681895 0.15964
0.324086 0.683543 0.146929
0.378012 0.68632 0.13611
0.426017 0.689479 0.125811
0.470634 0.692744 0.116167
0.513848 0.696254 0.107256
0.555642 0.700114 0.0991531
0.595209 0.704494 0.0924239
0.632151 0.709377 0.088014
0.667445 0.714488 0.087541
0.700542 0.719585 0.0881819
0.731197 0.724315 0.0894484
0.760433 0.728878 0.0906233
0.788327 0.733577 0.0921492
0.815274 0.738293 0.0939345
0.840284 0.743282 0.0959029
0.863478 0.748272 0.0977035
0.884489 0.753399 0.0991073
0.903181 0.759045 0.0999161
0.921324 0.76463 0.100267
0.937774 0.770077 0.100847
0.949584 0.775479 0.104921
0.960403 0.777691 0.105425
0.969284 0.77911 0.10515
0.133944 0.656977 0.226474
0.131868 0.666072 0.224399
0.130571 0.674769 0.223148
0.12958 0.683589 0.222278
0.128267 0.693263 0.22089
0.127275 0.7037 0.219379
0.127337 0.714611 0.218235
0.148669 0.717922 0.209369
0.197421 0.711284 0.189654
0.257359 0.703716 0.168673
0.307286 0.704814 0.155993
0.362814 0.707073 0.145342
0.41471 0.709834 0.135439
0.462196 0.712902 0.12604
0.507027 0.716258 0.11751
0.548867 0.719921 0.109621
0.588739 0.724147 0.102724
0.626215 0.728954 0.0978866
0.661692 0.733898 0.0942092
0.695247 0.738903 0.0950942
0.727611 0.743801 0.0967575
0.758343 0.748516 0.0986496
0.787152 0.753292 0.100267
0.815061 0.758068 0.10248
0.841138 0.76321 0.105058
0.864866 0.76875 0.107393
0.887373 0.774121 0.108888
0.906493 0.780026 0.109667
0.925124 0.785657 0.110124
0.940032 0.791012 0.113588
0.952224 0.796521 0.117739
0.963378 0.798901 0.118212
0.9729 0.800092 0.117327
0.141283 0.679942 0.236606
0.138949 0.688991 0.234241
0.137438 0.697581 0.232792
0.136217 0.706218 0.231678
0.134524 0.715755 0.230167
0.132738 0.726009 0.22858
0.131762 0.736675 0.227237
0.149477 0.739803 0.218326
0.193317 0.732921 0.198795
