luts/kodak_ektar_100.cube
TITLE Film LUT
LUT_3D_SIZE 33
DOMAIN_MIN 0.0 0.0 0.0
DOMAIN_MAX 1.0 1.0 1.0
0.000000 0.000000 0.000000
0.000000 0.000000 0.000000
0.005006 0.000000 0.000000
0.044807 0.000000 0.000000
0.084454 0.000000 0.000000
0.123930 0.000000 0.000000
0.163220 0.000000 0.000000
0.202311 0.000000 0.000000
0.241186 0.000000 0.000000
0.279829 0.000000 0.000000
0.318230 0.000000 0.000000
0.356370 0.000000 0.000000
0.394226 0.000000 0.000000
0.431808 0.000000 0.000000
0.469072 0.000000 0.000000
0.506027 0.000000 0.000000
0.542657 0.000000 0.000000
0.578941 0.000000 0.000000
0.614874 0.000000 0.000000
0.650435 0.000000 0.000000
0.685626 0.000000 0.000000
0.720419 0.000000 0.000000
0.754824 0.000000 0.000000
0.788819 0.000000 0.000000
0.822392 0.000000 0.000000
0.855542 0.000000 0.000000
0.888251 0.000000 0.000000
0.920521 0.000000 0.000000
0.952341 0.000000 0.000000
0.983707 0.000000 0.000000
1.000000 0.000000 0.000000
1.000000 0.000000 0.000000
1.000000 0.000000 0.000000
0.000000 0.000000 0.000000
0.000000 0.000000 0.000000
0.005006 0.000000 0.000000
0.044807 0.000000 0.000000
0.084454 0.000000 0.000000
0.123930 0.000000 0.000000
0.163220 0.000000 0.000000
0.202311 0.000000 0.000000
0.241186 0.000000 0.000000
0.279829 0.000000 0.000000
0.318230 0.000000 0.000000
0.356370 0.000000 0.000000
0.394226 0.000000 0.000000
0.431808 0.000000 0.000000
0.469072 0.000000 0.000000
0.506027 0.000000 0.000000
0.542657 0.000000 0.000000
0.578941 0.000000 0.000000
0.614874 0.000000 0.000000
0.650435 0.000000 0.000000
0.685626 0.000000 0.000000
0.720419 0.000000 0.000000
0.754824 0.000000 0.000000
0.788819 0.000000 0.000000
0.822392 0.000000 0.000000
0.855542 0.000000 0.000000
0.888251 0.000000 0.000000
0.920521 0.000000 0.000000
0.952341 0.000000 0.000000
0.983707 0.000000 0.000000
1.000000 0.000000 0.000000
1.000000 0.000000 0.000000
1.000000 0.000000 0.000000
0.000000 0.005006 0.000000
0.000000 0.005006 0.000000
0.005006 0.005006 0.000000
0.044807 0.005006 0.000000
0.084454 0.005006 0.000000
0.123930 0.005006 0.000000
0.163220 0.005006 0.000000
0.202311 0.005005 0.000000
0.241186 0.005006 0.000000
0.279829 0.005006 0.000000
0.318230 0.005006 0.000000
0.356370 0.005006 0.000000
0.394226 0.005006 0.000000
0.431808 0.005006 0.000000
0.469072 0.005006 0.000000
0.506027 0.005006 0.000000
0.542657 0.005006 0.000000
0.578941 0.005006 0.000000
0.614874 0.005006 0.000000
0.650435 0.005006 0.000000
0.685626 0.005006 0.000000
0.720419 0.005006 0.000000
0.754824 0.005006 0.000000
0.788819 0.005006 0.000000
0.822392 0.005006 0.000000
0.855542 0.005006 0.000000
0.888251 0.005006 0.000000
0.920521 0.005006 0.000000
0.952341 0.005006 0.000000
0.983707 0.005006 0.000000
1.000000 0.005006 0.000000
1.000000 0.005006 0.000000
1.000000 0.005006 0.000000
0.000000 0.044807 0.000000
0.000000 0.044807 0.000000
0.005006 0.044807 0.000000
0.044807 0.044807 0.000000
0.084454 0.044807 0.000000
0.123930 0.044807 0.000000
0.163220 0.044807 0.000000
0.202311 0.044807 0.000000
0.241186 0.044807 0.000000
0.279829 0.044807 0.000000
0.318230 0.044807 0.000000
0.356370 0.044807 0.000000
0.394226 0.044807 0.000000
0.431808 0.044807 0.000000
0.469072 0.044807 0.000000
0.506027 0.044807 0.000000
0.542657 0.044807 0.000000
0.578941 0.044807 0.000000
0.614874 0.044807 0.000000
0.650435 0.044807 0.000000
0.685626 0.044807 0.000000
0.720419 0.044807 0.000000
0.754824 0.044807 0.000000
0.788819 0.044807 0.000000
0.822392 0.044807 0.000000
0.855542 0.044807 0.000000
0.888251 0.044807 0.000000
0.920521 0.044807 0.000000
0.952341 0.044807 0.000000
0.983707 0.044807 0.000000
1.000000 0.044807 0.000000
1.000000 0.044807 0.000000
1.000000 0.044807 0.000000
0.000000 0.084454 0.000000
0.000000 0.084454 0.000000
0.005006 0.084454 0.000000
0.044807 0.084454 0.000000
0.084454 0.084454 0.000000
0.123930 0.084454 0.000000
0.163220 0.084454 0.000000
0.202311 0.084454 0.000000
0.241186 0.084454 0.000000
0.279829 0.084454 0.000000
0.318230 0.084454 0.000000
0.356370 0.084454 0.000000
0.394226 0.084454 0.000000
0.431808 0.084454 0.000000
0.469072 0.084454 0.000000
0.506027 0.084454 0.000000
0.542657 0.084454 0.000000
0.578941 0.084454 0.000000
0.614874 0.084454 0.000000
0.650435 0.084454 0.000000
0.685626 0.084454 0.000000
0.720419 0.084454 0.000000
0.754824 0.084454 0.000000
0.788819 0.084454 0.000000
0.822392 0.084454 0.000000
0.855542 0.084454 0.000000
0.888251 0.084454 0.000000
0.920521 0.084454 0.000000
0.952341 0.084454 0.000000
0.983707 0.084454 0.000000
1.000000 0.084454 0.000000
1.000000 0.084454 0.000000
1.000000 0.084454 0.000000
0.000000 0.123930 0.000000
0.000000 0.123930 0.000000
0.005006 0.123930 0.000000
0.044807 0.123930 0.000000
0.084454 0.123930 0.000000
0.123930 0.123930 0.000000
0.163220 0.123930 0.000000
0.202311 0.123930 0.000000
0.241186 0.123930 0.000000
0.279829 0.123930 0.000000
0.318230 0.123930 0.000000
0.356370 0.123930 0.000000
0.394226 0.123930 0.000000
0.431808 0.123930 0.000000
0.469072 0.123930 0.000000
0.506027 0.123930 0.000000
0.542657 0.123930 0.000000
0.578941 0.123930 0.000000
0.614874 0.123930 0.000000
0.650435 0.123930 0.000000
0.685626 0.123930 0.000000
0.720419 0.123930 0.000000
0.754824 0.123930 0.000000
0.788819 0.123930 0.000000
0.822392 0.123930 0.000000
0.855542 0.123930 0.000000
0.888251 0.123930 0.000000
0.920521 0.123930 0.000000
0.952341 0.123930 0.000000
0.983707 0.123930 0.000000
1.000000 0.123930 0.000000
1.000000 0.123930 0.000000
1.000000 0.123930 0.000000
0.000000 0.163220 0.000000
0.000000 0.163220 0.000000
0.005006 0.163220 0.000000
0.044807 0.163220 0.000000
0.084454 0.163220 0.000000
0.123930 0.163220 0.000000
0.163220 0.163220 0.000000
0.202311 0.163220 0.000000
0.241186 0.163220 0.000000
0.279829 0.163220 0.000000
0.318230 0.163220 0.000000
0.356370 0.163220 0.000000
0.394226 0.163220 0.000000
0.431808 0.163220 0.000000
0.469072 0.163220 0.000000
0.506027 0.163220 0.000000
0.542657 0.163220 0.000000
0.578941 0.163220 0.000000
0.614874 0.163220 0.000000
0.650435 0.163220 0.000000
0.685626 0.163220 0.000000
0.720419 0.163220 0.000000
0.754824 0.163220 0.000000
0.788819 0.163220 0.000000
0.822392 0.163220 0.000000
0.855542 0.163220 0.000000
0.888251 0.163220 0.000000
0.920521 0.163220 0.000000
0.952341 0.163220 0.000000
0.983707 0.163220 0.000000
1.000000 0.163220 0.000000
1.000000 0.163220 0.000000
1.000000 0.163220 0.000000
0.000000 0.202311 0.000000
0.000000 0.202311 0.000000
0.005005 0.202311 0.000000
0.044807 0.202311 0.000000
0.084454 0.202311 0.000000
0.123930 0.202311 0.000000
0.163220 0.202311 0.000000
0.202311 0.202311 0.000000
0.241186 0.202311 0.000000
0.279829 0.202311 0.000000
0.318230 0.202311 0.000000
0.356370 0.202311 0.000000
0.394226 0.202311 0.000000
0.431808 0.202311 0.000000
0.469072 0.202311 0.000000
0.506027 0.202311 0.000000
0.542657 0.202311 0.000000
0.578941 0.202311 0.000000
0.614874 0.202311 0.000000
0.650435 0.202311 0.000000
0.685626 0.202311 0.000000
0.720419 0.202311 0.000000
0.754824 0.202311 0.000000
0.788819 0.202311 0.000000
0.822392 0.202311 0.000000
0.855542 0.202311 0.000000
0.888251 0.202311 0.000000
0.920521 0.202311 0.000000
0.952341 0.202311 0.000000
0.983707 0.202311 0.000000
1.000000 0.202311 0.000000
1.000000 0.202311 0.000000
1.000000 0.202311 0.000000
0.000000 0.241186 0.000000
0.000000 0.241186 0.000000
0.005006 0.241186 0.000000
0.044807 0.241186 0.000000
0.084454 0.241186 0.000000
0.123930 0.241186 0.000000
0.163220 0.241186 0.000000
0.202311 0.241186 0.000000
0.241186 0.241186 0.000000
0.279829 0.241186 0.000000
0.318230 0.241186 0.000000
0.356370 0.241186 0.000000
0.394226 0.241186 0.000000
0.431808 0.241186 0.000000
0.469072 0.241186 0.000000
0.506027 0.241186 0.000000
0.542657 0.241186 0.000000
0.578941 0.241186 0.000000
0.614874 0.241186 0.000000
0.650435 0.241186 0.000000
0.685626 0.241186 0.000000
0.720419 0.241186 0.000000
0.754824 0.241186 0.000000
0.788819 0.241186 0.000000
0.822392 0.241186 0.000000
0.855542 0.241186 0.000000
0.888251 0.241186 0.000000
0.920521 0.241186 0.000000
0.952341 0.241186 0.000000
0.983707 0.241186 0.000000
1.000000 0.241186 0.000000
1.000000 0.241186 0.000000
1.000000 0.241186 0.000000
0.000000 0.279829 0.000000
0.000000 0.279829 0.000000
0.005005 0.279829 0.000000
0.044807 0.279829 0.000000
0.084454 0.279829 0.000000
0.123930 0.279829 0.000000
0.163220 0.279829 0.000000
0.202311 0.279829 0.000000
0.241186 0.279829 0.000000
0.279829 0.279829 0.000000
0.318230 0.279829 0.000000
0.356370 0.279829 0.000000
0.394226 0.279829 0.000000
0.431808 0.279829 0.000000
0.469072 0.279829 0.000000
0.506027 0.279829 0.000000
0.542657 0.279829 0.000000
0.578941 0.279829 0.000000
0.614874 0.279829 0.000000
0.650435 0.279829 0.000000
0.685626 0.279829 0.000000
0.720419 0.279829 0.000000
0.754824 0.279829 0.000000
0.788819 0.279829 0.000000
0.822392 0.279829 0.000000
0.855542 0.279829 0.000000
0.888251 0.279829 0.000000
0.920521 0.279829 0.000000
0.952341 0.279829 0.000000
0.983707 0.279829 0.000000
1.000000 0.279829 0.000000
1.000000 0.279829 0.000000
1.000000 0.279829 0.000000
0.000000 0.318230 0.000000
0.000000 0.318230 0.000000
0.005006 0.318230 0.000000
0.044807 0.318230 0.000000
0.084454 0.318230 0.000000
0.123930 0.318230 0.000000
0.163220 0.318230 0.000000
0.202311 0.318230 0.000000
0.241186 0.318230 0.000000
0.279829 0.318230 0.000000
0.318230 0.318230 0.000000
0.356370 0.318230 0.000000
0.394226 0.318230 0.000000
0.431808 0.318230 0.000000
0.469072 0.318230 0.000000
0.506027 0.318230 0.000000
0.542657 0.318230 0.000000
0.578941 0.318230 0.000000
0.614874 0.318230 0.000000
0.650435 0.318230 0.000000
0.685626 0.318230 0.000000
0.720419 0.318230 0.000000
0.754824 0.318230 0.000000
0.788819 0.318230 0.000000
0.822392 0.318230 0.000000
0.855542 0.318230 0.000000
0.888251 0.318230 0.000000
0.920521 0.318230 0.000000
0.952341 0.318230 0.000000
0.983707 0.318230 0.000000
1.000000 0.318230 0.000000
1.000000 0.318230 0.000000
1.000000 0.318230 0.000000
0.000000 0.356370 0.000000
0.000000 0.356370 0.000000
0.005006 0.356370 0.000000
0.044807 0.356370 0.000000
0.084454 0.356370 0.000000
0.123930 0.356370 0.000000
0.163220 0.356370 0.000000
0.202311 0.356370 0.000000
0.241186 0.356370 0.000000
0.279829 0.356370 0.000000
0.318230 0.356370 0.000000
0.356370 0.356370 0.000000
0.394226 0.356370 0.000000
0.431808 0.356370 0.000000
0.469072 0.356370 0.000000
0.506027 0.356370 0.000000
0.542657 0.356370 0.000000
0.578941 0.356370 0.000000
0.614874 0.356370 0.000000
0.650435 0.356370 0.000000
0.685626 0.356370 0.000000
0.720419 0.356370 0.000000
0.754824 0.356370 0.000000
0.788819 0.356370 0.000000
0.822392 0.356370 0.000000
0.855542 0.356370 0.000000
0.888251 0.356370 0.000000
0.920521 0.356370 0.000000
0.952341 0.356370 0.000000
0.983707 0.356370 0.000000
1.000000 0.356370 0.000000
1.000000 0.356370 0.000000
1.000000 0.356370 0.000000
0.000000 0.394226 0.000000
0.000000 0.394226 0.000000
0.005006 0.394226 0.000000
0.044807 0.394226 0.000000
0.084454 0.394226 0.000000
0.123930 0.394226 0.000000
0.163220 0.394226 0.000000
0.202311 0.394226 0.000000
0.241186 0.394226 0.000000
0.279829 0.394226 0.000000
0.318230 0.394226 0.000000
0.356370 0.394226 0.000000
0.394226 0.394226 0.000000
0.431808 0.394226 0.000000
0.469072 0.394226 0.000000
0.506027 0.394226 0.000000
0.542657 0.394226 0.000000
0.578941 0.394226 0.000000
0.614874 0.394226 0.000000
0.650435 0.394226 0.000000
0.685626 0.394226 0.000000
0.720419 0.394226 0.000000
0.754824 0.394226 0.000000
0.788819 0.394226 0.000000
0.822392 0.394226 0.000000
0.855542 0.394226 0.000000
0.888251 0.394226 0.000000
0.920521 0.394226 0.000000
0.952341 0.394226 0.000000
0.983707 0.394226 0.000000
1.000000 0.394226 0.000000
1.000000 0.394226 0.000000
1.000000 0.394226 0.000000
0.000000 0.431808 0.000000
0.000000 0.431808 0.000000
0.005005 0.431808 0.000000
0.044807 0.431808 0.000000
0.084454 0.431808 0.000000
0.123930 0.431808 0.000000
0.163220 0.431808 0.000000
0.202311 0.431808 0.000000
0.241186 0.431808 0.000000
0.279829 0.431808 0.000000
0.318230 0.431808 0.000000
0.356370 0.431808 0.000000
0.394226 0.431808 0.000000
0.431808 0.431808 0.000000
0.469072 0.431808 0.000000
0.506027 0.431808 0.000000
0.542657 0.431808 0.000000
0.578941 0.431808 0.000000
0.614874 0.431808 0.000000
0.650435 0.431808 0.000000
0.685626 0.431808 0.000000
0.720419 0.431808 0.000000
0.754824 0.431808 0.000000
0.788819 0.431808 0.000000
0.822392 0.431808 0.000000
0.855542 0.431808 0.000000
0.888251 0.431808 0.000000
0.920521 0.431808 0.000000
0.952341 0.431808 0.000000
0.983707 0.431808 0.000000
1.000000 0.431808 0.000000
1.000000 0.431808 0.000000
1.000000 0.431808 0.000000
0.000000 0.469072 0.000000
0.000000 0.469072 0.000000
0.005006 0.469072 0.000000
0.044807 0.469072 0.000000
0.084454 0.469072 0.000000
0.123930 0.469072 0.000000
0.163220 0.469072 0.000000
0.202311 0.469072 0.000000
0.241186 0.469072 0.000000
0.279829 0.469072 0.000000
0.318230 0.469072 0.000000
0.356370 0.469072 0.000000
0.394226 0.469072 0.000000
0.431808 0.469072 0.000000
0.469072 0.469072 0.000000
0.506027 0.469072 0.000000
0.542657 0.469072 0.000000
0.578941 0.469072 0.000000
0.614874 0.469072 0.000000
0.650435 0.469072 0.000000
0.685626 0.469072 0.000000
0.720419 0.469072 0.000000
0.754824 0.469072 0.000000
0.788819 0.469072 0.000000
0.822392 0.469072 0.000000
0.855542 0.469072 0.000000
0.888251 0.469072 0.000000
0.920521 0.469072 0.000000
0.952341 0.469072 0.000000
0.983707 0.469072 0.000000
1.000000 0.469072 0.000000
1.000000 0.469072 0.000000
1.000000 0.469072 0.000000
0.000000 0.506027 0.000000
0.000000 0.506027 0.000000
0.005006 0.506027 0.000000
0.044807 0.506027 0.000000
0.084454 0.506027 0.000000
0.123930 0.506027 0.000000
0.163220 0.506027 0.000000
0.202311 0.506027 0.000000
0.241186 0.506027 0.000000
0.279829 0.506027 0.000000
0.318230 0.506027 0.000000
0.356370 0.506027 0.000000
0.394226 0.506027 0.000000
0.431808 0.506027 0.000000
0.469072 0.506027 0.000000
0.506027 0.506027 0.000000
0.542657 0.506027 0.000000
0.578941 0.506027 0.000000
0.614874 0.506027 0.000000
0.650435 0.506027 0.000000
0.685626 0.506027 0.000000
0.720419 0.506027 0.000000
0.754824 0.506027 0.000000
0.788819 0.506027 0.000000
0.822392 0.506027 0.000000
0.855542 0.506027 0.000000
0.888251 0.506027 0.000000
0.920521 0.506027 0.000000
0.952341 0.506027 0.000000
0.983707 0.506027 0.000000
1.000000 0.506027 0.000000
1.000000 0.506027 0.000000
1.000000 0.506027 0.000000
0.000000 0.542657 0.000000
0.000000 0.542657 0.000000
0.005005 0.542657 0.000000
0.044807 0.542657 0.000000
0.084454 0.542657 0.000000
0.123930 0.542657 0.000000
0.163220 0.542657 0.000000
0.202311 0.542657 0.000000
0.241186 0.542657 0.000000
0.279829 0.542657 0.000000
0.318230 0.542657 0.000000
0.356370 0.542657 0.000000
0.394226 0.542657 0.000000
0.431808 0.542657 0.000000
0.469072 0.542657 0.000000
0.506027 0.542657 0.000000
0.542657 0.542657 0.000000
0.578941 0.542657 0.000000
0.614874 0.542657 0.000000
0.650435 0.542657 0.000000
0.685626 0.542657 0.000000
0.720419 0.542657 0.000000
0.754824 0.542657 0.000000
0.788819 0.542657 0.000000
0.822392 0.542657 0.000000
0.855542 0.542657 0.000000
0.888251 0.542657 0.000000
0.920521 0.542657 0.000000
0.952341 0.542657 0.000000
0.983707 0.542657 0.000000
1.000000 0.542657 0.000000
1.000000 0.542657 0.000000
1.000000 0.542657 0.000000
0.000000 0.578941 0.000000
0.000000 0.578941 0.000000
0.005006 0.578941 0.000000
0.044807 0.578941 0.000000
0.084454 0.578941 0.000000
0.123930 0.578941 0.000000
0.163220 0.578941 0.000000
0.202311 0.578941 0.000000
0.241186 0.578941 0.000000
0.279829 0.578941 0.000000
0.318230 0.578941 0.000000
0.356370 0.578941 0.000000
0.394226 0.578941 0.000000
0.431808 0.578941 0.000000
0.469072 0.578941 0.000000
0.506027 0.578941 0.000000
0.542657 0.578941 0.000000
0.578941 0.578941 0.000000
0.614874 0.578941 0.000000
0.650435 0.578941 0.000000
0.685626 0.578941 0.000000
0.720419 0.578941 0.000000
0.754824 0.578941 0.000000
0.788819 0.578941 0.000000
0.822392 0.578941 0.000000
0.855542 0.578941 0.000000
0.888251 0.578941 0.000000
0.920521 0.578941 0.000000
0.952341 0.578941 0.000000
0.983707 0.578941 0.000000
1.000000 0.578941 0.000000
1.000000 0.578941 0.000000
1.000000 0.578941 0.000000
0.000000 0.614874 0.000000
0.000000 0.614874 0.000000
0.005005 0.614874 0.000000
0.044807 0.614874 0.000000
0.084454 0.614874 0.000000
0.123930 0.614874 0.000000
0.163220 0.614874 0.000000
0.202311 0.614874 0.000000
0.241186 0.614874 0.000000
0.279829 0.614874 0.000000
0.318230 0.614874 0.000000
0.356370 0.614874 0.000000
0.394226 0.614874 0.000000
0.431808 0.614874 0.000000
0.469072 0.614874 0.000000
0.506027 0.614874 0.000000
0.542657 0.614874 0.000000
0.578941 0.614874 0.000000
0.614874 0.614874 0.000000
0.650435 0.614873 0.000000
0.685626 0.614874 0.000000
0.720419 0.614874 0.000000
0.754824 0.614874 0.000000
0.788819 0.614874 0.000000
0.822392 0.614874 0.000000
0.855542 0.614874 0.000000
0.888251 0.614874 0.000000
0.920521 0.614874 0.000000
0.952341 0.614874 0.000000
0.983707 0.614874 0.000000
1.000000 0.614874 0.000000
1.000000 0.614874 0.000000
1.000000 0.614874 0.000000
0.000000 0.650435 0.000000
0.000000 0.650435 0.000000
0.005005 0.650435 0.000000
0.044807 0.650435 0.000000
0.084454 0.650435 0.000000
0.123930 0.650435 0.000000
0.163220 0.650435 0.000000
0.202311 0.650435 0.000000
0.241186 0.650435 0.000000
0.279829 0.650435 0.000000
0.318230 0.650435 0.000000
0.356370 0.650435 0.000000
0.394226 0.650435 0.000000
0.431808 0.650435 0.000000
0.469072 0.650435 0.000000
0.506027 0.650435 0.000000
0.542657 0.650435 0.000000
0.578941 0.650435 0.000000
0.614873 0.650435 0.000000
0.650435 0.650435 0.000000
0.685626 0.650435 0.000000
0.720419 0.650435 0.000000
0.754824 0.650435 0.000000
0.788819 0.650435 0.000000
0.822392 0.650435 0.000000
0.855542 0.650435 0.000000
0.888251 0.650435 0.000000
0.920521 0.650435 0.000000
0.952341 0.650435 0.000000
0.983707 0.650435 0.000000
1.000000 0.650435 0.000000
1.000000 0.650435 0.000000
1.000000 0.650435 0.000000
0.000000 0.685626 0.000000
0.000000 0.685626 0.000000
0.005006 0.685626 0.000000
0.044807 0.685626 0.000000
0.084454 0.685626 0.000000
0.123930 0.685626 0.000000
0.163220 0.685626 0.000000
0.202311 0.685626 0.000000
0.241186 0.685626 0.000000
0.279829 0.685626 0.000000
0.318230 0.685626 0.000000
0.356370 0.685626 0.000000
0.394226 0.685626 0.000000
0.431808 0.685626 0.000000
0.469072 0.685626 0.000000
0.506027 0.685626 0.000000
0.542657 0.685626 0.000000
0.578941 0.685626 0.000000
0.614874 0.685626 0.000000
0.650435 0.685626 0.000000
0.685626 0.685626 0.000000
0.720419 0.685626 0.000000
0.754824 0.685626 0.000000
0.788819 0.685626 0.000000
0.822392 0.685626 0.000000
0.855542 0.685626 0.000000
0.888251 0.685626 0.000000
0.920521 0.685626 0.000000
0.952341 0.685626 0.000000
0.983707 0.685626 0.000000
1.000000 0.685626 0.000000
1.000000 0.685626 0.000000
1.000000 0.685626 0.000000
0.000000 0.720419 0.000000
0.000000 0.720419 0.000000
0.005006 0.720419 0.000000
0.044807 0.720419 0.000000
0.084454 0.720419 0.000000
0.123930 0.720419 0.000000
0.163220 0.720419 0.000000
0.202311 0.720419 0.000000
0.241186 0.720419 0.000000
0.279829 0.720419 0.000000
0.318230 0.720419 0.000000
0.356370 0.720419 0.000000
0.394226 0.720419 0.000000
0.431808 0.720419 0.000000
0.469072 0.720419 0.000000
0.506027 0.720419 0.000000
0.542657 0.720419 0.000000
0.578941 0.720419 0.000000
0.614874 0.720419 0.000000
0.650435 0.720419 0.000000
0.685626 0.720419 0.000000
0.720419 0.720419 0.000000
0.754824 0.720419 0.000000
0.788819 0.720419 0.000000
0.822392 0.720419 0.000000
0.855542 0.720419 0.000000
0.888251 0.720419 0.000000
0.920521 0.720419 0.000000
0.952341 0.720419 0.000000
0.983707 0.720419 0.000000
1.000000 0.720419 0.000000
1.000000 0.720419 0.000000
1.000000 0.720419 0.000000
0.000000 0.754824 0.000000
0.000000 0.754824 0.000000
0.005006 0.754824 0.000000
0.044807 0.754824 0.000000
0.084454 0.754824 0.000000
0.123930 0.754824 0.000000
0.163220 0.754824 0.000000
0.202311 0.754824 0.000000
0.241186 0.754824 0.000000
0.279829 0.754824 0.000000
0.318230 0.754824 0.000000
0.356370 0.754824 0.000000
0.394226 0.754824 0.000000
0.431808 0.754824 0.000000
0.469072 0.754824 0.000000
0.506027 0.754824 0.000000
0.542657 0.754824 0.000000
0.578941 0.754824 0.000000
0.614874 0.754824 0.000000
0.650435 0.754824 0.000000
0.685626 0.754824 0.000000
0.720419 0.754824 0.000000
0.754824 0.754824 0.000000
0.788819 0.754824 0.000000
0.822392 0.754824 0.000000
0.855542 0.754824 0.000000
0.888251 0.754824 0.000000
0.920521 0.754824 0.000000
0.952341 0.754824 0.000000
0.983707 0.754824 0.000000
1.000000 0.754824 0.000000
1.000000 0.754824 0.000000
1.000000 0.754824 0.000000
0.000000 0.788819 0.000000
0.000000 0.788819 0.000000
0.005006 0.788819 0.000000
0.044807 0.788819 0.000000
0.084454 0.788819 0.000000
0.123930 0.788819 0.000000
0.163220 0.788819 0.000000
0.202311 0.788819 0.000000
0.241186 0.788819 0.000000
0.279829 0.788819 0.000000
0.318230 0.788819 0.000000
0.356370 0.788819 0.000000
0.394226 0.788819 0.000000
0.431808 0.788819 0.000000
0.469072 0.788819 0.000000
0.506027 0.788819 0.000000
0.542657 0.788819 0.000000
0.578941 0.788819 0.000000
0.614873 0.788819 0.000000
0.650435 0.788819 0.000000
0.685626 0.788819 0.000000
0.720419 0.788819 0.000000
0.754824 0.788819 0.000000
0.788819 0.788819 0.000000
0.822392 0.788819 0.000000
0.855542 0.788819 0.000000
0.888251 0.788819 0.000000
0.920521 0.788819 0.000000
0.952341 0.788819 0.000000
0.983707 0.788819 0.000000
1.000000 0.788819 0.000000
1.000000 0.788819 0.000000
1.000000 0.788819 0.000000
0.000000 0.822392 0.000000
0.000000 0.822392 0.000000
0.005006 0.822392 0.000000
0.044807 0.822392 0.000000
0.084454 0.822392 0.000000
0.123930 0.822392 0.000000
0.163220 0.822392 0.000000
0.202311 0.822392 0.000000
0.241186 0.822392 0.000000
0.279829 0.822392 0.000000
0.318230 0.822392 0.000000
0.356370 0.822392 0.000000
0.394226 0.822392 0.000000
0.431808 0.822392 0.000000
0.469072 0.822392 0.000000
0.506027 0.822392 0.000000
0.542657 0.822392 0.000000
0.578941 0.822392 0.000000
0.614874 0.822392 0.000000
0.650435 0.822392 0.000000
0.685626 0.822392 0.000000
0.720419 0.822392 0.000000
0.754824 0.822392 0.000000
0.788819 0.822392 0.000000
0.822392 0.822392 0.000000
0.855542 0.822392 0.000000
0.888251 0.822392 0.000000
0.920521 0.822392 0.000000
0.952341 0.822392 0.000000
0.983707 0.822392 0.000000
1.000000 0.822392 0.000000
1.000000 0.822392 0.000000
1.000000 0.822392 0.000000
0.000000 0.855542 0.000000
0.000000 0.855542 0.000000
0.005006 0.855542 0.000000
0.044807 0.855542 0.000000
0.084454 0.855542 0.000000
0.123930 0.855542 0.000000
0.163220 0.855542 0.000000
0.202311 0.855542 0.000000
0.241186 0.855542 0.000000
0.279829 0.855542 0.000000
0.318230 0.855542 0.000000
0.356370 0.855542 0.000000
0.394226 0.855542 0.000000
0.431808 0.855542 0.000000
0.469072 0.855542 0.000000
0.506027 0.855542 0.000000
0.542657 0.855542 0.000000
0.578941 0.855542 0.000000
0.614874 0.855542 0.000000
0.650435 0.855542 0.000000
0.685626 0.855542 0.000000
0.720419 0.855542 0.000000
0.754824 0.855542 0.000000
0.788819 0.855542 0.000000
0.822392 0.855542 0.000000
0.855542 0.855542 0.000000
0.888251 0.855542 0.000000
0.920521 0.855542 0.000000
0.952341 0.855542 0.000000
0.983707 0.855542 0.000000
1.000000 0.855542 0.000000
1.000000 0.855542 0.000000
1.000000 0.855542 0.000000
0.000000 0.888251 0.000000
0.000000 0.888251 0.000000
0.005006 0.888251 0.000000
0.044807 0.888251 0.000000
0.084454 0.888251 0.000000
0.123930 0.888251 0.000000
0.163220 0.888251 0.000000
0.202311 0.888251 0.000000
0.241186 0.888251 0.000000
0.279829 0.888251 0.000000
0.318230 0.888251 0.000000
0.356370 0.888251 0.000000
0.394226 0.888251 0.000000
0.431808 0.888251 0.000000
0.469072 0.888251 0.000000
0.506027 0.888251 0.000000
0.542657 0.888251 0.000000
0.578941 0.888251 0.000000
0.614873 0.888251 0.000000
0.650435 0.888251 0.000000
0.685626 0.888251 0.000000
0.720419 0.888251 0.000000
0.754824 0.888251 0.000000
0.788819 0.888251 0.000000
0.822392 0.888251 0.000000
0.855542 0.888251 0.000000
0.888251 0.888251 0.000000
0.920521 0.888251 0.000000
