luts/KODAK FPE 03.cube
TITLE "Generated by Resolve"
LUT_3D_SIZE 9
0.0150912 0.0211032 0.0270542
0.0785687 0.0391241 0.0338598
0.195926 0.0619821 0.0287633
0.336614 0.0802319 0.0163119
0.466346 0.0941634 0.0256504
0.578027 0.107927 0.0422065
0.662257 0.13019 0.0478676
0.728191 0.153567 0.0589456
0.782223 0.172137 0.0926986
0.0159152 0.0829633 0.0626841
0.0917372 0.092958 0.0601053
0.224292 0.115648 0.0445869
0.368277 0.136782 0.0212253
0.496971 0.153689 0.0198062
0.603632 0.17467 0.0260777
0.695293 0.19791 0.0398108
0.767315 0.224323 0.0589456
0.809491 0.243488 0.0818189
0.0284886 0.183795 0.101946
0.0905318 0.199649 0.0990005
0.257816 0.226246 0.0694438
0.417517 0.249592 0.0381018
0.552026 0.267796 0.0277867
0.654292 0.286748 0.0269932
0.740871 0.30808 0.0330358
0.811307 0.332845 0.0464027
0.849958 0.344488 0.0617227
0.048188 0.305241 0.134752
0.0657054 0.337209 0.126574
0.270604 0.350759 0.0813611
0.441032 0.373907 0.049958
0.582391 0.391653 0.0306859
0.694377 0.41033 0.0281987
0.785229 0.429297 0.0345922
0.855604 0.451835 0.0427405
0.894102 0.461112 0.0380255
0.0735027 0.424033 0.156786
0.0860914 0.459876 0.13843
0.269688 0.470603 0.100877
0.44892 0.490562 0.0632029
0.600717 0.510201 0.042649
0.717525 0.529732 0.0356451
0.811612 0.548394 0.033341
0.887114 0.568902 0.0417945
0.930526 0.579965 0.0349126
0.101213 0.532753 0.177798
0.106538 0.569772 0.177264
0.254124 0.579965 0.135225
0.445396 0.594339 0.0924849
0.608133 0.612985 0.0651865
0.733959 0.633295 0.0609445
0.831403 0.651484 0.06009
0.911299 0.670558 0.0602121
0.954376 0.684321 0.0672465
0.129656 0.631907 0.219776
0.126146 0.668101 0.215473
0.222751 0.679072 0.177401
0.433036 0.685161 0.129625
0.600473 0.700771 0.0977188
0.735653 0.720851 0.0894484
0.844129 0.740047 0.0959029
0.925139 0.760922 0.1019
0.970245 0.77528 0.109789
0.158526 0.722866 0.258167
0.151034 0.757168 0.251179
0.214405 0.766918 0.215366
0.331991 0.762203 0.166644
0.534035 0.772549 0.141085
0.690272 0.791165 0.132006
0.827161 0.814115 0.137758
0.923247 0.842069 0.161028
0.980377 0.858366 0.174899
0.135256 0.763989 0.34818
0.137346 0.801694 0.30045
0.243 0.79115 0.255406
0.325536 0.790356 0.227283
0.394736 0.793683 0.216678
0.449668 0.801984 0.223835
0.496162 0.81883 0.24802
0.725567 0.865446 0.304768
0.964202 0.953323 0.398215
0.0180972 0.0306096 0.0764782
0.0829786 0.0474861 0.0878309
0.228428 0.0635386 0.0906539
0.365103 0.080766 0.0986038
0.487221 0.0848707 0.111818
0.582696 0.10457 0.115267
0.6663 0.127352 0.118563
0.733715 0.151751 0.122423
0.787945 0.171023 0.147524
0.00892653 0.0941634 0.113146
0.0857557 0.101808 0.112047
0.229282 0.121386 0.10782
0.379843 0.138796 0.106035
0.507668 0.152697 0.106462
0.618387 0.170291 0.112047
0.72697 0.183536 0.132372
0.804105 0.207828 0.144152
0.840772 0.229419 0.142687
0.0218051 0.197009 0.153475
0.0565042 0.218723 0.160281
0.247761 0.235554 0.148394
0.41854 0.253574 0.128374
0.552697 0.27129 0.113054
0.658259 0.291096 0.101411
0.749508 0.313863 0.0953841
0.822019 0.338018 0.107057
0.859754 0.346975 0.106386
0.0417182 0.317662 0.190005
0.0536049 0.349355 0.197986
0.24918 0.361913 0.175509
0.44036 0.381537 0.139025
0.587976 0.398474 0.10367
0.700236 0.418906 0.0864271
0.790707 0.437675 0.0891737
0.860761 0.460929 0.0944839
0.899718 0.468757 0.0833448
0.0633555 0.433921 0.221851
0.0746166 0.468208 0.22208
0.245579 0.483986 0.18291
0.447791 0.502647 0.118883
0.603998 0.521172 0.0936141
0.720241 0.539376 0.0848707
0.81442 0.55729 0.0844282
0.889952 0.5776 0.0917067
0.932799 0.589258 0.0737621
0.0906996 0.538949 0.262791
0.09691 0.575021 0.256504
0.216938 0.599619 0.199878
0.439567 0.60705 0.12723
0.60763 0.62356 0.106142
0.734096 0.642924 0.0981003
0.831769 0.660212 0.0958877
0.912215 0.678935 0.0992142
0.956008 0.692638 0.0970932
0.119158 0.635493 0.305318
0.119905 0.670817 0.292332
0.193194 0.6972 0.227054
0.424018 0.696864 0.157458
0.596689 0.710735 0.126497
0.734127 0.729961 0.116075
0.843351 0.748623 0.117311
0.923201 0.768338 0.125795
0.968872 0.783154 0.132479
0.146746 0.723415 0.347707
0.143786 0.756588 0.333043
0.187808 0.78056 0.27335
0.322423 0.772122 0.191272
0.526802 0.780835 0.162142
0.687083 0.799023 0.151736
0.825437 0.821729 0.156634
0.921843 0.848035 0.176165
0.97966 0.864713 0.190204
0.119066 0.7664 0.435309
0.117021 0.797864 0.430457
0.181094 0.805478 0.400809
0.298726 0.790402 0.354116
0.374945 0.791943 0.334203
0.433814 0.800351 0.33051
0.483986 0.818662 0.337621
0.725872 0.862486 0.377295
0.964462 0.950332 0.467094
0.031632 0.0426337 0.170428
0.101381 0.0545357 0.1897
0.224369 0.0724346 0.202808
0.376638 0.075761 0.214817
0.510857 0.0866255 0.2309
0.601846 0.105257 0.239933
0.677226 0.126528 0.249546
0.740368 0.150927 0.259815
0.792721 0.167437 0.267918
0.0125124 0.111513 0.214466
0.0895399 0.119524 0.220783
0.22945 0.136797 0.227588
0.394858 0.145434 0.232303
0.533501 0.157092 0.235981
0.63447 0.170932 0.250721
0.728923 0.183017 0.27863
0.805859 0.205066 0.304112
0.836332 0.225483 0.290166
0.0192416 0.217899 0.26305
0.0308843 0.244938 0.279469
0.236561 0.251286 0.267597
0.416983 0.26479 0.257511
0.557885 0.27628 0.256748
0.660624 0.289265 0.261036
0.745464 0.307973 0.271138
0.815396 0.333776 0.287724
0.85127 0.341848 0.275364
0.0367742 0.337118 0.301228
0.0449226 0.36936 0.315435
0.205188 0.38436 0.301167
0.413306 0.397971 0.288533
0.571679 0.406989 0.274922
0.685115 0.421256 0.273198
0.775479 0.437766 0.276982
0.846937 0.460258 0.287633
0.885237 0.467582 0.275685
0.0555886 0.453208 0.333257
0.0607156 0.487266 0.341451
0.161959 0.51342 0.330678
0.40679 0.516579 0.305455
0.5841 0.528695 0.283711
0.707546 0.540276 0.274922
0.800214 0.557534 0.273945
0.873472 0.578286 0.277989
0.91397 0.591821 0.266178
0.0806439 0.554269 0.366766
0.0839704 0.588922 0.370504
0.151141 0.621225 0.358129
0.40061 0.61619 0.31339
0.588235 0.628046 0.289723
0.717021 0.644831 0.283101
0.814618 0.661067 0.273259
0.895399 0.679789 0.270787
0.944305 0.693462 0.262852
0.108537 0.645197 0.406012
0.10663 0.678767 0.406165
0.136584 0.712978 0.393805
0.386099 0.701091 0.330632
0.569162 0.712978 0.297322
0.714153 0.731044 0.282979
0.825376 0.749905 0.272801
0.916823 0.769833 0.262272
0.965118 0.78439 0.261509
0.135637 0.727733 0.442359
0.130861 0.759197 0.439689
0.141009 0.791241 0.426978
0.285359 0.771695 0.3626
0.488838 0.778302 0.328359
0.658808 0.796841 0.310719
0.80325 0.820218 0.303548
0.917662 0.845304 0.31017
0.977462 0.862638 0.319524
0.110506 0.77055 0.50042
0.107591 0.801404 0.500893
0.134997 0.823667 0.49218
0.276646 0.797192 0.441871
0.356466 0.795895 0.427695
0.41593 0.802625 0.431647
0.465202 0.818524 0.454261
0.727138 0.861433 0.500435
0.96556 0.948425 0.589441
0.0608072 0.0535592 0.280705
0.137194 0.0554971 0.302739
0.255451 0.0755932 0.32137
0.387533 0.079408 0.330236
0.507988 0.0910658 0.33843
0.609842 0.112474 0.34876
0.690913 0.134417 0.360082
0.753307 0.160342 0.372442
0.804593 0.179324 0.380865
0.0354009 0.130526 0.321782
0.102312 0.145785 0.332372
0.253025 0.155489 0.342138
0.396689 0.158846 0.348714
0.528542 0.16376 0.354604
0.643488 0.177859 0.369528
0.74519 0.189487 0.399512
0.816861 0.213062 0.423407
0.843854 0.237522 0.409171
0.019501 0.24181 0.373617
0.0323339 0.268849 0.392844
0.246723 0.273075 0.383322
0.407385 0.284245 0.383581
0.551827 0.289357 0.381796
0.671351 0.300206 0.386175
0.758846 0.316304 0.394446
0.821775 0.339345 0.410361
0.852552 0.35108 0.40061
0.0341192 0.358434 0.416419
0.0410925 0.389227 0.432868
0.173175 0.408164 0.426261
0.407721 0.410376 0.408911
0.569772 0.419013 0.401373
0.688563 0.430671 0.400916
0.779171 0.442359 0.408072
0.84625 0.459174 0.417166
0.879255 0.469917 0.408804
0.0509499 0.469154 0.445808
0.0547951 0.502663 0.458061
0.102281 0.540917 0.462226
0.387488 0.533654 0.427222
0.561944 0.54258 0.417914
0.68986 0.554299 0.413077
0.785016 0.566751 0.411521
0.860029 0.58262 0.417807
0.900786 0.593774 0.409232
0.0745098 0.569177 0.476371
0.0755474 0.603403 0.485161
0.102602 0.644511 0.486046
0.366339 0.635004 0.441611
0.554574 0.644083 0.430808
0.699351 0.657984 0.42153
0.802655 0.66659 0.417807
0.880888 0.684077 0.421057
0.926375 0.699443 0.411429
0.100969 0.658106 0.507347
0.0979629 0.690974 0.512032
0.103548 0.731807 0.51165
0.354192 0.716106 0.455085
0.544472 0.724514 0.432639
0.694362 0.74023 0.427893
0.809293 0.754528 0.42887
0.895552 0.772061 0.429328
0.95378 0.787366 0.423453
0.127871 0.734325 0.536904
0.121981 0.765164 0.539208
0.119295 0.801892 0.536614
0.258991 0.782223 0.478737
0.449821 0.78529 0.450416
0.632609 0.802792 0.439353
0.781689 0.825162 0.438224
0.908217 0.848936 0.453269
0.975525 0.866545 0.459236
0.105745 0.773785 0.560311
0.102342 0.804364 0.563363
0.117632 0.831525 0.561776
0.261387 0.803891 0.51281
0.345174 0.800702 0.499107
0.405783 0.806836 0.50396
0.455299 0.823026 0.525017
0.722759 0.866606 0.570016
0.967697 0.95259 0.657481
0.0942092 0.0768597 0.372457
0.161227 0.0794232 0.388754
0.279133 0.0925002 0.409476
0.39971 0.103517 0.419013
0.512932 0.108309 0.427451
0.610636 0.124971 0.438605
0.697017 0.149508 0.45008
0.765362 0.175708 0.464607
0.819165 0.199039 0.476341
0.0866255 0.146548 0.41886
0.120806 0.174365 0.427588
0.278828 0.174701 0.434348
0.409277 0.182376 0.44184
0.533532 0.180026 0.451865
0.646799 0.186831 0.472038
0.754482 0.200549 0.500816
0.82797 0.227512 0.520974
0.859236 0.254047 0.513115
0.0265812 0.26511 0.460975
0.0571908 0.293858 0.482185
0.264271 0.298634 0.481285
0.419913 0.308095 0.479622
0.552621 0.308248 0.484932
0.662028 0.315755 0.490181
0.758953 0.331197 0.495933
0.829755 0.353307 0.50927
0.859373 0.367636 0.501656
0.0349584 0.380377 0.505333
0.0408942 0.410849 0.525734
0.179751 0.434165 0.526177
0.410361 0.429282 0.507179
0.558801 0.437278 0.504295
0.678752 0.445808 0.505028
0.781826 0.454353 0.512764
0.854505 0.469154 0.519875
0.881407 0.478447 0.511086
0.0501411 0.488228 0.541039
0.0525978 0.521492 0.556237
0.0898604 0.560601 0.563897
0.379858 0.550454 0.530068
0.559594 0.554131 0.517708
0.689448 0.565698 0.517327
0.786938 0.575814 0.517662
0.862593 0.586267 0.52401
0.898238 0.592966 0.515145
0.0716259 0.584802 0.571588
0.072282 0.618173 0.5823
0.0877852 0.661341 0.589685
0.328374 0.654673 0.548318
0.546349 0.658137 0.532006
0.685313 0.670481 0.530327
0.789624 0.680415 0.529702
0.869688 0.691661 0.52932
0.91809 0.700816 0.521218
0.0972457 0.67097 0.599634
0.0937362 0.703258 0.60676
0.0975357 0.743542 0.608835
0.325704 0.733501 0.558755
0.522744 0.739483 0.538949
0.671305 0.754086 0.541085
0.799252 0.767056 0.537148
0.890059 0.777615 0.5393
0.944366 0.794079 0.530587
0.123873 0.743053 0.623163
0.117144 0.773663 0.627817
0.113756 0.810468 0.628168
0.238758 0.796841 0.577844
0.413535 0.796719 0.54876
0.611902 0.813306 0.541833
0.768277 0.835111 0.542657
0.898863 0.856947 0.561563
0.97499 0.874586 0.560845
0.103655 0.775937 0.618524
0.100237 0.806256 0.622858
0.102403 0.838865 0.627939
0.249653 0.809842 0.578042
0.338064 0.804807 0.56321
0.399664 0.810925 0.567422
0.449149 0.827436 0.587289
0.712474 0.872557 0.629816
0.970916 0.958206 0.711376
0.126009 0.113588 0.452873
0.183322 0.117708 0.466499
0.301488 0.123491 0.486625
0.418509 0.133104 0.499779
0.526406 0.137514 0.508278
0.617639 0.14728 0.518486
0.699947 0.166979 0.529885
0.77145 0.195071 0.543908
0.832715 0.220249 0.561639
0.138537 0.168002 0.508339
0.149691 0.205325 0.509041
0.303258 0.202701 0.516152
0.429114 0.208804 0.525856
0.549172 0.205661 0.539437
0.657618 0.204852 0.562051
0.758434 0.214954 0.588418
0.835004 0.245823 0.606638
0.880232 0.267948 0.6112
0.0562448 0.291966 0.538689
0.107881 0.321798 0.560098
0.284367 0.327047 0.561975
0.437247 0.330861 0.558846
0.559487 0.334554 0.564126
0.66392 0.335378 0.574884
0.755627 0.346029 0.584131
0.831952 0.370092 0.595651
0.867536 0.385901 0.589685
0.0387427 0.40354 0.580728
0.0515908 0.434333 0.601648
0.207736 0.461173 0.611048
0.424872 0.450355 0.592706
0.566674 0.457847 0.588739
0.681147 0.461494 0.598062
0.772305 0.469612 0.601495
0.852613 0.484123 0.607691
0.887083 0.492546 0.597314
0.0508888 0.507866 0.616159
0.0539406 0.540719 0.633921
0.110124 0.584131 0.652171
0.384939 0.567971 0.615824
0.557794 0.570047 0.604547
0.679667 0.579705 0.6056
0.779248 0.588251 0.605737
0.864652 0.59675 0.613916
0.904112 0.599863 0.602853
0.0711986 0.602335 0.650767
0.0715953 0.63534 0.663996
0.0805982 0.677653 0.674678
0.336934 0.669856 0.636942
0.54165 0.672633 0.620691
0.68188 0.680247 0.616739
0.789319 0.689952 0.618997
0.867475 0.700023 0.62063
0.919692 0.699672 0.610742
0.0957351 0.685893 0.680568
0.0919509 0.717876 0.689845
0.0906539 0.757885 0.695338
0.304616 0.749493 0.649989
0.503243 0.75581 0.628611
0.666285 0.766964 0.626184
0.787884 0.780133 0.628229
0.880171 0.78819 0.62948
0.940459 0.795987 0.620859
0.121721 0.753277 0.69958
0.115007 0.78352 0.705638
0.110872 0.820478 0.708797
0.223056 0.812558 0.666178
0.384894 0.809583 0.634607
0.60145 0.82504 0.626795
0.75462 0.846738 0.63772
0.895842 0.866575 0.649073
0.972107 0.882292 0.646342
0.103944 0.777462 0.672435
0.100404 0.807721 0.677577
0.102235 0.840345 0.68394
0.241367 0.814939 0.638407
0.333577 0.808789 0.622477
0.396246 0.815259 0.625528
0.44622 0.832288 0.644022
0.697276 0.878996 0.683024
0.975097 0.965148 0.757458
0.153841 0.159533 0.522972
0.200427 0.167117 0.539117
0.320363 0.166354 0.555154
0.436271 0.172168 0.571374
0.544289 0.176013 0.583185
0.633112 0.181155 0.5944
0.709026 0.19324 0.604364
0.77641 0.215549 0.616556
0.842176 0.244266 0.638209
0.171221 0.205615 0.577508
0.182086 0.240635 0.582086
0.324437 0.239551 0.588724
0.451057 0.242191 0.603296
0.571405 0.238117 0.62153
0.679149 0.233188 0.648173
0.766598 0.241062 0.666667
0.840055 0.265522 0.684611
0.891402 0.289677 0.693049
0.120409 0.321004 0.609094
0.158068 0.352926 0.629847
0.301137 0.361547 0.631235
0.453101 0.358816 0.633051
0.571649 0.362325 0.635462
0.670481 0.364401 0.648066
0.757992 0.368322 0.661921
0.832227 0.386175 0.674815
0.872892 0.406714 0.668238
0.0670024 0.430442 0.648768
0.102586 0.461585 0.670619
0.232898 0.490639 0.683665
0.438636 0.47454 0.666529
0.579507 0.477546 0.660716
0.680125 0.485512 0.667903
0.772854 0.485176 0.680323
0.849027 0.49662 0.686397
0.89099 0.508583 0.675258
0.059678 0.529671 0.683375
0.0732738 0.562325 0.70309
0.174456 0.603174 0.721431
0.402426 0.587228 0.69012
0.569055 0.586084 0.680919
0.683406 0.595834 0.681361
0.782589 0.59881 0.691051
0.855085 0.609674 0.692103
0.907683 0.611933 0.680812
0.0736095 0.619883 0.717571
0.0736095 0.652598 0.732036
0.104814 0.693812 0.74551
0.357504 0.68542 0.713359
0.547204 0.684382 0.696483
0.676814 0.692622 0.693355
0.779812 0.700786 0.697276
0.863569 0.71017 0.697887
0.926925 0.705852 0.691096
0.0964981 0.699809 0.748882
0.0919814 0.731594 0.759503
0.0902266 0.771832 0.767987
0.272358 0.768734 0.73225
0.512001 0.76582 0.707057
0.662806 0.778561 0.705608
0.784024 0.787518 0.70602
0.87921 0.795926 0.708461
0.942168 0.795377 0.701793
0.121553 0.764126 0.768994
0.114336 0.794095 0.776287
0.109865 0.831006 0.781415
0.207111 0.829572 0.747951
0.352682 0.822293 0.717693
0.599405 0.835706 0.703944
0.751751 0.85803 0.717098
0.890257 0.878737 0.728954
0.97081 0.887312 0.723629
0.106416 0.778515 0.724636
0.101915 0.809018 0.731167
0.103639 0.841825 0.738262
0.235187 0.820035 0.696498
0.330922 0.813138 0.680034
0.394476 0.820386 0.684031
0.445106 0.838712 0.701274
0.680049 0.886839 0.736767
0.979965 0.973053 0.80473
0.17464 0.223423 0.591562
0.214527 0.234821 0.611231
0.335058 0.230655 0.623468
0.451667 0.23389 0.641032
0.561364 0.236454 0.655482
0.650706 0.242725 0.670665
0.726223 0.247486 0.684489
0.789258 0.257069 0.697063
0.850477 0.277974 0.713802
0.195132 0.262257 0.645685
0.205631 0.296864 0.653101
0.336782 0.298833 0.654994
0.463447 0.300893 0.67277
0.587243 0.297017 0.693782
0.692958 0.293721 0.722667
0.781292 0.296056 0.747631
0.850095 0.307973 0.765682
0.896834 0.322805 0.769406
0.165911 0.364126 0.674876
0.187549 0.39826 0.694911
0.306691 0.413031 0.695232
0.46038 0.407492 0.702312
0.588342 0.406271 0.706889
0.682841 0.411521 0.71928
0.765057 0.415824 0.73698
0.834943 0.423484 0.754681
0.872892 0.435431 0.743267
0.137591 0.468772 0.713069
0.169619 0.500359 0.735088
0.253498 0.533074 0.748791
0.447837 0.514824 0.733379
0.591516 0.510918 0.732769
0.692241 0.517159 0.736004
0.773205 0.522423 0.749645
0.845502 0.52546 0.766857
0.88835 0.5299 0.7514
0.133165 0.563973 0.749706
0.158648 0.596429 0.769009
0.224216 0.635874 0.786816
0.420691 0.619303 0.75903
0.576379 0.613931 0.750942
0.692348 0.618235 0.750134
0.776654 0.626322 0.757824
0.854017 0.626551 0.773907
0.903883 0.627176 0.756725
0.105333 0.648402 0.785931
0.119478 0.680613 0.801114
0.199588 0.719722 0.813672
0.393103 0.710018 0.782467
0.559853 0.703777 0.7664
0.683833 0.709026 0.764889
0.782788 0.716869 0.769894
0.868849 0.719203 0.783398
0.921248 0.719936 0.766766
0.0992599 0.72224 0.817487
0.0960555 0.753368 0.828977
0.115572 0.792096 0.836942
0.332891 0.791074 0.804395
0.533974 0.77995 0.779217
0.671107 0.787182 0.776089
0.78056 0.797848 0.780774
0.878172 0.806058 0.791226
0.943358 0.805631 0.782162
0.123629 0.778592 0.835767
0.115923 0.808499 0.836698
0.110903 0.845121 0.840497
0.192096 0.849638 0.826123
0.355596 0.836484 0.792935
0.581155 0.85005 0.785718
0.748287 0.869398 0.795453
0.885573 0.886427 0.805554
0.970336 0.889311 0.804074
0.108797 0.782101 0.778012
0.105241 0.812116 0.778744
0.106889 0.842664 0.78175
0.231846 0.827314 0.758724
0.330327 0.821103 0.743221
0.394751 0.830884 0.749081
0.445777 0.852674 0.768475
0.666712 0.902296 0.803189
0.983993 0.981659 0.851209
0.215122 0.349248 0.687236
0.215641 0.380087 0.689708
0.323873 0.377234 0.688807
0.426383 0.380957 0.703822
0.543679 0.3785 0.730678
0.659342 0.371374 0.763973
0.74725 0.374929 0.775265
0.814588 0.3832 0.789822
0.873289 0.386221 0.813001
0.211933 0.402625 0.708629
0.211551 0.437171 0.720836
0.309514 0.447593 0.715373
0.425345 0.450126 0.722515
0.536797 0.454475 0.735058
0.639628 0.459831 0.751842
0.734371 0.463584 0.767971
0.806775 0.472999 0.786648
0.846647 0.4757 0.788739
0.208881 0.484504 0.742016
0.218296 0.515587 0.762036
0.283757 0.539574 0.765484
0.431479 0.529656 0.754498
0.547951 0.533104 0.761624
0.650935 0.538872 0.775265
0.747539 0.542611 0.788205
0.821607 0.551156 0.803174
0.860029 0.547677 0.801862
0.220523 0.567987 0.781003
0.230991 0.598871 0.800275
0.269963 0.632563 0.813275
0.434546 0.615076 0.786862
0.557458 0.61593 0.786831
0.659754 0.621271 0.797192
0.756832 0.62417 0.80795
0.836637 0.629801 0.819898
0.876585 0.622766 0.816434
0.246906 0.65037 0.818952
0.252628 0.681712 0.8365
0.275731 0.718334 0.850294
0.434241 0.7019 0.817838
0.566339 0.697368 0.808377
0.666697 0.702007 0.813886
0.759197 0.705409 0.822797
0.847333 0.707668 0.832578
0.89366 0.698787 0.829877
0.279194 0.726467 0.858595
0.281651 0.75697 0.871962
0.298253 0.792737 0.882811
0.440253 0.781308 0.850004
0.579919 0.770825 0.830396
0.679408 0.774548 0.83032
0.767224 0.779049 0.836957
0.858381 0.780362 0.845975
0.914992 0.769024 0.845426
0.31429 0.794232 0.89662
0.313237 0.824125 0.90663
0.325093 0.85893 0.91429
0.440589 0.855146 0.884779
0.595026 0.836576 0.853071
0.695705 0.838727 0.847761
0.783154 0.844495 0.851865
0.8719 0.848173 0.861234
0.94139 0.835157 0.863859
0.320562 0.852796 0.920699
0.317571 0.881636 0.92108
0.327855 0.91519 0.922744
0.42359 0.91809 0.920684
0.592691 0.892927 0.881285
0.701564 0.894286 0.873121
0.80444 0.901289 0.874235
0.897215 0.91017 0.88484
0.974426 0.900481 0.889967
0.110109 0.855482 0.905806
0.107393 0.885924 0.906401
0.109438 0.913176 0.908904
0.227634 0.905989 0.900847
0.32842 0.90164 0.88307
0.393713 0.916152 0.886839
0.487465 0.942168 0.901473
0.789014 0.973327 0.919661
0.983551 0.984909 0.922911
