luts/KODAK FPE 02.cube
TITLE "Generated by Resolve"
LUT_3D_SIZE 9
0.0150912 0.0212253 0.0289769
0.0780499 0.0390478 0.0355688
0.196033 0.0616465 0.0302434
0.337499 0.0792401 0.0177768
0.470085 0.0923323 0.0252689
0.581933 0.106264 0.0404974
0.666941 0.128191 0.0458839
0.73341 0.151339 0.056733
0.787793 0.169757 0.0903334
0.0144503 0.0832837 0.0648508
0.0902113 0.0933547 0.0620432
0.223377 0.115587 0.0473182
0.36907 0.136721 0.0212253
0.499031 0.15314 0.0198062
0.606897 0.17351 0.0234531
0.699519 0.196262 0.0372168
0.772564 0.222065 0.0568246
0.814404 0.24155 0.0789197
0.0255283 0.184695 0.105074
0.0822156 0.202899 0.104005
0.254826 0.227024 0.0732586
0.41677 0.250614 0.0347601
0.55259 0.26836 0.024918
0.655818 0.2869 0.0221714
0.743191 0.307881 0.0279393
0.81413 0.332418 0.0411994
0.852598 0.344274 0.0559091
0.0437781 0.306676 0.138872
0.060441 0.338399 0.134249
0.264958 0.354177 0.0786145
0.437827 0.376471 0.0451514
0.580789 0.393652 0.0289006
0.693843 0.411933 0.0263371
0.785489 0.430594 0.0272526
0.856367 0.452934 0.0351568
0.894636 0.462409 0.0299229
0.0672007 0.42565 0.16492
0.0815442 0.462837 0.135164
0.257603 0.477211 0.0985733
0.442191 0.49514 0.0572519
0.596155 0.514046 0.042649
0.714229 0.53312 0.0356451
0.809262 0.551431 0.033341
0.885344 0.571694 0.0354467
0.927077 0.583383 0.0349126
0.0936446 0.533745 0.192493
0.101015 0.573663 0.171756
0.226398 0.593576 0.137743
0.435386 0.600732 0.0858473
0.600809 0.618448 0.062562
0.728115 0.63827 0.0609445
0.826596 0.656062 0.06009
0.905806 0.675319 0.0602121
0.946349 0.689967 0.0672465
0.124483 0.635554 0.214603
0.119738 0.672602 0.209064
0.192706 0.69398 0.179385
0.420066 0.693126 0.122637
0.590784 0.707591 0.0879835
0.72755 0.727169 0.0894484
0.837232 0.745937 0.0959029
0.916991 0.767697 0.100267
0.964858 0.782238 0.10515
0.152911 0.726818 0.252552
0.144121 0.762036 0.244266
0.188479 0.780224 0.214832
0.317159 0.77113 0.159594
0.522866 0.780179 0.13106
0.680751 0.798291 0.121523
0.818799 0.820829 0.13521
0.923247 0.849638 0.150271
0.980377 0.866026 0.163989
0.124727 0.767102 0.359686
0.125658 0.803616 0.321202
0.209644 0.807523 0.258457
0.310201 0.799359 0.221088
0.382727 0.801495 0.207889
0.439368 0.809247 0.213504
0.487068 0.825696 0.237766
0.725567 0.872816 0.294286
0.964202 0.960784 0.38761
0.0180972 0.0307774 0.0813611
0.0821088 0.0471199 0.0919966
0.22826 0.0628977 0.0944533
0.365209 0.0800793 0.101869
0.48954 0.0826886 0.116976
0.586084 0.101518 0.122148
0.670237 0.123583 0.127626
0.737697 0.147234 0.13518
0.792309 0.166293 0.160449
0.00694286 0.0941329 0.118532
0.0827802 0.102312 0.11722
0.22797 0.121187 0.112245
0.379431 0.138201 0.110246
0.507958 0.151629 0.111208
0.618021 0.168887 0.120165
0.722622 0.184817 0.137179
0.80676 0.203372 0.160159
0.838148 0.227207 0.160998
0.0187839 0.197498 0.158892
0.0451514 0.222827 0.168917
0.243824 0.23653 0.153658
0.416175 0.253788 0.133471
0.551019 0.270436 0.121859
0.657023 0.289372 0.113527
0.748363 0.311055 0.112886
0.822507 0.335683 0.117769
0.859709 0.344472 0.119371
0.0367132 0.319051 0.195941
0.0480049 0.351034 0.204059
0.240604 0.364874 0.182727
0.434531 0.382757 0.147982
0.583246 0.39823 0.117311
0.696925 0.418219 0.0987106
0.790265 0.438407 0.0866407
0.86099 0.461601 0.090486
0.899596 0.469596 0.0793317
0.0568246 0.436011 0.228214
0.0671702 0.470665 0.228931
0.220844 0.493233 0.200107
0.436469 0.504387 0.139635
0.597864 0.523949 0.0954757
0.716533 0.542641 0.0819562
0.811704 0.560204 0.0786603
0.887816 0.58027 0.0835431
0.93051 0.592081 0.0699779
0.0829786 0.541543 0.269688
0.0880293 0.578027 0.264332
0.192645 0.607645 0.222263
0.426825 0.612192 0.134142
0.599756 0.628977 0.0989853
0.727764 0.647791 0.0972152
0.826566 0.664668 0.0958877
0.907439 0.683207 0.0937972
0.950759 0.697749 0.0949111
0.110536 0.638437 0.312749
0.109773 0.674128 0.301839
0.155337 0.710216 0.259251
0.409064 0.704814 0.155779
0.586282 0.71754 0.118791
0.725567 0.73611 0.110933
0.835981 0.75436 0.117311
0.920256 0.774517 0.119799
0.968872 0.789441 0.123537
0.137484 0.726574 0.355749
0.133059 0.760204 0.34255
0.153079 0.792584 0.302449
0.304936 0.780728 0.192828
0.514748 0.78822 0.155764
0.67715 0.80589 0.142428
0.816724 0.828183 0.146273
0.921843 0.85481 0.166522
0.97966 0.87158 0.180453
0.108064 0.769619 0.447547
0.104601 0.801694 0.443305
0.134905 0.823789 0.427619
0.276448 0.798413 0.371237
0.357305 0.797711 0.350774
0.417762 0.804746 0.349996
0.467979 0.821195 0.366583
0.725872 0.864713 0.407919
0.964462 0.952956 0.498863
0.031632 0.0403754 0.183551
0.100053 0.0534066 0.198962
0.224002 0.0709087 0.211627
0.376928 0.073991 0.223163
0.513085 0.0837415 0.239902
0.605051 0.101869 0.249012
0.681193 0.122713 0.258732
0.744884 0.146807 0.269245
0.797467 0.163088 0.277821
0.0113069 0.110094 0.224842
0.0834211 0.120485 0.231907
0.227207 0.136065 0.237263
0.393759 0.144213 0.241428
0.533501 0.155398 0.244755
0.63444 0.169436 0.258518
0.727245 0.182788 0.284169
0.809476 0.201175 0.314656
0.835889 0.224338 0.2972
0.0152895 0.217777 0.274022
0.0262608 0.245121 0.290623
0.230884 0.252064 0.278462
0.413504 0.264622 0.267445
0.55584 0.275486 0.266209
0.659434 0.288075 0.270253
0.744991 0.306432 0.280293
0.815244 0.332082 0.296834
0.850782 0.340215 0.285039
0.0311284 0.337789 0.312581
0.0382849 0.370474 0.327092
0.191669 0.388586 0.314855
0.406241 0.399435 0.299489
0.566644 0.407553 0.285176
0.681254 0.421271 0.283177
0.772412 0.437369 0.287053
0.844327 0.459602 0.29778
0.8822 0.467048 0.286336
0.0480049 0.45481 0.344839
0.0523537 0.48925 0.353185
0.134951 0.523491 0.349676
0.39472 0.520302 0.317968
0.575174 0.530983 0.295277
0.700114 0.541848 0.28632
0.793805 0.558602 0.285222
0.867643 0.579049 0.289326
0.907744 0.59266 0.278202
0.0720836 0.556329 0.378592
0.0739757 0.591608 0.382849
0.125002 0.63093 0.376715
0.383703 0.622003 0.327764
0.575723 0.631861 0.302892
0.706371 0.647776 0.295857
0.804776 0.663111 0.288548
0.885908 0.681147 0.288624
0.933837 0.69543 0.280201
0.0986343 0.647822 0.418479
0.0956283 0.681895 0.41886
0.107195 0.724041 0.413886
0.364569 0.708827 0.347189
0.553567 0.718059 0.311971
0.700298 0.734798 0.299947
0.81207 0.752239 0.295689
0.903181 0.770596 0.294102
0.956878 0.786236 0.294026
0.125048 0.73051 0.455879
0.119036 0.762524 0.453483
0.116014 0.800275 0.445914
0.26067 0.780697 0.381003
0.471199 0.784131 0.344533
0.643503 0.801541 0.326619
0.788785 0.823728 0.323323
0.914153 0.848142 0.334005
0.977462 0.865995 0.345388
0.0981613 0.773236 0.518929
0.0941024 0.804639 0.519631
0.0964675 0.83772 0.520806
0.249943 0.806363 0.464714
0.336599 0.802136 0.447669
0.39852 0.807782 0.450721
0.449348 0.82298 0.472831
0.714641 0.865461 0.51873
0.96556 0.953033 0.608621
0.0589609 0.0517433 0.294896
0.133761 0.0544442 0.317143
0.254643 0.0732433 0.335561
0.388067 0.0763867 0.344366
0.509712 0.08748 0.352438
0.612497 0.108415 0.362646
0.69427 0.130053 0.37377
0.757336 0.155612 0.386252
0.808774 0.17438 0.395377
0.0375525 0.125917 0.33991
0.0885939 0.148913 0.352178
0.249805 0.154101 0.357717
0.394873 0.156847 0.363729
0.528008 0.161181 0.369284
0.642893 0.17554 0.383001
0.741726 0.189334 0.409323
0.819928 0.208392 0.439353
0.843503 0.235157 0.422248
0.0164187 0.240085 0.390616
0.0276646 0.267857 0.410147
0.239216 0.273579 0.400443
0.402625 0.283528 0.399725
0.54876 0.287892 0.397375
0.669322 0.298283 0.401389
0.757473 0.314122 0.409293
0.820798 0.33698 0.425055
0.851255 0.348791 0.415778
0.0280613 0.358175 0.433585
0.0338903 0.38941 0.450828
0.150057 0.415366 0.449775
0.398749 0.411566 0.426352
0.563333 0.419089 0.417807
0.683436 0.430182 0.416876
0.774975 0.441474 0.423713
0.842588 0.45803 0.432639
0.875135 0.46894 0.424643
0.0424048 0.470054 0.463508
0.0455024 0.503883 0.476158
0.081529 0.547143 0.48452
0.37261 0.537514 0.446403
0.551232 0.54464 0.435355
0.680873 0.555611 0.429892
0.777249 0.567529 0.427863
0.852964 0.583078 0.433951
0.89337 0.594354 0.425711
0.0645151 0.570642 0.495033
0.0648508 0.605264 0.503609
0.081178 0.651057 0.508522
0.345632 0.641428 0.462776
0.540002 0.647898 0.449378
0.686976 0.660853 0.4392
0.791669 0.668833 0.435004
0.870726 0.685954 0.438025
0.915877 0.701427 0.428733
0.0901503 0.660014 0.525917
0.0858473 0.693446 0.531075
0.0899825 0.734997 0.530831
0.327642 0.725063 0.478553
0.526543 0.729793 0.452445
0.679042 0.744381 0.446677
0.795544 0.757992 0.447059
0.882704 0.775128 0.447257
0.938933 0.791241 0.442405
0.11632 0.736446 0.556252
0.109148 0.767834 0.55903
0.105074 0.805234 0.556634
0.228489 0.792752 0.504433
0.429679 0.791424 0.471672
0.615412 0.80766 0.459373
0.766171 0.829297 0.457603
0.893614 0.852659 0.472374
0.966369 0.870863 0.479179
0.0930037 0.775708 0.58381
0.087953 0.807004 0.587533
0.0893873 0.840192 0.59118
0.229999 0.81416 0.542245
0.322942 0.80705 0.52462
0.386557 0.811917 0.528222
0.437812 0.827375 0.548516
0.706325 0.870497 0.593057
0.966888 0.956832 0.680995
0.0918441 0.0745251 0.390707
0.152941 0.0797436 0.408789
0.276905 0.0900282 0.428061
0.399313 0.100114 0.437552
0.514107 0.104128 0.445853
0.612604 0.120409 0.456901
0.700038 0.144411 0.468376
0.768978 0.170306 0.482856
0.822889 0.193423 0.495537
0.0954452 0.136065 0.449699
0.114229 0.172915 0.452201
0.274861 0.172656 0.455253
0.407187 0.179461 0.462348
0.532631 0.176593 0.471885
0.646296 0.183337 0.491325
0.755489 0.196155 0.520775
0.830564 0.22211 0.541985
0.858198 0.251057 0.531167
0.0243687 0.261769 0.48394
0.052842 0.291615 0.505119
0.254231 0.299306 0.504158
0.414054 0.306874 0.501274
0.548669 0.306172 0.505974
0.659205 0.313161 0.510903
0.756924 0.328252 0.516335
0.828077 0.350256 0.529427
0.857374 0.364645 0.522286
0.0289921 0.378973 0.528252
0.0335088 0.410071 0.549142
0.158968 0.439353 0.553918
0.399649 0.430228 0.530358
0.551049 0.436927 0.526421
0.672511 0.444785 0.526635
0.776593 0.452888 0.534005
0.849851 0.46743 0.540917
0.876265 0.476921 0.532448
0.0407416 0.488487 0.564355
0.0427863 0.521874 0.57995
0.0628214 0.56846 0.594293
0.36228 0.554467 0.555413
0.54725 0.555901 0.540948
0.679088 0.566598 0.539788
0.77789 0.57615 0.539635
0.854292 0.586267 0.545739
0.889586 0.593088 0.537148
0.0618143 0.585336 0.594491
0.0606088 0.619425 0.606455
0.0745556 0.66334 0.614069
0.303685 0.66183 0.576165
0.529809 0.661814 0.556435
0.671321 0.67306 0.553719
0.777173 0.682338 0.552483
0.858106 0.693187 0.551781
0.906416 0.702358 0.543877
0.0860914 0.672068 0.623178
0.080827 0.705043 0.631342
0.0831311 0.746059 0.63357
0.29276 0.744228 0.589807
0.502556 0.744778 0.564584
0.654215 0.758053 0.565408
0.783886 0.770291 0.560769
0.875715 0.780407 0.562524
0.928618 0.797452 0.554482
0.111757 0.744457 0.64773
0.103777 0.77557 0.653056
0.0986648 0.813199 0.653666
0.198459 0.810636 0.612406
0.390997 0.802945 0.575769
0.592905 0.818021 0.5673
0.751125 0.839048 0.567346
0.882734 0.860441 0.585809
0.957885 0.878477 0.58558
0.0904555 0.777279 0.646174
0.0851606 0.808408 0.651331
0.086183 0.841566 0.65658
0.213458 0.821363 0.613519
0.313741 0.811261 0.593713
0.37882 0.8159 0.596429
0.430228 0.831586 0.615457
0.694667 0.876249 0.657496
0.965789 0.962036 0.739178
0.123201 0.110811 0.474556
0.164706 0.121813 0.494194
0.297673 0.12105 0.509102
0.417136 0.129488 0.522026
0.526696 0.133059 0.530434
0.618967 0.142351 0.540337
0.702388 0.16144 0.551995
0.774517 0.189197 0.566049
0.835828 0.214206 0.584604
0.135317 0.164813 0.533196
0.151308 0.198596 0.539391
0.29868 0.200076 0.541665
0.427024 0.204929 0.551263
0.548699 0.201007 0.564706
0.657969 0.199817 0.586999
0.76025 0.209064 0.613947
0.836866 0.240009 0.631693
0.877195 0.265431 0.632074
0.057435 0.285771 0.567422
0.104372 0.318196 0.587854
0.268833 0.329305 0.591073
0.430488 0.329213 0.585092
0.554818 0.33196 0.589761
0.660456 0.332204 0.600259
0.753048 0.342458 0.609277
0.829755 0.366384 0.620539
0.864927 0.38233 0.614893
0.0329442 0.40116 0.608179
0.0444495 0.432502 0.629801
0.182681 0.467338 0.644984
0.412665 0.451118 0.620722
0.557916 0.457084 0.615625
0.673976 0.460029 0.624445
0.766217 0.467658 0.627543
0.84715 0.48188 0.633524
0.881117 0.490517 0.623392
0.0428779 0.506645 0.643473
0.0431373 0.540658 0.662531
0.0982223 0.584573 0.680995
0.364874 0.572244 0.646433
0.544076 0.571557 0.632685
0.668162 0.58024 0.632944
0.769146 0.58819 0.632578
0.85536 0.596307 0.640497
0.894484 0.599573 0.629618
0.0609598 0.602167 0.678477
0.0596475 0.635843 0.692683
0.0670481 0.67892 0.7037
0.308644 0.677745 0.670497
0.523384 0.676204 0.650156
0.66656 0.682536 0.64506
0.775677 0.691524 0.646647
0.85478 0.701183 0.647929
0.906935 0.700847 0.638163
0.0839857 0.686427 0.708629
0.078233 0.719203 0.718975
0.0757458 0.759793 0.724636
0.261891 0.763607 0.689296
0.481071 0.761135 0.659327
0.647654 0.770748 0.655451
0.771221 0.783078 0.656703
0.864576 0.790677 0.657511
0.924376 0.798672 0.649165
0.109117 0.75407 0.728496
0.100526 0.785046 0.735683
0.0952316 0.822644 0.738598
0.164141 0.833524 0.712566
0.36025 0.81593 0.666545
0.580804 0.829664 0.657084
0.73608 0.850462 0.667094
0.878431 0.869825 0.677958
0.954162 0.885756 0.675502
0.0906081 0.778195 0.703532
0.0849775 0.809323 0.709712
0.0855573 0.842588 0.716091
0.199573 0.82826 0.679438
0.30753 0.815366 0.656931
0.37409 0.820157 0.658381
0.426154 0.836286 0.67599
0.678416 0.88249 0.714473
0.968154 0.968627 0.788846
0.150652 0.156359 0.547677
0.181231 0.170657 0.571176
0.315068 0.164004 0.581186
0.433967 0.168322 0.597177
0.543755 0.171328 0.608713
0.633722 0.175906 0.619837
0.710536 0.187564 0.629618
0.778683 0.209384 0.642267
0.844541 0.238041 0.664012
0.16759 0.202014 0.60557
0.192462 0.227131 0.624369
0.320104 0.235843 0.61915
0.449485 0.23711 0.633555
0.571283 0.232364 0.651408
0.681147 0.226169 0.679011
0.768002 0.234653 0.695964
0.842069 0.258778 0.714031
0.893309 0.282856 0.723125
0.126528 0.310933 0.644862
0.156008 0.347677 0.662287
0.281941 0.364645 0.665492
0.445487 0.356817 0.663249
0.566384 0.359258 0.66508
0.666499 0.360708 0.67747
0.754971 0.364172 0.691188
0.829664 0.381842 0.703868
0.86981 0.402594 0.697475
0.0616465 0.427008 0.680415
0.095613 0.4589 0.702724
0.21146 0.494453 0.720211
0.425071 0.475196 0.698665
0.569833 0.476448 0.691661
0.672175 0.483635 0.69836
0.766049 0.48278 0.710475
0.842908 0.493904 0.716365
0.884382 0.506096 0.705348
0.0514687 0.52755 0.715816
0.0632639 0.561166 0.735317
0.162264 0.603006 0.754208
0.37998 0.591821 0.725307
0.554177 0.587381 0.713237
0.670954 0.596048 0.712871
0.771618 0.598352 0.722087
0.844999 0.608835 0.72285
0.897276 0.611231 0.71165
0.0627146 0.619257 0.749371
0.0613718 0.652506 0.764599
0.0907759 0.694545 0.778576
0.323537 0.695048 0.75285
0.527535 0.687831 0.730205
0.660365 0.694667 0.725887
0.765179 0.702052 0.729137
0.849973 0.710979 0.729397
0.913283 0.706676 0.722622
0.0841535 0.699825 0.781094
0.0780804 0.73225 0.792523
0.0747997 0.77322 0.801205
0.204425 0.79292 0.785809
0.48809 0.771176 0.742092
0.642924 0.782177 0.739071
0.766217 0.790234 0.738674
0.862562 0.798138 0.740658
0.925856 0.797436 0.733883
0.108995 0.764187 0.791424
0.0999466 0.794919 0.792248
0.0938582 0.832624 0.79585
0.130861 0.857221 0.802991
0.326131 0.828779 0.753826
0.577478 0.840208 0.738231
0.732036 0.86157 0.750515
0.871778 0.881743 0.761852
0.952178 0.890394 0.756588
0.0919203 0.779293 0.741665
0.0864576 0.810178 0.74226
0.0865339 0.843732 0.744854
0.185824 0.836103 0.743206
0.30338 0.819852 0.717662
0.371298 0.825223 0.719936
0.424094 0.842603 0.736309
0.660334 0.890181 0.771282
0.973053 0.976226 0.839078
0.171099 0.219913 0.618921
0.200137 0.23566 0.644709
0.32842 0.228397 0.652506
0.4486 0.229862 0.66981
0.560388 0.231388 0.684138
0.650813 0.237125 0.699153
0.727489 0.241306 0.712978
0.79086 0.250751 0.725353
0.852262 0.271443 0.742718
0.19115 0.258305 0.676448
0.221607 0.27895 0.70341
0.331746 0.294804 0.688945
0.461845 0.29514 0.70663
0.587045 0.290639 0.727108
0.695399 0.28571 0.757504
0.78233 0.289204 0.780163
0.851637 0.300862 0.798199
0.898283 0.315618 0.802563
0.180179 0.347845 0.721325
0.186801 0.391638 0.730983
0.28394 0.417105 0.733883
0.451865 0.405371 0.735546
0.582452 0.402899 0.73962
0.678294 0.407492 0.751827
0.761547 0.411307 0.769436
0.831983 0.418708 0.78703
0.869337 0.430945 0.775677
0.135851 0.462898 0.747799
0.163165 0.496849 0.770031
0.232486 0.53611 0.788205
0.432975 0.515526 0.768719
0.581064 0.509621 0.766827
0.683635 0.514992 0.76965
0.765805 0.519707 0.782986
0.838819 0.522408 0.800015
0.881209 0.527062 0.784665
0.12488 0.561425 0.784573
0.148531 0.59472 0.804318
0.211978 0.635172 0.822507
0.396399 0.624155 0.79762
0.560586 0.615076 0.786419
0.679194 0.618204 0.784817
0.765026 0.625574 0.79205
0.84332 0.625391 0.807874
0.892912 0.626154 0.790738
0.0944839 0.647166 0.820752
0.107317 0.679957 0.836301
0.18529 0.720012 0.849607
0.353353 0.721599 0.827008
0.53904 0.707195 0.803342
0.666545 0.710903 0.800595
0.767391 0.717891 0.80499
0.854551 0.719738 0.818128
0.907012 0.720455 0.801419
0.0871138 0.721569 0.846296
0.0822309 0.753491 0.847257
0.0999771 0.793027 0.85034
0.258244 0.817548 0.854124
0.508782 0.785351 0.817472
0.650248 0.790677 0.812711
0.761913 0.800381 0.816617
0.860807 0.808026 0.826581
0.92636 0.807446 0.817349
0.110307 0.778622 0.835767
0.101305 0.808957 0.836698
0.0946059 0.846357 0.840497
0.12726 0.867277 0.847639
0.327596 0.843122 0.832166
0.558206 0.85449 0.822995
0.727703 0.872801 0.83183
0.866331 0.88925 0.841443
0.951293 0.892058 0.839857
0.0953689 0.781964 0.778012
0.0897993 0.812879 0.778744
0.089662 0.842664 0.78175
0.172457 0.846128 0.787655
0.301717 0.827939 0.783078
0.370703 0.835737 0.787152
0.424079 0.856489 0.805646
0.646387 0.905516 0.839857
0.979568 0.984604 0.887617
0.210986 0.345159 0.719112
0.230243 0.362249 0.743236
0.319127 0.372793 0.724132
0.425223 0.37464 0.739345
0.545129 0.370703 0.76704
0.659419 0.364767 0.797818
0.748104 0.367926 0.809125
0.81593 0.375952 0.82359
0.874861 0.378668 0.847745
0.235492 0.379431 0.766155
0.212741 0.429114 0.759197
0.286854 0.451408 0.755077
0.418006 0.447166 0.756985
0.531853 0.45034 0.769238
0.63595 0.45507 0.785931
0.73167 0.458351 0.801968
0.804654 0.467475 0.82063
0.84387 0.470497 0.822705
0.210559 0.476265 0.77998
0.214313 0.510445 0.798917
0.261112 0.543084 0.806668
0.419318 0.528878 0.790387
0.539361 0.530663 0.796689
0.643977 0.535653 0.810086
0.741695 0.538842 0.822858
0.816449 0.547066 0.83772
0.854398 0.543801 0.83653
0.21651 0.563012 0.817166
0.223453 0.595529 0.837217
0.250675 0.634516 0.853788
0.416129 0.61706 0.824903
0.544793 0.615335 0.823072
0.649195 0.619699 0.832959
0.747662 0.621942 0.843397
0.828321 0.627176 0.855177
0.867903 0.620325 0.851759
0.238941 0.647318 0.855497
0.242222 0.679942 0.872847
0.262882 0.717617 0.887694
0.406119 0.708141 0.859358
0.548959 0.698924 0.845884
0.65214 0.702296 0.850568
0.746349 0.704906 0.859007
0.835538 0.706691 0.868528
0.881727 0.697871 0.865827
0.268544 0.724895 0.894606
0.269001 0.756237 0.907301
0.283574 0.792874 0.908812
0.391653 0.796414 0.899641
0.55787 0.774487 0.869276
0.661204 0.776516 0.867887
0.750973 0.780133 0.873915
0.843351 0.780911 0.882597
0.900114 0.769497 0.881941
0.302068 0.793545 0.914763
0.299275 0.823987 0.915145
0.30927 0.859632 0.916518
0.370764 0.879255 0.919066
0.568765 0.842161 0.893202
0.674113 0.842252 0.886198
0.763943 0.846967 0.889464
0.854032 0.850034 0.898421
0.923964 0.836835 0.900862
0.308858 0.851637 0.920699
0.303365 0.881621 0.92108
0.31136 0.916259 0.922744
0.365927 0.931868 0.925765
0.563668 0.899733 0.922301
0.677928 0.898741 0.912093
0.783307 0.904646 0.912291
0.877501 0.912902 0.922423
0.955398 0.902922 0.927275
0.0953384 0.855879 0.905806
0.0909438 0.887022 0.906401
0.092134 0.913176 0.908904
0.137407 0.918288 0.913756
0.298833 0.90869 0.921798
0.369055 0.92105 0.926162
0.465354 0.945968 0.939879
0.768277 0.976516 0.95758
0.983383 0.987747 0.96051
