luts/KODAK FPE 05.cube
TITLE "Generated by Resolve"
LUT_3D_SIZE 9
0.020798 0.0303807 0.0381323
0.084947 0.0459297 0.0424506
0.200961 0.0665599 0.0351568
0.337423 0.0791485 0.0176852
0.464302 0.0865492 0.0194858
0.57322 0.0975509 0.0317845
0.658732 0.119982 0.0376745
0.726497 0.144427 0.0498207
0.781704 0.163684 0.0842603
0.016907 0.0857404 0.0673228
0.0967269 0.099855 0.0685435
0.228977 0.121202 0.0529335
0.371664 0.139315 0.0218662
0.499245 0.153353 0.0198062
0.601389 0.168002 0.0187381
0.686702 0.183444 0.0244144
0.751186 0.200687 0.035462
0.797574 0.22472 0.062089
0.0202945 0.179446 0.0998245
0.0742504 0.194934 0.0960403
0.247959 0.220157 0.066392
0.410086 0.243931 0.0300908
0.546029 0.261799 0.024918
0.645502 0.276585 0.0205844
0.726665 0.291356 0.0175631
0.789807 0.308095 0.0179446
0.837629 0.329305 0.0411078
0.024979 0.287877 0.120073
0.0326696 0.310643 0.106477
0.245792 0.334997 0.0594492
0.423789 0.362432 0.0383001
0.569421 0.382269 0.0289006
0.680613 0.398703 0.0263371
0.767727 0.412833 0.0262608
0.832029 0.428595 0.0229496
0.880415 0.448203 0.0298161
0.0338903 0.392325 0.131609
0.0381781 0.419471 0.0918135
0.226337 0.44596 0.0673228
0.421393 0.474342 0.0482032
0.58201 0.499886 0.042649
0.70106 0.519951 0.0356451
0.794079 0.536248 0.033341
0.86566 0.55201 0.0354467
0.915618 0.571923 0.0349126
0.0452277 0.485328 0.144076
0.0412451 0.513878 0.111971
0.179797 0.54699 0.0911421
0.405295 0.570642 0.0665599
0.581765 0.599405 0.062562
0.713695 0.62385 0.0609445
0.813245 0.64271 0.06009
0.890196 0.659709 0.0602121
0.934218 0.677821 0.0672465
0.0608682 0.571939 0.150988
0.0452277 0.598093 0.134539
0.131289 0.632547 0.117968
0.381491 0.654551 0.0894636
0.567269 0.684077 0.0866255
0.711925 0.711543 0.0894484
0.825696 0.734401 0.0959029
0.902022 0.752728 0.100267
0.953063 0.770459 0.10515
0.0784772 0.652384 0.178119
0.0573434 0.675258 0.157488
0.116915 0.708675 0.143282
0.271122 0.725109 0.113573
0.493431 0.750744 0.113588
0.661585 0.779126 0.121523
0.805936 0.80798 0.13521
0.909575 0.833066 0.147265
0.976272 0.853407 0.155367
0.0821546 0.724529 0.317113
0.0650339 0.742977 0.260563
0.167208 0.765087 0.216022
0.284947 0.774105 0.195819
0.368307 0.787076 0.193454
0.431006 0.800885 0.208438
0.481544 0.820172 0.237766
0.725567 0.863783 0.285252
0.964202 0.946487 0.373327
0.0228885 0.0378424 0.088426
0.0883497 0.0533608 0.0982376
0.233051 0.0677043 0.0992599
0.366888 0.0817578 0.103548
0.484901 0.0780499 0.112337
0.579629 0.0950637 0.115694
0.663172 0.116533 0.120577
0.730404 0.139956 0.127901
0.783932 0.157916 0.152071
0.0105898 0.0977646 0.122179
0.0896468 0.109178 0.124086
0.234531 0.127749 0.118807
0.38291 0.14168 0.113725
0.505486 0.149157 0.108736
0.605371 0.156237 0.107515
0.694316 0.156527 0.108873
0.764996 0.161624 0.118395
0.804196 0.193256 0.127062
0.0137026 0.192401 0.153796
0.0326085 0.2103 0.156374
0.237583 0.230289 0.147417
0.410056 0.247669 0.127352
0.54226 0.261677 0.1131
0.641642 0.273976 0.098146
0.724453 0.287129 0.0889754
0.789319 0.302495 0.084596
0.836683 0.321447 0.0963455
0.0184024 0.300725 0.17763
0.020264 0.323293 0.176318
0.221698 0.345968 0.163821
0.419684 0.367926 0.13315
0.568109 0.383078 0.102174
0.677348 0.398642 0.0791333
0.766003 0.414145 0.0691691
0.830014 0.430625 0.0627604
0.88101 0.451011 0.0633097
0.0240024 0.403189 0.195392
0.0247807 0.428275 0.186542
0.185794 0.458183 0.165057
0.412024 0.479942 0.115206
0.578698 0.504784 0.0860914
0.698405 0.524514 0.0819562
0.791775 0.540291 0.0786603
0.863554 0.556008 0.0768749
0.915999 0.577569 0.0699779
0.0341039 0.492653 0.220813
0.028397 0.518395 0.2047
0.138628 0.553643 0.168246
0.391363 0.57673 0.0986801
0.576135 0.605356 0.095079
0.70927 0.629297 0.0972152
0.809476 0.647578 0.0958877
0.888594 0.664363 0.0937972
0.937087 0.684077 0.0949111
0.0461891 0.57409 0.248417
0.0345464 0.598917 0.226627
0.0839704 0.638849 0.187884
0.364874 0.660624 0.111589
0.558236 0.689479 0.106523
0.70602 0.716579 0.110933
0.82092 0.739315 0.117311
0.903593 0.75787 0.119799
0.956558 0.776318 0.122591
0.0618143 0.650889 0.280079
0.0452125 0.672374 0.254704
0.070222 0.709728 0.219593
0.251453 0.727245 0.139345
0.479713 0.753201 0.123232
0.652888 0.781613 0.130709
0.798978 0.810437 0.143908
0.912596 0.836103 0.156939
0.97966 0.855924 0.164797
0.0646067 0.726162 0.404089
0.0472877 0.744366 0.385992
0.0862745 0.775143 0.378988
0.251469 0.773434 0.346258
0.34313 0.783536 0.336599
0.408576 0.79556 0.34081
0.460548 0.813779 0.359152
0.722454 0.856001 0.399191
0.964462 0.937774 0.48368
0.031632 0.041886 0.185061
0.103182 0.0565499 0.20209
0.226276 0.0731823 0.213901
0.375662 0.0727245 0.221897
0.507134 0.0777905 0.233951
0.597177 0.0939956 0.241154
0.672663 0.114183 0.250187
0.736156 0.138079 0.260533
0.788602 0.154223 0.268956
0.0139162 0.112703 0.227451
0.0881971 0.125261 0.236683
0.232425 0.141283 0.242496
0.396246 0.146715 0.243915
0.530556 0.152453 0.24181
0.622126 0.157107 0.246189
0.70042 0.155978 0.257343
0.767956 0.159655 0.273136
0.804837 0.193271 0.266133
0.0102388 0.212741 0.269001
0.0128481 0.231708 0.277211
0.224323 0.245487 0.271885
0.408179 0.259297 0.262104
0.548791 0.268437 0.259144
0.646632 0.275257 0.257435
0.724392 0.285817 0.259693
0.785595 0.302434 0.26717
0.832395 0.321828 0.266651
0.0131685 0.319844 0.294621
0.0124361 0.344625 0.301228
0.172519 0.369451 0.295705
0.393576 0.38677 0.286824
0.555383 0.396292 0.273915
0.666728 0.406744 0.26865
0.75227 0.417227 0.266896
0.816846 0.43212 0.270283
0.866361 0.451209 0.270497
0.0164187 0.423224 0.313252
0.0131991 0.450095 0.314046
0.0975662 0.486107 0.312276
0.374426 0.500008 0.297673
0.560906 0.516716 0.280995
0.685695 0.527428 0.271901
0.776501 0.541299 0.267918
0.845594 0.556985 0.267262
0.89482 0.579721 0.265278
0.0252995 0.50956 0.331807
0.0189364 0.536553 0.327794
0.0702525 0.576181 0.321981
0.353536 0.591821 0.297597
0.55613 0.612268 0.283299
0.690333 0.631739 0.279835
0.788907 0.647242 0.272679
0.86775 0.662989 0.270466
0.922759 0.684352 0.269108
0.0373541 0.586542 0.357198
0.0262913 0.612558 0.349523
0.0376593 0.654505 0.34435
0.325353 0.669612 0.307973
0.529046 0.693523 0.287434
0.682536 0.717037 0.2822
0.797238 0.737408 0.280858
0.888212 0.755627 0.279133
0.945769 0.775143 0.282918
0.0532235 0.658686 0.384054
0.0378424 0.681331 0.37229
0.036286 0.720546 0.366171
0.213321 0.733333 0.333654
0.441245 0.754192 0.314595
0.622583 0.780636 0.305699
0.772869 0.807828 0.307424
0.899794 0.833783 0.319646
0.970886 0.854368 0.333761
0.0576486 0.732723 0.478416
0.0415503 0.752087 0.467079
0.0458686 0.787137 0.470222
0.227192 0.783612 0.441962
0.326452 0.792004 0.437522
0.392584 0.801831 0.444785
0.445304 0.818952 0.468788
0.71162 0.862425 0.515709
0.96553 0.945556 0.601144
0.0564889 0.0492561 0.292424
0.132845 0.0535286 0.316228
0.252476 0.0710765 0.33341
0.383398 0.0717174 0.339712
0.502174 0.0799268 0.344884
0.602777 0.0986954 0.352911
0.683757 0.119524 0.363256
0.746639 0.144915 0.375555
0.798611 0.164218 0.385214
0.0368353 0.1252 0.339193
0.0890822 0.149386 0.352651
0.252628 0.156924 0.36054
0.395224 0.157198 0.364096
0.523232 0.15639 0.364508
0.628199 0.16083 0.368292
0.712337 0.159945 0.379934
0.776974 0.165438 0.396414
0.812192 0.203845 0.390936
0.00993362 0.233585 0.384115
0.0137331 0.253925 0.396201
0.231373 0.265736 0.392599
0.397009 0.277913 0.394125
0.541833 0.28098 0.390463
0.656962 0.285924 0.389029
0.737575 0.294224 0.389395
0.791959 0.308141 0.396216
0.834653 0.332174 0.399161
0.00965896 0.339773 0.415183
0.00894179 0.364462 0.425879
0.126238 0.391546 0.425971
0.386664 0.399481 0.414267
0.553506 0.409262 0.40798
0.670802 0.417548 0.404242
0.757015 0.423514 0.405753
0.817548 0.43299 0.407599
0.861036 0.454841 0.410544
0.0112612 0.438911 0.432364
0.00839246 0.466773 0.439048
0.0422217 0.507836 0.445212
0.353521 0.518425 0.427314
0.539437 0.532845 0.42356
0.669627 0.544366 0.418631
0.763638 0.553903 0.414237
0.834882 0.564996 0.415869
0.883009 0.583978 0.415351
0.0188907 0.525002 0.449409
0.0129854 0.553399 0.451743
0.0267338 0.596613 0.454078
0.317159 0.612955 0.434302
0.523873 0.631754 0.433234
0.675242 0.649119 0.427482
0.780713 0.657877 0.424033
0.857954 0.673182 0.425238
0.908263 0.693812 0.421134
0.0309758 0.600839 0.466758
0.0206302 0.628229 0.465858
0.0245823 0.669596 0.465415
0.290349 0.687755 0.44126
0.506172 0.709422 0.432074
0.666423 0.731762 0.434058
0.786648 0.749111 0.438163
0.874311 0.766735 0.438865
0.932738 0.785046 0.43621
0.0471809 0.667292 0.487114
0.0325322 0.691234 0.482414
0.0304875 0.730648 0.482033
0.182971 0.747234 0.458915
0.403952 0.765667 0.44593
0.599634 0.791867 0.44361
0.756008 0.819135 0.44744
0.885542 0.844587 0.464302
0.95964 0.864118 0.472435
0.0539254 0.736629 0.544732
0.038056 0.757107 0.537636
0.0380102 0.788815 0.539803
0.20737 0.791516 0.5196
0.314199 0.798321 0.515877
0.381125 0.806485 0.522789
0.434409 0.823972 0.545113
0.704021 0.868193 0.590753
0.96318 0.95314 0.677287
0.0877394 0.0704051 0.386603
0.150896 0.0776837 0.406729
0.274067 0.0872053 0.425238
0.393332 0.0941329 0.431571
0.504982 0.0950027 0.436728
0.601068 0.108873 0.445365
0.687602 0.131991 0.455955
0.756466 0.157778 0.470329
0.811368 0.181903 0.484016
0.0866712 0.127275 0.440925
0.108354 0.167025 0.446311
0.274022 0.171817 0.454398
0.403998 0.176272 0.459159
0.524163 0.168139 0.463416
0.626474 0.1635 0.471489
0.720012 0.160662 0.485283
0.785519 0.177081 0.496956
0.82417 0.217029 0.497124
0.0144808 0.251881 0.474052
0.036408 0.275181 0.488701
0.243961 0.289036 0.493889
0.406851 0.299672 0.494072
0.540505 0.298009 0.497826
0.645731 0.299672 0.497414
0.736019 0.307347 0.49543
0.798474 0.320653 0.499825
0.840528 0.347799 0.505455
0.00886549 0.358831 0.50811
0.00762951 0.384192 0.523262
0.132296 0.41268 0.527245
0.386572 0.417136 0.517281
0.540948 0.426825 0.51632
0.659953 0.432212 0.514061
0.758968 0.435264 0.516381
0.825467 0.443046 0.516518
0.862715 0.463386 0.518914
0.00874342 0.456474 0.532357
0.00595102 0.485023 0.543114
0.0206912 0.526329 0.552148
0.342504 0.534691 0.535653
0.535897 0.544549 0.529595
0.668818 0.556329 0.529519
0.765667 0.563928 0.527413
0.837934 0.569924 0.529381
0.880369 0.583871 0.527932
0.0163729 0.539895 0.549035
0.00978103 0.568597 0.555627
0.0211795 0.609949 0.560693
0.27483 0.632975 0.547311
0.51487 0.64686 0.541497
0.661448 0.663172 0.543832
0.768521 0.673686 0.543847
0.847959 0.68304 0.541634
0.900389 0.69633 0.537865
0.0278477 0.613809 0.564935
0.0176547 0.641871 0.56817
0.0203098 0.683253 0.570764
0.2551 0.706569 0.552117
0.48397 0.726192 0.545998
0.644129 0.747951 0.555306
0.778012 0.764401 0.554894
0.870573 0.775265 0.557397
0.924956 0.79379 0.55082
0.0440681 0.676768 0.580056
0.0297246 0.701518 0.579004
0.0271305 0.74168 0.582132
0.152361 0.764538 0.566308
0.367254 0.779202 0.55201
0.579797 0.804929 0.554208
0.74406 0.831983 0.560281
0.878019 0.855726 0.581094
0.95375 0.874357 0.58146
0.0518654 0.738689 0.607584
0.0361791 0.759441 0.602365
0.0360723 0.791455 0.606485
0.189563 0.797467 0.589624
0.305226 0.802747 0.585199
0.373465 0.810544 0.591073
0.426993 0.828351 0.612222
0.692607 0.874189 0.655436
0.963958 0.960204 0.737346
0.118685 0.106294 0.470054
0.161288 0.118395 0.490776
0.29427 0.117647 0.505699
0.410452 0.122805 0.515358
0.51667 0.123018 0.520409
0.606348 0.129732 0.527718
0.688869 0.147921 0.538476
0.760983 0.175662 0.552499
0.823255 0.201633 0.57203
0.12369 0.153185 0.521584
0.140322 0.187625 0.52842
0.293553 0.194949 0.536553
0.419699 0.197604 0.543938
0.534905 0.187213 0.550912
0.63241 0.174273 0.561456
0.721019 0.169833 0.574716
0.789258 0.192386 0.584085
0.837415 0.22565 0.592279
0.0439002 0.272251 0.553872
0.0843977 0.298222 0.56788
0.255238 0.315709 0.577478
0.42092 0.319661 0.575525
0.544549 0.321691 0.579492
0.645029 0.316777 0.584833
0.730327 0.319722 0.586557
0.798459 0.335073 0.589242
0.847349 0.364752 0.597314
0.0108949 0.37911 0.58613
0.0166018 0.404654 0.601953
0.152422 0.437079 0.614725
0.397635 0.436088 0.605692
0.546487 0.445655 0.604196
0.660441 0.446494 0.61091
0.74789 0.449332 0.609216
0.822385 0.45713 0.608774
0.867597 0.476997 0.609873
0.00988785 0.473655 0.610483
0.00508125 0.502602 0.624475
0.0549783 0.541329 0.637736
0.343374 0.550744 0.624949
0.532052 0.559548 0.620661
0.657786 0.569863 0.622568
0.757198 0.576242 0.62063
0.839612 0.58056 0.62475
0.885756 0.590845 0.62089
0.014847 0.556054 0.63238
0.00907912 0.585275 0.642115
0.0142824 0.626154 0.650935
0.278355 0.64744 0.640192
0.508507 0.661326 0.635279
0.657389 0.67335 0.635874
0.768154 0.684001 0.639124
0.846082 0.69247 0.639216
0.901869 0.695766 0.633082
0.0260166 0.628443 0.650645
0.0159609 0.656931 0.656703
0.0143587 0.69839 0.663249
0.222568 0.724269 0.649958
0.463142 0.743206 0.641398
0.638926 0.76202 0.646708
0.767117 0.778973 0.652598
0.861479 0.787579 0.654398
0.922362 0.796658 0.647135
0.042359 0.687327 0.661738
0.027924 0.712444 0.663066
0.0256046 0.753017 0.668986
0.115999 0.785382 0.664424
0.337407 0.793072 0.643702
0.569299 0.818158 0.645579
0.730999 0.84538 0.662013
0.875929 0.867323 0.675471
0.951843 0.883452 0.673182
0.0520485 0.739635 0.664973
0.0361181 0.760464 0.660853
0.0357214 0.792767 0.666255
0.173724 0.802426 0.65359
0.298283 0.806119 0.6477
0.368658 0.81474 0.652949
0.42295 0.833097 0.672786
0.676478 0.880552 0.712535
0.967056 0.967529 0.787732
0.147021 0.152743 0.544045
0.176318 0.165728 0.566262
0.311315 0.16025 0.577447
0.427375 0.161715 0.590585
0.533639 0.161196 0.598596
0.620935 0.163119 0.60705
0.696849 0.173892 0.61593
0.765011 0.195727 0.628611
0.831357 0.224872 0.650828
0.154788 0.189197 0.592767
0.174502 0.209171 0.606424
0.310353 0.226093 0.6094
0.437522 0.225147 0.621576
0.552056 0.213153 0.632181
0.648905 0.193927 0.646754
0.726711 0.193362 0.654673
0.792004 0.208713 0.663951
0.849058 0.238621 0.678874
0.10901 0.293416 0.627344
0.132189 0.323857 0.638483
0.264225 0.346929 0.647776
0.433356 0.344686 0.651118
0.553811 0.346685 0.652506
0.648936 0.343145 0.659907
0.730266 0.339467 0.666484
0.796475 0.348638 0.670665
0.85156 0.384344 0.679225
0.0378271 0.403189 0.656611
0.0649119 0.428183 0.672023
0.17702 0.460014 0.685771
0.407706 0.457816 0.681285
0.556619 0.463233 0.678462
0.657206 0.468666 0.683391
0.746624 0.46334 0.691051
0.817334 0.468345 0.690806
0.87071 0.492424 0.691676
0.0172122 0.493278 0.681544
0.0237736 0.521675 0.695842
0.117952 0.558694 0.709895
0.356207 0.568048 0.701549
0.540963 0.574166 0.700023
0.659922 0.585 0.701823
0.759411 0.586145 0.70988
0.829282 0.593118 0.707134
0.888823 0.602777 0.703182
0.0157778 0.57232 0.702434
0.00999466 0.601129 0.713222
0.0379034 0.641672 0.725704
0.291173 0.662669 0.72047
0.512154 0.67245 0.714824
0.651286 0.685588 0.716793
0.75819 0.695048 0.722148
0.8421 0.703105 0.721523
0.908904 0.702312 0.718257
0.0263981 0.642069 0.723323
0.0160983 0.670283 0.730541
0.0141146 0.712535 0.74052
0.16202 0.75053 0.743404
0.470283 0.753353 0.724269
0.634897 0.774151 0.73106
0.763241 0.787274 0.735714
0.860899 0.796475 0.738994
0.924941 0.796521 0.732967
0.0429999 0.698177 0.735592
0.028336 0.723293 0.738155
0.0254826 0.764248 0.746639
0.0778515 0.804196 0.752361
0.303731 0.806378 0.731426
0.566979 0.829725 0.727733
0.728374 0.857893 0.746838
0.870939 0.880903 0.761013
0.951354 0.889586 0.755764
0.0530861 0.740444 0.719799
0.0370642 0.760784 0.71635
0.036286 0.7935 0.723064
0.157412 0.807691 0.714809
0.292897 0.809354 0.707179
0.365835 0.81976 0.714473
0.420996 0.839506 0.733211
0.658656 0.888487 0.769589
0.971862 0.975036 0.837888
0.169116 0.217929 0.616938
0.194888 0.230411 0.63946
0.324437 0.224414 0.648539
0.442512 0.223774 0.663706
0.550607 0.221622 0.674372
0.638376 0.224704 0.686717
0.71429 0.228107 0.699794
0.77763 0.237522 0.712123
0.838727 0.257908 0.729183
0.177142 0.244297 0.66244
0.197345 0.254688 0.679149
0.319417 0.28246 0.676616
0.447883 0.281178 0.692683
0.566155 0.269764 0.706233
0.661875 0.252171 0.72398
0.739193 0.246067 0.737011
0.800107 0.249332 0.74667
0.853269 0.270588 0.757534
0.159991 0.327657 0.701137
0.159869 0.364721 0.704067
0.263188 0.396338 0.713115
0.437705 0.391211 0.721386
0.568276 0.388708 0.725444
0.659327 0.388525 0.73286
0.735531 0.38529 0.74342
0.797803 0.384543 0.752865
0.851087 0.41268 0.757427
0.110201 0.437263 0.722148
0.129732 0.463416 0.736584
0.195468 0.499107 0.751202
0.413153 0.495705 0.748882
0.565927 0.494484 0.75169
0.667185 0.498558 0.753201
0.745266 0.499168 0.762463
0.812314 0.495903 0.77351
0.867414 0.513252 0.770855
0.0890516 0.525597 0.748745
0.107027 0.553216 0.762814
0.165942 0.589136 0.776471
0.370092 0.597833 0.771298
0.545602 0.600092 0.77145
0.66688 0.60589 0.772519
0.75201 0.612558 0.779034
0.827024 0.609094 0.791562
0.884382 0.617624 0.782208
0.0465095 0.599191 0.772778
0.0545968 0.627237 0.783581
0.131395 0.666117 0.795697
0.318318 0.686564 0.791974
0.522393 0.690547 0.786694
0.656718 0.701076 0.790768
0.760113 0.710613 0.797711
0.846723 0.711894 0.8103
0.902815 0.716274 0.797238
0.0290532 0.663523 0.794705
0.0198672 0.691127 0.802152
0.0390936 0.732143 0.812146
0.210391 0.769696 0.815839
0.490227 0.766812 0.798917
0.642054 0.782483 0.804501
0.759182 0.79765 0.813886
0.859678 0.806897 0.825467
0.925841 0.806928 0.816815
0.0446632 0.712978 0.806851
0.0298314 0.737484 0.81001
0.0265965 0.778347 0.820645
0.0691691 0.813794 0.823453
0.304784 0.820325 0.809369
0.54786 0.844144 0.812634
0.724514 0.869612 0.828641
0.866239 0.889158 0.841352
0.951354 0.892119 0.839918
0.0558328 0.742412 0.77705
0.0392767 0.762371 0.773922
0.0383001 0.795529 0.78175
0.140749 0.815625 0.77966
0.289296 0.815503 0.770642
0.365072 0.830091 0.781506
0.420935 0.853346 0.802518
0.644739 0.903883 0.838209
0.977157 0.982208 0.885206
0.209812 0.343969 0.717937
0.227604 0.359609 0.740597
0.32253 0.376196 0.72755
0.428977 0.378393 0.743099
0.541222 0.366796 0.763119
0.649027 0.354376 0.787427
0.737041 0.356847 0.798062
0.80383 0.363836 0.81149
0.862867 0.36669 0.835767
0.226825 0.370764 0.757488
0.206256 0.422614 0.752697
0.289235 0.453788 0.757473
0.423804 0.452964 0.762783
0.536828 0.455314 0.774197
0.636393 0.455512 0.786374
0.725704 0.452399 0.796017
0.791363 0.454185 0.80734
0.84062 0.467247 0.819455
0.199237 0.464958 0.768658
0.198337 0.494469 0.78294
0.245869 0.527855 0.79144
0.416114 0.525673 0.787198
0.537987 0.52929 0.795331
0.639948 0.531624 0.806058
0.733028 0.53019 0.814191
0.801892 0.532494 0.823163
0.850111 0.539513 0.832242
0.195773 0.542275 0.796429
0.197467 0.569543 0.811231
0.22002 0.603861 0.823133
0.403113 0.604059 0.811902
0.537148 0.607691 0.815427
0.641459 0.611963 0.825223
0.73756 0.611826 0.833295
0.813962 0.612818 0.840818
0.862791 0.615213 0.846647
0.206806 0.615183 0.823362
0.205768 0.643488 0.836393
0.222843 0.677562 0.847654
0.383627 0.685649 0.836866
0.537163 0.687144 0.834104
0.643427 0.693584 0.841871
0.737972 0.696529 0.850629
0.825025 0.696178 0.85803
0.877409 0.693553 0.861509
0.225208 0.681559 0.85127
0.221607 0.708843 0.861509
0.235019 0.74432 0.871992
0.359579 0.764355 0.867567
0.542733 0.759365 0.854139
0.652369 0.767697 0.859068
0.744976 0.774136 0.867918
0.837476 0.775036 0.876738
0.897566 0.766934 0.879377
0.250141 0.741619 0.880217
0.242618 0.767346 0.887205
0.253712 0.804074 0.896513
0.323629 0.83212 0.896513
0.551431 0.824826 0.875868
0.665812 0.833951 0.877882
0.760662 0.843671 0.886168
0.852659 0.848676 0.897063
0.923613 0.8365 0.900526
0.250294 0.793057 0.909041
0.238025 0.816266 0.910613
0.248631 0.853529 0.919829
0.311559 0.882597 0.920241
0.542641 0.878706 0.901274
0.667674 0.888502 0.901839
0.779461 0.900801 0.908446
0.876814 0.9122 0.921736
0.955169 0.902693 0.927047
0.0578164 0.818341 0.905806
0.0407416 0.83682 0.906401
0.0408331 0.869795 0.908904
0.103136 0.904707 0.913756
0.284977 0.89485 0.910445
0.36318 0.91519 0.920287
0.462638 0.943252 0.937163
0.766598 0.974838 0.955886
0.978973 0.983337 0.956115
