luts/KODAK FPE 04.cube
TITLE "Generated by Resolve"
LUT_3D_SIZE 9
0.0211948 0.0303349 0.0372473
0.0851759 0.0459602 0.0416419
0.200916 0.066743 0.0343938
0.337224 0.0797742 0.0163119
0.462531 0.0874342 0.0196078
0.57142 0.0983139 0.0325933
0.656565 0.120897 0.0385901
0.724086 0.145464 0.0508431
0.779126 0.164782 0.0853437
0.0175937 0.0856031 0.0662852
0.0974136 0.0996872 0.0676127
0.229374 0.121233 0.0517433
0.371298 0.139361 0.0225681
0.498268 0.153613 0.0198062
0.599847 0.168551 0.0191196
0.684733 0.184222 0.0255894
0.748714 0.20177 0.0363775
0.795254 0.22565 0.0633707
0.0216678 0.179034 0.0983291
0.0787213 0.193164 0.09337
0.249409 0.219928 0.0637827
0.410407 0.243473 0.0300908
0.545754 0.261555 0.024918
0.644739 0.276555 0.0205844
0.725551 0.291478 0.0175631
0.788464 0.308324 0.0192569
0.836362 0.329442 0.043595
0.0269627 0.28719 0.118379
0.0350958 0.310079 0.103044
0.248356 0.333455 0.0606394
0.425208 0.361288 0.0383001
0.570123 0.381384 0.0289006
0.680812 0.397986 0.0263371
0.767559 0.412268 0.0262608
0.831632 0.428138 0.0229496
0.88011 0.447639 0.0298161
0.0367285 0.391546 0.128191
0.0403296 0.418219 0.092668
0.232227 0.442786 0.0681926
0.42446 0.472251 0.0482032
0.58407 0.498146 0.042649
0.70251 0.518425 0.0356451
0.795102 0.53489 0.033341
0.866407 0.550774 0.0354467
0.91751 0.570291 0.0349126
0.0493019 0.485237 0.133898
0.0437476 0.512123 0.114458
0.195377 0.539513 0.0887312
0.409903 0.567712 0.0665599
0.585077 0.596918 0.062562
0.71632 0.621607 0.0609445
0.815396 0.64065 0.06009
0.893004 0.657465 0.0602121
0.937835 0.675273 0.0672465
0.0631876 0.570306 0.153323
0.048127 0.596048 0.137453
0.140215 0.627802 0.119081
0.387442 0.650904 0.0894636
0.571679 0.680964 0.0866255
0.715572 0.70869 0.0894484
0.828748 0.731746 0.0959029
0.906371 0.749676 0.100267
0.957504 0.76733 0.10515
0.0810101 0.650614 0.180636
0.0604868 0.673045 0.160616
0.127962 0.702937 0.143832
0.277836 0.721065 0.116808
0.498482 0.74728 0.113588
0.665888 0.775906 0.121523
0.809781 0.804913 0.13521
0.914488 0.829618 0.147265
0.980377 0.849928 0.156344
0.0869154 0.723049 0.312245
0.0704356 0.741894 0.251972
0.185016 0.756512 0.213474
0.291936 0.770001 0.198596
0.3738 0.783505 0.197406
0.43563 0.79762 0.209857
0.485649 0.817075 0.237766
0.725567 0.860456 0.289998
0.964202 0.943069 0.37818
0.0237125 0.0378729 0.0860914
0.088777 0.0535286 0.0962844
0.233097 0.06804 0.0974594
0.366751 0.0821393 0.101976
0.483803 0.0791028 0.109819
0.578073 0.0964828 0.112459
0.661341 0.118257 0.116518
0.728389 0.141894 0.123171
0.781735 0.15993 0.147494
0.01149 0.0977798 0.119799
0.0908827 0.10901 0.121691
0.235111 0.127871 0.116701
0.383124 0.141955 0.111681
0.505211 0.149706 0.106645
0.605402 0.156863 0.104219
0.695079 0.156771 0.105623
0.763455 0.163409 0.113222
0.804669 0.193759 0.123293
0.0152438 0.192172 0.150973
0.0356298 0.209369 0.153216
0.239414 0.229862 0.144839
0.411109 0.247578 0.125109
0.542931 0.262013 0.109636
0.642161 0.274769 0.0926223
0.725216 0.288655 0.0791028
0.789868 0.304158 0.0746471
0.837522 0.323354 0.0843977
0.0205844 0.30013 0.17496
0.0227817 0.322545 0.173526
0.225666 0.344625 0.160357
0.422324 0.36733 0.12929
0.570214 0.383185 0.0960861
0.679683 0.399756 0.0722057
0.766232 0.413901 0.0691691
0.829999 0.430488 0.0627604
0.881193 0.450828 0.0633097
0.0271611 0.402228 0.19205
0.0281376 0.427176 0.183383
0.196338 0.454246 0.15761
0.417166 0.479057 0.106325
0.581659 0.503716 0.0860914
0.700038 0.523064 0.0819562
0.792966 0.538994 0.0786603
0.864485 0.554833 0.0768749
0.917037 0.576303 0.0699779
0.0377508 0.491463 0.21735
0.0324865 0.517037 0.200946
0.15079 0.549371 0.158328
0.397772 0.574914 0.091371
0.57969 0.602914 0.095079
0.712123 0.6271 0.0972152
0.811795 0.645563 0.0958877
0.890776 0.662425 0.0937972
0.940322 0.681804 0.0949111
0.0500496 0.572763 0.245167
0.0391394 0.59736 0.222553
0.0979019 0.634745 0.172457
0.371939 0.65716 0.110948
0.562936 0.686412 0.106523
0.70988 0.713787 0.110933
0.824231 0.736721 0.117311
0.907546 0.755077 0.119799
0.960555 0.77351 0.122591
0.0660563 0.64947 0.27631
0.0500801 0.67071 0.250507
0.0802777 0.706477 0.209949
0.259525 0.723339 0.138262
0.485328 0.749905 0.123232
0.657343 0.778531 0.130709
0.802899 0.807523 0.143908
0.91696 0.833021 0.156939
0.97966 0.852781 0.169268
0.0695964 0.724743 0.398337
0.0529641 0.742657 0.379889
0.113115 0.764385 0.36408
0.261799 0.769726 0.338247
0.351202 0.780911 0.328908
0.415717 0.793439 0.332998
0.46746 0.812253 0.348898
0.725872 0.854765 0.386557
0.964462 0.936477 0.469459
0.031632 0.0435798 0.178851
0.103761 0.0570993 0.197696
0.226505 0.0738689 0.209781
0.375463 0.0735943 0.217899
0.506096 0.0791638 0.229648
0.595697 0.0955673 0.236881
0.670878 0.115908 0.245945
0.734096 0.140002 0.256123
0.786374 0.156252 0.264286
0.0140688 0.113542 0.222736
0.0912184 0.124773 0.231373
0.233433 0.14168 0.237903
0.396735 0.147311 0.239597
0.530587 0.153246 0.237659
0.62211 0.157839 0.242451
0.700618 0.156497 0.254139
0.766247 0.161486 0.268177
0.804807 0.193973 0.262547
0.0118563 0.212924 0.263844
0.0149996 0.231647 0.271855
0.227008 0.245136 0.266697
0.409781 0.259403 0.257374
0.549706 0.268849 0.254612
0.647135 0.275853 0.253071
0.724575 0.286564 0.255375
0.785565 0.303288 0.262806
0.832609 0.322606 0.262104
0.0159304 0.319463 0.289281
0.0155184 0.344121 0.29575
0.178927 0.367453 0.289174
0.39678 0.386145 0.281636
0.557656 0.396078 0.269093
0.668482 0.406775 0.26389
0.753628 0.417441 0.262135
0.81799 0.432456 0.265522
0.867704 0.451499 0.265507
0.0201572 0.4224 0.307683
0.0169375 0.449256 0.308568
0.109407 0.481758 0.303609
0.379995 0.498329 0.291722
0.564965 0.515694 0.275532
0.689067 0.526741 0.266545
0.779416 0.540871 0.262516
0.848219 0.556695 0.261891
0.897627 0.5794 0.259571
0.0293431 0.508644 0.325917
0.0234684 0.535378 0.321996
0.0810864 0.572259 0.313741
0.361364 0.589166 0.290791
0.561852 0.610559 0.277104
0.695186 0.630457 0.273777
0.79324 0.64622 0.26656
0.871977 0.662333 0.26276
0.927672 0.683253 0.261891
0.0419776 0.585336 0.351202
0.0313115 0.61117 0.343526
0.0458381 0.651743 0.337133
0.335317 0.666056 0.300191
0.536187 0.691234 0.280491
0.688716 0.715221 0.275364
0.803098 0.736202 0.271748
0.893858 0.754772 0.268757
0.952575 0.773754 0.27219
0.0582132 0.65742 0.377508
0.0431983 0.679866 0.365866
0.0422217 0.718791 0.359594
0.224826 0.729168 0.324926
0.449332 0.751537 0.307042
0.629557 0.7785 0.29836
0.779309 0.806119 0.299382
0.906477 0.832303 0.309804
0.977462 0.852674 0.323217
0.0633402 0.731517 0.469718
0.0477455 0.750668 0.458091
0.068574 0.778607 0.454643
0.239658 0.77937 0.431113
0.335622 0.789181 0.428061
0.400549 0.799527 0.435782
0.452567 0.816968 0.459998
0.71841 0.860655 0.507042
0.96556 0.943481 0.592081
0.0573434 0.0501106 0.285756
0.134615 0.0539559 0.309377
0.252918 0.0721447 0.326741
0.383185 0.0731365 0.332998
0.501381 0.0816052 0.338308
0.601556 0.100572 0.34641
0.682246 0.121523 0.356924
0.744762 0.147127 0.369055
0.796567 0.166613 0.378225
0.0352178 0.127749 0.330388
0.0968032 0.147387 0.342718
0.254093 0.15761 0.353185
0.396033 0.158175 0.356939
0.52343 0.157641 0.357519
0.628428 0.161959 0.361852
0.713176 0.160586 0.374472
0.775525 0.167651 0.38883
0.812284 0.20502 0.384665
0.0114595 0.23444 0.375677
0.015671 0.25449 0.38822
0.234836 0.265538 0.384482
0.399207 0.278279 0.386435
0.543252 0.281697 0.383062
0.657877 0.28687 0.381796
0.738155 0.295308 0.3823
0.792401 0.30927 0.389242
0.835187 0.333303 0.391928
0.0124971 0.339895 0.407172
0.012253 0.364477 0.417151
0.133318 0.389807 0.416373
0.390723 0.399008 0.406027
0.556435 0.409293 0.400183
0.673152 0.417823 0.396643
0.758923 0.423987 0.398337
0.819196 0.43357 0.400259
0.862898 0.45536 0.403006
0.015198 0.43856 0.423941
0.0126802 0.466255 0.430564
0.0514992 0.505135 0.434775
0.360418 0.516686 0.418204
0.544335 0.531945 0.415274
0.673732 0.543832 0.410651
0.767178 0.553613 0.40647
0.838102 0.564858 0.408179
0.886381 0.583795 0.407523
0.0238499 0.52433 0.439902
0.0178378 0.552636 0.442924
0.0352636 0.594232 0.443961
0.326772 0.610025 0.424247
0.530587 0.63006 0.424399
0.680919 0.647868 0.419074
0.785718 0.656916 0.415885
0.862577 0.672389 0.417212
0.913161 0.692943 0.412863
0.0359808 0.600046 0.457771
0.0260929 0.627192 0.456901
0.0308232 0.668193 0.456291
0.302815 0.683574 0.43006
0.514427 0.707042 0.422675
0.673442 0.729931 0.425147
0.792966 0.747585 0.429526
0.880171 0.765393 0.43035
0.939559 0.783322 0.427222
0.05243 0.666392 0.477943
0.0383154 0.690105 0.473075
0.0369573 0.729198 0.472587
0.19733 0.74229 0.446647
0.413214 0.762905 0.435859
0.607538 0.7897 0.434089
0.763104 0.817319 0.438239
0.892195 0.842954 0.455283
0.967025 0.862196 0.463004
0.0597086 0.735851 0.533623
0.0445716 0.755978 0.526406
0.0451972 0.787381 0.528344
0.222187 0.786709 0.505547
0.324453 0.795453 0.503761
0.38996 0.804227 0.511299
0.442451 0.822049 0.533959
0.711559 0.866484 0.579797
0.967697 0.951263 0.666133
0.088838 0.0715038 0.378012
0.15552 0.0772106 0.396994
0.275151 0.088365 0.416449
0.3935 0.0957504 0.422736
0.504387 0.0970016 0.42797
0.600137 0.111025 0.436774
0.686259 0.134356 0.447288
0.754818 0.160311 0.461646
0.809735 0.184482 0.474983
0.0851301 0.130449 0.428672
0.109209 0.168704 0.435416
0.275898 0.172778 0.444541
0.404959 0.177661 0.44947
0.524514 0.169818 0.453895
0.62649 0.165316 0.46215
0.719356 0.16286 0.4757
0.784344 0.179614 0.487007
0.824231 0.218723 0.488167
0.0157473 0.253376 0.463004
0.0384527 0.276249 0.477836
0.248798 0.288701 0.483024
0.409598 0.300282 0.483803
0.542351 0.299001 0.487846
0.647013 0.300923 0.487602
0.736904 0.308797 0.48571
0.799207 0.322148 0.490227
0.841459 0.349233 0.495674
0.0119936 0.359426 0.496803
0.0110323 0.384604 0.5122
0.141131 0.410681 0.514443
0.391501 0.41677 0.506294
0.544533 0.427054 0.505806
0.662806 0.432761 0.503792
0.761349 0.436011 0.506279
0.827573 0.443915 0.506508
0.865064 0.464164 0.508782
0.0131991 0.456458 0.52076
0.0104372 0.484932 0.531853
0.0289006 0.524575 0.53959
0.350729 0.532845 0.523598
0.541543 0.543801 0.518563
0.673548 0.555993 0.518853
0.769802 0.563851 0.516976
0.841733 0.570001 0.519051
0.884321 0.583902 0.517464
0.0206302 0.539818 0.538216
0.0152285 0.568032 0.544289
0.0272526 0.60911 0.549096
0.286442 0.629648 0.534035
0.522499 0.645243 0.529885
0.667872 0.662058 0.532723
0.774243 0.672877 0.533013
0.853269 0.682414 0.530953
0.905745 0.695705 0.527077
0.0327153 0.613443 0.55407
0.0233616 0.641169 0.556786
0.0269322 0.68217 0.558984
0.271244 0.701259 0.537057
0.493263 0.723812 0.533837
0.651987 0.746197 0.54374
0.785061 0.762997 0.543664
0.87715 0.774075 0.546365
0.93225 0.792279 0.539422
0.0493629 0.676326 0.56849
0.0357214 0.700801 0.56701
0.0340429 0.740505 0.570062
0.172702 0.757504 0.549264
0.377707 0.776364 0.539162
0.58851 0.802838 0.542123
0.751919 0.830259 0.548547
0.88542 0.8542 0.569558
0.961608 0.872633 0.569711
0.0581369 0.737987 0.594736
0.0432746 0.758465 0.588708
0.0435187 0.790295 0.592889
0.206714 0.79202 0.572671
0.316518 0.799817 0.570703
0.383078 0.808316 0.577295
0.435676 0.826535 0.598856
0.700786 0.872572 0.642283
0.970916 0.958526 0.724132
0.119997 0.107607 0.459861
0.170977 0.116091 0.477226
0.296132 0.118776 0.495094
0.411139 0.124514 0.504768
0.516518 0.125154 0.509865
0.605753 0.132006 0.517555
0.687846 0.150454 0.528115
0.759609 0.178408 0.541955
0.821714 0.204547 0.561059
0.125185 0.154711 0.509896
0.138155 0.191638 0.513481
0.295689 0.196216 0.524483
0.420645 0.199451 0.531929
0.535042 0.189471 0.538903
0.632151 0.176715 0.549554
0.72018 0.17261 0.562646
0.788281 0.195224 0.572091
0.838224 0.227268 0.581796
0.0433204 0.275135 0.54052
0.086183 0.299886 0.554711
0.263294 0.314351 0.563378
0.424094 0.320455 0.563088
0.546746 0.322927 0.567376
0.646632 0.318303 0.572808
0.731487 0.321447 0.574594
0.799435 0.336889 0.577401
0.848569 0.366461 0.585367
0.0136721 0.380316 0.57261
0.0196384 0.405646 0.588876
0.165591 0.433631 0.598016
0.403265 0.435798 0.592432
0.5505 0.446082 0.591455
0.663737 0.447242 0.598398
0.750683 0.450309 0.596872
0.824887 0.458244 0.596506
0.870329 0.478004 0.597482
0.0129091 0.474632 0.597543
0.0104982 0.50248 0.610925
0.0604562 0.541207 0.624018
0.352743 0.548806 0.610407
0.538399 0.558907 0.607309
0.663081 0.569696 0.609567
0.761852 0.576349 0.607874
0.843885 0.58085 0.6121
0.890181 0.591058 0.608164
0.0200198 0.555947 0.619333
0.0141756 0.585275 0.628748
0.0204318 0.625696 0.637217
0.291646 0.643778 0.624247
0.51693 0.659754 0.621302
0.664424 0.672374 0.622431
0.774411 0.68336 0.625986
0.851881 0.692027 0.626261
0.907698 0.695323 0.620066
0.0316777 0.628153 0.637278
0.0223697 0.656352 0.642893
0.0211032 0.697643 0.649439
0.244114 0.717052 0.630655
0.473411 0.74081 0.62681
0.647501 0.760357 0.632807
0.774792 0.777707 0.639063
0.868635 0.786526 0.641077
0.929915 0.795438 0.633631
0.0483406 0.686961 0.647929
0.0348211 0.711711 0.648829
0.0327916 0.752102 0.654856
0.148592 0.773465 0.640314
0.348852 0.790204 0.628534
0.57882 0.816098 0.631189
0.739528 0.843763 0.648051
0.883925 0.865919 0.661738
0.960098 0.881941 0.659327
0.0582132 0.739391 0.650065
0.0432136 0.759823 0.645563
0.0433814 0.791821 0.651041
0.194369 0.795773 0.633661
0.310384 0.803143 0.631327
0.378882 0.812558 0.637354
0.432197 0.831342 0.657603
0.685176 0.879042 0.697581
0.975097 0.966018 0.772824
0.148531 0.154223 0.532448
0.180392 0.166262 0.552804
0.31397 0.161288 0.565133
0.42858 0.163455 0.578531
0.534081 0.163287 0.586664
0.620798 0.16553 0.594995
0.696147 0.176608 0.603784
0.763989 0.198611 0.616388
0.830259 0.227848 0.638331
0.156497 0.19089 0.579568
0.167575 0.216907 0.584817
0.312352 0.227878 0.594965
0.438178 0.227604 0.607202
0.552056 0.2159 0.618006
0.647593 0.197498 0.631815
0.726055 0.196384 0.640848
0.791058 0.211902 0.65005
0.848234 0.241794 0.664698
0.105882 0.298436 0.609705
0.13312 0.326375 0.623087
0.271977 0.346044 0.631998
0.436912 0.345663 0.636835
0.556283 0.34815 0.638498
0.650767 0.344915 0.645975
0.73164 0.341466 0.652598
0.79762 0.350729 0.65687
0.852964 0.386328 0.66537
0.0396429 0.405219 0.641398
0.068101 0.429496 0.656901
0.184878 0.45919 0.669398
0.414023 0.457557 0.666056
0.561074 0.463813 0.663798
0.660883 0.469596 0.668956
0.749752 0.464515 0.676768
0.820172 0.469673 0.6766
0.873716 0.493675 0.677363
0.0209506 0.494392 0.665995
0.0284886 0.522316 0.680156
0.123568 0.558846 0.694362
0.366796 0.565911 0.68481
0.54786 0.573632 0.684703
0.665675 0.584985 0.686854
0.764446 0.586435 0.69514
0.833921 0.593606 0.692546
0.893599 0.603189 0.688548
0.0209506 0.572641 0.687251
0.0156405 0.601236 0.697856
0.0442664 0.641489 0.710048
0.30811 0.657771 0.701305
0.521294 0.670909 0.698802
0.658854 0.684733 0.701366
0.76492 0.69456 0.707012
0.848356 0.702831 0.706569
0.915175 0.702037 0.703288
0.0318608 0.642329 0.707713
0.0225681 0.670069 0.714656
0.02121 0.712001 0.724727
0.202304 0.735637 0.714443
0.481422 0.750927 0.707622
0.644083 0.772564 0.71516
0.771435 0.78613 0.720211
0.868544 0.795544 0.72369
0.932418 0.795666 0.717723
0.0487526 0.698253 0.720104
0.0349584 0.723003 0.722286
0.0328069 0.763607 0.730755
0.112932 0.791608 0.725246
0.31606 0.803433 0.71426
0.577111 0.827726 0.711452
0.737438 0.856367 0.730983
0.879408 0.879622 0.745388
0.959945 0.888258 0.740108
0.059678 0.740215 0.703716
0.0442512 0.760327 0.699809
0.0442512 0.792691 0.706401
0.18294 0.799207 0.691646
0.305715 0.806302 0.689296
0.376562 0.817609 0.697429
0.430701 0.837797 0.716564
0.66772 0.887068 0.753216
0.979965 0.973663 0.821576
0.170779 0.219577 0.604089
0.198154 0.231556 0.625025
0.327794 0.225376 0.634806
0.444068 0.225605 0.650263
0.55111 0.224018 0.660731
0.638422 0.227314 0.673167
0.713878 0.23093 0.686336
0.776913 0.240513 0.698589
0.837903 0.260914 0.715877
0.179019 0.246159 0.647974
0.190021 0.26305 0.655329
0.321767 0.284398 0.660471
0.448478 0.284016 0.676509
0.566155 0.272847 0.690379
0.660487 0.256138 0.707271
0.738735 0.249271 0.721675
0.79939 0.252674 0.731319
0.852262 0.274205 0.741543
0.149493 0.337881 0.67602
0.160098 0.367926 0.686976
0.27599 0.393545 0.693904
0.441672 0.392248 0.705653
0.570993 0.390356 0.709911
0.661387 0.390478 0.717418
0.737148 0.387442 0.728054
0.799176 0.386831 0.737514
0.852659 0.414878 0.742016
0.110124 0.440528 0.705562
0.132403 0.465324 0.719799
0.205585 0.497612 0.732341
0.420081 0.49543 0.732143
0.570748 0.495155 0.735561
0.671168 0.499626 0.73724
0.748669 0.500511 0.746639
0.815396 0.497383 0.757794
0.870665 0.514656 0.755077
0.0932479 0.526665 0.732265
0.11136 0.554299 0.745876
0.171511 0.589593 0.759564
0.381476 0.595605 0.752987
0.552926 0.599634 0.754635
0.672984 0.605982 0.756054
0.757351 0.612985 0.762814
0.831922 0.609735 0.775448
0.889418 0.618204 0.766079
0.0510872 0.600031 0.756466
0.0602731 0.627649 0.766644
0.137881 0.666133 0.778668
0.338048 0.68072 0.770382
0.532082 0.689021 0.769146
0.664683 0.700313 0.773831
0.767224 0.710231 0.781048
0.853315 0.711742 0.79379
0.909377 0.716136 0.780789
0.0343175 0.664118 0.777859
0.0259861 0.691356 0.784985
0.0462196 0.731823 0.795087
0.242756 0.758511 0.788663
0.501945 0.76437 0.780758
0.651713 0.780941 0.787121
0.767788 0.796582 0.796872
0.867674 0.806088 0.808667
0.933654 0.806195 0.800122
0.0505837 0.713069 0.79089
0.0363012 0.737469 0.793118
0.0340581 0.777905 0.803418
0.082536 0.810712 0.804273
0.317876 0.817288 0.790707
0.55848 0.842176 0.794949
0.734005 0.868132 0.811353
0.87509 0.887968 0.824308
0.960143 0.890944 0.822919
0.0624094 0.742428 0.759716
0.0461585 0.762264 0.756436
0.0461585 0.794934 0.76437
0.172625 0.804578 0.753002
0.302617 0.812406 0.751736
0.376226 0.827924 0.763424
0.430961 0.851682 0.784848
0.654078 0.902495 0.820798
0.983993 0.980941 0.867918
0.211749 0.345892 0.702937
0.219501 0.368734 0.714778
0.324514 0.3785 0.710506
0.429313 0.381537 0.726055
0.540764 0.370321 0.746166
0.649042 0.357473 0.771466
0.736706 0.360128 0.782071
0.803265 0.367239 0.795483
0.862181 0.370214 0.819455
0.21268 0.383871 0.727108
0.205951 0.426291 0.734615
0.30312 0.45066 0.737285
0.427237 0.454383 0.746441
0.539147 0.457267 0.758038
0.638071 0.457801 0.770199
0.726925 0.454917 0.779904
0.792309 0.45684 0.791226
0.841856 0.469764 0.803296
0.198459 0.468803 0.750866
0.20029 0.496895 0.765362
0.256031 0.526467 0.771984
0.421836 0.52607 0.770184
0.541955 0.530495 0.778698
0.643153 0.533196 0.789548
0.735714 0.532021 0.797772
0.804257 0.534478 0.806775
0.852689 0.54139 0.815808
0.197192 0.5449 0.779217
0.20087 0.571237 0.793622
0.227604 0.603632 0.80441
0.411826 0.603143 0.79382
0.543023 0.608057 0.798245
0.646296 0.612787 0.80827
0.741787 0.61294 0.81648
0.817777 0.61413 0.824063
0.866819 0.616434 0.829892
0.210056 0.616968 0.805692
0.210651 0.644434 0.818708
0.228595 0.67808 0.829923
0.397345 0.682536 0.816953
0.54522 0.686503 0.816327
0.650156 0.693553 0.82446
0.743893 0.696849 0.833448
0.830457 0.696727 0.84097
0.882872 0.694087 0.844465
0.230259 0.682368 0.83386
0.227329 0.709331 0.843976
0.241825 0.744335 0.854063
0.385351 0.756039 0.842802
0.552956 0.757748 0.835721
0.660792 0.766873 0.841245
0.752468 0.773724 0.850385
0.844404 0.774899 0.859358
0.904402 0.766812 0.862043
0.255711 0.742061 0.86331
0.249042 0.767498 0.869612
0.260899 0.803891 0.87863
0.340383 0.827726 0.875166
0.563745 0.822263 0.856794
0.675776 0.832425 0.859663
0.769512 0.842634 0.86833
0.860899 0.847929 0.879408
0.931655 0.835828 0.882948
0.256077 0.793545 0.89134
0.244831 0.816297 0.892622
0.256138 0.853178 0.901915
0.325811 0.879286 0.900008
0.556207 0.875593 0.881788
0.67863 0.886519 0.88333
0.789212 0.899351 0.890379
0.885878 0.911055 0.903899
0.963958 0.901671 0.909331
0.0645304 0.818341 0.900862
0.0485237 0.836286 0.896864
0.0487678 0.869245 0.904616
0.162051 0.8822 0.894667
0.298817 0.8916 0.890852
0.374594 0.913008 0.90164
0.472831 0.941604 0.918944
0.77615 0.973465 0.937896
0.983551 0.982147 0.938262
