luts/kodak_colorplus_200.cube
TITLE Film LUT
LUT_3D_SIZE 33
DOMAIN_MIN 0.0 0.0 0.0
DOMAIN_MAX 1.0 1.0 1.0
0.000000 0.000000 0.000000
0.034390 0.000000 0.000000
0.068663 0.000000 0.000000
0.102813 0.000000 0.000000
0.136827 0.000000 0.000000
0.170692 0.000000 0.000000
0.204415 0.000000 0.000000
0.237963 0.000000 0.000000
0.271342 0.000000 0.000000
0.304540 0.000000 0.000000
0.337551 0.000000 0.000000
0.370354 0.000000 0.000000
0.402957 0.000000 0.000000
0.435339 0.000000 0.000000
0.467501 0.000000 0.000000
0.499437 0.000000 0.000000
0.531126 0.000000 0.000000
0.562563 0.000000 0.000000
0.593754 0.000000 0.000000
0.624679 0.000000 0.000000
0.655333 0.000000 0.000000
0.685714 0.000000 0.000000
0.715811 0.000000 0.000000
0.745623 0.000000 0.000000
0.775130 0.000000 0.000000
0.804346 0.000000 0.000000
0.833258 0.000000 0.000000
0.861852 0.000000 0.000000
0.890129 0.000000 0.000000
0.918089 0.000000 0.000000
0.945725 0.000000 0.000000
0.973031 0.000000 0.000000
1.000000 0.000000 0.000000
0.000000 0.034395 0.000000
0.034390 0.034395 0.000000
0.068663 0.034395 0.000000
0.102813 0.034395 0.000000
0.136827 0.034395 0.000000
0.170692 0.034395 0.000000
0.204415 0.034395 0.000000
0.237963 0.034395 0.000000
0.271342 0.034395 0.000000
0.304540 0.034395 0.000000
0.337551 0.034395 0.000000
0.370354 0.034395 0.000000
0.402957 0.034395 0.000000
0.435339 0.034395 0.000000
0.467501 0.034395 0.000000
0.499437 0.034395 0.000000
0.531126 0.034395 0.000000
0.562563 0.034395 0.000000
0.593754 0.034395 0.000000
0.624679 0.034395 0.000000
0.655333 0.034395 0.000000
0.685714 0.034395 0.000000
0.715811 0.034395 0.000000
0.745623 0.034395 0.000000
0.775130 0.034395 0.000000
0.804346 0.034395 0.000000
0.833258 0.034395 0.000000
0.861852 0.034395 0.000000
0.890129 0.034395 0.000000
0.918089 0.034395 0.000000
0.945725 0.034395 0.000000
0.973031 0.034395 0.000000
1.000000 0.034395 0.000000
0.000000 0.068672 0.000000
0.034390 0.068672 0.000000
0.068663 0.068672 0.000000
0.102813 0.068672 0.000000
0.136827 0.068672 0.000000
0.170692 0.068672 0.000000
0.204415 0.068672 0.000000
0.237963 0.068672 0.000000
0.271342 0.068672 0.000000
0.304540 0.068672 0.000000
0.337551 0.068672 0.000000
0.370354 0.068672 0.000000
0.402957 0.068672 0.000000
0.435339 0.068672 0.000000
0.467501 0.068672 0.000000
0.499437 0.068672 0.000000
0.531126 0.068672 0.000000
0.562563 0.068672 0.000000
0.593754 0.068672 0.000000
0.624679 0.068672 0.000000
0.655333 0.068672 0.000000
0.685714 0.068672 0.000000
0.715811 0.068672 0.000000
0.745623 0.068672 0.000000
0.775130 0.068672 0.000000
0.804346 0.068672 0.000000
0.833258 0.068672 0.000000
0.861852 0.068672 0.000000
0.890129 0.068672 0.000000
0.918089 0.068672 0.000000
0.945725 0.068672 0.000000
0.973031 0.068672 0.000000
1.000000 0.068672 0.000000
0.000000 0.102818 0.000000
0.034390 0.102818 0.000000
0.068663 0.102818 0.000000
0.102813 0.102818 0.000000
0.136827 0.102818 0.000000
0.170692 0.102818 0.000000
0.204415 0.102818 0.000000
0.237963 0.102818 0.000000
0.271342 0.102818 0.000000
0.304540 0.102818 0.000000
0.337551 0.102818 0.000000
0.370354 0.102818 0.000000
0.402957 0.102818 0.000000
0.435339 0.102818 0.000000
0.467501 0.102818 0.000000
0.499437 0.102818 0.000000
0.531126 0.102818 0.000000
0.562563 0.102818 0.000000
0.593754 0.102818 0.000000
0.624679 0.102818 0.000000
0.655333 0.102818 0.000000
0.685714 0.102818 0.000000
0.715811 0.102818 0.000000
0.745623 0.102818 0.000000
0.775130 0.102818 0.000000
0.804346 0.102818 0.000000
0.833258 0.102818 0.000000
0.861852 0.102818 0.000000
0.890129 0.102818 0.000000
0.918089 0.102818 0.000000
0.945725 0.102818 0.000000
0.973031 0.102818 0.000000
1.000000 0.102818 0.000000
0.000000 0.136833 0.000000
0.034390 0.136833 0.000000
0.068663 0.136833 0.000000
0.102813 0.136833 0.000000
0.136827 0.136833 0.000000
0.170692 0.136833 0.000000
0.204415 0.136833 0.000000
0.237963 0.136833 0.000000
0.271342 0.136833 0.000000
0.304540 0.136833 0.000000
0.337551 0.136833 0.000000
0.370354 0.136833 0.000000
0.402957 0.136833 0.000000
0.435339 0.136833 0.000000
0.467501 0.136833 0.000000
0.499437 0.136833 0.000000
0.531126 0.136833 0.000000
0.562563 0.136833 0.000000
0.593754 0.136833 0.000000
0.624679 0.136833 0.000000
0.655333 0.136833 0.000000
0.685714 0.136833 0.000000
0.715811 0.136833 0.000000
0.745623 0.136833 0.000000
0.775130 0.136833 0.000000
0.804346 0.136833 0.000000
0.833258 0.136833 0.000000
0.861852 0.136833 0.000000
0.890129 0.136833 0.000000
0.918089 0.136833 0.000000
0.945725 0.136833 0.000000
0.973031 0.136833 0.000000
1.000000 0.136833 0.000000
0.000000 0.170705 0.000000
0.034390 0.170705 0.000000
0.068663 0.170705 0.000000
0.102813 0.170705 0.000000
0.136827 0.170705 0.000000
0.170692 0.170705 0.000000
0.204415 0.170705 0.000000
0.237963 0.170705 0.000000
0.271342 0.170705 0.000000
0.304540 0.170705 0.000000
0.337551 0.170705 0.000000
0.370354 0.170705 0.000000
0.402957 0.170705 0.000000
0.435339 0.170705 0.000000
0.467501 0.170705 0.000000
0.499437 0.170705 0.000000
0.531126 0.170705 0.000000
0.562563 0.170705 0.000000
0.593754 0.170705 0.000000
0.624679 0.170705 0.000000
0.655333 0.170705 0.000000
0.685714 0.170705 0.000000
0.715811 0.170705 0.000000
0.745623 0.170705 0.000000
0.775130 0.170705 0.000000
0.804346 0.170705 0.000000
0.833258 0.170705 0.000000
0.861852 0.170705 0.000000
0.890129 0.170705 0.000000
0.918089 0.170705 0.000000
0.945725 0.170705 0.000000
0.973031 0.170705 0.000000
1.000000 0.170705 0.000000
0.000000 0.204412 0.000000
0.034390 0.204412 0.000000
0.068663 0.204412 0.000000
0.102813 0.204412 0.000000
0.136827 0.204412 0.000000
0.170692 0.204412 0.000000
0.204415 0.204412 0.000000
0.237963 0.204412 0.000000
0.271342 0.204412 0.000000
0.304540 0.204412 0.000000
0.337551 0.204412 0.000000
0.370354 0.204412 0.000000
0.402957 0.204412 0.000000
0.435339 0.204412 0.000000
0.467501 0.204412 0.000000
0.499437 0.204412 0.000000
0.531126 0.204412 0.000000
0.562563 0.204412 0.000000
0.593754 0.204412 0.000000
0.624679 0.204412 0.000000
0.655333 0.204412 0.000000
0.685714 0.204412 0.000000
0.715811 0.204412 0.000000
0.745623 0.204412 0.000000
0.775130 0.204412 0.000000
0.804346 0.204412 0.000000
0.833258 0.204412 0.000000
0.861852 0.204412 0.000000
0.890129 0.204412 0.000000
0.918089 0.204412 0.000000
0.945725 0.204412 0.000000
0.973031 0.204412 0.000000
1.000000 0.204412 0.000000
0.000000 0.237969 0.000000
0.034390 0.237969 0.000000
0.068663 0.237969 0.000000
0.102813 0.237969 0.000000
0.136827 0.237969 0.000000
0.170692 0.237969 0.000000
0.204415 0.237969 0.000000
0.237963 0.237969 0.000000
0.271342 0.237969 0.000000
0.304540 0.237969 0.000000
0.337551 0.237969 0.000000
0.370354 0.237969 0.000000
0.402957 0.237969 0.000000
0.435339 0.237969 0.000000
0.467501 0.237969 0.000000
0.499437 0.237969 0.000000
0.531126 0.237969 0.000000
0.562563 0.237969 0.000000
0.593754 0.237969 0.000000
0.624679 0.237969 0.000000
0.655333 0.237969 0.000000
0.685714 0.237969 0.000000
0.715811 0.237969 0.000000
0.745623 0.237969 0.000000
0.775130 0.237969 0.000000
0.804346 0.237969 0.000000
0.833258 0.237969 0.000000
0.861852 0.237969 0.000000
0.890129 0.237969 0.000000
0.918089 0.237969 0.000000
0.945725 0.237969 0.000000
0.973031 0.237969 0.000000
1.000000 0.237969 0.000000
0.000000 0.271343 0.000000
0.034390 0.271343 0.000000
0.068663 0.271343 0.000000
0.102813 0.271343 0.000000
0.136827 0.271343 0.000000
0.170692 0.271343 0.000000
0.204415 0.271343 0.000000
0.237963 0.271343 0.000000
0.271342 0.271343 0.000000
0.304540 0.271343 0.000000
0.337551 0.271343 0.000000
0.370354 0.271343 0.000000
0.402957 0.271343 0.000000
0.435339 0.271343 0.000000
0.467501 0.271343 0.000000
0.499437 0.271343 0.000000
0.531126 0.271343 0.000000
0.562563 0.271343 0.000000
0.593754 0.271343 0.000000
0.624679 0.271343 0.000000
0.655333 0.271343 0.000000
0.685714 0.271343 0.000000
0.715811 0.271343 0.000000
0.745623 0.271343 0.000000
0.775130 0.271343 0.000000
0.804346 0.271343 0.000000
0.833258 0.271343 0.000000
0.861852 0.271343 0.000000
0.890129 0.271343 0.000000
0.918089 0.271343 0.000000
0.945725 0.271343 0.000000
0.973031 0.271343 0.000000
1.000000 0.271343 0.000000
0.000000 0.304540 0.000000
0.034390 0.304540 0.000000
0.068663 0.304540 0.000000
0.102813 0.304540 0.000000
0.136827 0.304540 0.000000
0.170692 0.304540 0.000000
0.204415 0.304540 0.000000
0.237963 0.304540 0.000000
0.271342 0.304540 0.000000
0.304540 0.304540 0.000000
0.337551 0.304540 0.000000
0.370354 0.304540 0.000000
0.402957 0.304540 0.000000
0.435339 0.304540 0.000000
0.467501 0.304540 0.000000
0.499437 0.304540 0.000000
0.531126 0.304540 0.000000
0.562563 0.304540 0.000000
0.593754 0.304540 0.000000
0.624679 0.304540 0.000000
0.655333 0.304540 0.000000
0.685714 0.304540 0.000000
0.715811 0.304540 0.000000
0.745623 0.304540 0.000000
0.775130 0.304540 0.000000
0.804346 0.304540 0.000000
0.833258 0.304540 0.000000
0.861852 0.304540 0.000000
0.890129 0.304540 0.000000
0.918089 0.304540 0.000000
0.945725 0.304540 0.000000
0.973031 0.304540 0.000000
1.000000 0.304540 0.000000
0.000000 0.337547 0.000000
0.034390 0.337547 0.000000
0.068663 0.337547 0.000000
0.102813 0.337547 0.000000
0.136827 0.337547 0.000000
0.170692 0.337547 0.000000
0.204415 0.337547 0.000000
0.237963 0.337547 0.000000
0.271342 0.337547 0.000000
0.304540 0.337547 0.000000
0.337551 0.337547 0.000000
0.370354 0.337547 0.000000
0.402957 0.337547 0.000000
0.435339 0.337547 0.000000
0.467501 0.337547 0.000000
0.499437 0.337547 0.000000
0.531126 0.337547 0.000000
0.562563 0.337547 0.000000
0.593754 0.337547 0.000000
0.624679 0.337547 0.000000
0.655333 0.337547 0.000000
0.685714 0.337547 0.000000
0.715811 0.337547 0.000000
0.745623 0.337547 0.000000
0.775130 0.337547 0.000000
0.804346 0.337547 0.000000
0.833258 0.337547 0.000000
0.861852 0.337547 0.000000
0.890129 0.337547 0.000000
0.918089 0.337547 0.000000
0.945725 0.337547 0.000000
0.973031 0.337547 0.000000
1.000000 0.337547 0.000000
0.000000 0.370358 0.000000
0.034390 0.370358 0.000000
0.068663 0.370358 0.000000
0.102813 0.370358 0.000000
0.136827 0.370358 0.000000
0.170692 0.370358 0.000000
0.204415 0.370358 0.000000
0.237963 0.370358 0.000000
0.271342 0.370358 0.000000
0.304540 0.370358 0.000000
0.337551 0.370358 0.000000
0.370354 0.370358 0.000000
0.402957 0.370358 0.000000
0.435339 0.370358 0.000000
0.467501 0.370358 0.000000
0.499437 0.370358 0.000000
0.531126 0.370358 0.000000
0.562563 0.370358 0.000000
0.593754 0.370358 0.000000
0.624679 0.370358 0.000000
0.655333 0.370358 0.000000
0.685714 0.370358 0.000000
0.715811 0.370358 0.000000
0.745623 0.370358 0.000000
0.775130 0.370358 0.000000
0.804346 0.370358 0.000000
0.833258 0.370358 0.000000
0.861852 0.370358 0.000000
0.890129 0.370358 0.000000
0.918089 0.370358 0.000000
0.945725 0.370358 0.000000
0.973031 0.370358 0.000000
1.000000 0.370358 0.000000
0.000000 0.402959 0.000000
0.034390 0.402959 0.000000
0.068663 0.402959 0.000000
0.102813 0.402959 0.000000
0.136827 0.402959 0.000000
0.170692 0.402959 0.000000
0.204415 0.402959 0.000000
0.237963 0.402959 0.000000
0.271342 0.402959 0.000000
0.304540 0.402959 0.000000
0.337551 0.402959 0.000000
0.370354 0.402959 0.000000
0.402957 0.402959 0.000000
0.435339 0.402959 0.000000
0.467501 0.402959 0.000000
0.499437 0.402959 0.000000
0.531126 0.402959 0.000000
0.562563 0.402959 0.000000
0.593754 0.402959 0.000000
0.624679 0.402959 0.000000
0.655333 0.402959 0.000000
0.685714 0.402959 0.000000
0.715811 0.402959 0.000000
0.745623 0.402959 0.000000
0.775130 0.402959 0.000000
0.804346 0.402959 0.000000
0.833258 0.402959 0.000000
0.861852 0.402959 0.000000
0.890129 0.402959 0.000000
0.918089 0.402959 0.000000
0.945725 0.402959 0.000000
0.973031 0.402959 0.000000
1.000000 0.402959 0.000000
0.000000 0.435344 0.000000
0.034390 0.435344 0.000000
0.068663 0.435344 0.000000
0.102813 0.435344 0.000000
0.136827 0.435344 0.000000
0.170692 0.435344 0.000000
0.204415 0.435344 0.000000
0.237963 0.435344 0.000000
0.271342 0.435344 0.000000
0.304540 0.435344 0.000000
0.337551 0.435344 0.000000
0.370354 0.435344 0.000000
0.402957 0.435344 0.000000
0.435339 0.435344 0.000000
0.467501 0.435344 0.000000
0.499437 0.435344 0.000000
0.531126 0.435344 0.000000
0.562563 0.435344 0.000000
0.593754 0.435344 0.000000
0.624679 0.435344 0.000000
0.655333 0.435344 0.000000
0.685714 0.435344 0.000000
0.715811 0.435344 0.000000
0.745623 0.435344 0.000000
0.775130 0.435344 0.000000
0.804346 0.435344 0.000000
0.833258 0.435344 0.000000
0.861852 0.435344 0.000000
0.890129 0.435344 0.000000
0.918089 0.435344 0.000000
0.945725 0.435344 0.000000
0.973031 0.435344 0.000000
1.000000 0.435344 0.000000
0.000000 0.467507 0.000000
0.034390 0.467507 0.000000
0.068663 0.467507 0.000000
0.102813 0.467507 0.000000
0.136827 0.467507 0.000000
0.170692 0.467507 0.000000
0.204415 0.467507 0.000000
0.237963 0.467507 0.000000
0.271342 0.467507 0.000000
0.304540 0.467507 0.000000
0.337551 0.467507 0.000000
0.370354 0.467507 0.000000
0.402957 0.467507 0.000000
0.435339 0.467507 0.000000
0.467501 0.467507 0.000000
0.499437 0.467507 0.000000
0.531126 0.467507 0.000000
0.562563 0.467507 0.000000
0.593754 0.467507 0.000000
0.624679 0.467507 0.000000
0.655333 0.467507 0.000000
0.685714 0.467507 0.000000
0.715811 0.467507 0.000000
0.745623 0.467507 0.000000
0.775130 0.467507 0.000000
0.804346 0.467507 0.000000
0.833258 0.467507 0.000000
0.861852 0.467507 0.000000
0.890129 0.467507 0.000000
0.918089 0.467507 0.000000
0.945725 0.467507 0.000000
0.973031 0.467507 0.000000
1.000000 0.467507 0.000000
0.000000 0.499434 0.000000
0.034390 0.499434 0.000000
0.068663 0.499434 0.000000
0.102813 0.499434 0.000000
0.136827 0.499434 0.000000
0.170692 0.499434 0.000000
0.204415 0.499434 0.000000
0.237963 0.499434 0.000000
0.271342 0.499434 0.000000
0.304540 0.499434 0.000000
0.337551 0.499434 0.000000
0.370354 0.499434 0.000000
0.402957 0.499434 0.000000
0.435339 0.499434 0.000000
0.467501 0.499434 0.000000
0.499437 0.499434 0.000000
0.531126 0.499434 0.000000
0.562563 0.499434 0.000000
0.593754 0.499434 0.000000
0.624679 0.499434 0.000000
0.655333 0.499434 0.000000
0.685714 0.499434 0.000000
0.715811 0.499434 0.000000
0.745623 0.499434 0.000000
0.775130 0.499434 0.000000
0.804346 0.499434 0.000000
0.833258 0.499434 0.000000
0.861852 0.499434 0.000000
0.890129 0.499434 0.000000
0.918089 0.499434 0.000000
0.945725 0.499434 0.000000
0.973031 0.499434 0.000000
1.000000 0.499434 0.000000
0.000000 0.531125 0.000000
0.034390 0.531125 0.000000
0.068663 0.531125 0.000000
0.102813 0.531125 0.000000
0.136827 0.531125 0.000000
0.170692 0.531125 0.000000
0.204415 0.531125 0.000000
0.237963 0.531125 0.000000
0.271342 0.531125 0.000000
0.304540 0.531125 0.000000
0.337551 0.531125 0.000000
0.370354 0.531125 0.000000
0.402957 0.531125 0.000000
0.435339 0.531125 0.000000
0.467501 0.531125 0.000000
0.499437 0.531125 0.000000
0.531126 0.531125 0.000000
0.562563 0.531125 0.000000
0.593754 0.531125 0.000000
0.624679 0.531125 0.000000
0.655333 0.531125 0.000000
0.685714 0.531125 0.000000
0.715811 0.531125 0.000000
0.745623 0.531125 0.000000
0.775130 0.531125 0.000000
0.804346 0.531125 0.000000
0.833258 0.531125 0.000000
0.861852 0.531125 0.000000
0.890129 0.531125 0.000000
0.918089 0.531125 0.000000
0.945725 0.531125 0.000000
0.973031 0.531125 0.000000
1.000000 0.531125 0.000000
0.000000 0.562568 0.000000
0.034390 0.562568 0.000000
0.068663 0.562568 0.000000
0.102813 0.562568 0.000000
0.136827 0.562568 0.000000
0.170692 0.562568 0.000000
0.204415 0.562568 0.000000
0.237963 0.562568 0.000000
0.271342 0.562568 0.000000
0.304540 0.562568 0.000000
0.337551 0.562568 0.000000
0.370354 0.562568 0.000000
0.402957 0.562568 0.000000
0.435339 0.562568 0.000000
0.467501 0.562568 0.000000
0.499437 0.562568 0.000000
0.531126 0.562568 0.000000
0.562563 0.562568 0.000000
0.593754 0.562568 0.000000
0.624679 0.562568 0.000000
0.655333 0.562568 0.000000
0.685714 0.562568 0.000000
0.715811 0.562568 0.000000
0.745623 0.562568 0.000000
0.775130 0.562568 0.000000
0.804346 0.562568 0.000000
0.833258 0.562568 0.000000
0.861852 0.562568 0.000000
0.890129 0.562568 0.000000
0.918089 0.562568 0.000000
0.945725 0.562568 0.000000
0.973031 0.562568 0.000000
1.000000 0.562568 0.000000
0.000000 0.593748 0.000000
0.034390 0.593748 0.000000
0.068663 0.593748 0.000000
0.102813 0.593748 0.000000
0.136827 0.593748 0.000000
0.170692 0.593748 0.000000
0.204415 0.593748 0.000000
0.237963 0.593748 0.000000
0.271342 0.593748 0.000000
0.304540 0.593748 0.000000
0.337551 0.593748 0.000000
0.370354 0.593748 0.000000
0.402957 0.593748 0.000000
0.435339 0.593748 0.000000
0.467501 0.593748 0.000000
0.499437 0.593748 0.000000
0.531126 0.593748 0.000000
0.562563 0.593748 0.000000
0.593754 0.593748 0.000000
0.624679 0.593748 0.000000
0.655333 0.593748 0.000000
0.685714 0.593748 0.000000
0.715811 0.593748 0.000000
0.745623 0.593748 0.000000
0.775130 0.593748 0.000000
0.804346 0.593748 0.000000
0.833258 0.593748 0.000000
0.861852 0.593748 0.000000
0.890129 0.593748 0.000000
0.918089 0.593748 0.000000
0.945725 0.593748 0.000000
0.973031 0.593748 0.000000
1.000000 0.593748 0.000000
0.000000 0.624680 0.000000
0.034390 0.624680 0.000000
0.068663 0.624680 0.000000
0.102813 0.624680 0.000000
0.136827 0.624680 0.000000
0.170692 0.624680 0.000000
0.204415 0.624680 0.000000
0.237963 0.624680 0.000000
0.271342 0.624680 0.000000
0.304540 0.624680 0.000000
0.337551 0.624680 0.000000
0.370354 0.624680 0.000000
0.402957 0.624680 0.000000
0.435339 0.624680 0.000000
0.467501 0.624680 0.000000
0.499437 0.624680 0.000000
0.531126 0.624680 0.000000
0.562563 0.624680 0.000000
0.593754 0.624680 0.000000
0.624679 0.624680 0.000000
0.655333 0.624680 0.000000
0.685714 0.624680 0.000000
0.715811 0.624680 0.000000
0.745623 0.624680 0.000000
0.775130 0.624680 0.000000
0.804346 0.624680 0.000000
0.833258 0.624680 0.000000
0.861852 0.624680 0.000000
0.890129 0.624680 0.000000
0.918089 0.624680 0.000000
0.945725 0.624680 0.000000
0.973031 0.624680 0.000000
1.000000 0.624680 0.000000
0.000000 0.655330 0.000000
0.034390 0.655330 0.000000
0.068663 0.655330 0.000000
0.102813 0.655330 0.000000
0.136827 0.655330 0.000000
0.170692 0.655330 0.000000
0.204415 0.655330 0.000000
0.237963 0.655330 0.000000
0.271342 0.655330 0.000000
0.304540 0.655330 0.000000
0.337551 0.655330 0.000000
0.370354 0.655330 0.000000
0.402957 0.655330 0.000000
0.435339 0.655330 0.000000
0.467501 0.655330 0.000000
0.499437 0.655330 0.000000
0.531126 0.655330 0.000000
0.562563 0.655330 0.000000
0.593754 0.655330 0.000000
0.624679 0.655330 0.000000
0.655333 0.655330 0.000000
0.685714 0.655330 0.000000
0.715811 0.655330 0.000000
0.745623 0.655330 0.000000
0.775130 0.655330 0.000000
0.804346 0.655330 0.000000
0.833258 0.655330 0.000000
0.861852 0.655330 0.000000
0.890129 0.655330 0.000000
0.918089 0.655330 0.000000
0.945725 0.655330 0.000000
0.973031 0.655330 0.000000
1.000000 0.655330 0.000000
0.000000 0.685712 0.000000
0.034390 0.685712 0.000000
0.068663 0.685712 0.000000
0.102813 0.685712 0.000000
0.136827 0.685712 0.000000
0.170692 0.685712 0.000000
0.204415 0.685712 0.000000
0.237963 0.685712 0.000000
0.271342 0.685712 0.000000
0.304540 0.685712 0.000000
0.337551 0.685712 0.000000
0.370354 0.685712 0.000000
0.402957 0.685712 0.000000
0.435339 0.685712 0.000000
0.467501 0.685712 0.000000
0.499437 0.685712 0.000000
0.531126 0.685712 0.000000
0.562563 0.685712 0.000000
0.593754 0.685712 0.000000
0.624679 0.685712 0.000000
0.655333 0.685712 0.000000
0.685714 0.685712 0.000000
0.715811 0.685712 0.000000
0.745623 0.685712 0.000000
0.775130 0.685712 0.000000
0.804346 0.685712 0.000000
0.833258 0.685712 0.000000
0.861852 0.685712 0.000000
0.890129 0.685712 0.000000
0.918089 0.685712 0.000000
0.945725 0.685712 0.000000
0.973031 0.685712 0.000000
1.000000 0.685712 0.000000
0.000000 0.715813 0.000000
0.034390 0.715813 0.000000
0.068663 0.715813 0.000000
0.102813 0.715813 0.000000
0.136827 0.715813 0.000000
0.170692 0.715813 0.000000
0.204415 0.715813 0.000000
0.237963 0.715813 0.000000
0.271342 0.715813 0.000000
0.304540 0.715813 0.000000
0.337551 0.715813 0.000000
0.370354 0.715813 0.000000
0.402957 0.715813 0.000000
0.435339 0.715813 0.000000
0.467501 0.715813 0.000000
0.499437 0.715813 0.000000
0.531126 0.715813 0.000000
0.562563 0.715813 0.000000
0.593754 0.715813 0.000000
0.624679 0.715813 0.000000
0.655333 0.715813 0.000000
0.685714 0.715813 0.000000
0.715811 0.715813 0.000000
0.745623 0.715813 0.000000
0.775130 0.715813 0.000000
0.804346 0.715813 0.000000
0.833258 0.715813 0.000000
0.861852 0.715813 0.000000
0.890129 0.715813 0.000000
0.918089 0.715813 0.000000
0.945725 0.715813 0.000000
0.973031 0.715813 0.000000
1.000000 0.715813 0.000000
0.000000 0.745619 0.000000
0.034390 0.745619 0.000000
0.068663 0.745619 0.000000
0.102813 0.745619 0.000000
0.136827 0.745619 0.000000
0.170692 0.745619 0.000000
0.204415 0.745619 0.000000
0.237963 0.745619 0.000000
0.271342 0.745619 0.000000
0.304540 0.745619 0.000000
0.337551 0.745619 0.000000
0.370354 0.745619 0.000000
0.402957 0.745619 0.000000
0.435339 0.745619 0.000000
0.467501 0.745619 0.000000
0.499437 0.745619 0.000000
0.531126 0.745619 0.000000
0.562563 0.745619 0.000000
0.593754 0.745619 0.000000
0.624679 0.745619 0.000000
0.655333 0.745619 0.000000
0.685714 0.745619 0.000000
0.715811 0.745619 0.000000
0.745623 0.745619 0.000000
0.775130 0.745619 0.000000
0.804346 0.745619 0.000000
0.833258 0.745619 0.000000
0.861852 0.745619 0.000000
0.890129 0.745619 0.000000
0.918089 0.745619 0.000000
0.945725 0.745619 0.000000
0.973031 0.745619 0.000000
1.000000 0.745619 0.000000
0.000000 0.775130 0.000000
0.034390 0.775130 0.000000
0.068663 0.775130 0.000000
0.102813 0.775130 0.000000
0.136827 0.775130 0.000000
0.170692 0.775130 0.000000
0.204415 0.775130 0.000000
0.237963 0.775130 0.000000
0.271342 0.775130 0.000000
0.304540 0.775130 0.000000
0.337551 0.775130 0.000000
0.370354 0.775130 0.000000
0.402957 0.775130 0.000000
0.435339 0.775130 0.000000
0.467501 0.775130 0.000000
0.499437 0.775130 0.000000
0.531126 0.775130 0.000000
0.562563 0.775130 0.000000
0.593754 0.775130 0.000000
0.624679 0.775130 0.000000
0.655333 0.775130 0.000000
0.685714 0.775130 0.000000
0.715811 0.775130 0.000000
0.745623 0.775130 0.000000
0.775130 0.775130 0.000000
0.804346 0.775130 0.000000
0.833258 0.775130 0.000000
0.861852 0.775130 0.000000
0.890129 0.775130 0.000000
0.918089 0.775130 0.000000
0.945725 0.775130 0.000000
0.973031 0.775130 0.000000
1.000000 0.775130 0.000000
0.000000 0.804347 0.000000
0.034390 0.804347 0.000000
0.068663 0.804347 0.000000
0.102813 0.804347 0.000000
0.136827 0.804347 0.000000
0.170692 0.804347 0.000000
0.204415 0.804347 0.000000
0.237963 0.804347 0.000000
0.271342 0.804347 0.000000
0.304540 0.804347 0.000000
0.337551 0.804347 0.000000
0.370354 0.804347 0.000000
0.402957 0.804347 0.000000
0.435339 0.804347 0.000000
0.467501 0.804347 0.000000
0.499437 0.804347 0.000000
0.531126 0.804347 0.000000
0.562563 0.804347 0.000000
0.593754 0.804347 0.000000
0.624679 0.804347 0.000000
0.655333 0.804347 0.000000
0.685714 0.804347 0.000000
0.715811 0.804347 0.000000
0.745623 0.804347 0.000000
0.775130 0.804347 0.000000
0.804346 0.804347 0.000000
0.833258 0.804347 0.000000
0.861852 0.804347 0.000000
0.890129 0.804347 0.000000
0.918089 0.804347 0.000000
0.945725 0.804347 0.000000
0.973031 0.804347 0.000000
1.000000 0.804347 0.000000
0.000000 0.833256 0.000000
0.034390 0.833256 0.000000
0.068663 0.833256 0.000000
0.102813 0.833256 0.000000
0.136827 0.833256 0.000000
0.170692 0.833256 0.000000
0.204415 0.833256 0.000000
0.237963 0.833256 0.000000
0.271342 0.833256 0.000000
0.304540 0.833256 0.000000
0.337551 0.833256 0.000000
0.370354 0.833256 0.000000
0.402957 0.833256 0.000000
0.435339 0.833256 0.000000
0.467501 0.833256 0.000000
0.499437 0.833256 0.000000
0.531126 0.833256 0.000000
0.562563 0.833256 0.000000
0.593754 0.833256 0.000000
0.624679 0.833256 0.000000
0.655333 0.833256 0.000000
0.685714 0.833256 0.000000
0.715811 0.833256 0.000000
0.745623 0.833256 0.000000
0.775130 0.833256 0.000000
0.804346 0.833256 0.000000
0.833258 0.833256 0.000000
0.861852 0.833256 0.000000
