luts/kodak_ektar_100.cube
TITLE Film LUT
LUT_3D_SIZE 5
DOMAIN_MIN 0.0 0.0 0.0
DOMAIN_MAX 1.0 1.0 1.0
0.000000 0.000000 0.000000
0.241186 0.000000 0.000000
0.542657 0.000000 0.000000
0.822392 0.000000 0.000000
1.000000 0.000000 0.000000
0.000000 0.241186 0.000000
0.241186 0.241186 0.000000
0.542657 0.241186 0.000000
0.822392 0.241186 0.000000
1.000000 0.241186 0.000000
0.000000 0.542657 0.000000
0.241186 0.542657 0.000000
0.542657 0.542657 0.000000
0.822392 0.542657 0.000000
1.000000 0.542657 0.000000
0.000000 0.822392 0.000000
0.241186 0.822392 0.000000
0.542657 0.822392 0.000000
0.822392 0.822392 0.000000
1.000000 0.822392 0.000000
0.000000 1.000000 0.000000
0.241186 1.000000 0.000000
0.542657 1.000000 0.000000
0.822392 1.000000 0.000000
1.000000 1.000000 0.000000
0.000000 0.000000 0.241186
0.241186 0.000000 0.241186
0.542657 0.000000 0.241186
0.822392 0.000000 0.241186
1.000000 0.000000 0.241186
0.000000 0.241186 0.241186
0.241186 0.241186 0.241186
0.542657 0.150744 0.150744
0.822392 0.066824 0.066824
1.000000 0.000000 0.000000
0.000000 0.542657 0.241186
0.150744 0.542657 0.150744
0.542657 0.542657 0.150744
0.822392 0.458736 0.066824
1.000000 0.382954 0.000000
0.000000 0.822392 0.241186
0.066824 0.822392 0.066824
0.458736 0.822392 0.066824
0.822392 0.822392 0.066824
1.000000 0.746610 0.000000
0.000000 1.000000 0.241186
0.000000 1.000000 0.000000
0.382954 1.000000 0.000000
0.746610 1.000000 0.000000
1.000000 1.000000 0.000000
0.000000 0.000000 0.542657
0.241186 0.000000 0.542657
0.542657 0.000000 0.542657
0.822392 0.000000 0.542657
1.000000 0.000000 0.542657
0.000000 0.241186 0.542657
0.150744 0.150744 0.542657
0.542657 0.150744 0.542657
0.822392 0.066824 0.458736
1.000000 0.000000 0.382954
0.000000 0.542657 0.542657
0.150744 0.542657 0.542657
0.542657 0.542657 0.542657
0.822392 0.458736 0.458736
1.000000 0.382954 0.382954
0.000000 0.822392 0.542657
0.066824 0.822392 0.458736
0.458736 0.822392 0.458736
0.822392 0.822392 0.458736
1.000000 0.746610 0.382954
0.000000 1.000000 0.542657
0.000000 1.000000 0.382954
0.382954 1.000000 0.382954
0.746610 1.000000 0.382954
1.000000 1.000000 0.382954
0.000000 0.000000 0.822392
0.241186 0.000000 0.822392
0.542657 0.000000 0.822392
0.822392 0.000000 0.822392
1.000000 0.000000 0.822392
0.000000 0.241186 0.822392
0.066824 0.066824 0.822392
0.458736 0.066824 0.822392
0.822392 0.066824 0.822392
1.000000 0.000000 0.746610
0.000000 0.542657 0.822392
0.066824 0.458736 0.822392
0.458736 0.458736 0.822392
0.822392 0.458736 0.822392
1.000000 0.382954 0.746610
0.000000 0.822392 0.822392
0.066824 0.822392 0.822392
0.458736 0.822392 0.822392
0.822392 0.822392 0.822392
1.000000 0.746610 0.746610
0.000000 1.000000 0.822392
0.000000 1.000000 0.746610
0.382954 1.000000 0.746610
0.746610 1.000000 0.746610
1.000000 1.000000 0.746610
0.000000 0.000000 1.000000
0.241186 0.000000 1.000000
0.542657 0.000000 1.000000
0.822392 0.000000 1.000000
1.000000 0.000000 1.000000
0.000000 0.241186 1.000000
0.000000 0.000000 1.000000
0.382954 0.000000 1.000000
0.746610 0.000000 1.000000
1.000000 0.000000 1.000000
0.000000 0.542657 1.000000
0.000000 0.382954 1.000000
0.382954 0.382954 1.000000
0.746610 0.382954 1.000000
1.000000 0.382954 1.000000
0.000000 0.822392 1.000000
0.000000 0.746610 1.000000
0.382954 0.746610 1.000000
0.746610 0.746610 1.000000
1.000000 0.746610 1.000000
0.000000 1.000000 1.000000
0.000000 1.000000 1.000000
0.382954 1.000000 1.000000
0.746610 1.000000 1.000000
1.000000 1.000000 1.000000
