luts/KODAK FPE 01.cube
TITLE "Generated by Resolve"
LUT_3D_SIZE 5
0.0150912 0.0211795 0.0280919
0.195987 0.0618143 0.0294652
0.468315 0.0932174 0.025391
0.664775 0.129107 0.0467994
0.785214 0.170855 0.0914321
0.0269169 0.184283 0.103578
0.256275 0.226795 0.0706493
0.5523 0.268101 0.0254368
0.742092 0.308003 0.0302586
0.851331 0.344411 0.0585489
0.0700542 0.424857 0.161501
0.263478 0.474052 0.099443
0.598215 0.512306 0.042649
0.810285 0.550072 0.033341
0.928954 0.58175 0.0349126
0.126802 0.633921 0.216922
0.201633 0.689219 0.180499
0.595209 0.704494 0.0924239
0.840284 0.743282 0.0959029
0.969284 0.77911 0.10515
0.129503 0.765621 0.354818
0.227466 0.798947 0.255909
0.388235 0.797925 0.211841
0.491173 0.822599 0.241779
0.964202 0.957366 0.392477
0.031632 0.0420691 0.17734
0.224231 0.0715953 0.207507
0.512032 0.0851148 0.235599
0.679423 0.124453 0.254475
0.795254 0.165133 0.273167
0.0168917 0.21796 0.268864
0.23357 0.251698 0.273274
0.556771 0.275898 0.261677
0.745174 0.307179 0.27599
0.850996 0.340993 0.280491
0.0517433 0.453986 0.339269
0.146792 0.519142 0.340993
0.579248 0.529976 0.289815
0.796719 0.558175 0.27982
0.910567 0.592325 0.272496
0.103258 0.646616 0.412482
0.115373 0.721279 0.406683
0.560708 0.715785 0.305013
0.817929 0.751019 0.286564
0.963684 0.784863 0.283299
0.103853 0.77203 0.510231
0.119158 0.82919 0.505241
0.345754 0.799313 0.438193
0.456611 0.820996 0.464042
0.96556 0.950957 0.599557
0.092958 0.0756237 0.382132
0.277974 0.0911879 0.419287
0.513512 0.106126 0.437095
0.698695 0.146777 0.459709
0.821256 0.196002 0.486503
0.0256352 0.263279 0.472892
0.259052 0.298955 0.493278
0.550515 0.307164 0.49601
0.757809 0.329702 0.506615
0.858289 0.366079 0.51252
0.0452125 0.488457 0.552758
0.0710307 0.56672 0.58172
0.552911 0.555169 0.529931
0.782025 0.576074 0.529198
0.893538 0.593118 0.52668
0.0909743 0.671702 0.612329
0.0897536 0.744976 0.621805
0.511864 0.742397 0.552422
0.790936 0.768872 0.549538
0.935927 0.795956 0.543099
0.0967269 0.776577 0.633326
0.0936294 0.840406 0.643
0.325032 0.808347 0.579217
0.438911 0.82977 0.60209
0.970916 0.960357 0.725948
0.152148 0.157855 0.536065
0.317723 0.165042 0.568887
0.544198 0.173419 0.596796
0.709819 0.190295 0.617472
0.843442 0.241032 0.651514
0.1234 0.315953 0.627222
0.289693 0.363775 0.649714
0.568856 0.360723 0.651072
0.756329 0.366171 0.677302
0.871214 0.404578 0.683619
0.0552071 0.528664 0.700267
0.167895 0.603159 0.738674
0.561074 0.586847 0.697917
0.776654 0.598657 0.707347
0.902068 0.611643 0.697002
0.0896162 0.700084 0.765484
0.0818952 0.772686 0.785428
0.499229 0.76875 0.725444
0.774395 0.78909 0.723171
0.933349 0.796582 0.718639
0.0985122 0.779065 0.741665
0.0944686 0.842924 0.744854
0.316213 0.8168 0.699779
0.433799 0.840894 0.719661
0.979965 0.974853 0.822766
0.21294 0.347082 0.704112
0.321096 0.375097 0.707103
0.544686 0.374228 0.750088
0.747784 0.371191 0.793133
0.874159 0.382193 0.831434
0.209781 0.480125 0.762188
0.271275 0.541695 0.787213
0.543328 0.531868 0.780056
0.744381 0.540673 0.806424
0.856992 0.545678 0.820096
0.242191 0.649104 0.837827
0.26865 0.71812 0.869963
0.557 0.698283 0.828107
0.752285 0.705226 0.841825
0.88719 0.698405 0.848783
0.307637 0.794003 0.914763
0.316457 0.859449 0.916518
0.581079 0.839597 0.874128
0.772808 0.845914 0.871626
0.932006 0.836164 0.883284
0.102068 0.855879 0.905806
0.100053 0.913176 0.908904
0.312657 0.905455 0.904707
0.475547 0.94432 0.92166
0.983551 0.986542 0.942657
