luts/kodak_gold_200.cube
TITLE Film LUT
LUT_3D_SIZE 5
DOMAIN_MIN 0.0 0.0 0.0
DOMAIN_MAX 1.0 1.0 1.0
0.000000 0.000000 0.000000
0.271549 0.065172 0.000000
0.531457 0.127550 0.000000
0.775415 0.186100 0.000000
1.000000 0.240000 0.000000
0.000000 0.271550 0.065172
0.206377 0.271550 0.000000
0.531457 0.399100 0.000000
0.775415 0.457650 0.000000
1.000000 0.511550 0.000000
0.000000 0.531459 0.127550
0.143999 0.531459 0.000000
0.403907 0.531459 0.000000
0.775415 0.717559 0.000000
1.000000 0.771459 0.000000
0.000000 0.775424 0.186102
0.085447 0.775424 0.000000
0.345355 0.775424 0.000000
0.589313 0.775424 0.000000
0.984576 1.000000 0.000000
0.000000 1.000000 0.240000
0.031549 1.000000 0.000000
0.291457 1.000000 0.000000
0.535415 1.000000 0.000000
0.760000 1.000000 0.000000
0.065172 0.000000 0.271548
0.271549 0.000000 0.206376
0.531457 0.000000 0.143998
0.775415 0.000000 0.085448
1.000000 0.000000 0.031548
0.000000 0.206380 0.271550
0.271548 0.271550 0.271548
0.531457 0.304299 0.232562
0.775415 0.335038 0.195968
1.000000 0.363335 0.162280
0.000000 0.531459 0.399098
0.232561 0.531459 0.304296
0.459721 0.531459 0.232561
0.775415 0.633933 0.195968
1.000000 0.662231 0.162280
0.000000 0.775424 0.457650
0.195967 0.775424 0.335035
0.355792 0.775424 0.195967
0.636344 0.775424 0.195967
1.000000 0.942790 0.162280
0.000000 1.000000 0.511548
0.162280 1.000000 0.363332
0.260123 1.000000 0.162280
0.540674 1.000000 0.162280
0.798947 1.000000 0.162280
0.127549 0.000000 0.531453
0.399098 0.000000 0.531453
0.531457 0.000000 0.403903
0.775415 0.000000 0.345353
1.000000 0.000000 0.291453
0.000000 0.144001 0.531453
0.304296 0.232563 0.531453
0.531457 0.232564 0.459718
0.775415 0.195970 0.355792
1.000000 0.162282 0.260119
0.000000 0.403915 0.531459
0.232563 0.459731 0.531459
0.531455 0.531459 0.531452
0.775415 0.562199 0.494859
1.000000 0.590497 0.461171
0.000000 0.775424 0.717555
0.195968 0.775424 0.633927
0.494857 0.775424 0.562189
0.708078 0.775424 0.494857
1.000000 0.871057 0.461171
0.000000 1.000000 0.771453
0.162281 1.000000 0.662223
0.461171 1.000000 0.590485
0.612408 1.000000 0.461171
0.870681 1.000000 0.461171
0.186102 0.000000 0.775424
0.457651 0.000000 0.775424
0.717559 0.000000 0.775424
0.775424 0.000000 0.589331
1.000000 0.000000 0.535424
0.000000 0.085448 0.775424
0.335036 0.195968 0.775424
0.633931 0.195969 0.775424
0.775424 0.195969 0.636365
1.000000 0.162282 0.540685
0.000000 0.345357 0.775424
0.195968 0.355795 0.775424
0.562195 0.494862 0.775424
0.775424 0.494864 0.708100
1.000000 0.461178 0.612420
0.000000 0.589322 0.775424
0.195968 0.636354 0.775424
0.494862 0.708089 0.775424
0.775414 0.775422 0.775424
1.000000 0.803721 0.741738
0.000000 0.984576 1.000000
0.162281 1.000000 0.942790
0.461176 1.000000 0.871055
0.741727 1.000000 0.803723
0.938017 1.000000 0.741738
0.240000 0.000000 1.000000
0.511549 0.000000 1.000000
0.771457 0.000000 1.000000
1.000000 0.000000 0.984585
1.000000 0.000000 0.760000
0.000000 0.031550 1.000000
0.363333 0.162281 1.000000
0.662228 0.162282 1.000000
0.942779 0.162282 1.000000
1.000000 0.162282 0.798948
0.000000 0.291459 1.000000
0.162281 0.260125 1.000000
0.590491 0.461176 1.000000
0.871045 0.461178 1.000000
1.000000 0.461178 0.870683
0.000000 0.535424 1.000000
0.162281 0.540685 1.000000
0.461176 0.612420 1.000000
0.803702 0.741727 1.000000
1.000000 0.741738 0.938017
0.000000 0.760000 1.000000
0.162281 0.798948 1.000000
0.461176 0.870682 1.000000
0.741727 0.938015 1.000000
1.000000 1.000000 1.000000
