luts/kodak_tmax_100.cube
TITLE Film LUT
LUT_3D_SIZE 33
DOMAIN_MIN 0.0 0.0 0.0
DOMAIN_MAX 1.0 1.0 1.0
0.000000 0.000000 0.000000
0.035057 0.000000 0.000000
0.070022 0.000000 0.000000
0.104869 0.000000 0.000000
0.139588 0.000000 0.000000
0.174165 0.000000 0.000000
0.208572 0.000000 0.000000
0.242811 0.000000 0.000000
0.276851 0.000000 0.000000
0.310686 0.000000 0.000000
0.344291 0.000000 0.000000
0.377662 0.000000 0.000000
0.410771 0.000000 0.000000
0.443620 0.000000 0.000000
0.476177 0.000000 0.000000
0.508433 0.000000 0.000000
0.540383 0.000000 0.000000
0.572005 0.000000 0.000000
0.603289 0.000000 0.000000
0.634227 0.000000 0.000000
0.664801 0.000000 0.000000
0.695002 0.000000 0.000000
0.724820 0.000000 0.000000
0.754245 0.000000 0.000000
0.783265 0.000000 0.000000
0.811872 0.000000 0.000000
0.840065 0.000000 0.000000
0.867823 0.000000 0.000000
0.895152 0.000000 0.000000
0.922036 0.000000 0.000000
0.948480 0.000000 0.000000
0.974470 0.000000 0.000000
1.000000 0.000000 0.000000
0.000000 0.035057 0.000000
0.035057 0.035057 0.000000
0.070022 0.035057 0.000000
0.104869 0.035057 0.000000
0.139588 0.035057 0.000000
0.174165 0.035057 0.000000
0.208572 0.035057 0.000000
0.242811 0.035057 0.000000
0.276851 0.035057 0.000000
0.310686 0.035057 0.000000
0.344291 0.035057 0.000000
0.377662 0.035057 0.000000
0.410771 0.035057 0.000000
0.443620 0.035057 0.000000
0.476177 0.035057 0.000000
0.508433 0.035057 0.000000
0.540383 0.035057 0.000000
0.572005 0.035057 0.000000
0.603289 0.035057 0.000000
0.634227 0.035057 0.000000
0.664801 0.035057 0.000000
0.695002 0.035057 0.000000
0.724820 0.035057 0.000000
0.754245 0.035057 0.000000
0.783265 0.035057 0.000000
0.811872 0.035057 0.000000
0.840065 0.035057 0.000000
0.867823 0.035057 0.000000
0.895152 0.035057 0.000000
0.922036 0.035057 0.000000
0.948480 0.035057 0.000000
0.974470 0.035057 0.000000
1.000000 0.035057 0.000000
0.000000 0.070022 0.000000
0.035057 0.070022 0.000000
0.070022 0.070022 0.000000
0.104869 0.070022 0.000000
0.139588 0.070022 0.000000
0.174165 0.070022 0.000000
0.208572 0.070022 0.000000
0.242811 0.070022 0.000000
0.276851 0.070022 0.000000
0.310686 0.070022 0.000000
0.344291 0.070022 0.000000
0.377662 0.070022 0.000000
0.410771 0.070022 0.000000
0.443620 0.070022 0.000000
0.476177 0.070022 0.000000
0.508433 0.070022 0.000000
0.540383 0.070022 0.000000
0.572005 0.070022 0.000000
0.603289 0.070022 0.000000
0.634227 0.070022 0.000000
0.664801 0.070022 0.000000
0.695002 0.070022 0.000000
0.724820 0.070022 0.000000
0.754245 0.070022 0.000000
0.783265 0.070022 0.000000
0.811872 0.070022 0.000000
0.840065 0.070022 0.000000
0.867823 0.070022 0.000000
0.895152 0.070022 0.000000
0.922036 0.070022 0.000000
0.948480 0.070022 0.000000
0.974470 0.070022 0.000000
1.000000 0.070022 0.000000
0.000000 0.104869 0.000000
0.035057 0.104869 0.000000
0.070022 0.104869 0.000000
0.104869 0.104869 0.000000
0.139588 0.104869 0.000000
0.174165 0.104869 0.000000
0.208572 0.104869 0.000000
0.242811 0.104869 0.000000
0.276851 0.104869 0.000000
0.310686 0.104869 0.000000
0.344291 0.104869 0.000000
0.377662 0.104869 0.000000
0.410771 0.104869 0.000000
0.443620 0.104869 0.000000
0.476177 0.104869 0.000000
0.508433 0.104869 0.000000
0.540383 0.104869 0.000000
0.572005 0.104869 0.000000
0.603289 0.104869 0.000000
0.634227 0.104869 0.000000
0.664801 0.104869 0.000000
0.695002 0.104869 0.000000
0.724820 0.104869 0.000000
0.754245 0.104869 0.000000
0.783265 0.104869 0.000000
0.811872 0.104869 0.000000
0.840065 0.104869 0.000000
0.867823 0.104869 0.000000
0.895152 0.104869 0.000000
0.922036 0.104869 0.000000
0.948480 0.104869 0.000000
0.974470 0.104869 0.000000
1.000000 0.104869 0.000000
0.000000 0.139588 0.000000
0.035057 0.139588 0.000000
0.070022 0.139588 0.000000
0.104869 0.139588 0.000000
0.139588 0.139588 0.000000
0.174165 0.139588 0.000000
0.208572 0.139588 0.000000
0.242811 0.139588 0.000000
0.276851 0.139588 0.000000
0.310686 0.139588 0.000000
0.344291 0.139588 0.000000
0.377662 0.139588 0.000000
0.410771 0.139588 0.000000
0.443620 0.139588 0.000000
0.476177 0.139588 0.000000
0.508433 0.139588 0.000000
0.540383 0.139588 0.000000
0.572005 0.139588 0.000000
0.603289 0.139588 0.000000
0.634227 0.139588 0.000000
0.664801 0.139588 0.000000
0.695002 0.139588 0.000000
0.724820 0.139588 0.000000
0.754245 0.139588 0.000000
0.783265 0.139588 0.000000
0.811872 0.139588 0.000000
0.840065 0.139588 0.000000
0.867823 0.139588 0.000000
0.895152 0.139588 0.000000
0.922036 0.139588 0.000000
0.948480 0.139588 0.000000
0.974470 0.139588 0.000000
1.000000 0.139588 0.000000
0.000000 0.174165 0.000000
0.035057 0.174165 0.000000
0.070022 0.174165 0.000000
0.104869 0.174165 0.000000
0.139588 0.174165 0.000000
0.174165 0.174165 0.000000
0.208572 0.174165 0.000000
0.242811 0.174165 0.000000
0.276851 0.174165 0.000000
0.310686 0.174165 0.000000
0.344291 0.174165 0.000000
0.377662 0.174165 0.000000
0.410771 0.174165 0.000000
0.443620 0.174165 0.000000
0.476177 0.174165 0.000000
0.508433 0.174165 0.000000
0.540383 0.174165 0.000000
0.572005 0.174165 0.000000
0.603289 0.174165 0.000000
0.634227 0.174165 0.000000
0.664801 0.174165 0.000000
0.695002 0.174165 0.000000
0.724820 0.174165 0.000000
0.754245 0.174165 0.000000
0.783265 0.174165 0.000000
0.811872 0.174165 0.000000
0.840065 0.174165 0.000000
0.867823 0.174165 0.000000
0.895152 0.174165 0.000000
0.922036 0.174165 0.000000
0.948480 0.174165 0.000000
0.974470 0.174165 0.000000
1.000000 0.174165 0.000000
0.000000 0.208572 0.000000
0.035057 0.208572 0.000000
0.070022 0.208572 0.000000
0.104869 0.208572 0.000000
0.139588 0.208572 0.000000
0.174165 0.208572 0.000000
0.208572 0.208572 0.000000
0.242811 0.208572 0.000000
0.276851 0.208572 0.000000
0.310686 0.208572 0.000000
0.344291 0.208572 0.000000
0.377662 0.208572 0.000000
0.410771 0.208572 0.000000
0.443620 0.208572 0.000000
0.476177 0.208572 0.000000
0.508433 0.208572 0.000000
0.540383 0.208572 0.000000
0.572005 0.208572 0.000000
0.603289 0.208572 0.000000
0.634227 0.208572 0.000000
0.664801 0.208572 0.000000
0.695002 0.208572 0.000000
0.724820 0.208572 0.000000
0.754245 0.208572 0.000000
0.783265 0.208572 0.000000
0.811872 0.208572 0.000000
0.840065 0.208572 0.000000
0.867823 0.208572 0.000000
0.895152 0.208572 0.000000
0.922036 0.208572 0.000000
0.948480 0.208572 0.000000
0.974470 0.208572 0.000000
1.000000 0.208572 0.000000
0.000000 0.242811 0.000000
0.035057 0.242811 0.000000
0.070022 0.242811 0.000000
0.104869 0.242811 0.000000
0.139588 0.242811 0.000000
0.174165 0.242811 0.000000
0.208572 0.242811 0.000000
0.242811 0.242811 0.000000
0.276851 0.242811 0.000000
0.310686 0.242811 0.000000
0.344291 0.242811 0.000000
0.377662 0.242811 0.000000
0.410771 0.242811 0.000000
0.443620 0.242811 0.000000
0.476177 0.242811 0.000000
0.508433 0.242811 0.000000
0.540383 0.242811 0.000000
0.572005 0.242811 0.000000
0.603289 0.242811 0.000000
0.634227 0.242811 0.000000
0.664801 0.242811 0.000000
0.695002 0.242811 0.000000
0.724820 0.242811 0.000000
0.754245 0.242811 0.000000
0.783265 0.242811 0.000000
0.811872 0.242811 0.000000
0.840065 0.242811 0.000000
0.867823 0.242811 0.000000
0.895152 0.242811 0.000000
0.922036 0.242811 0.000000
0.948480 0.242811 0.000000
0.974470 0.242811 0.000000
1.000000 0.242811 0.000000
0.000000 0.276851 0.000000
0.035057 0.276851 0.000000
0.070022 0.276851 0.000000
0.104869 0.276851 0.000000
0.139588 0.276851 0.000000
0.174165 0.276851 0.000000
0.208572 0.276851 0.000000
0.242811 0.276851 0.000000
0.276851 0.276851 0.000000
0.310686 0.276851 0.000000
0.344291 0.276851 0.000000
0.377662 0.276851 0.000000
0.410771 0.276851 0.000000
0.443620 0.276851 0.000000
0.476177 0.276851 0.000000
0.508433 0.276851 0.000000
0.540383 0.276851 0.000000
0.572005 0.276851 0.000000
0.603289 0.276851 0.000000
0.634227 0.276851 0.000000
0.664801 0.276851 0.000000
0.695002 0.276851 0.000000
0.724820 0.276851 0.000000
0.754245 0.276851 0.000000
0.783265 0.276851 0.000000
0.811872 0.276851 0.000000
0.840065 0.276851 0.000000
0.867823 0.276851 0.000000
0.895152 0.276851 0.000000
0.922036 0.276851 0.000000
0.948480 0.276851 0.000000
0.974470 0.276851 0.000000
1.000000 0.276851 0.000000
0.000000 0.310686 0.000000
0.035057 0.310686 0.000000
0.070022 0.310686 0.000000
0.104869 0.310686 0.000000
0.139588 0.310686 0.000000
0.174165 0.310686 0.000000
0.208572 0.310686 0.000000
0.242811 0.310686 0.000000
0.276851 0.310686 0.000000
0.310686 0.310686 0.000000
0.344291 0.310686 0.000000
0.377662 0.310686 0.000000
0.410771 0.310686 0.000000
0.443620 0.310686 0.000000
0.476177 0.310686 0.000000
0.508433 0.310686 0.000000
0.540383 0.310686 0.000000
0.572005 0.310686 0.000000
0.603289 0.310686 0.000000
0.634227 0.310686 0.000000
0.664801 0.310686 0.000000
0.695002 0.310686 0.000000
0.724820 0.310686 0.000000
0.754245 0.310686 0.000000
0.783265 0.310686 0.000000
0.811872 0.310686 0.000000
0.840065 0.310686 0.000000
0.867823 0.310686 0.000000
0.895152 0.310686 0.000000
0.922036 0.310686 0.000000
0.948480 0.310686 0.000000
0.974470 0.310686 0.000000
1.000000 0.310686 0.000000
0.000000 0.344291 0.000000
0.035057 0.344291 0.000000
0.070022 0.344291 0.000000
0.104869 0.344291 0.000000
0.139588 0.344291 0.000000
0.174165 0.344291 0.000000
0.208572 0.344291 0.000000
0.242811 0.344291 0.000000
0.276851 0.344291 0.000000
0.310686 0.344291 0.000000
0.344291 0.344291 0.000000
0.377662 0.344291 0.000000
0.410771 0.344291 0.000000
0.443620 0.344291 0.000000
0.476177 0.344291 0.000000
0.508433 0.344291 0.000000
0.540383 0.344291 0.000000
0.572005 0.344291 0.000000
0.603289 0.344291 0.000000
0.634227 0.344291 0.000000
0.664801 0.344291 0.000000
0.695002 0.344291 0.000000
0.724820 0.344291 0.000000
0.754245 0.344291 0.000000
0.783265 0.344291 0.000000
0.811872 0.344291 0.000000
0.840065 0.344291 0.000000
0.867823 0.344291 0.000000
0.895152 0.344291 0.000000
0.922036 0.344291 0.000000
0.948480 0.344291 0.000000
0.974470 0.344291 0.000000
1.000000 0.344291 0.000000
0.000000 0.377662 0.000000
0.035057 0.377662 0.000000
0.070022 0.377662 0.000000
0.104869 0.377662 0.000000
0.139588 0.377662 0.000000
0.174165 0.377662 0.000000
0.208572 0.377662 0.000000
0.242811 0.377662 0.000000
0.276851 0.377662 0.000000
0.310686 0.377662 0.000000
0.344291 0.377662 0.000000
0.377662 0.377662 0.000000
0.410771 0.377662 0.000000
0.443620 0.377662 0.000000
0.476177 0.377662 0.000000
0.508433 0.377662 0.000000
0.540383 0.377662 0.000000
0.572005 0.377662 0.000000
0.603289 0.377662 0.000000
0.634227 0.377662 0.000000
0.664801 0.377662 0.000000
0.695002 0.377662 0.000000
0.724820 0.377662 0.000000
0.754245 0.377662 0.000000
0.783265 0.377662 0.000000
0.811872 0.377662 0.000000
0.840065 0.377662 0.000000
0.867823 0.377662 0.000000
0.895152 0.377662 0.000000
0.922036 0.377662 0.000000
0.948480 0.377662 0.000000
0.974470 0.377662 0.000000
1.000000 0.377662 0.000000
0.000000 0.410771 0.000000
0.035057 0.410771 0.000000
0.070022 0.410771 0.000000
0.104869 0.410771 0.000000
0.139588 0.410771 0.000000
0.174165 0.410771 0.000000
0.208572 0.410771 0.000000
0.242811 0.410771 0.000000
0.276851 0.410771 0.000000
0.310686 0.410771 0.000000
0.344291 0.410771 0.000000
0.377662 0.410771 0.000000
0.410771 0.410771 0.000000
0.443620 0.410771 0.000000
0.476177 0.410771 0.000000
0.508433 0.410771 0.000000
0.540383 0.410771 0.000000
0.572005 0.410771 0.000000
0.603289 0.410771 0.000000
0.634227 0.410771 0.000000
0.664801 0.410771 0.000000
0.695002 0.410771 0.000000
0.724820 0.410771 0.000000
0.754245 0.410771 0.000000
0.783265 0.410771 0.000000
0.811872 0.410771 0.000000
0.840065 0.410771 0.000000
0.867823 0.410771 0.000000
0.895152 0.410771 0.000000
0.922036 0.410771 0.000000
0.948480 0.410771 0.000000
0.974470 0.410771 0.000000
1.000000 0.410771 0.000000
0.000000 0.443620 0.000000
0.035057 0.443620 0.000000
0.070022 0.443620 0.000000
0.104869 0.443620 0.000000
0.139588 0.443620 0.000000
0.174165 0.443620 0.000000
0.208572 0.443620 0.000000
0.242811 0.443620 0.000000
0.276851 0.443620 0.000000
0.310686 0.443620 0.000000
0.344291 0.443620 0.000000
0.377662 0.443620 0.000000
0.410771 0.443620 0.000000
0.443620 0.443620 0.000000
0.476177 0.443620 0.000000
0.508433 0.443620 0.000000
0.540383 0.443620 0.000000
0.572005 0.443620 0.000000
0.603289 0.443620 0.000000
0.634227 0.443620 0.000000
0.664801 0.443620 0.000000
0.695002 0.443620 0.000000
0.724820 0.443620 0.000000
0.754245 0.443620 0.000000
0.783265 0.443620 0.000000
0.811872 0.443620 0.000000
0.840065 0.443620 0.000000
0.867823 0.443620 0.000000
0.895152 0.443620 0.000000
0.922036 0.443620 0.000000
0.948480 0.443620 0.000000
0.974470 0.443620 0.000000
1.000000 0.443620 0.000000
0.000000 0.476177 0.000000
0.035057 0.476177 0.000000
0.070022 0.476177 0.000000
0.104869 0.476177 0.000000
0.139588 0.476177 0.000000
0.174165 0.476177 0.000000
0.208572 0.476177 0.000000
0.242811 0.476177 0.000000
0.276851 0.476177 0.000000
0.310686 0.476177 0.000000
0.344291 0.476177 0.000000
0.377662 0.476177 0.000000
0.410771 0.476177 0.000000
0.443620 0.476177 0.000000
0.476177 0.476177 0.000000
0.508433 0.476177 0.000000
0.540383 0.476177 0.000000
0.572005 0.476177 0.000000
0.603289 0.476177 0.000000
0.634227 0.476177 0.000000
0.664801 0.476177 0.000000
0.695002 0.476177 0.000000
0.724820 0.476177 0.000000
0.754245 0.476177 0.000000
0.783265 0.476177 0.000000
0.811872 0.476177 0.000000
0.840065 0.476177 0.000000
0.867823 0.476177 0.000000
0.895152 0.476177 0.000000
0.922036 0.476177 0.000000
0.948480 0.476177 0.000000
0.974470 0.476177 0.000000
1.000000 0.476177 0.000000
0.000000 0.508433 0.000000
0.035057 0.508433 0.000000
0.070022 0.508433 0.000000
0.104869 0.508433 0.000000
0.139588 0.508433 0.000000
0.174165 0.508433 0.000000
0.208572 0.508433 0.000000
0.242811 0.508433 0.000000
0.276851 0.508433 0.000000
0.310686 0.508433 0.000000
0.344291 0.508433 0.000000
0.377662 0.508433 0.000000
0.410771 0.508433 0.000000
0.443620 0.508433 0.000000
0.476177 0.508433 0.000000
0.508433 0.508433 0.000000
0.540383 0.508433 0.000000
0.572005 0.508433 0.000000
0.603289 0.508433 0.000000
0.634227 0.508433 0.000000
0.664801 0.508433 0.000000
0.695002 0.508433 0.000000
0.724820 0.508433 0.000000
0.754245 0.508433 0.000000
0.783265 0.508433 0.000000
0.811872 0.508433 0.000000
0.840065 0.508433 0.000000
0.867823 0.508433 0.000000
0.895152 0.508433 0.000000
0.922036 0.508433 0.000000
0.948480 0.508433 0.000000
0.974470 0.508433 0.000000
1.000000 0.508433 0.000000
0.000000 0.540383 0.000000
0.035057 0.540383 0.000000
0.070022 0.540383 0.000000
0.104869 0.540383 0.000000
0.139588 0.540383 0.000000
0.174165 0.540383 0.000000
0.208572 0.540383 0.000000
0.242811 0.540383 0.000000
0.276851 0.540383 0.000000
0.310686 0.540383 0.000000
0.344291 0.540383 0.000000
0.377662 0.540383 0.000000
0.410771 0.540383 0.000000
0.443620 0.540383 0.000000
0.476177 0.540383 0.000000
0.508433 0.540383 0.000000
0.540383 0.540383 0.000000
0.572005 0.540383 0.000000
0.603289 0.540383 0.000000
0.634227 0.540383 0.000000
0.664801 0.540383 0.000000
0.695002 0.540383 0.000000
0.724820 0.540383 0.000000
0.754245 0.540383 0.000000
0.783265 0.540383 0.000000
0.811872 0.540383 0.000000
0.840065 0.540383 0.000000
0.867823 0.540383 0.000000
0.895152 0.540383 0.000000
0.922036 0.540383 0.000000
0.948480 0.540383 0.000000
0.974470 0.540383 0.000000
1.000000 0.540383 0.000000
0.000000 0.572005 0.000000
0.035057 0.572005 0.000000
0.070022 0.572005 0.000000
0.104869 0.572005 0.000000
0.139588 0.572005 0.000000
0.174165 0.572005 0.000000
0.208572 0.572005 0.000000
0.242811 0.572005 0.000000
0.276851 0.572005 0.000000
0.310686 0.572005 0.000000
0.344291 0.572005 0.000000
0.377662 0.572005 0.000000
0.410771 0.572005 0.000000
0.443620 0.572005 0.000000
0.476177 0.572005 0.000000
0.508433 0.572005 0.000000
0.540383 0.572005 0.000000
0.572005 0.572005 0.000000
0.603289 0.572005 0.000000
0.634227 0.572005 0.000000
0.664801 0.572005 0.000000
0.695002 0.572005 0.000000
0.724820 0.572005 0.000000
0.754245 0.572005 0.000000
0.783265 0.572005 0.000000
0.811872 0.572005 0.000000
0.840065 0.572005 0.000000
0.867823 0.572005 0.000000
0.895152 0.572005 0.000000
0.922036 0.572005 0.000000
0.948480 0.572005 0.000000
0.974470 0.572005 0.000000
1.000000 0.572005 0.000000
0.000000 0.603289 0.000000
0.035057 0.603289 0.000000
0.070022 0.603289 0.000000
0.104869 0.603289 0.000000
0.139588 0.603289 0.000000
0.174165 0.603289 0.000000
0.208572 0.603289 0.000000
0.242811 0.603289 0.000000
0.276851 0.603289 0.000000
0.310686 0.603289 0.000000
0.344291 0.603289 0.000000
0.377662 0.603289 0.000000
0.410771 0.603289 0.000000
0.443620 0.603289 0.000000
0.476177 0.603289 0.000000
0.508433 0.603289 0.000000
0.540383 0.603289 0.000000
0.572005 0.603289 0.000000
0.603289 0.603289 0.000000
0.634227 0.603289 0.000000
0.664801 0.603289 0.000000
0.695002 0.603289 0.000000
0.724820 0.603289 0.000000
0.754245 0.603289 0.000000
0.783265 0.603289 0.000000
0.811872 0.603289 0.000000
0.840065 0.603289 0.000000
0.867823 0.603289 0.000000
0.895152 0.603289 0.000000
0.922036 0.603289 0.000000
0.948480 0.603289 0.000000
0.974470 0.603289 0.000000
1.000000 0.603289 0.000000
0.000000 0.634227 0.000000
0.035057 0.634227 0.000000
0.070022 0.634227 0.000000
0.104869 0.634227 0.000000
0.139588 0.634227 0.000000
0.174165 0.634227 0.000000
0.208572 0.634227 0.000000
0.242811 0.634227 0.000000
0.276851 0.634227 0.000000
0.310686 0.634227 0.000000
0.344291 0.634227 0.000000
0.377662 0.634227 0.000000
0.410771 0.634227 0.000000
0.443620 0.634227 0.000000
0.476177 0.634227 0.000000
0.508433 0.634227 0.000000
0.540383 0.634227 0.000000
0.572005 0.634227 0.000000
0.603289 0.634227 0.000000
0.634227 0.634227 0.000000
0.664801 0.634227 0.000000
0.695002 0.634227 0.000000
0.724820 0.634227 0.000000
0.754245 0.634227 0.000000
0.783265 0.634227 0.000000
0.811872 0.634227 0.000000
0.840065 0.634227 0.000000
0.867823 0.634227 0.000000
0.895152 0.634227 0.000000
0.922036 0.634227 0.000000
0.948480 0.634227 0.000000
0.974470 0.634227 0.000000
1.000000 0.634227 0.000000
0.000000 0.664801 0.000000
0.035057 0.664801 0.000000
0.070022 0.664801 0.000000
0.104869 0.664801 0.000000
0.139588 0.664801 0.000000
0.174165 0.664801 0.000000
0.208572 0.664801 0.000000
0.242811 0.664801 0.000000
0.276851 0.664801 0.000000
0.310686 0.664801 0.000000
0.344291 0.664801 0.000000
0.377662 0.664801 0.000000
0.410771 0.664801 0.000000
0.443620 0.664801 0.000000
0.476177 0.664801 0.000000
0.508433 0.664801 0.000000
0.540383 0.664801 0.000000
0.572005 0.664801 0.000000
0.603289 0.664801 0.000000
0.634227 0.664801 0.000000
0.664801 0.664801 0.000000
0.695002 0.664801 0.000000
0.724820 0.664801 0.000000
0.754245 0.664801 0.000000
0.783265 0.664801 0.000000
0.811872 0.664801 0.000000
0.840065 0.664801 0.000000
0.867823 0.664801 0.000000
0.895152 0.664801 0.000000
0.922036 0.664801 0.000000
0.948480 0.664801 0.000000
0.974470 0.664801 0.000000
1.000000 0.664801 0.000000
0.000000 0.695002 0.000000
0.035057 0.695002 0.000000
0.070022 0.695002 0.000000
0.104869 0.695002 0.000000
0.139588 0.695002 0.000000
0.174165 0.695002 0.000000
0.208572 0.695002 0.000000
0.242811 0.695002 0.000000
0.276851 0.695002 0.000000
0.310686 0.695002 0.000000
0.344291 0.695002 0.000000
0.377662 0.695002 0.000000
0.410771 0.695002 0.000000
0.443620 0.695002 0.000000
0.476177 0.695002 0.000000
0.508433 0.695002 0.000000
0.540383 0.695002 0.000000
0.572005 0.695002 0.000000
0.603289 0.695002 0.000000
0.634227 0.695002 0.000000
0.664801 0.695002 0.000000
0.695002 0.695002 0.000000
0.724820 0.695002 0.000000
0.754245 0.695002 0.000000
0.783265 0.695002 0.000000
0.811872 0.695002 0.000000
0.840065 0.695002 0.000000
0.867823 0.695002 0.000000
0.895152 0.695002 0.000000
0.922036 0.695002 0.000000
0.948480 0.695002 0.000000
0.974470 0.695002 0.000000
1.000000 0.695002 0.000000
0.000000 0.724820 0.000000
0.035057 0.724820 0.000000
0.070022 0.724820 0.000000
0.104869 0.724820 0.000000
0.139588 0.724820 0.000000
0.174165 0.724820 0.000000
0.208572 0.724820 0.000000
0.242811 0.724820 0.000000
0.276851 0.724820 0.000000
0.310686 0.724820 0.000000
0.344291 0.724820 0.000000
0.377662 0.724820 0.000000
0.410771 0.724820 0.000000
0.443620 0.724820 0.000000
0.476177 0.724820 0.000000
0.508433 0.724820 0.000000
0.540383 0.724820 0.000000
0.572005 0.724820 0.000000
0.603289 0.724820 0.000000
0.634227 0.724820 0.000000
0.664801 0.724820 0.000000
0.695002 0.724820 0.000000
0.724820 0.724820 0.000000
0.754245 0.724820 0.000000
0.783265 0.724820 0.000000
0.811872 0.724820 0.000000
0.840065 0.724820 0.000000
0.867823 0.724820 0.000000
0.895152 0.724820 0.000000
0.922036 0.724820 0.000000
0.948480 0.724820 0.000000
0.974470 0.724820 0.000000
1.000000 0.724820 0.000000
0.000000 0.754245 0.000000
0.035057 0.754245 0.000000
0.070022 0.754245 0.000000
0.104869 0.754245 0.000000
0.139588 0.754245 0.000000
0.174165 0.754245 0.000000
0.208572 0.754245 0.000000
0.242811 0.754245 0.000000
0.276851 0.754245 0.000000
0.310686 0.754245 0.000000
0.344291 0.754245 0.000000
0.377662 0.754245 0.000000
0.410771 0.754245 0.000000
0.443620 0.754245 0.000000
0.476177 0.754245 0.000000
0.508433 0.754245 0.000000
0.540383 0.754245 0.000000
0.572005 0.754245 0.000000
0.603289 0.754245 0.000000
0.634227 0.754245 0.000000
0.664801 0.754245 0.000000
0.695002 0.754245 0.000000
0.724820 0.754245 0.000000
0.754245 0.754245 0.000000
0.783265 0.754245 0.000000
0.811872 0.754245 0.000000
0.840065 0.754245 0.000000
0.867823 0.754245 0.000000
0.895152 0.754245 0.000000
0.922036 0.754245 0.000000
0.948480 0.754245 0.000000
0.974470 0.754245 0.000000
1.000000 0.754245 0.000000
0.000000 0.783265 0.000000
0.035057 0.783265 0.000000
0.070022 0.783265 0.000000
0.104869 0.783265 0.000000
0.139588 0.783265 0.000000
0.174165 0.783265 0.000000
0.208572 0.783265 0.000000
0.242811 0.783265 0.000000
0.276851 0.783265 0.000000
0.310686 0.783265 0.000000
0.344291 0.783265 0.000000
0.377662 0.783265 0.000000
0.410771 0.783265 0.000000
0.443620 0.783265 0.000000
0.476177 0.783265 0.000000
0.508433 0.783265 0.000000
0.540383 0.783265 0.000000
0.572005 0.783265 0.000000
0.603289 0.783265 0.000000
0.634227 0.783265 0.000000
0.664801 0.783265 0.000000
0.695002 0.783265 0.000000
0.724820 0.783265 0.000000
0.754245 0.783265 0.000000
0.783265 0.783265 0.000000
0.811872 0.783265 0.000000
0.840065 0.783265 0.000000
0.867823 0.783265 0.000000
0.895152 0.783265 0.000000
0.922036 0.783265 0.000000
0.948480 0.783265 0.000000
0.974470 0.783265 0.000000
1.000000 0.783265 0.000000
0.000000 0.811872 0.000000
0.035057 0.811872 0.000000
0.070022 0.811872 0.000000
0.104869 0.811872 0.000000
0.139588 0.811872 0.000000
0.174165 0.811872 0.000000
0.208572 0.811872 0.000000
0.242811 0.811872 0.000000
0.276851 0.811872 0.000000
0.310686 0.811872 0.000000
0.344291 0.811872 0.000000
0.377662 0.811872 0.000000
0.410771 0.811872 0.000000
0.443620 0.811872 0.000000
0.476177 0.811872 0.000000
0.508433 0.811872 0.000000
0.540383 0.811872 0.000000
0.572005 0.811872 0.000000
0.603289 0.811872 0.000000
0.634227 0.811872 0.000000
0.664801 0.811872 0.000000
0.695002 0.811872 0.000000
0.724820 0.811872 0.000000
0.754245 0.811872 0.000000
0.783265 0.811872 0.000000
0.811872 0.811872 0.000000
0.840065 0.811872 0.000000
0.867823 0.811872 0.000000
0.895152 0.811872 0.000000
0.922036 0.811872 0.000000
0.948480 0.811872 0.000000
0.974470 0.811872 0.000000
1.000000 0.811872 0.000000
0.000000 0.840065 0.000000
0.035057 0.840065 0.000000
0.070022 0.840065 0.000000
0.104869 0.840065 0.000000
0.139588 0.840065 0.000000
0.174165 0.840065 0.000000
0.208572 0.840065 0.000000
0.242811 0.840065 0.000000
0.276851 0.840065 0.000000
0.310686 0.840065 0.000000
0.344291 0.840065 0.000000
0.377662 0.840065 0.000000
0.410771 0.840065 0.000000
0.443620 0.840065 0.000000
0.476177 0.840065 0.000000
0.508433 0.840065 0.000000
0.540383 0.840065 0.000000
0.572005 0.840065 0.000000
0.603289 0.840065 0.000000
0.634227 0.840065 0.000000
0.664801 0.840065 0.000000
0.695002 0.840065 0.000000
0.724820 0.840065 0.000000
0.754245 0.840065 0.000000
0.783265 0.840065 0.000000
0.811872 0.840065 0.000000
0.840065 0.840065 0.000000
0.867823 0.840065 0.000000
