luts/kodak_trix_400.cube
TITLE Film LUT
LUT_3D_SIZE 5
DOMAIN_MIN 0.0 0.0 0.0
DOMAIN_MAX 1.0 1.0 1.0
0.000000 0.000000 0.000000
0.000000 0.000000 0.000000
0.019475 0.019475 0.019475
0.083932 0.083932 0.083932
0.140750 0.140750 0.140750
0.124155 0.124155 0.124155
0.198219 0.198219 0.198219
0.268630 0.268630 0.268630
0.333087 0.333087 0.333087
0.389905 0.389905 0.389905
0.361022 0.361022 0.361022
0.435086 0.435086 0.435086
0.505497 0.505497 0.505497
0.569954 0.569954 0.569954
0.626772 0.626772 0.626772
0.577860 0.577860 0.577860
0.651924 0.651924 0.651924
0.722335 0.722335 0.722335
0.786792 0.786792 0.786792
0.843610 0.843610 0.843610
0.769000 0.769000 0.769000
0.843064 0.843064 0.843064
0.913475 0.913475 0.913475
0.977932 0.977932 0.977932
1.000000 1.000000 1.000000
0.000000 0.000000 0.000000
0.000000 0.000000 0.000000
0.044627 0.044627 0.044627
0.109084 0.109084 0.109084
0.165902 0.165902 0.165902
0.149308 0.149308 0.149308
0.223371 0.223371 0.223371
0.293782 0.293782 0.293782
0.358239 0.358239 0.358239
0.415058 0.415058 0.415058
0.386175 0.386175 0.386175
0.460238 0.460238 0.460238
0.530649 0.530649 0.530649
0.595106 0.595106 0.595106
0.651925 0.651925 0.651925
0.603013 0.603013 0.603013
0.677076 0.677076 0.677076
0.747487 0.747487 0.747487
0.811944 0.811944 0.811944
0.868763 0.868763 0.868763
0.794152 0.794152 0.794152
0.868216 0.868216 0.868216
0.938627 0.938627 0.938627
1.000000 1.000000 1.000000
1.000000 1.000000 1.000000
0.000000 0.000000 0.000000
0.000000 0.000000 0.000000
0.068539 0.068539 0.068539
0.132996 0.132996 0.132996
0.189814 0.189814 0.189814
0.173219 0.173219 0.173219
0.247283 0.247283 0.247283
0.317694 0.317694 0.317694
0.382151 0.382151 0.382151
0.438969 0.438969 0.438969
0.410087 0.410087 0.410087
0.484150 0.484150 0.484150
0.554561 0.554561 0.554561
0.619018 0.619018 0.619018
0.675837 0.675837 0.675837
0.626924 0.626924 0.626924
0.700988 0.700988 0.700988
0.771399 0.771399 0.771399
0.835856 0.835856 0.835856
0.892674 0.892674 0.892674
0.818064 0.818064 0.818064
0.892128 0.892128 0.892128
0.962539 0.962539 0.962539
1.000000 1.000000 1.000000
1.000000 1.000000 1.000000
0.000000 0.000000 0.000000
0.020018 0.020018 0.020018
0.090429 0.090429 0.090429
0.154886 0.154886 0.154886
0.211704 0.211704 0.211704
0.195109 0.195109 0.195109
0.269173 0.269173 0.269173
0.339584 0.339584 0.339584
0.404041 0.404041 0.404041
0.460859 0.460859 0.460859
0.431976 0.431976 0.431976
0.506040 0.506040 0.506040
0.576451 0.576451 0.576451
0.640908 0.640908 0.640908
0.697726 0.697726 0.697726
0.648814 0.648814 0.648814
0.722878 0.722878 0.722878
0.793289 0.793289 0.793289
0.857746 0.857746 0.857746
0.914564 0.914564 0.914564
0.839954 0.839954 0.839954
0.914018 0.914018 0.914018
0.984429 0.984429 0.984429
1.000000 1.000000 1.000000
1.000000 1.000000 1.000000
0.000000 0.000000 0.000000
0.039314 0.039314 0.039314
0.109725 0.109725 0.109725
0.174182 0.174182 0.174182
0.231000 0.231000 0.231000
0.214405 0.214405 0.214405
0.288469 0.288469 0.288469
0.358880 0.358880 0.358880
0.423337 0.423337 0.423337
0.480155 0.480155 0.480155
0.451272 0.451272 0.451272
0.525336 0.525336 0.525336
0.595747 0.595747 0.595747
0.660204 0.660204 0.660204
0.717022 0.717022 0.717022
0.668110 0.668110 0.668110
0.742174 0.742174 0.742174
0.812585 0.812585 0.812585
0.877042 0.877042 0.877042
0.933860 0.933860 0.933860
0.859250 0.859250 0.859250
0.933314 0.933314 0.933314
1.000000 1.000000 1.000000
1.000000 1.000000 1.000000
1.000000 1.000000 1.000000
