luts/KODAK FPE 05.cube
TITLE "Generated by Resolve"
LUT_3D_SIZE 33
0.020798 0.0303807 0.0381323
0.0261692 0.0332647 0.0402838
0.0368048 0.0363622 0.0416419
0.0584268 0.040177 0.0422675
0.084947 0.0459297 0.0424506
0.108934 0.052842 0.0433509
0.136309 0.0582589 0.0429084
0.167895 0.0627909 0.0397955
0.200961 0.0665599 0.0351568
0.234913 0.0702983 0.0306096
0.268833 0.073579 0.0276493
0.303304 0.0763561 0.0220493
0.337423 0.0791485 0.0176852
0.371206 0.0817121 0.0171511
0.403494 0.0838788 0.0170291
0.43418 0.0855421 0.0176394
0.464302 0.0865492 0.0194858
0.494545 0.0870375 0.024155
0.524483 0.0876631 0.0293736
0.549096 0.0923018 0.030457
0.57322 0.0975509 0.0317845
0.596567 0.102754 0.0328374
0.618494 0.108141 0.034165
0.639597 0.114 0.0355993
0.658732 0.119982 0.0376745
0.676921 0.126009 0.0396582
0.694255 0.132448 0.0423743
0.710735 0.138415 0.0458686
0.726497 0.144427 0.0498207
0.741634 0.150195 0.0558175
0.755688 0.155367 0.0631571
0.769146 0.159716 0.0730449
0.781704 0.163684 0.0842603
0.0231022 0.0387427 0.0439002
0.030518 0.0416266 0.0455787
0.0426642 0.0449989 0.0469062
0.063447 0.0486152 0.0473793
0.0884871 0.0540475 0.0473793
0.112154 0.0607614 0.0480201
0.140383 0.0665599 0.0473182
0.173129 0.0712139 0.0442664
0.20708 0.075288 0.0390173
0.242115 0.0793622 0.0335241
0.277028 0.0830549 0.0298009
0.312184 0.0859236 0.023331
0.346929 0.0891585 0.0184329
0.38117 0.092134 0.0173495
0.413794 0.0948043 0.0170748
0.444556 0.0974899 0.0177157
0.473823 0.100282 0.018555
0.501015 0.102663 0.0188602
0.527504 0.105287 0.0203555
0.556161 0.103212 0.0259251
0.582956 0.102144 0.0300755
0.606638 0.102419 0.0314641
0.628275 0.107012 0.0323949
0.648981 0.112352 0.0334173
0.667491 0.117739 0.0349126
0.684916 0.123186 0.0362249
0.701381 0.128954 0.0383764
0.717464 0.134752 0.0417792
0.733043 0.140841 0.0457313
0.747982 0.146639 0.0517586
0.761822 0.151873 0.0592355
0.775036 0.156252 0.0692149
0.78735 0.160327 0.0805066
0.0223239 0.0496834 0.0502022
0.0307622 0.0522927 0.0517281
0.0447852 0.0558938 0.0530861
0.0674907 0.0602426 0.0536049
0.0907454 0.0659953 0.0536202
0.113649 0.0721141 0.0535897
0.143084 0.0778973 0.0520485
0.176486 0.0824903 0.0486458
0.211444 0.0868696 0.0435798
0.247303 0.0910506 0.0377966
0.283055 0.0948196 0.0332647
0.319097 0.0981918 0.02533
0.354238 0.10132 0.020264
0.389242 0.105043 0.0179751
0.422141 0.107897 0.0174563
0.453285 0.11136 0.0179751
0.482506 0.114458 0.0189059
0.509758 0.117784 0.0191196
0.535882 0.120577 0.0191348
0.561318 0.123232 0.0212558
0.586389 0.125566 0.0234379
0.612909 0.123674 0.0280919
0.636316 0.12462 0.0310521
0.658366 0.125399 0.0336614
0.67863 0.128695 0.0369268
0.696498 0.132357 0.038941
0.71252 0.136858 0.0409705
0.727962 0.142077 0.044007
0.742687 0.14728 0.0471199
0.756634 0.152239 0.0520485
0.769436 0.156603 0.0587625
0.781506 0.160403 0.0677806
0.792294 0.166751 0.0775464
0.0166171 0.0668193 0.0579538
0.027451 0.0688182 0.0586709
0.0428473 0.0715801 0.0597238
0.0684825 0.0759899 0.0601968
0.0933852 0.0825055 0.0610513
0.117571 0.088838 0.0603799
0.148226 0.0942702 0.0575418
0.183612 0.0987259 0.0524147
0.219257 0.103075 0.0471962
0.254612 0.1075 0.0409705
0.289845 0.111696 0.0360876
0.326009 0.115877 0.0257267
0.361364 0.11928 0.0206149
0.396185 0.122866 0.0191196
0.429358 0.126085 0.0184939
0.460502 0.129442 0.0189059
0.490028 0.133074 0.0193484
0.517235 0.136614 0.0194553
0.543236 0.140368 0.0191196
0.568215 0.143755 0.0192416
0.592538 0.14696 0.0199741
0.616342 0.150195 0.0214389
0.638727 0.153216 0.0236973
0.660182 0.15613 0.0260166
0.681682 0.157427 0.0303349
0.700496 0.159411 0.0340124
0.717342 0.161563 0.0370031
0.732464 0.165774 0.0400244
0.747372 0.170428 0.0432746
0.761105 0.175204 0.0476387
0.773617 0.180179 0.054078
0.785077 0.18529 0.0628672
0.793896 0.196735 0.070161
0.016907 0.0857404 0.0673228
0.0206149 0.0879683 0.0679332
0.0425879 0.0895552 0.067628
0.0697642 0.0929427 0.0676738
0.0967269 0.099855 0.0685435
0.122072 0.106859 0.0683757
0.153674 0.112169 0.0647898
0.190387 0.116518 0.0596628
0.228977 0.121202 0.0529335
0.266453 0.126284 0.0459449
0.302007 0.131044 0.0397192
0.33724 0.135546 0.0281682
0.371664 0.139315 0.0218662
0.405585 0.142779 0.0205386
0.438422 0.146075 0.0199893
0.469688 0.149523 0.0200656
0.499245 0.153353 0.0198062
0.52636 0.157076 0.0193027
0.552148 0.1608 0.0189975
0.577081 0.164401 0.0187533
0.601389 0.168002 0.0187381
0.624872 0.171359 0.0195773
0.646906 0.175265 0.02121
0.667918 0.17911 0.0225376
0.686702 0.183444 0.0244144
0.704311 0.187793 0.0265049
0.720851 0.191989 0.0291142
0.736477 0.196155 0.0322271
0.751186 0.200687 0.035462
0.764736 0.2056 0.0391699
0.777005 0.211124 0.0452888
0.788006 0.216831 0.0538491
0.797574 0.22472 0.062089
0.0196078 0.10544 0.0768902
0.0200809 0.107164 0.0768444
0.0344549 0.110033 0.0776379
0.0694285 0.11165 0.076112
0.0986954 0.117708 0.0763561
0.125963 0.12517 0.0766461
0.158602 0.131121 0.0738079
0.196612 0.135851 0.0680705
0.236149 0.140795 0.0610056
0.275868 0.145861 0.0531472
0.314412 0.151263 0.0443275
0.350835 0.156451 0.0318761
0.385565 0.160784 0.024506
0.41857 0.164492 0.0224918
0.450599 0.167803 0.0218051
0.481575 0.171374 0.0205234
0.510643 0.175113 0.019852
0.537316 0.17879 0.0198215
0.563195 0.182422 0.0192569
0.587839 0.186206 0.0189059
0.611765 0.189761 0.0187533
0.635065 0.193378 0.0189059
0.65716 0.197223 0.0193942
0.67808 0.201312 0.0206607
0.696712 0.205661 0.0219883
0.714153 0.209995 0.023621
0.730571 0.214511 0.0260166
0.746014 0.218921 0.0281682
0.760571 0.223621 0.0309148
0.774075 0.228458 0.0350805
0.786267 0.233539 0.0406348
0.797528 0.239109 0.0489662
0.807187 0.246952 0.057908
0.0204166 0.127779 0.0853285
0.0202487 0.129107 0.0845655
0.030808 0.132891 0.0859388
0.0626078 0.134859 0.0844129
0.0959945 0.139376 0.0833295
0.125978 0.14696 0.0831464
0.161379 0.153582 0.0807813
0.200763 0.159152 0.075288
0.241169 0.164431 0.0675975
0.281987 0.169772 0.0568399
0.321553 0.175357 0.0438087
0.360632 0.181155 0.033051
0.398184 0.186358 0.026688
0.431632 0.19028 0.0243687
0.46453 0.194095 0.0230106
0.494759 0.197681 0.0224918
0.523186 0.201389 0.0217136
0.549432 0.205051 0.0208743
0.574884 0.208911 0.0200046
0.598932 0.212711 0.018967
0.622522 0.216358 0.0183719
0.645563 0.219776 0.0181277
0.667109 0.223484 0.018204
0.687694 0.227436 0.0182345
0.706401 0.231876 0.0179904
0.723827 0.236179 0.0196841
0.740108 0.240558 0.0218662
0.755474 0.244877 0.0243229
0.770138 0.249622 0.0268254
0.783734 0.254505 0.0306554
0.795956 0.259464 0.0354162
0.807279 0.26508 0.0433967
0.81706 0.272023 0.0540322
0.021149 0.152972 0.0928511
0.0203098 0.154269 0.091371
0.0266117 0.159014 0.092958
0.0487526 0.162707 0.0922866
0.0876478 0.166171 0.0898146
0.122423 0.172778 0.0881208
0.161059 0.179767 0.0847944
0.203296 0.18584 0.0788891
0.244587 0.191699 0.0686198
0.286305 0.197513 0.0560159
0.327291 0.203586 0.0405737
0.366598 0.20885 0.0341344
0.404456 0.214221 0.028687
0.440345 0.219074 0.0269627
0.475456 0.223667 0.025452
0.506477 0.227573 0.0236362
0.535775 0.23151 0.0225376
0.56199 0.235218 0.0220188
0.586892 0.239124 0.0206912
0.610651 0.242832 0.019379
0.63386 0.246281 0.0192721
0.656092 0.249714 0.018677
0.67718 0.253269 0.0180667
0.697658 0.257038 0.017731
0.715969 0.261295 0.0174716
0.733196 0.265492 0.0175021
0.749554 0.26978 0.0179599
0.764935 0.274174 0.0189364
0.779599 0.278614 0.0215305
0.793164 0.283299 0.0246281
0.805463 0.288167 0.0290837
0.816983 0.29337 0.0366827
0.827039 0.300298 0.047837
0.0202945 0.179446 0.0998245
0.0187228 0.180682 0.0975967
0.0223239 0.186007 0.0989395
0.0363775 0.191287 0.0990005
0.0742504 0.194934 0.0960403
0.116411 0.200488 0.0929274
0.158145 0.207065 0.0879072
0.203387 0.213199 0.079881
0.247959 0.220157 0.066392
0.290013 0.226535 0.0540169
0.331395 0.233158 0.0394141
0.371588 0.238697 0.032929
0.410086 0.243931 0.0300908
0.446647 0.248798 0.0283513
0.482109 0.253483 0.0264591
0.515404 0.257877 0.0256504
0.546029 0.261799 0.024918
0.5729 0.265675 0.0236057
0.598688 0.269429 0.0223697
0.62237 0.273045 0.0214084
0.645502 0.276585 0.0205844
0.667781 0.280079 0.0200504
0.688548 0.283589 0.0191653
0.708431 0.287312 0.0182803
0.726665 0.291356 0.0175631
0.743786 0.295552 0.0166934
0.759793 0.299794 0.0163272
0.775158 0.303746 0.0173037
0.789807 0.308095 0.0179446
0.803449 0.312596 0.0192721
0.815839 0.317464 0.0226444
0.827558 0.32253 0.0304417
0.837629 0.329305 0.0411078
0.0199741 0.206287 0.106172
0.0176089 0.207416 0.103182
0.020264 0.213031 0.103975
0.0267491 0.219425 0.104402
0.0589303 0.22443 0.101732
0.104891 0.229007 0.0969558
0.153582 0.235142 0.0901503
0.202075 0.241382 0.0782177
0.249271 0.24828 0.0654154
0.293675 0.255726 0.0513313
0.334936 0.262577 0.0409857
0.375418 0.268254 0.0352178
0.41445 0.273625 0.0326848
0.452247 0.278599 0.0303655
0.488014 0.283284 0.028397
0.521706 0.287648 0.0267796
0.553017 0.291798 0.0255131
0.581949 0.295964 0.0247501
0.608621 0.299962 0.0237125
0.633036 0.303517 0.0223545
0.656779 0.306996 0.0223239
0.679026 0.310369 0.0214389
0.700191 0.313924 0.0209354
0.72015 0.317464 0.019791
0.737957 0.321355 0.0186618
0.754818 0.325322 0.0181277
0.77084 0.329305 0.0179599
0.786099 0.333486 0.0173953
0.800763 0.33753 0.0173037
0.814374 0.342123 0.0179141
0.826825 0.346761 0.0208896
0.838682 0.351675 0.0256199
0.848539 0.358221 0.0380407
0.0214389 0.233249 0.111757
0.018677 0.234424 0.108248
0.0214847 0.240085 0.108385
0.0263066 0.246662 0.108232
0.0408637 0.253925 0.106935
0.0912642 0.257801 0.100237
0.146944 0.26331 0.0914015
0.199786 0.269932 0.0744335
0.250156 0.27686 0.0602579
0.295811 0.284276 0.0495766
0.338384 0.291569 0.0426642
0.379019 0.297765 0.0370184
0.41854 0.30338 0.0331884
0.45658 0.308476 0.030808
0.493278 0.313237 0.0284123
0.527626 0.317723 0.0276799
0.559396 0.32195 0.0265202
0.588785 0.326024 0.0255589
0.616602 0.330114 0.0242161
0.642527 0.333837 0.0244144
0.666362 0.337179 0.0237583
0.689464 0.340414 0.0239567
0.710781 0.343847 0.02327
0.731106 0.347372 0.022385
0.74934 0.351247 0.0214084
0.766064 0.354971 0.0196841
0.781857 0.358846 0.0188754
0.797147 0.362737 0.0183108
0.81181 0.367086 0.0175326
0.825681 0.371511 0.0178531
0.838239 0.376333 0.0182803
0.850263 0.381476 0.0236057
0.859617 0.387274 0.035462
0.0233921 0.260624 0.116243
0.0204471 0.262135 0.112108
0.0223392 0.267597 0.111254
0.0261082 0.274449 0.110094
0.033402 0.282902 0.108492
0.0661784 0.291859 0.105364
0.139223 0.29247 0.0859846
0.196567 0.299321 0.0723888
0.248356 0.305898 0.0599985
0.296834 0.313085 0.0501411
0.339986 0.320378 0.0432136
0.381979 0.327367 0.0395819
0.421515 0.333211 0.0359808
0.459754 0.338338 0.0326696
0.496895 0.343191 0.0304723
0.532067 0.347799 0.0284733
0.565118 0.352316 0.0272526
0.59472 0.356466 0.026276
0.622858 0.36051 0.0251469
0.649134 0.364279 0.0241703
0.674311 0.367773 0.0242161
0.697963 0.37113 0.0238499
0.719921 0.374548 0.0242466
0.740658 0.378012 0.0241703
0.759045 0.381811 0.0233463
0.776318 0.385718 0.0235142
0.792111 0.389425 0.0220798
0.80737 0.393286 0.0211795
0.822187 0.397498 0.0199893
0.836194 0.40238 0.0184482
0.849104 0.407248 0.0193942
0.861402 0.412467 0.0224308
0.870176 0.417411 0.0310216
0.024979 0.287877 0.120073
0.0217899 0.289677 0.115312
0.0227665 0.29514 0.113222
0.0258183 0.30219 0.110903
0.0326696 0.310643 0.106477
0.0523079 0.322606 0.102785
0.1252 0.323857 0.08365
0.191592 0.32813 0.0703136
0.245792 0.334997 0.0594492
0.295979 0.341695 0.0503243
0.341115 0.348943 0.0447395
0.38294 0.355993 0.0413367
0.423789 0.362432 0.0383001
0.462531 0.367819 0.0347753
0.500252 0.372808 0.0317082
0.535973 0.377615 0.030396
0.569421 0.382269 0.0289006
0.600412 0.386984 0.0272526
0.628702 0.39118 0.0259556
0.655146 0.395041 0.026154
0.680613 0.398703 0.0263371
0.705104 0.402289 0.0261387
0.727825 0.405936 0.0253758
0.748898 0.409277 0.0254368
0.767727 0.412833 0.0262608
0.785183 0.416663 0.025742
0.801724 0.4206 0.0259403
0.817166 0.424399 0.0245365
0.832029 0.428595 0.0229496
0.846296 0.433433 0.0210575
0.859495 0.438727 0.0193027
0.872023 0.444038 0.0205234
0.880415 0.448203 0.0298161
0.0263828 0.314992 0.123354
0.0229343 0.317082 0.117861
0.0231479 0.322438 0.114687
0.0267338 0.329671 0.111162
0.0345617 0.338308 0.104494
0.0486152 0.348806 0.0923629
0.112963 0.35494 0.0815747
0.183124 0.357733 0.0713054
0.241505 0.3635 0.0618296
0.293141 0.370321 0.0524147
0.339849 0.377417 0.0451057
0.383444 0.384665 0.0426032
0.424323 0.391318 0.0406348
0.464683 0.397391 0.0381018
0.50309 0.402609 0.0351415
0.539345 0.407614 0.0329137
0.573251 0.412497 0.031342
0.604379 0.41738 0.0297551
0.633982 0.422095 0.0283665
0.660746 0.426062 0.0270085
0.686427 0.429801 0.026566
0.711147 0.433509 0.026276
0.734325 0.437263 0.0257267
0.756191 0.440986 0.0256504
0.775174 0.444465 0.0263523
0.79321 0.448112 0.0274815
0.809979 0.451911 0.0269474
0.826093 0.456046 0.0274357
0.84126 0.460212 0.0256657
0.855772 0.465248 0.0240024
0.869245 0.470634 0.0220951
0.882155 0.476219 0.0228122
0.890135 0.479713 0.0285039
0.0292668 0.341451 0.125811
0.025803 0.343908 0.119463
0.0259403 0.349187 0.114397
0.0288548 0.356802 0.107607
0.0344854 0.366125 0.0974746
0.0483406 0.376913 0.0881361
0.0939345 0.386191 0.084596
0.177707 0.386389 0.0724804
0.237369 0.391745 0.0637827
0.28957 0.398733 0.0546273
0.337545 0.405783 0.0487984
0.382376 0.413077 0.0449683
0.424491 0.420035 0.0425422
0.464851 0.426291 0.0411231
0.505028 0.432197 0.0388647
0.542107 0.43743 0.0363165
0.576608 0.442557 0.033814
0.608209 0.447639 0.030518
0.637888 0.452445 0.0300298
0.665797 0.456855 0.0296178
0.69192 0.460761 0.0289616
0.716777 0.464576 0.0283665
0.740063 0.468391 0.0275731
0.762234 0.472175 0.0269169
0.782162 0.476097 0.0275731
0.800473 0.479606 0.0282444
0.817823 0.483284 0.0291447
0.83418 0.487297 0.0293584
0.850004 0.49192 0.0293889
0.864759 0.49691 0.0278325
0.878523 0.502419 0.0257877
0.891859 0.508385 0.0242618
0.899489 0.511147 0.0281376
0.0310674 0.3673 0.128435
0.0273899 0.370077 0.121172
0.0267948 0.375357 0.113252
0.0291295 0.383261 0.105531
0.037644 0.393286 0.0923476
0.0490578 0.404196 0.0872816
0.0821241 0.414878 0.0869459
0.165316 0.415717 0.0757153
0.232364 0.419135 0.0652171
0.284688 0.426001 0.0569619
0.334157 0.433402 0.0505837
0.379721 0.440574 0.0471046
0.423239 0.447608 0.0445258
0.464988 0.4542 0.0422827
0.505226 0.460365 0.0419013
0.544121 0.466224 0.0404517
0.579644 0.471717 0.0380865
0.611704 0.477012 0.035523
0.641733 0.482063 0.0337987
0.669749 0.48661 0.0324559
0.696941 0.490959 0.0313115
0.722316 0.494972 0.0304723
0.745754 0.498878 0.0299687
0.768093 0.502754 0.0298161
0.788144 0.506691 0.0296178
0.807248 0.510689 0.0297093
0.824964 0.51429 0.030869
0.841764 0.518074 0.032639
0.857939 0.522576 0.0323644
0.87335 0.527871 0.0318608
0.887388 0.533425 0.0305791
0.900908 0.539574 0.0288396
0.90811 0.542062 0.0311284
0.0338903 0.392325 0.131609
0.0301976 0.395483 0.122866
0.0293278 0.400397 0.112444
0.0329595 0.409293 0.0998703
0.0381781 0.419471 0.0918135
0.0485084 0.430167 0.08925
0.0766461 0.440131 0.0876326
0.156344 0.44271 0.0778668
0.226337 0.44596 0.0673228
0.279301 0.452293 0.0595102
0.329122 0.459815 0.0554055
0.377142 0.467292 0.0515602
0.421393 0.474342 0.0482032
0.464134 0.481132 0.0465858
0.505608 0.487648 0.0462348
0.544778 0.493797 0.044892
0.58201 0.499886 0.042649
0.615061 0.505425 0.0400244
0.645426 0.510689 0.0379644
0.673701 0.515419 0.0369268
0.70106 0.519951 0.0356451
0.727245 0.524285 0.0333715
0.751263 0.528389 0.0327611
0.77377 0.532296 0.0330663
0.794079 0.536248 0.033341
0.813413 0.540169 0.0329595
0.831876 0.544076 0.033402
0.849042 0.547738 0.0341039
0.86566 0.55201 0.0354467
0.881468 0.557321 0.0354314
0.896071 0.563134 0.0356603
0.909468 0.568963 0.0341192
0.915618 0.571923 0.0349126
0.0366217 0.416403 0.135561
0.0327306 0.419806 0.125292
0.0311894 0.424826 0.111299
0.0341802 0.434089 0.0999008
0.0392004 0.444221 0.0951247
0.0493935 0.45481 0.0939193
0.0721447 0.464988 0.0913252
0.145068 0.468238 0.0815442
0.21944 0.471275 0.0707561
0.274662 0.477302 0.0619974
0.323796 0.48481 0.0586252
0.372396 0.492439 0.0548104
0.419242 0.499718 0.0521401
0.462806 0.506447 0.0495613
0.505241 0.513207 0.0485695
0.545464 0.519814 0.0485237
0.58291 0.52607 0.0469673
0.617426 0.532097 0.0449836
0.648753 0.537606 0.0437934
0.677241 0.542489 0.04271
0.704936 0.547219 0.0415351
0.731334 0.551629 0.0400397
0.756085 0.555978 0.0384833
0.779232 0.560082 0.0381628
0.79968 0.564065 0.0377661
0.819196 0.568002 0.0372931
0.83798 0.571923 0.0373693
0.855894 0.575906 0.0387579
0.872923 0.580026 0.039765
0.889021 0.585229 0.0394446
0.903166 0.591455 0.0421149
0.915648 0.596857 0.0407721
0.921386 0.600092 0.0403449
0.0397498 0.439872 0.138979
0.0357519 0.443488 0.127062
0.0344396 0.448798 0.107561
0.0373541 0.458183 0.100664
0.0401007 0.467964 0.099733
0.0472572 0.478691 0.0982528
0.0673228 0.489128 0.0957809
0.136492 0.49305 0.0860761
0.207874 0.496437 0.0757458
0.268818 0.501396 0.0657664
0.319158 0.508782 0.0614481
0.367376 0.516442 0.059617
0.414954 0.523781 0.0567025
0.460868 0.530861 0.0543832
0.50396 0.537682 0.0537728
0.545052 0.544518 0.0536202
0.583429 0.551125 0.0524605
0.618204 0.557275 0.0510414
0.651072 0.563226 0.0501869
0.680629 0.568414 0.0487068
0.708537 0.573327 0.0468757
0.735241 0.577905 0.0456703
0.760235 0.582361 0.043946
0.783978 0.586709 0.0437324
0.805173 0.590982 0.0437476
0.824887 0.594965 0.0430152
0.843915 0.598886 0.0415808
0.862196 0.602853 0.0422217
0.879988 0.607141 0.0433356
0.89659 0.612161 0.0446784
0.910216 0.618463 0.0467384
0.920836 0.623926 0.0471351
0.926024 0.626902 0.0475776
0.0425879 0.462684 0.142443
0.0390021 0.467384 0.125505
0.035996 0.472175 0.110399
0.0376898 0.481163 0.106828
0.0398413 0.491096 0.105745
0.0462806 0.501945 0.104143
0.0612345 0.513375 0.10248
0.115404 0.520806 0.0964218
0.19678 0.520897 0.0813001
0.262181 0.525048 0.0706645
0.313619 0.532265 0.0651102
0.362478 0.540017 0.0635691
0.410147 0.547463 0.0616465
0.457145 0.554635 0.0598764
0.502495 0.561837 0.0585794
0.544091 0.568719 0.0574502
0.583062 0.575555 0.0577554
0.618555 0.58204 0.0567178
0.651789 0.588159 0.0549935
0.68278 0.59382 0.0551308
0.71162 0.598978 0.0538796
0.738598 0.603723 0.0525368
0.763729 0.608316 0.0513924
0.787625 0.612726 0.05066
0.809461 0.617182 0.0510872
0.829877 0.621347 0.0514992
0.84918 0.625315 0.0504311
0.86775 0.629374 0.0495918
0.885588 0.633799 0.0500649
0.900557 0.63859 0.0510719
0.913527 0.644114 0.0534524
0.924605 0.649973 0.0562753
0.930236 0.652735 0.0575875
0.0452277 0.485328 0.144076
0.0417639 0.49073 0.125368
0.0378424 0.495537 0.114061
0.0380713 0.503838 0.112917
0.0412451 0.513878 0.111971
0.0449989 0.524742 0.110613
0.054551 0.536629 0.109255
0.102281 0.545159 0.104067
0.179797 0.54699 0.0911421
0.254063 0.548287 0.0768139
0.307317 0.555444 0.0698863
0.357046 0.563073 0.0679484
0.405295 0.570642 0.0665599
0.452491 0.578012 0.0645151
0.498909 0.585306 0.0638743
0.542657 0.592554 0.0633707
0.581765 0.599405 0.062562
0.617899 0.606119 0.0623484
0.652018 0.612512 0.0620432
0.683482 0.618341 0.0615702
0.713695 0.62385 0.0609445
0.741512 0.628794 0.0602426
0.766873 0.633524 0.06009
0.791058 0.638117 0.0599985
0.813245 0.64271 0.06009
0.834363 0.647105 0.0603647
0.854109 0.651316 0.0601511
0.872724 0.655344 0.0597391
0.890196 0.659709 0.0602121
0.904295 0.664408 0.0606394
0.916808 0.669261 0.0612039
0.928176 0.674998 0.0638437
0.934218 0.677821 0.0672465
0.0496529 0.508095 0.142397
0.0455482 0.513649 0.127504
0.0409705 0.51809 0.120287
0.0400702 0.525917 0.118639
0.0404822 0.53611 0.117647
0.0432441 0.547158 0.116411
0.0507668 0.558862 0.115068
0.0893873 0.568154 0.110689
0.165042 0.570153 0.098146
0.244297 0.571374 0.0842756
0.30045 0.57821 0.0753185
0.351278 0.585672 0.0740063
0.399969 0.59324 0.0721294
0.4477 0.600671 0.0701457
0.49453 0.608057 0.0694896
0.53904 0.61532 0.0691386
0.580194 0.622583 0.0690013
0.616785 0.629389 0.0683146
0.651438 0.636072 0.0682536
0.683665 0.642161 0.0686046
0.714336 0.647852 0.068986
0.743175 0.653132 0.069337
0.769451 0.658106 0.0700084
0.794034 0.662837 0.0691844
0.816678 0.667628 0.0690623
0.83827 0.672145 0.0697642
0.858793 0.676539 0.0706035
0.877379 0.680751 0.0699016
0.892805 0.684779 0.0693828
0.906905 0.68893 0.0699168
0.919905 0.69366 0.0706798
0.931823 0.699275 0.0725414
0.938338 0.702235 0.0766918
0.0528115 0.530129 0.14287
0.0478065 0.535439 0.132631
0.0427558 0.539849 0.12694
0.0409857 0.547173 0.124559
0.041474 0.557473 0.123629
0.0435798 0.568551 0.122469
0.0497597 0.580118 0.121157
0.0803693 0.588724 0.116457
0.151888 0.592386 0.105898
0.233967 0.593362 0.0914168
0.293034 0.599878 0.0828107
0.345113 0.60708 0.079118
0.394827 0.614664 0.077821
0.442954 0.622034 0.0766461
0.490028 0.62948 0.075639
0.534905 0.636805 0.0750591
0.577157 0.64416 0.074464
0.615518 0.651362 0.0753033
0.650523 0.658183 0.075349
0.683436 0.664454 0.0749218
0.714626 0.670359 0.0759289
0.743908 0.675792 0.077409
0.771252 0.681071 0.0780957
0.797024 0.686046 0.0781872
0.820172 0.690974 0.0783246
0.842145 0.695735 0.079469
0.862104 0.700236 0.0802014
0.880674 0.70454 0.0800641
0.895598 0.708339 0.0796521
0.90985 0.712291 0.0802777
0.923369 0.716823 0.0807202
0.93579 0.722469 0.0823072
0.942794 0.72578 0.0856794
0.0568093 0.551766 0.144305
0.0509346 0.556771 0.138369
0.0457008 0.561273 0.132998
0.0430457 0.568017 0.12987
0.0438239 0.578393 0.129
0.0450599 0.589563 0.127779
0.0473335 0.601068 0.126665
0.0772564 0.609201 0.121874
0.14255 0.612451 0.111131
0.221286 0.614939 0.0991379
0.284123 0.621088 0.0901045
0.338491 0.628 0.0849317
0.389334 0.635477 0.0838788
0.437873 0.642817 0.0824598
0.484977 0.650202 0.0818952
0.530358 0.657618 0.0814069
0.573007 0.665003 0.0809644
0.612116 0.672297 0.0810712
0.649042 0.679469 0.081651
0.682216 0.685802 0.0824903
0.713863 0.691859 0.0831617
0.743923 0.69752 0.0836042
0.771954 0.703029 0.0854505
0.799054 0.7084 0.0869459
0.823438 0.713619 0.0875715
0.845777 0.718593 0.0881666
0.866041 0.723262 0.0894331
0.882994 0.727596 0.089601
0.898558 0.731273 0.090013
0.9131 0.735195 0.0902876
0.927031 0.739605 0.0908827
0.939879 0.745083 0.0924239
0.947448 0.748882 0.0959793
0.0608682 0.571939 0.150988
0.0548409 0.577111 0.144945
0.049485 0.581674 0.139437
0.0457923 0.58764 0.135439
0.0452277 0.598093 0.134539
0.0450446 0.609262 0.133455
0.0477913 0.620798 0.13257
0.0729076 0.629328 0.12842
0.131289 0.632547 0.117968
0.207187 0.634852 0.106538
0.269398 0.64062 0.0976577
0.328573 0.64741 0.0906081
0.381491 0.654551 0.0894636
0.430838 0.66183 0.0884413
0.478447 0.669184 0.0876783
0.524239 0.6766 0.0869612
0.567269 0.684077 0.0866255
0.606912 0.691386 0.087068
0.644602 0.69868 0.087541
0.679545 0.705348 0.0881819
0.711925 0.711543 0.0894484
0.742657 0.717433 0.0906233
0.771771 0.723171 0.0921492
0.799847 0.728832 0.0939345
0.825696 0.734401 0.0959029
0.848463 0.739803 0.0977035
0.86865 0.74461 0.0991073
0.885527 0.748791 0.0999161
0.902022 0.752728 0.100267
0.91722 0.756664 0.100465
0.931472 0.760998 0.101045
0.944549 0.766384 0.102464
0.953063 0.770459 0.10515
0.064744 0.591836 0.157259
0.0585794 0.597162 0.15111
0.0530251 0.601816 0.145602
0.0481117 0.606928 0.140795
0.047303 0.617365 0.139925
0.0467842 0.628534 0.138872
0.0471351 0.640024 0.138033
0.0690929 0.648676 0.13431
0.123384 0.652079 0.124453
0.191653 0.654185 0.112947
0.24976 0.659586 0.10428
0.310826 0.666056 0.0975967
0.367605 0.672724 0.0943313
0.42002 0.679973 0.0937972
0.469474 0.687373 0.0937057
0.515511 0.694774 0.0934768
0.559014 0.702281 0.0931563
0.599466 0.709682 0.093492
0.637507 0.716976 0.0942092
0.67303 0.723751 0.0950942
0.707332 0.730297 0.0967575
0.739727 0.736477 0.0986496
0.769924 0.742489 0.100267
0.799115 0.748363 0.10248
0.826169 0.754238 0.105058
0.849332 0.75996 0.107393
0.870726 0.765179 0.108888
0.888197 0.769436 0.109667
0.905241 0.773541 0.110124
0.921431 0.777493 0.11075
0.936065 0.781689 0.111131
0.949508 0.786969 0.112184
0.958587 0.791424 0.114931
0.0691234 0.611948 0.164416
0.0628672 0.61738 0.15816
0.0572366 0.622065 0.15259
0.0517739 0.626688 0.147234
0.050248 0.636637 0.145876
