luts/kodak_portra_160.cube
TITLE Film LUT
LUT_3D_SIZE 33
DOMAIN_MIN 0.0 0.0 0.0
DOMAIN_MAX 1.0 1.0 1.0
0.025000 0.025000 0.025000
0.057869 0.028944 0.025000
0.090629 0.032875 0.025000
0.123269 0.036792 0.025000
0.155778 0.040693 0.025000
0.188155 0.044579 0.025000
0.220371 0.048445 0.025000
0.252434 0.052292 0.025000
0.284320 0.056118 0.025000
0.316027 0.059923 0.025000
0.347546 0.063706 0.025000
0.378860 0.067463 0.025000
0.409967 0.071196 0.025000
0.440851 0.074902 0.025000
0.471507 0.078581 0.025000
0.501928 0.082231 0.025000
0.532097 0.085852 0.025000
0.562008 0.089441 0.025000
0.591664 0.093000 0.025000
0.621038 0.096525 0.025000
0.650132 0.100016 0.025000
0.678940 0.103473 0.025000
0.707451 0.106894 0.025000
0.735669 0.110280 0.025000
0.763569 0.113628 0.025000
0.791159 0.116939 0.025000
0.818423 0.120211 0.025000
0.845366 0.123444 0.025000
0.871978 0.126637 0.025000
0.898247 0.129790 0.025000
0.924178 0.132901 0.025000
0.949760 0.135971 0.025000
0.975000 0.139000 0.025000
0.025000 0.057870 0.028944
0.053925 0.057870 0.025000
0.090629 0.065745 0.025000
0.123269 0.069662 0.025000
0.155778 0.073563 0.025000
0.188155 0.077449 0.025000
0.220371 0.081315 0.025000
0.252434 0.085162 0.025000
0.284320 0.088988 0.025000
0.316027 0.092793 0.025000
0.347546 0.096576 0.025000
0.378860 0.100333 0.025000
0.409967 0.104066 0.025000
0.440851 0.107772 0.025000
0.471507 0.111451 0.025000
0.501928 0.115101 0.025000
0.532097 0.118722 0.025000
0.562008 0.122311 0.025000
0.591664 0.125870 0.025000
0.621038 0.129395 0.025000
0.650132 0.132886 0.025000
0.678940 0.136343 0.025000
0.707451 0.139764 0.025000
0.735669 0.143150 0.025000
0.763569 0.146498 0.025000
0.791159 0.149809 0.025000
0.818423 0.153081 0.025000
0.845366 0.156314 0.025000
0.871978 0.159507 0.025000
0.898247 0.162660 0.025000
0.924178 0.165771 0.025000
0.949760 0.168841 0.025000
0.975000 0.171870 0.025000
0.025000 0.090625 0.032875
0.049994 0.090625 0.025000
0.082757 0.090629 0.025000
0.123269 0.102417 0.025000
0.155778 0.106318 0.025000
0.188155 0.110204 0.025000
0.220371 0.114070 0.025000
0.252434 0.117917 0.025000
0.284320 0.121743 0.025000
0.316027 0.125548 0.025000
0.347546 0.129331 0.025000
0.378860 0.133088 0.025000
0.409967 0.136821 0.025000
0.440851 0.140527 0.025000
0.471507 0.144206 0.025000
0.501928 0.147856 0.025000
0.532097 0.151477 0.025000
0.562008 0.155066 0.025000
0.591664 0.158625 0.025000
0.621038 0.162150 0.025000
0.650132 0.165641 0.025000
0.678940 0.169098 0.025000
0.707451 0.172519 0.025000
0.735669 0.175905 0.025000
0.763569 0.179253 0.025000
0.791159 0.182564 0.025000
0.818423 0.185836 0.025000
0.845366 0.189069 0.025000
0.871978 0.192262 0.025000
0.898247 0.195415 0.025000
0.924178 0.198526 0.025000
0.949760 0.201596 0.025000
0.975000 0.204625 0.025000
0.025000 0.123270 0.036792
0.046077 0.123270 0.025000
0.078836 0.123270 0.025000
0.111477 0.123270 0.025000
0.155778 0.138963 0.025000
0.188155 0.142848 0.025000
0.220371 0.146714 0.025000
0.252434 0.150562 0.025000
0.284320 0.154388 0.025000
0.316027 0.158193 0.025000
0.347546 0.161975 0.025000
0.378860 0.165733 0.025000
0.409967 0.169466 0.025000
0.440851 0.173172 0.025000
0.471507 0.176851 0.025000
0.501928 0.180501 0.025000
0.532097 0.184122 0.025000
0.562008 0.187711 0.025000
0.591664 0.191270 0.025000
0.621038 0.194794 0.025000
0.650132 0.198286 0.025000
0.678940 0.201743 0.025000
0.707451 0.205164 0.025000
0.735669 0.208550 0.025000
0.763569 0.211898 0.025000
0.791159 0.215209 0.025000
0.818423 0.218481 0.025000
0.845366 0.221714 0.025000
0.871978 0.224907 0.025000
0.898247 0.228059 0.025000
0.924178 0.231171 0.025000
0.949760 0.234241 0.025000
0.975000 0.237270 0.025000
0.025000 0.155778 0.040693
0.042176 0.155778 0.025000
0.074935 0.155778 0.025000
0.107576 0.155778 0.025000
0.140085 0.155778 0.025000
0.188155 0.175357 0.025000
0.220371 0.179223 0.025000
0.252434 0.183070 0.025000
0.284320 0.186896 0.025000
0.316027 0.190701 0.025000
0.347546 0.194483 0.025000
0.378860 0.198241 0.025000
0.409967 0.201974 0.025000
0.440851 0.205680 0.025000
0.471507 0.209359 0.025000
0.501928 0.213009 0.025000
0.532097 0.216630 0.025000
0.562008 0.220219 0.025000
0.591664 0.223778 0.025000
0.621038 0.227302 0.025000
0.650132 0.230794 0.025000
0.678940 0.234251 0.025000
0.707451 0.237672 0.025000
0.735669 0.241058 0.025000
0.763569 0.244406 0.025000
0.791159 0.247717 0.025000
0.818423 0.250989 0.025000
0.845366 0.254222 0.025000
0.871978 0.257415 0.025000
0.898247 0.260568 0.025000
0.924178 0.263679 0.025000
0.949760 0.266749 0.025000
0.975000 0.269778 0.025000
0.025000 0.188146 0.044578
0.038291 0.188146 0.025000
0.071051 0.188146 0.025000
0.103691 0.188146 0.025000
0.136200 0.188146 0.025000
0.168585 0.188155 0.025000
0.220371 0.211591 0.025000
0.252434 0.215438 0.025000
0.284320 0.219265 0.025000
0.316027 0.223070 0.025000
0.347546 0.226852 0.025000
0.378860 0.230610 0.025000
0.409967 0.234342 0.025000
0.440851 0.238048 0.025000
0.471507 0.241727 0.025000
0.501928 0.245378 0.025000
0.532097 0.248998 0.025000
0.562008 0.252587 0.025000
0.591664 0.256146 0.025000
0.621038 0.259671 0.025000
0.650132 0.263162 0.025000
0.678940 0.266619 0.025000
0.707451 0.270040 0.025000
0.735669 0.273427 0.025000
0.763569 0.276775 0.025000
0.791159 0.280085 0.025000
0.818423 0.283357 0.025000
0.845366 0.286590 0.025000
0.871978 0.289784 0.025000
0.898247 0.292936 0.025000
0.924178 0.296048 0.025000
0.949760 0.299118 0.025000
0.975000 0.302146 0.025000
0.025000 0.220372 0.048445
0.034424 0.220372 0.025000
0.067184 0.220372 0.025000
0.099824 0.220372 0.025000
0.132333 0.220372 0.025000
0.164710 0.220372 0.025000
0.196927 0.220372 0.025000
0.252434 0.247664 0.025000
0.284320 0.251491 0.025000
0.316027 0.255295 0.025000
0.347546 0.259078 0.025000
0.378860 0.262835 0.025000
0.409967 0.266568 0.025000
0.440851 0.270274 0.025000
0.471507 0.273953 0.025000
0.501928 0.277604 0.025000
0.532097 0.281224 0.025000
0.562008 0.284813 0.025000
0.591664 0.288372 0.025000
0.621038 0.291897 0.025000
0.650132 0.295388 0.025000
0.678940 0.298845 0.025000
0.707451 0.302266 0.025000
0.735669 0.305653 0.025000
0.763569 0.309001 0.025000
0.791159 0.312311 0.025000
0.818423 0.315583 0.025000
0.845366 0.318816 0.025000
0.871978 0.322010 0.025000
0.898247 0.325162 0.025000
0.924178 0.328274 0.025000
0.949760 0.331343 0.025000
0.975000 0.334372 0.025000
0.025000 0.252436 0.052292
0.030577 0.252436 0.025000
0.063337 0.252436 0.025000
0.095977 0.252436 0.025000
0.128486 0.252436 0.025000
0.160863 0.252436 0.025000
0.193079 0.252436 0.025000
0.225142 0.252436 0.025000
0.284320 0.283554 0.025000
0.316027 0.287359 0.025000
0.347546 0.291141 0.025000
0.378860 0.294899 0.025000
0.409967 0.298632 0.025000
0.440851 0.302338 0.025000
0.471507 0.306016 0.025000
0.501928 0.309667 0.025000
0.532097 0.313287 0.025000
0.562008 0.316877 0.025000
0.591664 0.320435 0.025000
0.621038 0.323960 0.025000
0.650132 0.327452 0.025000
0.678940 0.330909 0.025000
0.707451 0.334330 0.025000
0.735669 0.337716 0.025000
0.763569 0.341064 0.025000
0.791159 0.344375 0.025000
0.818423 0.347646 0.025000
0.845366 0.350880 0.025000
0.871978 0.354073 0.025000
0.898247 0.357225 0.025000
0.924178 0.360337 0.025000
0.949760 0.363407 0.025000
0.975000 0.366436 0.025000
0.025000 0.284322 0.056119
0.026750 0.284322 0.025000
0.059510 0.284322 0.025000
0.092150 0.284322 0.025000
0.124659 0.284322 0.025000
0.157036 0.284322 0.025000
0.189253 0.284322 0.025000
0.221315 0.284322 0.025000
0.253201 0.284322 0.025000
0.312809 0.316027 0.025000
0.347546 0.323027 0.025000
0.378860 0.326785 0.025000
0.409967 0.330517 0.025000
0.440851 0.334224 0.025000
0.471507 0.337902 0.025000
0.501928 0.341553 0.025000
0.532097 0.345173 0.025000
0.562008 0.348763 0.025000
0.591664 0.352321 0.025000
0.621038 0.355846 0.025000
0.650132 0.359337 0.025000
0.678940 0.362794 0.025000
0.707451 0.366216 0.025000
0.735669 0.369602 0.025000
0.763569 0.372950 0.025000
0.791159 0.376261 0.025000
0.818423 0.379532 0.025000
0.845366 0.382765 0.025000
0.871978 0.385959 0.025000
0.898247 0.389111 0.025000
0.924178 0.392223 0.025000
0.949760 0.395293 0.025000
0.975000 0.398321 0.025000
0.025000 0.316028 0.059923
0.025000 0.316028 0.027054
0.055706 0.316028 0.025000
0.088346 0.316028 0.025000
0.120855 0.316028 0.025000
0.153232 0.316028 0.025000
0.185448 0.316028 0.025000
0.217510 0.316028 0.025000
0.249396 0.316028 0.025000
0.281103 0.316028 0.025000
0.340359 0.347546 0.025000
0.378860 0.358491 0.025000
0.409967 0.362224 0.025000
0.440851 0.365930 0.025000
0.471507 0.369609 0.025000
0.501928 0.373259 0.025000
0.532097 0.376879 0.025000
0.562008 0.380469 0.025000
0.591664 0.384027 0.025000
0.621038 0.387552 0.025000
0.650132 0.391044 0.025000
0.678940 0.394501 0.025000
0.707451 0.397922 0.025000
0.735669 0.401308 0.025000
0.763569 0.404656 0.025000
0.791159 0.407967 0.025000
0.818423 0.411238 0.025000
0.845366 0.414472 0.025000
0.871978 0.417665 0.025000
0.898247 0.420817 0.025000
0.924178 0.423929 0.025000
0.949760 0.426999 0.025000
0.975000 0.430028 0.025000
0.025000 0.347545 0.063705
0.025000 0.347545 0.030836
0.051923 0.347545 0.025000
0.084564 0.347545 0.025000
0.117073 0.347545 0.025000
0.149450 0.347545 0.025000
0.181666 0.347545 0.025000
0.213728 0.347545 0.025000
0.245614 0.347545 0.025000
0.277321 0.347545 0.025000
0.308841 0.347546 0.025000
0.367711 0.378860 0.025000
0.409967 0.393741 0.025000
0.440851 0.397447 0.025000
0.471507 0.401126 0.025000
0.501928 0.404776 0.025000
0.532097 0.408397 0.025000
0.562008 0.411986 0.025000
0.591664 0.415545 0.025000
0.621038 0.419069 0.025000
0.650132 0.422561 0.025000
0.678940 0.426018 0.025000
0.707451 0.429439 0.025000
0.735669 0.432825 0.025000
0.763569 0.436173 0.025000
0.791159 0.439484 0.025000
0.818423 0.442756 0.025000
0.845366 0.445989 0.025000
0.871978 0.449182 0.025000
0.898247 0.452335 0.025000
0.924178 0.455446 0.025000
0.949760 0.458516 0.025000
0.975000 0.461545 0.025000
0.025000 0.378861 0.067463
0.025000 0.378861 0.034594
0.048166 0.378861 0.025000
0.080806 0.378861 0.025000
0.113315 0.378861 0.025000
0.145692 0.378861 0.025000
0.177908 0.378861 0.025000
0.209971 0.378861 0.025000
0.241856 0.378861 0.025000
0.273564 0.378861 0.025000
0.305083 0.378861 0.025000
0.336397 0.378861 0.025000
0.394876 0.409967 0.025000
0.440851 0.428763 0.025000
0.471507 0.432442 0.025000
0.501928 0.436092 0.025000
0.532097 0.439712 0.025000
0.562008 0.443302 0.025000
0.591664 0.446860 0.025000
0.621038 0.450385 0.025000
0.650132 0.453877 0.025000
0.678940 0.457334 0.025000
0.707451 0.460755 0.025000
0.735669 0.464141 0.025000
0.763569 0.467489 0.025000
0.791159 0.470800 0.025000
0.818423 0.474071 0.025000
0.845366 0.477305 0.025000
0.871978 0.480498 0.025000
0.898247 0.483650 0.025000
0.924178 0.486762 0.025000
0.949760 0.489832 0.025000
0.975000 0.492861 0.025000
0.025000 0.409963 0.071196
0.025000 0.409963 0.038326
0.044433 0.409963 0.025000
0.077073 0.409963 0.025000
0.109582 0.409963 0.025000
0.141959 0.409963 0.025000
0.174176 0.409963 0.025000
0.206238 0.409963 0.025000
0.238124 0.409963 0.025000
0.269831 0.409963 0.025000
0.301350 0.409963 0.025000
0.332664 0.409963 0.025000
0.363774 0.409967 0.025000
0.421837 0.440851 0.025000
0.471507 0.463544 0.025000
0.501928 0.467194 0.025000
0.532097 0.470814 0.025000
0.562008 0.474404 0.025000
0.591664 0.477962 0.025000
0.621038 0.481487 0.025000
0.650132 0.484979 0.025000
0.678940 0.488436 0.025000
0.707451 0.491857 0.025000
0.735669 0.495243 0.025000
0.763569 0.498591 0.025000
0.791159 0.501902 0.025000
0.818423 0.505174 0.025000
0.845366 0.508407 0.025000
0.871978 0.511600 0.025000
0.898247 0.514752 0.025000
0.924178 0.517864 0.025000
0.949760 0.520934 0.025000
0.975000 0.523963 0.025000
0.025000 0.440852 0.074902
0.025000 0.440852 0.042033
0.040727 0.440852 0.025000
0.073367 0.440852 0.025000
0.105876 0.440852 0.025000
0.138253 0.440852 0.025000
0.170469 0.440852 0.025000
0.202532 0.440852 0.025000
0.234417 0.440852 0.025000
0.266125 0.440852 0.025000
0.297644 0.440852 0.025000
0.328958 0.440852 0.025000
0.360064 0.440852 0.025000
0.390949 0.440852 0.025000
0.448580 0.471507 0.025000
0.501928 0.498083 0.025000
0.532097 0.501704 0.025000
0.562008 0.505293 0.025000
0.591664 0.508852 0.025000
0.621038 0.512377 0.025000
0.650132 0.515868 0.025000
0.678940 0.519325 0.025000
0.707451 0.522746 0.025000
0.735669 0.526132 0.025000
0.763569 0.529480 0.025000
0.791159 0.532791 0.025000
0.818423 0.536063 0.025000
0.845366 0.539296 0.025000
0.871978 0.542489 0.025000
0.898247 0.545642 0.025000
0.924178 0.548753 0.025000
0.949760 0.551823 0.025000
0.975000 0.554852 0.025000
0.025000 0.471511 0.078581
0.025000 0.471511 0.045712
0.037047 0.471511 0.025000
0.069688 0.471511 0.025000
0.102197 0.471511 0.025000
0.134574 0.471511 0.025000
0.166790 0.471511 0.025000
0.198852 0.471511 0.025000
0.230738 0.471511 0.025000
0.262445 0.471511 0.025000
0.293965 0.471511 0.025000
0.325278 0.471511 0.025000
0.356385 0.471511 0.025000
0.387270 0.471511 0.025000
0.417925 0.471511 0.025000
0.475112 0.501928 0.025000
0.531830 0.532097 0.025000
0.562008 0.535952 0.025000
0.591664 0.539511 0.025000
0.621038 0.543036 0.025000
0.650132 0.546527 0.025000
0.678940 0.549984 0.025000
0.707451 0.553405 0.025000
0.735669 0.556792 0.025000
0.763569 0.560140 0.025000
0.791159 0.563450 0.025000
0.818423 0.566722 0.025000
0.845366 0.569955 0.025000
0.871978 0.573149 0.025000
0.898247 0.576301 0.025000
0.924178 0.579413 0.025000
0.949760 0.582483 0.025000
0.975000 0.585511 0.025000
0.025000 0.501923 0.082231
0.025000 0.501923 0.049362
0.033398 0.501923 0.025000
0.066038 0.501923 0.025000
0.098547 0.501923 0.025000
0.130924 0.501923 0.025000
0.163141 0.501923 0.025000
0.195203 0.501923 0.025000
0.227089 0.501923 0.025000
0.258796 0.501923 0.025000
0.290315 0.501923 0.025000
0.321629 0.501923 0.025000
0.352736 0.501923 0.025000
0.383620 0.501923 0.025000
0.414276 0.501923 0.025000
0.444701 0.501928 0.025000
0.501419 0.532097 0.025000
0.557653 0.562008 0.025000
0.591664 0.569922 0.025000
0.621038 0.573447 0.025000
0.650132 0.576939 0.025000
0.678940 0.580396 0.025000
0.707451 0.583817 0.025000
0.735669 0.587203 0.025000
0.763569 0.590551 0.025000
0.791159 0.593862 0.025000
0.818423 0.597134 0.025000
0.845366 0.600367 0.025000
0.871978 0.603560 0.025000
0.898247 0.606712 0.025000
0.924178 0.609824 0.025000
0.949760 0.612894 0.025000
0.975000 0.615923 0.025000
0.025000 0.532093 0.085851
0.025000 0.532093 0.052982
0.029778 0.532093 0.025000
0.062418 0.532093 0.025000
0.094927 0.532093 0.025000
0.127304 0.532093 0.025000
0.159520 0.532093 0.025000
0.191583 0.532093 0.025000
0.223468 0.532093 0.025000
0.255176 0.532093 0.025000
0.286695 0.532093 0.025000
0.318009 0.532093 0.025000
0.349115 0.532093 0.025000
0.380000 0.532093 0.025000
0.410656 0.532093 0.025000
0.441076 0.532093 0.025000
0.471249 0.532097 0.025000
0.527483 0.562008 0.025000
0.583235 0.591664 0.025000
0.621038 0.603617 0.025000
0.650132 0.607109 0.025000
0.678940 0.610566 0.025000
0.707451 0.613987 0.025000
0.735669 0.617373 0.025000
0.763569 0.620721 0.025000
0.791159 0.624032 0.025000
0.818423 0.627304 0.025000
0.845366 0.630537 0.025000
0.871978 0.633730 0.025000
0.898247 0.636882 0.025000
0.924178 0.639994 0.025000
0.949760 0.643064 0.025000
0.975000 0.646093 0.025000
0.025000 0.562009 0.089441
0.025000 0.562009 0.056572
0.026188 0.562009 0.025000
0.058828 0.562009 0.025000
0.091337 0.562009 0.025000
0.123714 0.562009 0.025000
0.155930 0.562009 0.025000
0.187993 0.562009 0.025000
0.219878 0.562009 0.025000
0.251586 0.562009 0.025000
0.283105 0.562009 0.025000
0.314419 0.562009 0.025000
0.345525 0.562009 0.025000
0.376410 0.562009 0.025000
0.407066 0.562009 0.025000
0.437486 0.562009 0.025000
0.467656 0.562009 0.025000
0.497567 0.562009 0.025000
0.553318 0.591664 0.025000
0.608541 0.621038 0.025000
0.650132 0.637025 0.025000
0.678940 0.640482 0.025000
0.707451 0.643903 0.025000
0.735669 0.647290 0.025000
0.763569 0.650638 0.025000
0.791159 0.653948 0.025000
0.818423 0.657220 0.025000
0.845366 0.660453 0.025000
0.871978 0.663647 0.025000
0.898247 0.666799 0.025000
0.924178 0.669911 0.025000
0.949760 0.672981 0.025000
0.975000 0.676009 0.025000
0.025000 0.591655 0.092999
0.025000 0.591655 0.060130
0.025000 0.591655 0.027370
0.055270 0.591655 0.025000
0.087779 0.591655 0.025000
0.120156 0.591655 0.025000
0.152373 0.591655 0.025000
0.184435 0.591655 0.025000
0.216321 0.591655 0.025000
0.248028 0.591655 0.025000
0.279547 0.591655 0.025000
0.310861 0.591655 0.025000
0.341968 0.591655 0.025000
0.372852 0.591655 0.025000
0.403508 0.591655 0.025000
0.433929 0.591655 0.025000
0.464098 0.591655 0.025000
0.494010 0.591655 0.025000
0.523673 0.591664 0.025000
0.578896 0.621038 0.025000
0.633594 0.650132 0.025000
0.678940 0.670128 0.025000
0.707451 0.673549 0.025000
0.735669 0.676935 0.025000
0.763569 0.680283 0.025000
0.791159 0.683594 0.025000
0.818423 0.686866 0.025000
0.845366 0.690099 0.025000
0.871978 0.693292 0.025000
0.898247 0.696445 0.025000
0.924178 0.699556 0.025000
0.949760 0.702626 0.025000
0.975000 0.705655 0.025000
0.025000 0.621036 0.096524
0.025000 0.621036 0.063655
0.025000 0.621036 0.030895
0.051745 0.621036 0.025000
0.084254 0.621036 0.025000
0.116631 0.621036 0.025000
0.148847 0.621036 0.025000
0.180910 0.621036 0.025000
0.212795 0.621036 0.025000
0.244503 0.621036 0.025000
0.276022 0.621036 0.025000
0.307336 0.621036 0.025000
0.338442 0.621036 0.025000
0.369327 0.621036 0.025000
0.399982 0.621036 0.025000
0.430403 0.621036 0.025000
0.460572 0.621036 0.025000
0.490484 0.621036 0.025000
0.520139 0.621036 0.025000
0.549515 0.621038 0.025000
0.604213 0.650132 0.025000
0.658372 0.678940 0.025000
0.707451 0.702930 0.025000
0.735669 0.706316 0.025000
0.763569 0.709664 0.025000
0.791159 0.712975 0.025000
0.818423 0.716246 0.025000
0.845366 0.719480 0.025000
0.871978 0.722673 0.025000
0.898247 0.725825 0.025000
0.924178 0.728937 0.025000
0.949760 0.732007 0.025000
0.975000 0.735036 0.025000
0.025000 0.650134 0.100016
0.025000 0.650134 0.067147
0.025000 0.650134 0.034387
0.048253 0.650134 0.025000
0.080762 0.650134 0.025000
0.113139 0.650134 0.025000
0.145355 0.650134 0.025000
0.177418 0.650134 0.025000
0.209303 0.650134 0.025000
0.241011 0.650134 0.025000
0.272530 0.650134 0.025000
0.303844 0.650134 0.025000
0.334950 0.650134 0.025000
0.365835 0.650134 0.025000
0.396491 0.650134 0.025000
0.426911 0.650134 0.025000
0.457081 0.650134 0.025000
0.486992 0.650134 0.025000
0.516647 0.650134 0.025000
0.546021 0.650134 0.025000
0.575116 0.650134 0.025000
0.629273 0.678940 0.025000
0.682873 0.707451 0.025000
0.735669 0.735415 0.025000
0.763569 0.738762 0.025000
0.791159 0.742073 0.025000
0.818423 0.745345 0.025000
0.845366 0.748578 0.025000
0.871978 0.751772 0.025000
0.898247 0.754924 0.025000
0.924178 0.758036 0.025000
0.949760 0.761105 0.025000
0.975000 0.764134 0.025000
0.025000 0.678940 0.103473
0.025000 0.678940 0.070604
0.025000 0.678940 0.037844
0.044796 0.678940 0.025000
0.077305 0.678940 0.025000
0.109682 0.678940 0.025000
0.141898 0.678940 0.025000
0.173961 0.678940 0.025000
0.205847 0.678940 0.025000
0.237554 0.678940 0.025000
0.269073 0.678940 0.025000
0.300387 0.678940 0.025000
0.331494 0.678940 0.025000
0.362378 0.678940 0.025000
0.393034 0.678940 0.025000
0.423455 0.678940 0.025000
0.453624 0.678940 0.025000
0.483536 0.678940 0.025000
0.513191 0.678940 0.025000
0.542565 0.678940 0.025000
0.571659 0.678940 0.025000
0.600467 0.678940 0.025000
0.654067 0.707451 0.025000
0.707118 0.735669 0.025000
0.759570 0.763569 0.025000
0.791159 0.770879 0.025000
0.818423 0.774151 0.025000
0.845366 0.777384 0.025000
0.871978 0.780577 0.025000
0.898247 0.783730 0.025000
0.924178 0.786841 0.025000
0.949760 0.789911 0.025000
0.975000 0.792940 0.025000
0.025000 0.707451 0.106894
0.025000 0.707451 0.074025
0.025000 0.707451 0.041265
0.041375 0.707451 0.025000
0.073884 0.707451 0.025000
0.106261 0.707451 0.025000
0.138477 0.707451 0.025000
0.170540 0.707451 0.025000
0.202425 0.707451 0.025000
0.234133 0.707451 0.025000
0.265652 0.707451 0.025000
0.296966 0.707451 0.025000
0.328072 0.707451 0.025000
0.358957 0.707451 0.025000
0.389612 0.707451 0.025000
0.420033 0.707451 0.025000
0.450203 0.707451 0.025000
0.480114 0.707451 0.025000
0.509769 0.707451 0.025000
0.539143 0.707451 0.025000
0.568238 0.707451 0.025000
0.597046 0.707451 0.025000
0.625556 0.707451 0.025000
0.678607 0.735669 0.025000
0.731058 0.763569 0.025000
0.782927 0.791159 0.025000
0.818423 0.802662 0.025000
0.845366 0.805895 0.025000
0.871978 0.809089 0.025000
0.898247 0.812241 0.025000
0.924178 0.815353 0.025000
0.949760 0.818423 0.025000
0.975000 0.821451 0.025000
0.025000 0.735669 0.110280
0.025000 0.735669 0.077411
0.025000 0.735669 0.044651
0.037989 0.735669 0.025000
0.070498 0.735669 0.025000
0.102875 0.735669 0.025000
0.135091 0.735669 0.025000
0.167153 0.735669 0.025000
0.199039 0.735669 0.025000
0.230746 0.735669 0.025000
0.262266 0.735669 0.025000
0.293579 0.735669 0.025000
0.324686 0.735669 0.025000
0.355571 0.735669 0.025000
0.386226 0.735669 0.025000
0.416647 0.735669 0.025000
0.446816 0.735669 0.025000
0.476728 0.735669 0.025000
0.506383 0.735669 0.025000
0.535757 0.735669 0.025000
0.564852 0.735669 0.025000
0.593660 0.735669 0.025000
0.622170 0.735669 0.025000
0.650389 0.735669 0.025000
0.702840 0.763569 0.025000
0.754709 0.791159 0.025000
0.805966 0.818423 0.025000
0.845366 0.834113 0.025000
0.871978 0.837307 0.025000
0.898247 0.840459 0.025000
0.924178 0.843571 0.025000
0.949760 0.846641 0.025000
0.975000 0.849669 0.025000
0.025000 0.763570 0.113628
0.025000 0.763570 0.080759
0.025000 0.763570 0.048000
0.034641 0.763570 0.025000
0.067150 0.763570 0.025000
0.099527 0.763570 0.025000
0.131743 0.763570 0.025000
0.163805 0.763570 0.025000
0.195691 0.763570 0.025000
0.227398 0.763570 0.025000
0.258918 0.763570 0.025000
0.290231 0.763570 0.025000
0.321338 0.763570 0.025000
0.352223 0.763570 0.025000
0.382878 0.763570 0.025000
0.413299 0.763570 0.025000
0.443468 0.763570 0.025000
0.473380 0.763570 0.025000
0.503035 0.763570 0.025000
0.532409 0.763570 0.025000
0.561504 0.763570 0.025000
0.590312 0.763570 0.025000
0.618822 0.763570 0.025000
0.647041 0.763570 0.025000
0.674941 0.763570 0.025000
0.726809 0.791159 0.025000
0.778065 0.818423 0.025000
0.828718 0.845366 0.025000
0.871978 0.865207 0.025000
0.898247 0.868359 0.025000
0.924178 0.871471 0.025000
0.949760 0.874541 0.025000
0.975000 0.877570 0.025000
0.025000 0.791155 0.116939
0.025000 0.791155 0.084070
0.025000 0.791155 0.051310
0.031330 0.791155 0.025000
0.063839 0.791155 0.025000
0.096216 0.791155 0.025000
0.128433 0.791155 0.025000
0.160495 0.791155 0.025000
0.192381 0.791155 0.025000
0.224088 0.791155 0.025000
0.255607 0.791155 0.025000
0.286921 0.791155 0.025000
0.318028 0.791155 0.025000
0.348912 0.791155 0.025000
0.379568 0.791155 0.025000
0.409989 0.791155 0.025000
0.440158 0.791155 0.025000
0.470070 0.791155 0.025000
0.499725 0.791155 0.025000
0.529099 0.791155 0.025000
0.558194 0.791155 0.025000
0.587001 0.791155 0.025000
0.615512 0.791155 0.025000
0.643731 0.791155 0.025000
0.671630 0.791155 0.025000
0.699224 0.791159 0.025000
0.750480 0.818423 0.025000
0.801133 0.845366 0.025000
0.851164 0.871978 0.025000
0.898247 0.895945 0.025000
0.924178 0.899056 0.025000
0.949760 0.902126 0.025000
0.975000 0.905155 0.025000
0.025000 0.818423 0.120211
0.025000 0.818423 0.087342
0.025000 0.818423 0.054582
0.028058 0.818423 0.025000
0.060567 0.818423 0.025000
0.092944 0.818423 0.025000
0.125161 0.818423 0.025000
0.157223 0.818423 0.025000
0.189109 0.818423 0.025000
0.220816 0.818423 0.025000
0.252335 0.818423 0.025000
0.283649 0.818423 0.025000
0.314756 0.818423 0.025000
0.345640 0.818423 0.025000
0.376296 0.818423 0.025000
0.406717 0.818423 0.025000
0.436886 0.818423 0.025000
0.466798 0.818423 0.025000
0.496453 0.818423 0.025000
0.525827 0.818423 0.025000
0.554922 0.818423 0.025000
0.583729 0.818423 0.025000
0.612240 0.818423 0.025000
0.640459 0.818423 0.025000
0.668358 0.818423 0.025000
0.695948 0.818423 0.025000
0.723212 0.818423 0.025000
0.773865 0.845366 0.025000
