luts/kodak_colorplus_200.cube
TITLE Film LUT
LUT_3D_SIZE 9
DOMAIN_MIN 0.0 0.0 0.0
DOMAIN_MAX 1.0 1.0 1.0
0.000000 0.000000 0.000000
0.136827 0.000000 0.000000
0.271342 0.000000 0.000000
0.402957 0.000000 0.000000
0.531126 0.000000 0.000000
0.655333 0.000000 0.000000
0.775130 0.000000 0.000000
0.890129 0.000000 0.000000
1.000000 0.000000 0.000000
0.000000 0.136833 0.000000
0.136827 0.136833 0.000000
0.271342 0.136833 0.000000
0.402957 0.136833 0.000000
0.531126 0.136833 0.000000
0.655333 0.136833 0.000000
0.775130 0.136833 0.000000
0.890129 0.136833 0.000000
1.000000 0.136833 0.000000
0.000000 0.271343 0.000000
0.136827 0.271343 0.000000
0.271342 0.271343 0.000000
0.402957 0.271343 0.000000
0.531126 0.271343 0.000000
0.655333 0.271343 0.000000
0.775130 0.271343 0.000000
0.890129 0.271343 0.000000
1.000000 0.271343 0.000000
0.000000 0.402959 0.000000
0.136827 0.402959 0.000000
0.271342 0.402959 0.000000
0.402957 0.402959 0.000000
0.531126 0.402959 0.000000
0.655333 0.402959 0.000000
0.775130 0.402959 0.000000
0.890129 0.402959 0.000000
1.000000 0.402959 0.000000
0.000000 0.531125 0.000000
0.136827 0.531125 0.000000
0.271342 0.531125 0.000000
0.402957 0.531125 0.000000
0.531126 0.531125 0.000000
0.655333 0.531125 0.000000
0.775130 0.531125 0.000000
0.890129 0.531125 0.000000
1.000000 0.531125 0.000000
0.000000 0.655330 0.000000
0.136827 0.655330 0.000000
0.271342 0.655330 0.000000
0.402957 0.655330 0.000000
0.531126 0.655330 0.000000
0.655333 0.655330 0.000000
0.775130 0.655330 0.000000
0.890129 0.655330 0.000000
1.000000 0.655330 0.000000
0.000000 0.775130 0.000000
0.136827 0.775130 0.000000
0.271342 0.775130 0.000000
0.402957 0.775130 0.000000
0.531126 0.775130 0.000000
0.655333 0.775130 0.000000
0.775130 0.775130 0.000000
0.890129 0.775130 0.000000
1.000000 0.775130 0.000000
0.000000 0.890131 0.000000
0.136827 0.890131 0.000000
0.271342 0.890131 0.000000
0.402957 0.890131 0.000000
0.531126 0.890131 0.000000
0.655333 0.890131 0.000000
0.775130 0.890131 0.000000
0.890129 0.890131 0.000000
1.000000 0.890131 0.000000
0.000000 1.000000 0.000000
0.136827 1.000000 0.000000
0.271342 1.000000 0.000000
0.402957 1.000000 0.000000
0.531126 1.000000 0.000000
0.655333 1.000000 0.000000
0.775130 1.000000 0.000000
0.890129 1.000000 0.000000
1.000000 1.000000 0.000000
0.000000 0.000000 0.136833
0.136827 0.000000 0.136833
0.271342 0.000000 0.136833
0.402957 0.000000 0.136833
0.531126 0.000000 0.136833
0.655333 0.000000 0.136833
0.775130 0.000000 0.136833
0.890129 0.000000 0.136833
1.000000 0.000000 0.136833
0.000000 0.136833 0.136833
0.136827 0.136833 0.136833
0.271342 0.136833 0.136833
0.402957 0.136833 0.136833
0.531126 0.136833 0.136833
0.655333 0.136833 0.136833
0.775130 0.136833 0.136833
0.890129 0.136833 0.136833
1.000000 0.136833 0.136833
0.000000 0.271343 0.136833
0.136827 0.271343 0.136833
0.271342 0.271343 0.136833
0.402957 0.271343 0.136833
0.531126 0.271343 0.136833
0.655333 0.271343 0.136833
0.775130 0.271343 0.136833
0.890129 0.271343 0.136833
1.000000 0.271343 0.136833
0.000000 0.402959 0.136833
0.136827 0.402959 0.136833
0.271342 0.402959 0.136833
0.402957 0.402959 0.136833
0.531126 0.402959 0.136833
0.655333 0.402959 0.136833
0.775130 0.402959 0.136833
0.890129 0.402959 0.136833
1.000000 0.402959 0.136833
0.000000 0.531125 0.136833
0.136827 0.531125 0.136833
0.271342 0.531125 0.136833
0.402957 0.531125 0.136833
0.531126 0.531125 0.136833
0.655333 0.531125 0.136833
0.775130 0.531125 0.136833
0.890129 0.531125 0.136833
1.000000 0.531125 0.136833
0.000000 0.655330 0.136833
0.136827 0.655330 0.136833
0.271342 0.655330 0.136833
0.402957 0.655330 0.136833
0.531126 0.655330 0.136833
0.655333 0.655330 0.136833
0.775130 0.655330 0.136833
0.890129 0.655330 0.136833
1.000000 0.655330 0.136833
0.000000 0.775130 0.136833
0.136827 0.775130 0.136833
0.271342 0.775130 0.136833
0.402957 0.775130 0.136833
0.531126 0.775130 0.136833
0.655333 0.775130 0.136833
0.775130 0.775130 0.136833
0.890129 0.775130 0.136833
1.000000 0.775130 0.136833
0.000000 0.890131 0.136833
0.136827 0.890131 0.136833
0.271342 0.890131 0.136833
0.402957 0.890131 0.136833
0.531126 0.890131 0.136833
0.655333 0.890131 0.136833
0.775130 0.890131 0.136833
0.890129 0.890131 0.136833
1.000000 0.890131 0.136833
0.000000 1.000000 0.136833
0.136827 1.000000 0.136833
0.271342 1.000000 0.136833
0.402957 1.000000 0.136833
0.531126 1.000000 0.136833
0.655333 1.000000 0.136833
0.775130 1.000000 0.136833
0.890129 1.000000 0.136833
1.000000 1.000000 0.136833
0.000000 0.000000 0.271342
0.136827 0.000000 0.271342
0.271342 0.000000 0.271342
0.402957 0.000000 0.271342
0.531126 0.000000 0.271342
0.655333 0.000000 0.271342
0.775130 0.000000 0.271342
0.890129 0.000000 0.271342
1.000000 0.000000 0.271342
0.000000 0.136833 0.271342
0.136827 0.136833 0.271342
0.271342 0.136833 0.271342
0.402957 0.136833 0.271342
0.531126 0.136833 0.271342
0.655333 0.136833 0.271342
0.775130 0.136833 0.271342
0.890129 0.136833 0.271342
1.000000 0.136833 0.271342
0.000000 0.271343 0.271342
0.136827 0.271343 0.271342
0.271342 0.271343 0.271342
0.402957 0.271343 0.271342
0.531126 0.271343 0.271342
0.655333 0.271343 0.271342
0.775130 0.271343 0.271342
0.890129 0.271343 0.271342
1.000000 0.271343 0.271342
0.000000 0.402959 0.271342
0.136827 0.402959 0.271342
0.271342 0.402959 0.271342
0.402957 0.402959 0.271342
0.531126 0.402959 0.271342
0.655333 0.402959 0.271342
0.775130 0.402959 0.271342
0.890129 0.402959 0.271342
1.000000 0.402959 0.271342
0.000000 0.531125 0.271342
0.136827 0.531125 0.271342
0.271342 0.531125 0.271342
0.402957 0.531125 0.271342
0.531126 0.531125 0.271342
0.655333 0.531125 0.271342
0.775130 0.531125 0.271342
0.890129 0.531125 0.271342
1.000000 0.531125 0.271342
0.000000 0.655330 0.271342
0.136827 0.655330 0.271342
0.271342 0.655330 0.271342
0.402957 0.655330 0.271342
0.531126 0.655330 0.271342
0.655333 0.655330 0.271342
0.775130 0.655330 0.271342
0.890129 0.655330 0.271342
1.000000 0.655330 0.271342
0.000000 0.775130 0.271342
0.136827 0.775130 0.271342
0.271342 0.775130 0.271342
0.402957 0.775130 0.271342
0.531126 0.775130 0.271342
0.655333 0.775130 0.271342
0.775130 0.775130 0.271342
0.890129 0.775130 0.271342
1.000000 0.775130 0.271342
0.000000 0.890131 0.271342
0.136827 0.890131 0.271342
0.271342 0.890131 0.271342
0.402957 0.890131 0.271342
0.531126 0.890131 0.271342
0.655333 0.890131 0.271342
0.775130 0.890131 0.271342
0.890129 0.890131 0.271342
1.000000 0.890131 0.271342
0.000000 1.000000 0.271342
0.136827 1.000000 0.271342
0.271342 1.000000 0.271342
0.402957 1.000000 0.271342
0.531126 1.000000 0.271342
0.655333 1.000000 0.271342
0.775130 1.000000 0.271342
0.890129 1.000000 0.271342
1.000000 1.000000 0.271342
0.000000 0.000000 0.402964
0.136827 0.000000 0.402964
0.271342 0.000000 0.402964
0.402957 0.000000 0.402964
0.531126 0.000000 0.402964
0.655333 0.000000 0.402964
0.775130 0.000000 0.402964
0.890129 0.000000 0.402964
1.000000 0.000000 0.402964
0.000000 0.136833 0.402964
0.136827 0.136833 0.402964
0.271342 0.136833 0.402964
0.402957 0.136833 0.402964
0.531126 0.136833 0.402964
0.655333 0.136833 0.402964
0.775130 0.136833 0.402964
0.890129 0.136833 0.402964
1.000000 0.136833 0.402964
0.000000 0.271343 0.402964
0.136827 0.271343 0.402964
0.271342 0.271343 0.402964
0.402957 0.271343 0.402964
0.531126 0.271343 0.402964
0.655333 0.271343 0.402964
0.775130 0.271343 0.402964
0.890129 0.271343 0.402964
1.000000 0.271343 0.402964
0.000000 0.402959 0.402964
0.136827 0.402959 0.402964
0.271342 0.402959 0.402964
0.402957 0.402959 0.402964
0.531126 0.402959 0.402964
0.655333 0.402959 0.402964
0.775130 0.402959 0.402964
0.890129 0.402959 0.402964
1.000000 0.402959 0.402964
0.000000 0.531125 0.402964
0.136827 0.531125 0.402964
0.271342 0.531125 0.402964
0.402957 0.531125 0.402964
0.531126 0.531125 0.402964
0.655333 0.531125 0.402964
0.775130 0.531125 0.402964
0.890129 0.531125 0.402964
1.000000 0.531125 0.402964
0.000000 0.655330 0.402964
0.136827 0.655330 0.402964
0.271342 0.655330 0.402964
0.402957 0.655330 0.402964
0.531126 0.655330 0.402964
0.655333 0.655330 0.402964
0.775130 0.655330 0.402964
0.890129 0.655330 0.402964
1.000000 0.655330 0.402964
0.000000 0.775130 0.402964
0.136827 0.775130 0.402964
0.271342 0.775130 0.402964
0.402957 0.775130 0.402964
0.531126 0.775130 0.402964
0.655333 0.775130 0.402964
0.775130 0.775130 0.402964
0.890129 0.775130 0.402964
1.000000 0.775130 0.402964
0.000000 0.890131 0.402964
0.136827 0.890131 0.402964
0.271342 0.890131 0.402964
0.402957 0.890131 0.402964
0.531126 0.890131 0.402964
0.655333 0.890131 0.402964
0.775130 0.890131 0.402964
0.890129 0.890131 0.402964
1.000000 0.890131 0.402964
0.000000 1.000000 0.402964
0.136827 1.000000 0.402964
0.271342 1.000000 0.402964
0.402957 1.000000 0.402964
0.531126 1.000000 0.402964
0.655333 1.000000 0.402964
0.775130 1.000000 0.402964
0.890129 1.000000 0.402964
1.000000 1.000000 0.402964
0.000000 0.000000 0.531124
0.136827 0.000000 0.531124
0.271342 0.000000 0.531124
0.402957 0.000000 0.531124
0.531126 0.000000 0.531124
0.655333 0.000000 0.531124
0.775130 0.000000 0.531124
0.890129 0.000000 0.531124
1.000000 0.000000 0.531124
0.000000 0.136833 0.531124
0.136827 0.136833 0.531124
0.271342 0.136833 0.531124
0.402957 0.136833 0.531124
0.531126 0.136833 0.531124
0.655333 0.136833 0.531124
0.775130 0.136833 0.531124
0.890129 0.136833 0.531124
1.000000 0.136833 0.531124
0.000000 0.271343 0.531124
0.136827 0.271343 0.531124
0.271342 0.271343 0.531124
0.402957 0.271343 0.531124
0.531126 0.271343 0.531124
0.655333 0.271343 0.531124
0.775130 0.271343 0.531124
0.890129 0.271343 0.531124
1.000000 0.271343 0.531124
0.000000 0.402959 0.531124
0.136827 0.402959 0.531124
0.271342 0.402959 0.531124
0.402957 0.402959 0.531124
0.531126 0.402959 0.531124
0.655333 0.402959 0.531124
0.775130 0.402959 0.531124
0.890129 0.402959 0.531124
1.000000 0.402959 0.531124
0.000000 0.531125 0.531124
0.136827 0.531125 0.531124
0.271342 0.531125 0.531124
0.402957 0.531125 0.531124
0.531126 0.531125 0.531124
0.655333 0.531125 0.531124
0.775130 0.531125 0.531124
0.890129 0.531125 0.531124
1.000000 0.531125 0.531124
0.000000 0.655330 0.531124
0.136827 0.655330 0.531124
0.271342 0.655330 0.531124
0.402957 0.655330 0.531124
0.531126 0.655330 0.531124
0.655333 0.655330 0.531124
0.775130 0.655330 0.531124
0.890129 0.655330 0.531124
1.000000 0.655330 0.531124
0.000000 0.775130 0.531124
0.136827 0.775130 0.531124
0.271342 0.775130 0.531124
0.402957 0.775130 0.531124
0.531126 0.775130 0.531124
0.655333 0.775130 0.531124
0.775130 0.775130 0.531124
0.890129 0.775130 0.531124
1.000000 0.775130 0.531124
0.000000 0.890131 0.531124
0.136827 0.890131 0.531124
0.271342 0.890131 0.531124
0.402957 0.890131 0.531124
0.531126 0.890131 0.531124
0.655333 0.890131 0.531124
0.775130 0.890131 0.531124
0.890129 0.890131 0.531124
1.000000 0.890131 0.531124
0.000000 1.000000 0.531124
0.136827 1.000000 0.531124
0.271342 1.000000 0.531124
0.402957 1.000000 0.531124
0.531126 1.000000 0.531124
0.655333 1.000000 0.531124
0.775130 1.000000 0.531124
0.890129 1.000000 0.531124
1.000000 1.000000 0.531124
0.000000 0.000000 0.655333
0.136827 0.000000 0.655333
0.271342 0.000000 0.655333
0.402957 0.000000 0.655333
0.531126 0.000000 0.655333
0.655333 0.000000 0.655333
0.775130 0.000000 0.655333
0.890129 0.000000 0.655333
1.000000 0.000000 0.655333
0.000000 0.136833 0.655333
0.136827 0.136833 0.655333
0.271342 0.136833 0.655333
0.402957 0.136833 0.655333
0.531126 0.136833 0.655333
0.655333 0.136833 0.655333
0.775130 0.136833 0.655333
0.890129 0.136833 0.655333
1.000000 0.136833 0.655333
0.000000 0.271343 0.655333
0.136827 0.271343 0.655333
0.271342 0.271343 0.655333
0.402957 0.271343 0.655333
0.531126 0.271343 0.655333
0.655333 0.271343 0.655333
0.775130 0.271343 0.655333
0.890129 0.271343 0.655333
1.000000 0.271343 0.655333
0.000000 0.402959 0.655333
0.136827 0.402959 0.655333
0.271342 0.402959 0.655333
0.402957 0.402959 0.655333
0.531126 0.402959 0.655333
0.655333 0.402959 0.655333
0.775130 0.402959 0.655333
0.890129 0.402959 0.655333
1.000000 0.402959 0.655333
0.000000 0.531125 0.655333
0.136827 0.531125 0.655333
0.271342 0.531125 0.655333
0.402957 0.531125 0.655333
0.531126 0.531125 0.655333
0.655333 0.531125 0.655333
0.775130 0.531125 0.655333
0.890129 0.531125 0.655333
1.000000 0.531125 0.655333
0.000000 0.655330 0.655333
0.136827 0.655330 0.655333
0.271342 0.655330 0.655333
0.402957 0.655330 0.655333
0.531126 0.655330 0.655333
0.655333 0.655330 0.655333
0.775130 0.655330 0.655333
0.890129 0.655330 0.655333
1.000000 0.655330 0.655333
0.000000 0.775130 0.655333
0.136827 0.775130 0.655333
0.271342 0.775130 0.655333
0.402957 0.775130 0.655333
0.531126 0.775130 0.655333
0.655333 0.775130 0.655333
0.775130 0.775130 0.655333
0.890129 0.775130 0.655333
1.000000 0.775130 0.655333
0.000000 0.890131 0.655333
0.136827 0.890131 0.655333
0.271342 0.890131 0.655333
0.402957 0.890131 0.655333
0.531126 0.890131 0.655333
0.655333 0.890131 0.655333
0.775130 0.890131 0.655333
0.890129 0.890131 0.655333
1.000000 0.890131 0.655333
0.000000 1.000000 0.655333
0.136827 1.000000 0.655333
0.271342 1.000000 0.655333
0.402957 1.000000 0.655333
0.531126 1.000000 0.655333
0.655333 1.000000 0.655333
0.775130 1.000000 0.655333
0.890129 1.000000 0.655333
1.000000 1.000000 0.655333
0.000000 0.000000 0.775135
0.136827 0.000000 0.775135
0.271342 0.000000 0.775135
0.402957 0.000000 0.775135
0.531126 0.000000 0.775135
0.655333 0.000000 0.775135
0.775130 0.000000 0.775135
0.890129 0.000000 0.775135
1.000000 0.000000 0.775135
0.000000 0.136833 0.775135
0.136827 0.136833 0.775135
0.271342 0.136833 0.775135
0.402957 0.136833 0.775135
0.531126 0.136833 0.775135
0.655333 0.136833 0.775135
0.775130 0.136833 0.775135
0.890129 0.136833 0.775135
1.000000 0.136833 0.775135
0.000000 0.271343 0.775135
0.136827 0.271343 0.775135
0.271342 0.271343 0.775135
0.402957 0.271343 0.775135
0.531126 0.271343 0.775135
0.655333 0.271343 0.775135
0.775130 0.271343 0.775135
0.890129 0.271343 0.775135
1.000000 0.271343 0.775135
0.000000 0.402959 0.775135
0.136827 0.402959 0.775135
0.271342 0.402959 0.775135
0.402957 0.402959 0.775135
0.531126 0.402959 0.775135
0.655333 0.402959 0.775135
0.775130 0.402959 0.775135
0.890129 0.402959 0.775135
1.000000 0.402959 0.775135
0.000000 0.531125 0.775135
0.136827 0.531125 0.775135
0.271342 0.531125 0.775135
0.402957 0.531125 0.775135
0.531126 0.531125 0.775135
0.655333 0.531125 0.775135
0.775130 0.531125 0.775135
0.890129 0.531125 0.775135
1.000000 0.531125 0.775135
0.000000 0.655330 0.775135
0.136827 0.655330 0.775135
0.271342 0.655330 0.775135
0.402957 0.655330 0.775135
0.531126 0.655330 0.775135
0.655333 0.655330 0.775135
0.775130 0.655330 0.775135
0.890129 0.655330 0.775135
1.000000 0.655330 0.775135
0.000000 0.775130 0.775135
0.136827 0.775130 0.775135
0.271342 0.775130 0.775135
0.402957 0.775130 0.775135
0.531126 0.775130 0.775135
0.655333 0.775130 0.775135
0.775130 0.775130 0.775135
0.890129 0.775130 0.775135
1.000000 0.775130 0.775135
0.000000 0.890131 0.775135
0.136827 0.890131 0.775135
0.271342 0.890131 0.775135
0.402957 0.890131 0.775135
0.531126 0.890131 0.775135
0.655333 0.890131 0.775135
0.775130 0.890131 0.775135
0.890129 0.890131 0.775135
1.000000 0.890131 0.775135
0.000000 1.000000 0.775135
0.136827 1.000000 0.775135
0.271342 1.000000 0.775135
0.402957 1.000000 0.775135
0.531126 1.000000 0.775135
0.655333 1.000000 0.775135
0.775130 1.000000 0.775135
0.890129 1.000000 0.775135
1.000000 1.000000 0.775135
0.000000 0.000000 0.890129
0.136827 0.000000 0.890129
0.271342 0.000000 0.890129
0.402957 0.000000 0.890129
0.531126 0.000000 0.890129
0.655333 0.000000 0.890129
0.775130 0.000000 0.890129
0.890129 0.000000 0.890129
1.000000 0.000000 0.890129
0.000000 0.136833 0.890129
0.136827 0.136833 0.890129
0.271342 0.136833 0.890129
0.402957 0.136833 0.890129
0.531126 0.136833 0.890129
0.655333 0.136833 0.890129
0.775130 0.136833 0.890129
0.890129 0.136833 0.890129
1.000000 0.136833 0.890129
0.000000 0.271343 0.890129
0.136827 0.271343 0.890129
0.271342 0.271343 0.890129
0.402957 0.271343 0.890129
0.531126 0.271343 0.890129
0.655333 0.271343 0.890129
0.775130 0.271343 0.890129
0.890129 0.271343 0.890129
1.000000 0.271343 0.890129
0.000000 0.402959 0.890129
0.136827 0.402959 0.890129
0.271342 0.402959 0.890129
0.402957 0.402959 0.890129
0.531126 0.402959 0.890129
0.655333 0.402959 0.890129
0.775130 0.402959 0.890129
0.890129 0.402959 0.890129
1.000000 0.402959 0.890129
0.000000 0.531125 0.890129
0.136827 0.531125 0.890129
0.271342 0.531125 0.890129
0.402957 0.531125 0.890129
0.531126 0.531125 0.890129
0.655333 0.531125 0.890129
0.775130 0.531125 0.890129
0.890129 0.531125 0.890129
1.000000 0.531125 0.890129
0.000000 0.655330 0.890129
0.136827 0.655330 0.890129
0.271342 0.655330 0.890129
0.402957 0.655330 0.890129
0.531126 0.655330 0.890129
0.655333 0.655330 0.890129
0.775130 0.655330 0.890129
0.890129 0.655330 0.890129
1.000000 0.655330 0.890129
0.000000 0.775130 0.890129
0.136827 0.775130 0.890129
0.271342 0.775130 0.890129
0.402957 0.775130 0.890129
0.531126 0.775130 0.890129
0.655333 0.775130 0.890129
0.775130 0.775130 0.890129
0.890129 0.775130 0.890129
1.000000 0.775130 0.890129
0.000000 0.890131 0.890129
0.136827 0.890131 0.890129
0.271342 0.890131 0.890129
0.402957 0.890131 0.890129
0.531126 0.890131 0.890129
0.655333 0.890131 0.890129
0.775130 0.890131 0.890129
0.890129 0.890131 0.890129
1.000000 0.890131 0.890129
0.000000 1.000000 0.890129
0.136827 1.000000 0.890129
0.271342 1.000000 0.890129
0.402957 1.000000 0.890129
0.531126 1.000000 0.890129
0.655333 1.000000 0.890129
0.775130 1.000000 0.890129
0.890129 1.000000 0.890129
1.000000 1.000000 0.890129
0.000000 0.000000 1.000000
0.136827 0.000000 1.000000
0.271342 0.000000 1.000000
0.402957 0.000000 1.000000
0.531126 0.000000 1.000000
0.655333 0.000000 1.000000
0.775130 0.000000 1.000000
0.890129 0.000000 1.000000
1.000000 0.000000 1.000000
0.000000 0.136833 1.000000
0.136827 0.136833 1.000000
0.271342 0.136833 1.000000
0.402957 0.136833 1.000000
0.531126 0.136833 1.000000
0.655333 0.136833 1.000000
0.775130 0.136833 1.000000
0.890129 0.136833 1.000000
1.000000 0.136833 1.000000
0.000000 0.271343 1.000000
0.136827 0.271343 1.000000
0.271342 0.271343 1.000000
0.402957 0.271343 1.000000
0.531126 0.271343 1.000000
0.655333 0.271343 1.000000
0.775130 0.271343 1.000000
0.890129 0.271343 1.000000
1.000000 0.271343 1.000000
0.000000 0.402959 1.000000
0.136827 0.402959 1.000000
0.271342 0.402959 1.000000
0.402957 0.402959 1.000000
0.531126 0.402959 1.000000
0.655333 0.402959 1.000000
0.775130 0.402959 1.000000
0.890129 0.402959 1.000000
1.000000 0.402959 1.000000
0.000000 0.531125 1.000000
0.136827 0.531125 1.000000
0.271342 0.531125 1.000000
0.402957 0.531125 1.000000
0.531126 0.531125 1.000000
0.655333 0.531125 1.000000
0.775130 0.531125 1.000000
0.890129 0.531125 1.000000
1.000000 0.531125 1.000000
0.000000 0.655330 1.000000
0.136827 0.655330 1.000000
0.271342 0.655330 1.000000
0.402957 0.655330 1.000000
0.531126 0.655330 1.000000
0.655333 0.655330 1.000000
0.775130 0.655330 1.000000
0.890129 0.655330 1.000000
1.000000 0.655330 1.000000
0.000000 0.775130 1.000000
0.136827 0.775130 1.000000
0.271342 0.775130 1.000000
0.402957 0.775130 1.000000
0.531126 0.775130 1.000000
0.655333 0.775130 1.000000
0.775130 0.775130 1.000000
0.890129 0.775130 1.000000
1.000000 0.775130 1.000000
0.000000 0.890131 1.000000
0.136827 0.890131 1.000000
0.271342 0.890131 1.000000
0.402957 0.890131 1.000000
0.531126 0.890131 1.000000
0.655333 0.890131 1.000000
0.775130 0.890131 1.000000
0.890129 0.890131 1.000000
1.000000 0.890131 1.000000
0.000000 1.000000 1.000000
0.136827 1.000000 1.000000
0.271342 1.000000 1.000000
0.402957 1.000000 1.000000
0.531126 1.000000 1.000000
0.655333 1.000000 1.000000
0.775130 1.000000 1.000000
0.890129 1.000000 1.000000
1.000000 1.000000 1.000000
