luts/kodak_aerochrome.cube
TITLE "Aerochrome Infrared Style"
LUT_3D_SIZE 9
DOMAIN_MIN 0.0 0.0 0.0
DOMAIN_MAX 1.0 1.0 1.0
0.000000 0.000000 0.000000
0.112500 0.000000 0.000000
0.225000 0.000000 0.000000
0.337500 0.000000 0.000000
0.450000 0.000000 0.000000
0.562500 0.000000 0.000000
0.675000 0.000000 0.000000
0.787500 0.000000 0.000000
0.900000 0.000000 0.000000
0.525000 0.000000 0.000000
0.125000 0.125000 0.000000
0.225000 0.087500 0.000000
0.337500 0.087500 0.000000
0.450000 0.087500 0.000000
0.562500 0.087500 0.000000
0.675000 0.087500 0.000000
0.787500 0.087500 0.000000
0.900000 0.087500 0.000000
0.650000 0.000000 0.000000
0.650000 0.062500 0.000000
0.250000 0.250000 0.000000
0.337500 0.175000 0.000000
0.450000 0.175000 0.000000
0.562500 0.175000 0.000000
0.675000 0.175000 0.000000
0.787500 0.175000 0.000000
0.900000 0.175000 0.000000
0.775000 0.000000 0.000000
0.775000 0.062500 0.000000
0.775000 0.125000 0.000000
0.375000 0.375000 0.000000
0.450000 0.262500 0.000000
0.562500 0.262500 0.000000
0.675000 0.262500 0.000000
0.787500 0.262500 0.000000
0.900000 0.262500 0.000000
0.900000 0.000000 0.000000
0.900000 0.062500 0.000000
0.900000 0.125000 0.000000
0.900000 0.187500 0.000000
0.500000 0.500000 0.000000
0.562500 0.350000 0.000000
0.675000 0.350000 0.000000
0.787500 0.350000 0.000000
0.900000 0.350000 0.000000
1.000000 0.000000 0.000000
1.000000 0.062500 0.000000
1.000000 0.125000 0.000000
1.000000 0.187500 0.000000
1.000000 0.250000 0.000000
0.625000 0.625000 0.000000
0.675000 0.437500 0.000000
0.787500 0.437500 0.000000
0.900000 0.437500 0.000000
1.000000 0.000000 0.000000
1.000000 0.062500 0.000000
1.000000 0.125000 0.000000
1.000000 0.187500 0.000000
1.000000 0.250000 0.000000
1.000000 0.312500 0.000000
0.750000 0.750000 0.000000
0.787500 0.525000 0.000000
0.900000 0.525000 0.000000
1.000000 0.000000 0.000000
1.000000 0.062500 0.000000
1.000000 0.125000 0.000000
1.000000 0.187500 0.000000
1.000000 0.250000 0.000000
1.000000 0.312500 0.000000
1.000000 0.375000 0.000000
0.875000 0.875000 0.000000
0.900000 0.612500 0.000000
1.000000 0.000000 0.000000
1.000000 0.062500 0.000000
1.000000 0.125000 0.000000
1.000000 0.187500 0.000000
1.000000 0.250000 0.000000
1.000000 0.312500 0.000000
1.000000 0.375000 0.000000
1.000000 0.437500 0.000000
1.000000 1.000000 0.000000
0.000000 0.425000 0.125000
0.125000 0.000000 0.125000
0.225000 0.000000 0.100000
0.337500 0.000000 0.100000
0.450000 0.000000 0.100000
0.562500 0.000000 0.100000
0.675000 0.000000 0.100000
0.787500 0.000000 0.100000
0.900000 0.000000 0.100000
0.000000 0.125000 0.125000
0.125000 0.125000 0.125000
0.225000 0.087500 0.100000
0.337500 0.087500 0.100000
0.450000 0.087500 0.100000
0.562500 0.087500 0.100000
0.675000 0.087500 0.100000
0.787500 0.087500 0.100000
0.900000 0.087500 0.100000
0.650000 0.000000 0.062500
0.650000 0.062500 0.062500
0.250000 0.250000 0.125000
0.337500 0.175000 0.100000
0.450000 0.175000 0.100000
0.562500 0.175000 0.100000
0.675000 0.175000 0.100000
0.787500 0.175000 0.100000
0.900000 0.175000 0.100000
0.775000 0.000000 0.062500
0.775000 0.062500 0.062500
0.775000 0.125000 0.062500
0.375000 0.375000 0.125000
0.450000 0.262500 0.100000
0.562500 0.262500 0.100000
0.675000 0.262500 0.100000
0.787500 0.262500 0.100000
0.900000 0.262500 0.100000
0.900000 0.000000 0.062500
0.900000 0.062500 0.062500
0.900000 0.125000 0.062500
0.900000 0.187500 0.062500
0.500000 0.500000 0.125000
0.562500 0.350000 0.100000
0.675000 0.350000 0.100000
0.787500 0.350000 0.100000
0.900000 0.350000 0.100000
1.000000 0.000000 0.062500
1.000000 0.062500 0.062500
1.000000 0.125000 0.062500
1.000000 0.187500 0.062500
1.000000 0.250000 0.062500
0.625000 0.625000 0.125000
0.675000 0.437500 0.100000
0.787500 0.437500 0.100000
0.900000 0.437500 0.100000
1.000000 0.000000 0.062500
1.000000 0.062500 0.062500
1.000000 0.125000 0.062500
1.000000 0.187500 0.062500
1.000000 0.250000 0.062500
1.000000 0.312500 0.062500
0.750000 0.750000 0.125000
0.787500 0.525000 0.100000
0.900000 0.525000 0.100000
1.000000 0.000000 0.062500
1.000000 0.062500 0.062500
1.000000 0.125000 0.062500
1.000000 0.187500 0.062500
1.000000 0.250000 0.062500
1.000000 0.312500 0.062500
1.000000 0.375000 0.062500
0.875000 0.875000 0.125000
0.900000 0.612500 0.100000
1.000000 0.000000 0.062500
1.000000 0.062500 0.062500
1.000000 0.125000 0.062500
1.000000 0.187500 0.062500
1.000000 0.250000 0.062500
1.000000 0.312500 0.062500
1.000000 0.375000 0.062500
1.000000 0.437500 0.062500
1.000000 1.000000 0.125000
0.000000 0.550000 0.250000
0.062500 0.550000 0.250000
0.250000 0.000000 0.250000
0.337500 0.000000 0.200000
0.450000 0.000000 0.200000
0.562500 0.000000 0.200000
0.675000 0.000000 0.200000
0.787500 0.000000 0.200000
0.900000 0.000000 0.200000
0.000000 0.550000 0.250000
0.062500 0.550000 0.250000
0.250000 0.125000 0.250000
0.337500 0.087500 0.200000
0.450000 0.087500 0.200000
0.562500 0.087500 0.200000
0.675000 0.087500 0.200000
0.787500 0.087500 0.200000
0.900000 0.087500 0.200000
0.000000 0.250000 0.250000
0.125000 0.250000 0.250000
0.250000 0.250000 0.250000
0.337500 0.175000 0.200000
0.450000 0.175000 0.200000
0.562500 0.175000 0.200000
0.675000 0.175000 0.200000
0.787500 0.175000 0.200000
0.900000 0.175000 0.200000
0.775000 0.000000 0.125000
0.775000 0.062500 0.125000
0.775000 0.125000 0.125000
0.375000 0.375000 0.250000
0.450000 0.262500 0.200000
0.562500 0.262500 0.200000
0.675000 0.262500 0.200000
0.787500 0.262500 0.200000
0.900000 0.262500 0.200000
0.900000 0.000000 0.125000
0.900000 0.062500 0.125000
0.900000 0.125000 0.125000
0.900000 0.187500 0.125000
0.500000 0.500000 0.250000
0.562500 0.350000 0.200000
0.675000 0.350000 0.200000
0.787500 0.350000 0.200000
0.900000 0.350000 0.200000
1.000000 0.000000 0.125000
1.000000 0.062500 0.125000
1.000000 0.125000 0.125000
1.000000 0.187500 0.125000
1.000000 0.250000 0.125000
0.625000 0.625000 0.250000
0.675000 0.437500 0.200000
0.787500 0.437500 0.200000
0.900000 0.437500 0.200000
1.000000 0.000000 0.125000
1.000000 0.062500 0.125000
1.000000 0.125000 0.125000
1.000000 0.187500 0.125000
1.000000 0.250000 0.125000
1.000000 0.312500 0.125000
0.750000 0.750000 0.250000
0.787500 0.525000 0.200000
0.900000 0.525000 0.200000
1.000000 0.000000 0.125000
1.000000 0.062500 0.125000
1.000000 0.125000 0.125000
1.000000 0.187500 0.125000
1.000000 0.250000 0.125000
1.000000 0.312500 0.125000
1.000000 0.375000 0.125000
0.875000 0.875000 0.250000
0.900000 0.612500 0.200000
1.000000 0.000000 0.125000
1.000000 0.062500 0.125000
1.000000 0.125000 0.125000
1.000000 0.187500 0.125000
1.000000 0.250000 0.125000
1.000000 0.312500 0.125000
1.000000 0.375000 0.125000
1.000000 0.437500 0.125000
1.000000 1.000000 0.250000
0.000000 0.675000 0.375000
0.062500 0.675000 0.375000
0.125000 0.675000 0.375000
0.375000 0.000000 0.375000
0.450000 0.000000 0.300000
0.562500 0.000000 0.300000
0.675000 0.000000 0.300000
0.787500 0.000000 0.300000
0.900000 0.000000 0.300000
0.000000 0.675000 0.375000
0.062500 0.675000 0.375000
0.125000 0.675000 0.375000
0.375000 0.125000 0.375000
0.450000 0.087500 0.300000
0.562500 0.087500 0.300000
0.675000 0.087500 0.300000
0.787500 0.087500 0.300000
0.900000 0.087500 0.300000
0.000000 0.675000 0.375000
0.062500 0.675000 0.375000
0.125000 0.675000 0.375000
0.375000 0.250000 0.375000
0.450000 0.175000 0.300000
0.562500 0.175000 0.300000
0.675000 0.175000 0.300000
0.787500 0.175000 0.300000
0.900000 0.175000 0.300000
0.000000 0.375000 0.375000
0.125000 0.375000 0.375000
0.250000 0.375000 0.375000
0.375000 0.375000 0.375000
0.450000 0.262500 0.300000
0.562500 0.262500 0.300000
0.675000 0.262500 0.300000
0.787500 0.262500 0.300000
0.900000 0.262500 0.300000
0.900000 0.000000 0.187500
0.900000 0.062500 0.187500
0.900000 0.125000 0.187500
0.900000 0.187500 0.187500
0.500000 0.500000 0.375000
0.562500 0.350000 0.300000
0.675000 0.350000 0.300000
0.787500 0.350000 0.300000
0.900000 0.350000 0.300000
1.000000 0.000000 0.187500
1.000000 0.062500 0.187500
1.000000 0.125000 0.187500
1.000000 0.187500 0.187500
1.000000 0.250000 0.187500
0.625000 0.625000 0.375000
0.675000 0.437500 0.300000
0.787500 0.437500 0.300000
0.900000 0.437500 0.300000
1.000000 0.000000 0.187500
1.000000 0.062500 0.187500
1.000000 0.125000 0.187500
1.000000 0.187500 0.187500
1.000000 0.250000 0.187500
1.000000 0.312500 0.187500
0.750000 0.750000 0.375000
0.787500 0.525000 0.300000
0.900000 0.525000 0.300000
1.000000 0.000000 0.187500
1.000000 0.062500 0.187500
1.000000 0.125000 0.187500
1.000000 0.187500 0.187500
1.000000 0.250000 0.187500
1.000000 0.312500 0.187500
1.000000 0.375000 0.187500
0.875000 0.875000 0.375000
0.900000 0.612500 0.300000
1.000000 0.000000 0.187500
1.000000 0.062500 0.187500
1.000000 0.125000 0.187500
1.000000 0.187500 0.187500
1.000000 0.250000 0.187500
1.000000 0.312500 0.187500
1.000000 0.375000 0.187500
1.000000 0.437500 0.187500
1.000000 1.000000 0.375000
0.000000 0.800000 0.500000
0.062500 0.800000 0.500000
0.125000 0.800000 0.500000
0.187500 0.800000 0.500000
0.500000 0.000000 0.500000
0.562500 0.000000 0.400000
0.675000 0.000000 0.400000
0.787500 0.000000 0.400000
0.900000 0.000000 0.400000
0.000000 0.800000 0.500000
0.062500 0.800000 0.500000
0.125000 0.800000 0.500000
0.187500 0.800000 0.500000
0.500000 0.125000 0.500000
0.562500 0.087500 0.400000
0.675000 0.087500 0.400000
0.787500 0.087500 0.400000
0.900000 0.087500 0.400000
0.000000 0.800000 0.500000
0.062500 0.800000 0.500000
0.125000 0.800000 0.500000
0.187500 0.800000 0.500000
0.500000 0.250000 0.500000
0.562500 0.175000 0.400000
0.675000 0.175000 0.400000
0.787500 0.175000 0.400000
0.900000 0.175000 0.400000
0.000000 0.800000 0.500000
0.062500 0.800000 0.500000
0.125000 0.800000 0.500000
0.187500 0.800000 0.500000
0.500000 0.375000 0.500000
0.562500 0.262500 0.400000
0.675000 0.262500 0.400000
0.787500 0.262500 0.400000
0.900000 0.262500 0.400000
0.000000 0.500000 0.500000
0.125000 0.500000 0.500000
0.250000 0.500000 0.500000
0.375000 0.500000 0.500000
0.500000 0.500000 0.500000
0.562500 0.350000 0.400000
0.675000 0.350000 0.400000
0.787500 0.350000 0.400000
0.900000 0.350000 0.400000
1.000000 0.000000 0.250000
1.000000 0.062500 0.250000
1.000000 0.125000 0.250000
1.000000 0.187500 0.250000
1.000000 0.250000 0.250000
0.625000 0.625000 0.500000
0.675000 0.437500 0.400000
0.787500 0.437500 0.400000
0.900000 0.437500 0.400000
1.000000 0.000000 0.250000
1.000000 0.062500 0.250000
1.000000 0.125000 0.250000
1.000000 0.187500 0.250000
1.000000 0.250000 0.250000
1.000000 0.312500 0.250000
0.750000 0.750000 0.500000
0.787500 0.525000 0.400000
0.900000 0.525000 0.400000
1.000000 0.000000 0.250000
1.000000 0.062500 0.250000
1.000000 0.125000 0.250000
1.000000 0.187500 0.250000
1.000000 0.250000 0.250000
1.000000 0.312500 0.250000
1.000000 0.375000 0.250000
0.875000 0.875000 0.500000
0.900000 0.612500 0.400000
1.000000 0.000000 0.250000
1.000000 0.062500 0.250000
1.000000 0.125000 0.250000
1.000000 0.187500 0.250000
1.000000 0.250000 0.250000
1.000000 0.312500 0.250000
1.000000 0.375000 0.250000
1.000000 0.437500 0.250000
1.000000 1.000000 0.500000
0.000000 0.925000 0.625000
0.062500 0.925000 0.625000
0.125000 0.925000 0.625000
0.187500 0.925000 0.625000
0.250000 0.925000 0.625000
0.625000 0.000000 0.625000
0.675000 0.000000 0.500000
0.787500 0.000000 0.500000
0.900000 0.000000 0.500000
0.000000 0.925000 0.625000
0.062500 0.925000 0.625000
0.125000 0.925000 0.625000
0.187500 0.925000 0.625000
0.250000 0.925000 0.625000
0.625000 0.125000 0.625000
0.675000 0.087500 0.500000
0.787500 0.087500 0.500000
0.900000 0.087500 0.500000
0.000000 0.925000 0.625000
0.062500 0.925000 0.625000
0.125000 0.925000 0.625000
0.187500 0.925000 0.625000
0.250000 0.925000 0.625000
0.625000 0.250000 0.625000
0.675000 0.175000 0.500000
0.787500 0.175000 0.500000
0.900000 0.175000 0.500000
0.000000 0.925000 0.625000
0.062500 0.925000 0.625000
0.125000 0.925000 0.625000
0.187500 0.925000 0.625000
0.250000 0.925000 0.625000
0.625000 0.375000 0.625000
0.675000 0.262500 0.500000
0.787500 0.262500 0.500000
0.900000 0.262500 0.500000
0.000000 0.925000 0.625000
0.062500 0.925000 0.625000
0.125000 0.925000 0.625000
0.187500 0.925000 0.625000
0.250000 0.925000 0.625000
0.625000 0.500000 0.625000
0.675000 0.350000 0.500000
0.787500 0.350000 0.500000
0.900000 0.350000 0.500000
0.000000 0.625000 0.625000
0.125000 0.625000 0.625000
0.250000 0.625000 0.625000
0.375000 0.625000 0.625000
0.500000 0.625000 0.625000
0.625000 0.625000 0.625000
0.675000 0.437500 0.500000
0.787500 0.437500 0.500000
0.900000 0.437500 0.500000
1.000000 0.000000 0.312500
1.000000 0.062500 0.312500
1.000000 0.125000 0.312500
1.000000 0.187500 0.312500
1.000000 0.250000 0.312500
1.000000 0.312500 0.312500
0.750000 0.750000 0.625000
0.787500 0.525000 0.500000
0.900000 0.525000 0.500000
1.000000 0.000000 0.312500
1.000000 0.062500 0.312500
1.000000 0.125000 0.312500
1.000000 0.187500 0.312500
1.000000 0.250000 0.312500
1.000000 0.312500 0.312500
1.000000 0.375000 0.312500
0.875000 0.875000 0.625000
0.900000 0.612500 0.500000
1.000000 0.000000 0.312500
1.000000 0.062500 0.312500
1.000000 0.125000 0.312500
1.000000 0.187500 0.312500
1.000000 0.250000 0.312500
1.000000 0.312500 0.312500
1.000000 0.375000 0.312500
1.000000 0.437500 0.312500
1.000000 1.000000 0.625000
0.000000 1.000000 0.750000
0.062500 1.000000 0.750000
0.125000 1.000000 0.750000
0.187500 1.000000 0.750000
0.250000 1.000000 0.750000
0.312500 1.000000 0.750000
0.750000 0.000000 0.750000
0.787500 0.000000 0.600000
0.900000 0.000000 0.600000
0.000000 1.000000 0.750000
0.062500 1.000000 0.750000
0.125000 1.000000 0.750000
0.187500 1.000000 0.750000
0.250000 1.000000 0.750000
0.312500 1.000000 0.750000
0.750000 0.125000 0.750000
0.787500 0.087500 0.600000
0.900000 0.087500 0.600000
0.000000 1.000000 0.750000
0.062500 1.000000 0.750000
0.125000 1.000000 0.750000
0.187500 1.000000 0.750000
0.250000 1.000000 0.750000
0.312500 1.000000 0.750000
0.750000 0.250000 0.750000
0.787500 0.175000 0.600000
0.900000 0.175000 0.600000
0.000000 1.000000 0.750000
0.062500 1.000000 0.750000
0.125000 1.000000 0.750000
0.187500 1.000000 0.750000
0.250000 1.000000 0.750000
0.312500 1.000000 0.750000
0.750000 0.375000 0.750000
0.787500 0.262500 0.600000
0.900000 0.262500 0.600000
0.000000 1.000000 0.750000
0.062500 1.000000 0.750000
0.125000 1.000000 0.750000
0.187500 1.000000 0.750000
0.250000 1.000000 0.750000
0.312500 1.000000 0.750000
0.750000 0.500000 0.750000
0.787500 0.350000 0.600000
0.900000 0.350000 0.600000
0.000000 1.000000 0.750000
0.062500 1.000000 0.750000
0.125000 1.000000 0.750000
0.187500 1.000000 0.750000
0.250000 1.000000 0.750000
0.312500 1.000000 0.750000
0.750000 0.625000 0.750000
0.787500 0.437500 0.600000
0.900000 0.437500 0.600000
0.000000 0.750000 0.750000
0.125000 0.750000 0.750000
0.250000 0.750000 0.750000
0.375000 0.750000 0.750000
0.500000 0.750000 0.750000
0.625000 0.750000 0.750000
0.750000 0.750000 0.750000
0.787500 0.525000 0.600000
0.900000 0.525000 0.600000
1.000000 0.000000 0.375000
1.000000 0.062500 0.375000
1.000000 0.125000 0.375000
1.000000 0.187500 0.375000
1.000000 0.250000 0.375000
1.000000 0.312500 0.375000
1.000000 0.375000 0.375000
0.875000 0.875000 0.750000
0.900000 0.612500 0.600000
1.000000 0.000000 0.375000
1.000000 0.062500 0.375000
1.000000 0.125000 0.375000
1.000000 0.187500 0.375000
1.000000 0.250000 0.375000
1.000000 0.312500 0.375000
1.000000 0.375000 0.375000
1.000000 0.437500 0.375000
1.000000 1.000000 0.750000
0.000000 1.000000 0.875000
0.062500 1.000000 0.875000
0.125000 1.000000 0.875000
0.187500 1.000000 0.875000
0.250000 1.000000 0.875000
0.312500 1.000000 0.875000
0.375000 1.000000 0.875000
0.875000 0.000000 0.875000
0.900000 0.000000 0.700000
0.000000 1.000000 0.875000
0.062500 1.000000 0.875000
0.125000 1.000000 0.875000
0.187500 1.000000 0.875000
0.250000 1.000000 0.875000
0.312500 1.000000 0.875000
0.375000 1.000000 0.875000
0.875000 0.125000 0.875000
0.900000 0.087500 0.700000
0.000000 1.000000 0.875000
0.062500 1.000000 0.875000
0.125000 1.000000 0.875000
0.187500 1.000000 0.875000
0.250000 1.000000 0.875000
0.312500 1.000000 0.875000
0.375000 1.000000 0.875000
0.875000 0.250000 0.875000
0.900000 0.175000 0.700000
0.000000 1.000000 0.875000
0.062500 1.000000 0.875000
0.125000 1.000000 0.875000
0.187500 1.000000 0.875000
0.250000 1.000000 0.875000
0.312500 1.000000 0.875000
0.375000 1.000000 0.875000
0.875000 0.375000 0.875000
0.900000 0.262500 0.700000
0.000000 1.000000 0.875000
0.062500 1.000000 0.875000
0.125000 1.000000 0.875000
0.187500 1.000000 0.875000
0.250000 1.000000 0.875000
0.312500 1.000000 0.875000
0.375000 1.000000 0.875000
0.875000 0.500000 0.875000
0.900000 0.350000 0.700000
0.000000 1.000000 0.875000
0.062500 1.000000 0.875000
0.125000 1.000000 0.875000
0.187500 1.000000 0.875000
0.250000 1.000000 0.875000
0.312500 1.000000 0.875000
0.375000 1.000000 0.875000
0.875000 0.625000 0.875000
0.900000 0.437500 0.700000
0.000000 1.000000 0.875000
0.062500 1.000000 0.875000
0.125000 1.000000 0.875000
0.187500 1.000000 0.875000
0.250000 1.000000 0.875000
0.312500 1.000000 0.875000
0.375000 1.000000 0.875000
0.875000 0.750000 0.875000
0.900000 0.525000 0.700000
0.000000 0.875000 0.875000
0.125000 0.875000 0.875000
0.250000 0.875000 0.875000
0.375000 0.875000 0.875000
0.500000 0.875000 0.875000
0.625000 0.875000 0.875000
0.750000 0.875000 0.875000
0.875000 0.875000 0.875000
0.900000 0.612500 0.700000
1.000000 0.000000 0.437500
1.000000 0.062500 0.437500
1.000000 0.125000 0.437500
1.000000 0.187500 0.437500
1.000000 0.250000 0.437500
1.000000 0.312500 0.437500
1.000000 0.375000 0.437500
1.000000 0.437500 0.437500
1.000000 1.000000 0.875000
0.000000 1.000000 1.000000
0.062500 1.000000 1.000000
0.125000 1.000000 1.000000
0.187500 1.000000 1.000000
0.250000 1.000000 1.000000
0.312500 1.000000 1.000000
0.375000 1.000000 1.000000
0.437500 1.000000 1.000000
1.000000 0.000000 1.000000
0.000000 1.000000 1.000000
0.062500 1.000000 1.000000
0.125000 1.000000 1.000000
0.187500 1.000000 1.000000
0.250000 1.000000 1.000000
0.312500 1.000000 1.000000
0.375000 1.000000 1.000000
0.437500 1.000000 1.000000
1.000000 0.125000 1.000000
0.000000 1.000000 1.000000
0.062500 1.000000 1.000000
0.125000 1.000000 1.000000
0.187500 1.000000 1.000000
0.250000 1.000000 1.000000
0.312500 1.000000 1.000000
0.375000 1.000000 1.000000
0.437500 1.000000 1.000000
1.000000 0.250000 1.000000
0.000000 1.000000 1.000000
0.062500 1.000000 1.000000
0.125000 1.000000 1.000000
0.187500 1.000000 1.000000
0.250000 1.000000 1.000000
0.312500 1.000000 1.000000
0.375000 1.000000 1.000000
0.437500 1.000000 1.000000
1.000000 0.375000 1.000000
0.000000 1.000000 1.000000
0.062500 1.000000 1.000000
0.125000 1.000000 1.000000
0.187500 1.000000 1.000000
0.250000 1.000000 1.000000
0.312500 1.000000 1.000000
0.375000 1.000000 1.000000
0.437500 1.000000 1.000000
1.000000 0.500000 1.000000
0.000000 1.000000 1.000000
0.062500 1.000000 1.000000
0.125000 1.000000 1.000000
0.187500 1.000000 1.000000
0.250000 1.000000 1.000000
0.312500 1.000000 1.000000
0.375000 1.000000 1.000000
0.437500 1.000000 1.000000
1.000000 0.625000 1.000000
0.000000 1.000000 1.000000
0.062500 1.000000 1.000000
0.125000 1.000000 1.000000
0.187500 1.000000 1.000000
0.250000 1.000000 1.000000
0.312500 1.000000 1.000000
0.375000 1.000000 1.000000
0.437500 1.000000 1.000000
1.000000 0.750000 1.000000
0.000000 1.000000 1.000000
0.062500 1.000000 1.000000
0.125000 1.000000 1.000000
0.187500 1.000000 1.000000
0.250000 1.000000 1.000000
0.312500 1.000000 1.000000
0.375000 1.000000 1.000000
0.437500 1.000000 1.000000
1.000000 0.875000 1.000000
0.000000 1.000000 1.000000
0.125000 1.000000 1.000000
0.250000 1.000000 1.000000
0.375000 1.000000 1.000000
0.500000 1.000000 1.000000
0.625000 1.000000 1.000000
0.750000 1.000000 1.000000
0.875000 1.000000 1.000000
1.000000 1.000000 1.000000
