luts/kodak_ektar_100.cube
TITLE Film LUT
LUT_3D_SIZE 9
DOMAIN_MIN 0.0 0.0 0.0
DOMAIN_MAX 1.0 1.0 1.0
0.000000 0.000000 0.000000
0.084454 0.000000 0.000000
0.241186 0.000000 0.000000
0.394226 0.000000 0.000000
0.542657 0.000000 0.000000
0.685626 0.000000 0.000000
0.822392 0.000000 0.000000
0.952341 0.000000 0.000000
1.000000 0.000000 0.000000
0.000000 0.084454 0.000000
0.084454 0.084454 0.000000
0.241186 0.084454 0.000000
0.394226 0.084454 0.000000
0.542657 0.084454 0.000000
0.685626 0.084454 0.000000
0.822392 0.084454 0.000000
0.952341 0.084454 0.000000
1.000000 0.084454 0.000000
0.000000 0.241186 0.000000
0.084454 0.241186 0.000000
0.241186 0.241186 0.000000
0.394226 0.241186 0.000000
0.542657 0.241186 0.000000
0.685626 0.241186 0.000000
0.822392 0.241186 0.000000
0.952341 0.241186 0.000000
1.000000 0.241186 0.000000
0.000000 0.394226 0.000000
0.084454 0.394226 0.000000
0.241186 0.394226 0.000000
0.394226 0.394226 0.000000
0.542657 0.394226 0.000000
0.685626 0.394226 0.000000
0.822392 0.394226 0.000000
0.952341 0.394226 0.000000
1.000000 0.394226 0.000000
0.000000 0.542657 0.000000
0.084454 0.542657 0.000000
0.241186 0.542657 0.000000
0.394226 0.542657 0.000000
0.542657 0.542657 0.000000
0.685626 0.542657 0.000000
0.822392 0.542657 0.000000
0.952341 0.542657 0.000000
1.000000 0.542657 0.000000
0.000000 0.685626 0.000000
0.084454 0.685626 0.000000
0.241186 0.685626 0.000000
0.394226 0.685626 0.000000
0.542657 0.685626 0.000000
0.685626 0.685626 0.000000
0.822392 0.685626 0.000000
0.952341 0.685626 0.000000
1.000000 0.685626 0.000000
0.000000 0.822392 0.000000
0.084454 0.822392 0.000000
0.241186 0.822392 0.000000
0.394226 0.822392 0.000000
0.542657 0.822392 0.000000
0.685626 0.822392 0.000000
0.822392 0.822392 0.000000
0.952341 0.822392 0.000000
1.000000 0.822392 0.000000
0.000000 0.952341 0.000000
0.084454 0.952341 0.000000
0.241186 0.952341 0.000000
0.394226 0.952341 0.000000
0.542657 0.952341 0.000000
0.685626 0.952341 0.000000
0.822392 0.952341 0.000000
0.952341 0.952341 0.000000
1.000000 0.952341 0.000000
0.000000 1.000000 0.000000
0.084454 1.000000 0.000000
0.241186 1.000000 0.000000
0.394226 1.000000 0.000000
0.542657 1.000000 0.000000
0.685626 1.000000 0.000000
0.822392 1.000000 0.000000
0.952341 1.000000 0.000000
1.000000 1.000000 0.000000
0.000000 0.000000 0.084454
0.084454 0.000000 0.084454
0.241186 0.000000 0.084454
0.394226 0.000000 0.084454
0.542657 0.000000 0.084454
0.685626 0.000000 0.084454
0.822392 0.000000 0.084454
0.952341 0.000000 0.084454
1.000000 0.000000 0.084454
0.000000 0.084454 0.084454
0.084454 0.084454 0.084454
0.241186 0.037435 0.037435
0.394226 0.000000 0.000000
0.542657 0.000000 0.000000
0.685626 0.000000 0.000000
0.822392 0.000000 0.000000
0.952341 0.000000 0.000000
1.000000 0.000000 0.000000
0.000000 0.241186 0.084454
0.037435 0.241186 0.037435
0.241186 0.241186 0.037435
0.394226 0.195273 0.000000
0.542657 0.150744 0.000000
0.685626 0.123302 0.000000
0.822392 0.115598 0.000000
0.952341 0.110527 0.000000
1.000000 0.106961 0.000000
0.000000 0.394226 0.084454
0.000000 0.394226 0.000000
0.195273 0.394226 0.000000
0.394226 0.394226 0.000000
0.542657 0.349697 0.000000
0.685626 0.316936 0.000000
0.822392 0.301708 0.000000
0.952341 0.291686 0.000000
1.000000 0.284638 0.000000
0.000000 0.542657 0.084454
0.000000 0.542657 0.000000
0.150744 0.542657 0.000000
0.349697 0.542657 0.000000
0.542657 0.542657 0.000000
0.685626 0.504736 0.000000
0.822392 0.482211 0.000000
0.952341 0.467387 0.000000
1.000000 0.456962 0.000000
0.000000 0.685626 0.084454
0.000000 0.685626 0.000000
0.123302 0.685626 0.000000
0.316936 0.685626 0.000000
0.504736 0.685626 0.000000
0.685626 0.685626 0.000000
0.822392 0.656074 0.000000
0.952341 0.636623 0.000000
1.000000 0.622946 0.000000
0.000000 0.822392 0.084454
0.000000 0.822392 0.000000
0.115598 0.822392 0.000000
0.301708 0.822392 0.000000
0.482211 0.822392 0.000000
0.656074 0.822392 0.000000
0.822392 0.822392 0.000000
0.952341 0.798517 0.000000
1.000000 0.781728 0.000000
0.000000 0.952341 0.084454
0.000000 0.952341 0.000000
0.110527 0.952341 0.000000
0.291686 0.952341 0.000000
0.467387 0.952341 0.000000
0.636623 0.952341 0.000000
0.798517 0.952341 0.000000
0.952341 0.952341 0.000000
1.000000 0.932596 0.000000
0.000000 1.000000 0.084454
0.000000 1.000000 0.000000
0.106961 1.000000 0.000000
0.284638 1.000000 0.000000
0.456962 1.000000 0.000000
0.622946 1.000000 0.000000
0.781728 1.000000 0.000000
0.932596 1.000000 0.000000
1.000000 1.000000 0.000000
0.000000 0.000000 0.241186
0.084454 0.000000 0.241186
0.241186 0.000000 0.241186
0.394226 0.000000 0.241186
0.542657 0.000000 0.241186
0.685626 0.000000 0.241186
0.822392 0.000000 0.241186
0.952341 0.000000 0.241186
1.000000 0.000000 0.241186
0.000000 0.084454 0.241186
0.037435 0.037435 0.241186
0.241186 0.037435 0.241186
0.394226 0.000000 0.195273
0.542657 0.000000 0.150744
0.685626 0.000000 0.123302
0.822392 0.000000 0.115598
0.952341 0.000000 0.110527
1.000000 0.000000 0.106961
0.000000 0.241186 0.241186
0.037435 0.241186 0.241186
0.241186 0.241186 0.241186
0.394226 0.195273 0.195273
0.542657 0.150744 0.150744
0.685626 0.107853 0.107853
0.822392 0.066824 0.066824
0.952341 0.027839 0.027839
1.000000 0.000000 0.000000
0.000000 0.394226 0.241186
0.000000 0.394226 0.195273
0.195273 0.394226 0.195273
0.394226 0.394226 0.195273
0.542657 0.349697 0.150744
0.685626 0.306807 0.107853
0.822392 0.265777 0.066824
0.952341 0.226792 0.027839
1.000000 0.189994 0.000000
0.000000 0.542657 0.241186
0.000000 0.542657 0.150744
0.150744 0.542657 0.150744
0.349697 0.542657 0.150744
0.542657 0.542657 0.150744
0.685626 0.499766 0.107853
0.822392 0.458736 0.066824
0.952341 0.419752 0.027839
1.000000 0.382954 0.000000
0.000000 0.685626 0.241186
0.000000 0.685626 0.123302
0.107853 0.685626 0.107853
0.306807 0.685626 0.107853
0.499766 0.685626 0.107853
0.685626 0.685626 0.107853
0.822392 0.644596 0.066824
0.952341 0.605612 0.027839
1.000000 0.568814 0.000000
0.000000 0.822392 0.241186
0.000000 0.822392 0.115598
0.066824 0.822392 0.066824
0.265777 0.822392 0.066824
0.458736 0.822392 0.066824
0.644596 0.822392 0.066824
0.822392 0.822392 0.066824
0.952341 0.783407 0.027839
1.000000 0.746610 0.000000
0.000000 0.952341 0.241186
0.000000 0.952341 0.110527
0.027839 0.952341 0.027839
0.226792 0.952341 0.027839
0.419752 0.952341 0.027839
0.605612 0.952341 0.027839
0.783407 0.952341 0.027839
0.952341 0.952341 0.027839
1.000000 0.915543 0.000000
0.000000 1.000000 0.241186
0.000000 1.000000 0.106961
0.000000 1.000000 0.000000
0.189994 1.000000 0.000000
0.382954 1.000000 0.000000
0.568814 1.000000 0.000000
0.746610 1.000000 0.000000
0.915543 1.000000 0.000000
1.000000 1.000000 0.000000
0.000000 0.000000 0.394226
0.084454 0.000000 0.394226
0.241186 0.000000 0.394226
0.394226 0.000000 0.394226
0.542657 0.000000 0.394226
0.685626 0.000000 0.394226
0.822392 0.000000 0.394226
0.952341 0.000000 0.394226
1.000000 0.000000 0.394226
0.000000 0.084454 0.394226
0.000000 0.000000 0.394226
0.195273 0.000000 0.394226
0.394226 0.000000 0.394226
0.542657 0.000000 0.349697
0.685626 0.000000 0.316936
0.822392 0.000000 0.301708
0.952341 0.000000 0.291686
1.000000 0.000000 0.284638
0.000000 0.241186 0.394226
0.000000 0.195273 0.394226
0.195273 0.195273 0.394226
0.394226 0.195273 0.394226
0.542657 0.150744 0.349697
0.685626 0.107853 0.306807
0.822392 0.066824 0.265777
0.952341 0.027839 0.226792
1.000000 0.000000 0.189994
0.000000 0.394226 0.394226
0.000000 0.394226 0.394226
0.195273 0.394226 0.394226
0.394226 0.394226 0.394226
0.542657 0.349697 0.349697
0.685626 0.306807 0.306807
0.822392 0.265777 0.265777
0.952341 0.226792 0.226792
1.000000 0.189994 0.189994
0.000000 0.542657 0.394226
0.000000 0.542657 0.349697
0.150744 0.542657 0.349697
0.349697 0.542657 0.349697
0.542657 0.542657 0.349697
0.685626 0.499766 0.306807
0.822392 0.458736 0.265777
0.952341 0.419752 0.226792
1.000000 0.382954 0.189994
0.000000 0.685626 0.394226
0.000000 0.685626 0.316936
0.107853 0.685626 0.306807
0.306807 0.685626 0.306807
0.499766 0.685626 0.306807
0.685626 0.685626 0.306807
0.822392 0.644596 0.265777
0.952341 0.605612 0.226792
1.000000 0.568814 0.189994
0.000000 0.822392 0.394226
0.000000 0.822392 0.301708
0.066824 0.822392 0.265777
0.265777 0.822392 0.265777
0.458736 0.822392 0.265777
0.644596 0.822392 0.265777
0.822392 0.822392 0.265777
0.952341 0.783407 0.226792
1.000000 0.746610 0.189994
0.000000 0.952341 0.394226
0.000000 0.952341 0.291686
0.027839 0.952341 0.226792
0.226792 0.952341 0.226792
0.419752 0.952341 0.226792
0.605612 0.952341 0.226792
0.783407 0.952341 0.226792
0.952341 0.952341 0.226792
1.000000 0.915543 0.189994
0.000000 1.000000 0.394226
0.000000 1.000000 0.284638
0.000000 1.000000 0.189994
0.189994 1.000000 0.189994
0.382954 1.000000 0.189994
0.568814 1.000000 0.189994
0.746610 1.000000 0.189994
0.915543 1.000000 0.189994
1.000000 1.000000 0.189994
0.000000 0.000000 0.542657
0.084454 0.000000 0.542657
0.241186 0.000000 0.542657
0.394226 0.000000 0.542657
0.542657 0.000000 0.542657
0.685626 0.000000 0.542657
0.822392 0.000000 0.542657
0.952341 0.000000 0.542657
1.000000 0.000000 0.542657
0.000000 0.084454 0.542657
0.000000 0.000000 0.542657
0.150744 0.000000 0.542657
0.349697 0.000000 0.542657
0.542657 0.000000 0.542657
0.685626 0.000000 0.504736
0.822392 0.000000 0.482211
0.952341 0.000000 0.467387
1.000000 0.000000 0.456962
0.000000 0.241186 0.542657
0.000000 0.150744 0.542657
0.150744 0.150744 0.542657
0.349697 0.150744 0.542657
0.542657 0.150744 0.542657
0.685626 0.107853 0.499766
0.822392 0.066824 0.458736
0.952341 0.027839 0.419752
1.000000 0.000000 0.382954
0.000000 0.394226 0.542657
0.000000 0.349697 0.542657
0.150744 0.349697 0.542657
0.349697 0.349697 0.542657
0.542657 0.349697 0.542657
0.685626 0.306807 0.499766
0.822392 0.265777 0.458736
0.952341 0.226792 0.419752
1.000000 0.189994 0.382954
0.000000 0.542657 0.542657
0.000000 0.542657 0.542657
0.150744 0.542657 0.542657
0.349697 0.542657 0.542657
0.542657 0.542657 0.542657
0.685626 0.499766 0.499766
0.822392 0.458736 0.458736
0.952341 0.419752 0.419752
1.000000 0.382954 0.382954
0.000000 0.685626 0.542657
0.000000 0.685626 0.504736
0.107853 0.685626 0.499766
0.306807 0.685626 0.499766
0.499766 0.685626 0.499766
0.685626 0.685626 0.499766
0.822392 0.644596 0.458736
0.952341 0.605612 0.419752
1.000000 0.568814 0.382954
0.000000 0.822392 0.542657
0.000000 0.822392 0.482211
0.066824 0.822392 0.458736
0.265777 0.822392 0.458736
0.458736 0.822392 0.458736
0.644596 0.822392 0.458736
0.822392 0.822392 0.458736
0.952341 0.783407 0.419752
1.000000 0.746610 0.382954
0.000000 0.952341 0.542657
0.000000 0.952341 0.467387
0.027839 0.952341 0.419752
0.226792 0.952341 0.419752
0.419752 0.952341 0.419752
0.605612 0.952341 0.419752
0.783407 0.952341 0.419752
0.952341 0.952341 0.419752
1.000000 0.915543 0.382954
0.000000 1.000000 0.542657
0.000000 1.000000 0.456962
0.000000 1.000000 0.382954
0.189994 1.000000 0.382954
0.382954 1.000000 0.382954
0.568814 1.000000 0.382954
0.746610 1.000000 0.382954
0.915543 1.000000 0.382954
1.000000 1.000000 0.382954
0.000000 0.000000 0.685626
0.084454 0.000000 0.685626
0.241186 0.000000 0.685626
0.394226 0.000000 0.685626
0.542657 0.000000 0.685626
0.685626 0.000000 0.685626
0.822392 0.000000 0.685626
0.952341 0.000000 0.685626
1.000000 0.000000 0.685626
0.000000 0.084454 0.685626
0.000000 0.000000 0.685626
0.123302 0.000000 0.685626
0.316936 0.000000 0.685626
0.504736 0.000000 0.685626
0.685626 0.000000 0.685626
0.822392 0.000000 0.656074
0.952341 0.000000 0.636623
1.000000 0.000000 0.622946
0.000000 0.241186 0.685626
0.000000 0.123302 0.685626
0.107853 0.107853 0.685626
0.306807 0.107853 0.685626
0.499766 0.107853 0.685626
0.685626 0.107853 0.685626
0.822392 0.066824 0.644596
0.952341 0.027839 0.605612
1.000000 0.000000 0.568814
0.000000 0.394226 0.685626
0.000000 0.316936 0.685626
0.107853 0.306807 0.685626
0.306807 0.306807 0.685626
0.499766 0.306807 0.685626
0.685626 0.306807 0.685626
0.822392 0.265777 0.644596
0.952341 0.226792 0.605612
1.000000 0.189994 0.568814
0.000000 0.542657 0.685626
0.000000 0.504736 0.685626
0.107853 0.499766 0.685626
0.306807 0.499766 0.685626
0.499766 0.499766 0.685626
0.685626 0.499766 0.685626
0.822392 0.458736 0.644596
0.952341 0.419752 0.605612
1.000000 0.382954 0.568814
0.000000 0.685626 0.685626
0.000000 0.685626 0.685626
0.107853 0.685626 0.685626
0.306807 0.685626 0.685626
0.499766 0.685626 0.685626
0.685626 0.685626 0.685626
0.822392 0.644596 0.644596
0.952341 0.605612 0.605612
1.000000 0.568814 0.568814
0.000000 0.822392 0.685626
0.000000 0.822392 0.656074
0.066824 0.822392 0.644596
0.265777 0.822392 0.644596
0.458736 0.822392 0.644596
0.644596 0.822392 0.644596
0.822392 0.822392 0.644596
0.952341 0.783407 0.605612
1.000000 0.746610 0.568814
0.000000 0.952341 0.685626
0.000000 0.952341 0.636623
0.027839 0.952341 0.605612
0.226792 0.952341 0.605612
0.419752 0.952341 0.605612
0.605612 0.952341 0.605612
0.783407 0.952341 0.605612
0.952341 0.952341 0.605612
1.000000 0.915543 0.568814
0.000000 1.000000 0.685626
0.000000 1.000000 0.622946
0.000000 1.000000 0.568814
0.189994 1.000000 0.568814
0.382954 1.000000 0.568814
0.568814 1.000000 0.568814
0.746610 1.000000 0.568814
0.915543 1.000000 0.568814
1.000000 1.000000 0.568814
0.000000 0.000000 0.822392
0.084454 0.000000 0.822392
0.241186 0.000000 0.822392
0.394226 0.000000 0.822392
0.542657 0.000000 0.822392
0.685626 0.000000 0.822392
0.822392 0.000000 0.822392
0.952341 0.000000 0.822392
1.000000 0.000000 0.822392
0.000000 0.084454 0.822392
0.000000 0.000000 0.822392
0.115598 0.000000 0.822392
0.301708 0.000000 0.822392
0.482211 0.000000 0.822392
0.656074 0.000000 0.822392
0.822392 0.000000 0.822392
0.952341 0.000000 0.798517
1.000000 0.000000 0.781728
0.000000 0.241186 0.822392
0.000000 0.115598 0.822392
0.066824 0.066824 0.822392
0.265777 0.066824 0.822392
0.458736 0.066824 0.822392
0.644596 0.066824 0.822392
0.822392 0.066824 0.822392
0.952341 0.027839 0.783407
1.000000 0.000000 0.746610
0.000000 0.394226 0.822392
0.000000 0.301708 0.822392
0.066824 0.265777 0.822392
0.265777 0.265777 0.822392
0.458736 0.265777 0.822392
0.644596 0.265777 0.822392
0.822392 0.265777 0.822392
0.952341 0.226792 0.783407
1.000000 0.189994 0.746610
0.000000 0.542657 0.822392
0.000000 0.482211 0.822392
0.066824 0.458736 0.822392
0.265777 0.458736 0.822392
0.458736 0.458736 0.822392
0.644596 0.458736 0.822392
0.822392 0.458736 0.822392
0.952341 0.419752 0.783407
1.000000 0.382954 0.746610
0.000000 0.685626 0.822392
0.000000 0.656074 0.822392
0.066824 0.644596 0.822392
0.265777 0.644596 0.822392
0.458736 0.644596 0.822392
0.644596 0.644596 0.822392
0.822392 0.644596 0.822392
0.952341 0.605612 0.783407
1.000000 0.568814 0.746610
0.000000 0.822392 0.822392
0.000000 0.822392 0.822392
0.066824 0.822392 0.822392
0.265777 0.822392 0.822392
0.458736 0.822392 0.822392
0.644596 0.822392 0.822392
0.822392 0.822392 0.822392
0.952341 0.783407 0.783407
1.000000 0.746610 0.746610
0.000000 0.952341 0.822392
0.000000 0.952341 0.798517
0.027839 0.952341 0.783407
0.226792 0.952341 0.783407
0.419752 0.952341 0.783407
0.605612 0.952341 0.783407
0.783407 0.952341 0.783407
0.952341 0.952341 0.783407
1.000000 0.915543 0.746610
0.000000 1.000000 0.822392
0.000000 1.000000 0.781728
0.000000 1.000000 0.746610
0.189994 1.000000 0.746610
0.382954 1.000000 0.746610
0.568814 1.000000 0.746610
0.746610 1.000000 0.746610
0.915543 1.000000 0.746610
1.000000 1.000000 0.746610
0.000000 0.000000 0.952341
0.084454 0.000000 0.952341
0.241186 0.000000 0.952341
0.394226 0.000000 0.952341
0.542657 0.000000 0.952341
0.685626 0.000000 0.952341
0.822392 0.000000 0.952341
0.952341 0.000000 0.952341
1.000000 0.000000 0.952341
0.000000 0.084454 0.952341
0.000000 0.000000 0.952341
0.110527 0.000000 0.952341
0.291686 0.000000 0.952341
0.467387 0.000000 0.952341
0.636623 0.000000 0.952341
0.798517 0.000000 0.952341
0.952341 0.000000 0.952341
1.000000 0.000000 0.932596
0.000000 0.241186 0.952341
0.000000 0.110527 0.952341
0.027839 0.027839 0.952341
0.226792 0.027839 0.952341
0.419752 0.027839 0.952341
0.605612 0.027839 0.952341
0.783407 0.027839 0.952341
0.952341 0.027839 0.952341
1.000000 0.000000 0.915543
0.000000 0.394226 0.952341
0.000000 0.291686 0.952341
0.027839 0.226792 0.952341
0.226792 0.226792 0.952341
0.419752 0.226792 0.952341
0.605612 0.226792 0.952341
0.783407 0.226792 0.952341
0.952341 0.226792 0.952341
1.000000 0.189994 0.915543
0.000000 0.542657 0.952341
0.000000 0.467387 0.952341
0.027839 0.419752 0.952341
0.226792 0.419752 0.952341
0.419752 0.419752 0.952341
0.605612 0.419752 0.952341
0.783407 0.419752 0.952341
0.952341 0.419752 0.952341
1.000000 0.382954 0.915543
0.000000 0.685626 0.952341
0.000000 0.636623 0.952341
0.027839 0.605612 0.952341
0.226792 0.605612 0.952341
0.419752 0.605612 0.952341
0.605612 0.605612 0.952341
0.783407 0.605612 0.952341
0.952341 0.605612 0.952341
1.000000 0.568814 0.915543
0.000000 0.822392 0.952341
0.000000 0.798517 0.952341
0.027839 0.783407 0.952341
0.226792 0.783407 0.952341
0.419752 0.783407 0.952341
0.605612 0.783407 0.952341
0.783407 0.783407 0.952341
0.952341 0.783407 0.952341
1.000000 0.746610 0.915543
0.000000 0.952341 0.952341
0.000000 0.952341 0.952341
0.027839 0.952341 0.952341
0.226792 0.952341 0.952341
0.419752 0.952341 0.952341
0.605612 0.952341 0.952341
0.783407 0.952341 0.952341
0.952341 0.952341 0.952341
1.000000 0.915543 0.915543
0.000000 1.000000 0.952341
0.000000 1.000000 0.932596
0.000000 1.000000 0.915543
0.189994 1.000000 0.915543
0.382954 1.000000 0.915543
0.568814 1.000000 0.915543
0.746610 1.000000 0.915543
0.915543 1.000000 0.915543
1.000000 1.000000 0.915543
0.000000 0.000000 1.000000
0.084454 0.000000 1.000000
0.241186 0.000000 1.000000
0.394226 0.000000 1.000000
0.542657 0.000000 1.000000
0.685626 0.000000 1.000000
0.822392 0.000000 1.000000
0.952341 0.000000 1.000000
1.000000 0.000000 1.000000
0.000000 0.084454 1.000000
0.000000 0.000000 1.000000
0.106961 0.000000 1.000000
0.284638 0.000000 1.000000
0.456962 0.000000 1.000000
0.622946 0.000000 1.000000
0.781728 0.000000 1.000000
0.932596 0.000000 1.000000
1.000000 0.000000 1.000000
0.000000 0.241186 1.000000
0.000000 0.106961 1.000000
0.000000 0.000000 1.000000
0.189994 0.000000 1.000000
0.382954 0.000000 1.000000
0.568814 0.000000 1.000000
0.746610 0.000000 1.000000
0.915543 0.000000 1.000000
1.000000 0.000000 1.000000
0.000000 0.394226 1.000000
0.000000 0.284638 1.000000
0.000000 0.189994 1.000000
0.189994 0.189994 1.000000
0.382954 0.189994 1.000000
0.568814 0.189994 1.000000
0.746610 0.189994 1.000000
0.915543 0.189994 1.000000
1.000000 0.189994 1.000000
0.000000 0.542657 1.000000
0.000000 0.456962 1.000000
0.000000 0.382954 1.000000
0.189994 0.382954 1.000000
0.382954 0.382954 1.000000
0.568814 0.382954 1.000000
0.746610 0.382954 1.000000
0.915543 0.382954 1.000000
1.000000 0.382954 1.000000
0.000000 0.685626 1.000000
0.000000 0.622946 1.000000
0.000000 0.568814 1.000000
0.189994 0.568814 1.000000
0.382954 0.568814 1.000000
0.568814 0.568814 1.000000
0.746610 0.568814 1.000000
0.915543 0.568814 1.000000
1.000000 0.568814 1.000000
0.000000 0.822392 1.000000
0.000000 0.781728 1.000000
0.000000 0.746610 1.000000
0.189994 0.746610 1.000000
0.382954 0.746610 1.000000
0.568814 0.746610 1.000000
0.746610 0.746610 1.000000
0.915543 0.746610 1.000000
1.000000 0.746610 1.000000
0.000000 0.952341 1.000000
0.000000 0.932596 1.000000
0.000000 0.915543 1.000000
0.189994 0.915543 1.000000
0.382954 0.915543 1.000000
0.568814 0.915543 1.000000
0.746610 0.915543 1.000000
0.915543 0.915543 1.000000
1.000000 0.915543 1.000000
0.000000 1.000000 1.000000
0.000000 1.000000 1.000000
0.000000 1.000000 1.000000
0.189994 1.000000 1.000000
0.382954 1.000000 1.000000
0.568814 1.000000 1.000000
0.746610 1.000000 1.000000
0.915543 1.000000 1.000000
1.000000 1.000000 1.000000
