luts/KODAK FPE 05.cube
TITLE "Generated by Resolve"
LUT_3D_SIZE 5
0.020798 0.0303807 0.0381323
0.200961 0.0665599 0.0351568
0.464302 0.0865492 0.0194858
0.658732 0.119982 0.0376745
0.781704 0.163684 0.0842603
0.0202945 0.179446 0.0998245
0.247959 0.220157 0.066392
0.546029 0.261799 0.024918
0.726665 0.291356 0.0175631
0.837629 0.329305 0.0411078
0.0338903 0.392325 0.131609
0.226337 0.44596 0.0673228
0.58201 0.499886 0.042649
0.794079 0.536248 0.033341
0.915618 0.571923 0.0349126
0.0608682 0.571939 0.150988
0.131289 0.632547 0.117968
0.567269 0.684077 0.0866255
0.825696 0.734401 0.0959029
0.953063 0.770459 0.10515
0.0821546 0.724529 0.317113
0.167208 0.765087 0.216022
0.368307 0.787076 0.193454
0.481544 0.820172 0.237766
0.964202 0.946487 0.373327
0.031632 0.041886 0.185061
0.226276 0.0731823 0.213901
0.507134 0.0777905 0.233951
0.672663 0.114183 0.250187
0.788602 0.154223 0.268956
0.0102388 0.212741 0.269001
0.224323 0.245487 0.271885
0.548791 0.268437 0.259144
0.724392 0.285817 0.259693
0.832395 0.321828 0.266651
0.0164187 0.423224 0.313252
0.0975662 0.486107 0.312276
0.560906 0.516716 0.280995
0.776501 0.541299 0.267918
0.89482 0.579721 0.265278
0.0373541 0.586542 0.357198
0.0376593 0.654505 0.34435
0.529046 0.693523 0.287434
0.797238 0.737408 0.280858
0.945769 0.775143 0.282918
0.0576486 0.732723 0.478416
0.0458686 0.787137 0.470222
0.326452 0.792004 0.437522
0.445304 0.818952 0.468788
0.96553 0.945556 0.601144
0.0877394 0.0704051 0.386603
0.274067 0.0872053 0.425238
0.504982 0.0950027 0.436728
0.687602 0.131991 0.455955
0.811368 0.181903 0.484016
0.0144808 0.251881 0.474052
0.243961 0.289036 0.493889
0.540505 0.298009 0.497826
0.736019 0.307347 0.49543
0.840528 0.347799 0.505455
0.00874342 0.456474 0.532357
0.0206912 0.526329 0.552148
0.535897 0.544549 0.529595
0.765667 0.563928 0.527413
0.880369 0.583871 0.527932
0.0278477 0.613809 0.564935
0.0203098 0.683253 0.570764
0.48397 0.726192 0.545998
0.778012 0.764401 0.554894
0.924956 0.79379 0.55082
0.0518654 0.738689 0.607584
0.0360723 0.791455 0.606485
0.305226 0.802747 0.585199
0.426993 0.828351 0.612222
0.963958 0.960204 0.737346
0.147021 0.152743 0.544045
0.311315 0.16025 0.577447
0.533639 0.161196 0.598596
0.696849 0.173892 0.61593
0.831357 0.224872 0.650828
0.10901 0.293416 0.627344
0.264225 0.346929 0.647776
0.553811 0.346685 0.652506
0.730266 0.339467 0.666484
0.85156 0.384344 0.679225
0.0172122 0.493278 0.681544
0.117952 0.558694 0.709895
0.540963 0.574166 0.700023
0.759411 0.586145 0.70988
0.888823 0.602777 0.703182
0.0263981 0.642069 0.723323
0.0141146 0.712535 0.74052
0.470283 0.753353 0.724269
0.763241 0.787274 0.735714
0.924941 0.796521 0.732967
0.0530861 0.740444 0.719799
0.036286 0.7935 0.723064
0.292897 0.809354 0.707179
0.420996 0.839506 0.733211
0.971862 0.975036 0.837888
0.209812 0.343969 0.717937
0.32253 0.376196 0.72755
0.541222 0.366796 0.763119
0.737041 0.356847 0.798062
0.862867 0.36669 0.835767
0.199237 0.464958 0.768658
0.245869 0.527855 0.79144
0.537987 0.52929 0.795331
0.733028 0.53019 0.814191
0.850111 0.539513 0.832242
0.206806 0.615183 0.823362
0.222843 0.677562 0.847654
0.537163 0.687144 0.834104
0.737972 0.696529 0.850629
0.877409 0.693553 0.861509
0.250141 0.741619 0.880217
0.253712 0.804074 0.896513
0.551431 0.824826 0.875868
0.760662 0.843671 0.886168
0.923613 0.8365 0.900526
0.0578164 0.818341 0.905806
0.0408331 0.869795 0.908904
0.284977 0.89485 0.910445
0.462638 0.943252 0.937163
0.978973 0.983337 0.956115
