luts/KODAK FPE 02.cube
TITLE "Generated by Resolve"
LUT_3D_SIZE 5
0.0150912 0.0212253 0.0289769
0.196033 0.0616465 0.0302434
0.470085 0.0923323 0.0252689
0.666941 0.128191 0.0458839
0.787793 0.169757 0.0903334
0.0255283 0.184695 0.105074
0.254826 0.227024 0.0732586
0.55259 0.26836 0.024918
0.743191 0.307881 0.0279393
0.852598 0.344274 0.0559091
0.0672007 0.42565 0.16492
0.257603 0.477211 0.0985733
0.596155 0.514046 0.042649
0.809262 0.551431 0.033341
0.927077 0.583383 0.0349126
0.124483 0.635554 0.214603
0.192706 0.69398 0.179385
0.590784 0.707591 0.0879835
0.837232 0.745937 0.0959029
0.964858 0.782238 0.10515
0.124727 0.767102 0.359686
0.209644 0.807523 0.258457
0.382727 0.801495 0.207889
0.487068 0.825696 0.237766
0.964202 0.960784 0.38761
0.031632 0.0403754 0.183551
0.224002 0.0709087 0.211627
0.513085 0.0837415 0.239902
0.681193 0.122713 0.258732
0.797467 0.163088 0.277821
0.0152895 0.217777 0.274022
0.230884 0.252064 0.278462
0.55584 0.275486 0.266209
0.744991 0.306432 0.280293
0.850782 0.340215 0.285039
0.0480049 0.45481 0.344839
0.134951 0.523491 0.349676
0.575174 0.530983 0.295277
0.793805 0.558602 0.285222
0.907744 0.59266 0.278202
0.0986343 0.647822 0.418479
0.107195 0.724041 0.413886
0.553567 0.718059 0.311971
0.81207 0.752239 0.295689
0.956878 0.786236 0.294026
0.0981613 0.773236 0.518929
0.0964675 0.83772 0.520806
0.336599 0.802136 0.447669
0.449348 0.82298 0.472831
0.96556 0.953033 0.608621
0.0918441 0.0745251 0.390707
0.276905 0.0900282 0.428061
0.514107 0.104128 0.445853
0.700038 0.144411 0.468376
0.822889 0.193423 0.495537
0.0243687 0.261769 0.48394
0.254231 0.299306 0.504158
0.548669 0.306172 0.505974
0.756924 0.328252 0.516335
0.857374 0.364645 0.522286
0.0407416 0.488487 0.564355
0.0628214 0.56846 0.594293
0.54725 0.555901 0.540948
0.77789 0.57615 0.539635
0.889586 0.593088 0.537148
0.0860914 0.672068 0.623178
0.0831311 0.746059 0.63357
0.502556 0.744778 0.564584
0.783886 0.770291 0.560769
0.928618 0.797452 0.554482
0.0904555 0.777279 0.646174
0.086183 0.841566 0.65658
0.313741 0.811261 0.593713
0.430228 0.831586 0.615457
0.965789 0.962036 0.739178
0.150652 0.156359 0.547677
0.315068 0.164004 0.581186
0.543755 0.171328 0.608713
0.710536 0.187564 0.629618
0.844541 0.238041 0.664012
0.126528 0.310933 0.644862
0.281941 0.364645 0.665492
0.566384 0.359258 0.66508
0.754971 0.364172 0.691188
0.86981 0.402594 0.697475
0.0514687 0.52755 0.715816
0.162264 0.603006 0.754208
0.554177 0.587381 0.713237
0.771618 0.598352 0.722087
0.897276 0.611231 0.71165
0.0841535 0.699825 0.781094
0.0747997 0.77322 0.801205
0.48809 0.771176 0.742092
0.766217 0.790234 0.738674
0.925856 0.797436 0.733883
0.0919203 0.779293 0.741665
0.0865339 0.843732 0.744854
0.30338 0.819852 0.717662
0.424094 0.842603 0.736309
0.973053 0.976226 0.839078
0.210986 0.345159 0.719112
0.319127 0.372793 0.724132
0.545129 0.370703 0.76704
0.748104 0.367926 0.809125
0.874861 0.378668 0.847745
0.210559 0.476265 0.77998
0.261112 0.543084 0.806668
0.539361 0.530663 0.796689
0.741695 0.538842 0.822858
0.854398 0.543801 0.83653
0.238941 0.647318 0.855497
0.262882 0.717617 0.887694
0.548959 0.698924 0.845884
0.746349 0.704906 0.859007
0.881727 0.697871 0.865827
0.302068 0.793545 0.914763
0.30927 0.859632 0.916518
0.568765 0.842161 0.893202
0.763943 0.846967 0.889464
0.923964 0.836835 0.900862
0.0953384 0.855879 0.905806
0.092134 0.913176 0.908904
0.298833 0.90869 0.921798
0.465354 0.945968 0.939879
0.983383 0.987747 0.96051
