luts/KODAK FPE 04.cube
TITLE "Generated by Resolve"
LUT_3D_SIZE 33
0.0211948 0.0303349 0.0372473
0.0268254 0.0331426 0.0392767
0.0372778 0.0363012 0.0407263
0.0587015 0.0401923 0.041474
0.0851759 0.0459602 0.0416419
0.109163 0.0528878 0.0425116
0.136446 0.0583352 0.0420539
0.167941 0.0629282 0.0389715
0.200916 0.066743 0.0343938
0.234821 0.0705272 0.0296941
0.268772 0.0739147 0.0261387
0.303426 0.076936 0.0187381
0.337224 0.0797742 0.0163119
0.370214 0.0821851 0.0171511
0.402274 0.0844587 0.0170291
0.432715 0.086244 0.0176394
0.462531 0.0874342 0.0196078
0.492363 0.0881666 0.0240482
0.521904 0.0890364 0.0290684
0.547021 0.0932937 0.0308232
0.57142 0.0983139 0.0325933
0.594644 0.103578 0.0336614
0.61648 0.10901 0.0350042
0.637491 0.114885 0.0364843
0.656565 0.120897 0.0385901
0.674678 0.12697 0.0406043
0.691951 0.13344 0.0433356
0.708385 0.139422 0.0468757
0.724086 0.145464 0.0508431
0.739178 0.151247 0.0568551
0.753185 0.156435 0.06421
0.766598 0.1608 0.0741131
0.779126 0.164782 0.0853437
0.023682 0.0386358 0.0429236
0.0310369 0.0415351 0.0446479
0.0431525 0.0449378 0.0459602
0.0638285 0.0486 0.046479
0.0887465 0.0540627 0.0465705
0.112367 0.0608072 0.0472572
0.140566 0.0666056 0.04654
0.173266 0.0713054 0.0433814
0.207172 0.0754253 0.038117
0.242161 0.0795453 0.0324254
0.277028 0.0833906 0.0280461
0.312444 0.0865949 0.0192264
0.346868 0.0898299 0.0164645
0.380331 0.0924849 0.0173495
0.412772 0.0952163 0.0170748
0.443336 0.0979934 0.0177157
0.472358 0.100938 0.018555
0.499245 0.103487 0.019089
0.525353 0.106371 0.0204623
0.551904 0.105745 0.0240482
0.578485 0.104799 0.0281529
0.604395 0.103456 0.0320134
0.626215 0.107881 0.0332647
0.64683 0.113268 0.0343175
0.665263 0.118685 0.0358587
0.682643 0.124163 0.0372015
0.699046 0.129961 0.0393683
0.715068 0.13579 0.0428016
0.730587 0.141878 0.0467689
0.745495 0.147707 0.0528267
0.759289 0.152956 0.0603037
0.772457 0.157351 0.0702983
0.784756 0.161425 0.0816205
0.0232548 0.0494392 0.049073
0.031632 0.0520638 0.0506447
0.0454108 0.0557717 0.0521096
0.0679332 0.0601968 0.0527047
0.0911574 0.0659495 0.0527504
0.114015 0.0720836 0.0527962
0.143374 0.0779126 0.0512703
0.176684 0.0825666 0.047715
0.211582 0.0870222 0.0424964
0.247395 0.0912947 0.0362707
0.283162 0.0951705 0.0311894
0.319326 0.0987869 0.0216373
0.354253 0.101946 0.0171054
0.388464 0.105318 0.0179751
0.421195 0.108248 0.0174563
0.452171 0.111788 0.0179751
0.481209 0.114977 0.0189059
0.508278 0.118395 0.0191196
0.534173 0.121324 0.0197604
0.55938 0.124117 0.0217746
0.584161 0.126635 0.0237888
0.609552 0.125505 0.0274662
0.633097 0.126314 0.0307012
0.655879 0.126543 0.0342107
0.674708 0.130846 0.0361028
0.693049 0.134157 0.0387121
0.710124 0.137896 0.0419165
0.725521 0.14313 0.0449989
0.740169 0.148363 0.0481117
0.754086 0.153338 0.0530709
0.766857 0.157717 0.0598001
0.778775 0.161608 0.0687114
0.788281 0.168872 0.0771496
0.0175479 0.0665751 0.0568399
0.0292363 0.0681773 0.0572366
0.0439155 0.0712596 0.0585946
0.0691691 0.0758221 0.0592508
0.0939498 0.0823835 0.0601816
0.118151 0.0887007 0.0594949
0.148638 0.0942092 0.0567636
0.183948 0.0987411 0.0514839
0.219532 0.103151 0.0460517
0.254887 0.107713 0.0391546
0.290227 0.112108 0.0329442
0.326146 0.116243 0.0235294
0.361212 0.119585 0.0194095
0.39559 0.123003 0.0191196
0.42858 0.126299 0.0184939
0.459571 0.129732 0.0189059
0.48893 0.13344 0.0193484
0.515984 0.137041 0.0194553
0.541833 0.140871 0.0191196
0.566674 0.14435 0.0196994
0.59086 0.147616 0.0209506
0.61445 0.150988 0.0223087
0.636606 0.154147 0.0244602
0.657816 0.157214 0.0266117
0.677378 0.159869 0.0290684
0.696071 0.161913 0.0327153
0.713832 0.163394 0.0367437
0.730022 0.166842 0.0409247
0.744671 0.171664 0.0439765
0.758343 0.176486 0.0483406
0.77084 0.181445 0.0548409
0.782101 0.186694 0.0634623
0.789441 0.199191 0.0692149
0.0175937 0.0856031 0.0662852
0.021973 0.0875257 0.0666209
0.0444343 0.0888838 0.0661631
0.0707103 0.092668 0.0665904
0.0974136 0.0996872 0.0676127
0.122835 0.106661 0.0674449
0.154314 0.112016 0.0639048
0.19086 0.116457 0.0587015
0.229374 0.121233 0.0517433
0.26685 0.126436 0.0440833
0.302556 0.131502 0.035935
0.337255 0.135729 0.0271458
0.371298 0.139361 0.0225681
0.405035 0.142855 0.0209812
0.437705 0.146227 0.0199893
0.468833 0.149737 0.0200656
0.498268 0.153613 0.0198062
0.525277 0.157397 0.0193027
0.550942 0.161166 0.0189975
0.575708 0.164858 0.0187533
0.599847 0.168551 0.0191196
0.623178 0.171984 0.020737
0.64509 0.175967 0.0223392
0.66598 0.179873 0.0236667
0.684733 0.184222 0.0255894
0.70219 0.188647 0.0276036
0.718563 0.19295 0.0300908
0.734112 0.197177 0.0331884
0.748714 0.20177 0.0363775
0.762173 0.206729 0.0400702
0.774426 0.212253 0.0462196
0.785489 0.217899 0.054902
0.795254 0.22565 0.0633707
0.0204318 0.105241 0.0757763
0.0209201 0.10695 0.0757153
0.0357214 0.109636 0.0763714
0.0710155 0.111101 0.0747539
0.0998398 0.117357 0.0751812
0.126802 0.124941 0.0756237
0.159396 0.130907 0.0728161
0.197253 0.135698 0.0671397
0.236683 0.14078 0.0596475
0.276417 0.146014 0.0509346
0.315038 0.151629 0.0407568
0.350927 0.156527 0.03122
0.385306 0.160708 0.0255436
0.418158 0.164477 0.023621
0.450004 0.167865 0.0219272
0.480827 0.171511 0.0205234
0.509789 0.17528 0.019852
0.536309 0.179034 0.0198215
0.562036 0.182757 0.0192569
0.586572 0.186603 0.0189059
0.610376 0.190204 0.0187533
0.633555 0.193866 0.0195773
0.655512 0.197787 0.0207675
0.67631 0.201953 0.0220188
0.694881 0.206332 0.0233768
0.712245 0.210697 0.0250095
0.728588 0.215244 0.0274052
0.743984 0.219699 0.0295415
0.75848 0.224414 0.0323186
0.771908 0.229297 0.0364538
0.78407 0.234379 0.0420233
0.795407 0.239887 0.0504921
0.805081 0.247715 0.0594797
0.0212863 0.12755 0.084184
0.0212406 0.128862 0.0832685
0.0324865 0.132342 0.0843824
0.0647593 0.134096 0.0827497
0.0975204 0.138872 0.0819562
0.127398 0.146502 0.0818189
0.162356 0.153292 0.0796826
0.201587 0.158938 0.0741894
0.241947 0.164355 0.0659648
0.282811 0.169894 0.0541085
0.322454 0.175769 0.0393225
0.360891 0.18117 0.0322118
0.398062 0.186206 0.0278325
0.431357 0.190173 0.0251164
0.464103 0.194049 0.0230106
0.494179 0.197696 0.0224918
0.522484 0.20145 0.0217136
0.548592 0.205173 0.0208743
0.573907 0.20911 0.0200046
0.597848 0.212955 0.018967
0.621332 0.216648 0.0183719
0.644266 0.220111 0.0181277
0.665705 0.223865 0.018204
0.686183 0.227878 0.0188907
0.704799 0.232364 0.0196689
0.722133 0.236713 0.0213626
0.738354 0.241123 0.0235447
0.753704 0.245441 0.0260624
0.768246 0.250248 0.0285039
0.781811 0.255161 0.0323491
0.794064 0.26009 0.0371862
0.805447 0.265644 0.0452888
0.815259 0.272572 0.0559854
0.0223239 0.152651 0.0914321
0.021561 0.153918 0.0898909
0.0285039 0.158389 0.0912184
0.0525063 0.161257 0.0898756
0.0904707 0.165103 0.0878614
0.124285 0.172137 0.0865644
0.1626 0.179248 0.0834363
0.204578 0.185565 0.0768902
0.245869 0.191684 0.0652628
0.287373 0.197528 0.0531777
0.327886 0.203387 0.0400244
0.367041 0.208682 0.0337682
0.404547 0.213931 0.0294804
0.440269 0.21883 0.0269627
0.475227 0.223484 0.025452
0.506111 0.227436 0.0236362
0.535286 0.231418 0.0225376
0.561379 0.235172 0.0220188
0.58616 0.239139 0.0206912
0.609781 0.242924 0.019379
0.632883 0.246403 0.0192721
0.655024 0.249866 0.018677
0.676005 0.253468 0.0180667
0.696391 0.257298 0.017731
0.714611 0.261585 0.0174716
0.731792 0.265797 0.0175937
0.748074 0.27013 0.019501
0.763409 0.27454 0.0210117
0.777996 0.279042 0.0235599
0.791547 0.283711 0.0267033
0.80383 0.288594 0.0312047
0.815396 0.293736 0.0388952
0.825513 0.300618 0.0501564
0.0216678 0.179034 0.0983291
0.0201419 0.180255 0.0961013
0.0238956 0.185534 0.0973373
0.0403449 0.189761 0.096437
0.0787213 0.193164 0.09337
0.119112 0.199481 0.0910048
0.16022 0.206348 0.0861219
0.20531 0.21294 0.0762188
0.249409 0.219928 0.0637827
0.291341 0.226429 0.0510567
0.332036 0.232639 0.0404212
0.372061 0.238193 0.034165
0.410407 0.243473 0.0300908
0.446815 0.248402 0.0283513
0.482109 0.253147 0.0264591
0.515251 0.257588 0.0256504
0.545754 0.261555 0.024918
0.572519 0.265461 0.0236057
0.598169 0.269276 0.0223697
0.621729 0.272953 0.0214084
0.644739 0.276555 0.0205844
0.666926 0.280079 0.0200504
0.687587 0.283635 0.0191653
0.707393 0.287404 0.0182803
0.725551 0.291478 0.0175631
0.742596 0.295705 0.0166934
0.758556 0.299962 0.0163272
0.773861 0.303944 0.0173037
0.788464 0.308324 0.0192569
0.80209 0.312825 0.0216831
0.814481 0.317678 0.0251011
0.8262 0.322728 0.032929
0.836362 0.329442 0.043595
0.0214389 0.205814 0.104768
0.0191501 0.206912 0.101701
0.021912 0.212528 0.102281
0.0289158 0.218692 0.102495
0.0641337 0.22237 0.0986648
0.108492 0.227634 0.0946059
0.156344 0.234241 0.0875257
0.204456 0.24097 0.0741131
0.251164 0.247959 0.0621195
0.295064 0.255344 0.0496986
0.335805 0.261875 0.0423285
0.376135 0.267582 0.0354772
0.415 0.272999 0.0326848
0.452644 0.27805 0.0303655
0.488228 0.28278 0.028397
0.521767 0.287205 0.0267796
0.552941 0.291417 0.0255131
0.58175 0.295613 0.0247501
0.608316 0.299657 0.0237125
0.632624 0.303273 0.0223545
0.656229 0.306798 0.0223239
0.678386 0.310216 0.0214389
0.699458 0.313817 0.0209354
0.719326 0.317388 0.019791
0.737072 0.321309 0.0186618
0.753857 0.325307 0.0181277
0.769818 0.32932 0.0179599
0.785016 0.333532 0.0173953
0.799649 0.337575 0.0173037
0.81326 0.342168 0.0179141
0.825696 0.346807 0.0214389
0.837552 0.351705 0.0263523
0.847501 0.358175 0.0380407
0.0229191 0.232746 0.110506
0.0203708 0.23386 0.106706
0.0233005 0.239521 0.106554
0.0282292 0.246082 0.106172
0.0431525 0.253162 0.104829
0.0953536 0.256245 0.0975204
0.150439 0.262303 0.0874037
0.202533 0.26923 0.0708019
0.25214 0.276097 0.0589761
0.297185 0.28333 0.0508278
0.339529 0.2907 0.0441444
0.380011 0.296925 0.0370184
0.419364 0.302602 0.0331884
0.457206 0.307774 0.030808
0.493721 0.312596 0.0284123
0.527901 0.317143 0.0276799
0.559548 0.321416 0.0265202
0.5888 0.325536 0.0255589
0.616495 0.329656 0.0242161
0.642329 0.333425 0.0244144
0.666041 0.336812 0.0237583
0.689052 0.340108 0.0239567
0.710262 0.343572 0.02327
0.73051 0.347143 0.022385
0.748653 0.351034 0.0214084
0.765316 0.354803 0.0196841
0.781048 0.358709 0.0188754
0.796292 0.362615 0.0183108
0.810895 0.366979 0.0175326
0.824735 0.37142 0.0178531
0.837324 0.376226 0.0182803
0.849363 0.381323 0.0236057
0.858824 0.38706 0.035462
0.0251469 0.260014 0.114763
0.0223239 0.261479 0.110521
0.0243381 0.266941 0.109361
0.0281529 0.273823 0.107988
0.0371557 0.281559 0.105516
0.0801709 0.286305 0.097261
0.143221 0.291402 0.0810254
0.199405 0.298054 0.071458
0.250645 0.304799 0.059678
0.298589 0.31191 0.0515602
0.341497 0.31928 0.044358
0.383261 0.32636 0.0395819
0.422629 0.33225 0.0359808
0.4607 0.337438 0.0326696
0.497612 0.342367 0.0304723
0.532616 0.347036 0.0284733
0.56553 0.351598 0.0272526
0.594995 0.35581 0.026276
0.623011 0.359884 0.0251469
0.64918 0.363699 0.0241703
0.67425 0.367239 0.0242161
0.69778 0.370642 0.0238499
0.719646 0.374105 0.0242466
0.740307 0.3776 0.0241703
0.758602 0.38143 0.0233463
0.77583 0.385351 0.0235142
0.791547 0.389105 0.0220798
0.80676 0.392981 0.0211795
0.821515 0.397223 0.0199893
0.835508 0.402106 0.0184482
0.848417 0.406973 0.0193942
0.860746 0.412146 0.0224308
0.869612 0.417029 0.0310216
0.0269627 0.28719 0.118379
0.0238804 0.288975 0.113436
0.024979 0.294438 0.110994
0.0281682 0.301549 0.107973
0.0350958 0.310079 0.103044
0.0668956 0.317037 0.0932326
0.133288 0.32079 0.0782177
0.194873 0.326619 0.0694438
0.248356 0.333455 0.0606394
0.298131 0.340307 0.0518349
0.342992 0.347646 0.0450752
0.384604 0.354757 0.0413367
0.425208 0.361288 0.0383001
0.463783 0.36672 0.0347753
0.501289 0.371786 0.0317082
0.536812 0.376669 0.030396
0.570123 0.381384 0.0289006
0.600977 0.386145 0.0272526
0.629145 0.390387 0.0259556
0.655467 0.394293 0.026154
0.680812 0.397986 0.0263371
0.705196 0.401617 0.0261387
0.72781 0.405295 0.0253758
0.748806 0.408682 0.0254368
0.767559 0.412268 0.0262608
0.784939 0.416114 0.025742
0.801434 0.420081 0.0259403
0.816815 0.423896 0.0245365
0.831632 0.428138 0.0229496
0.845869 0.432975 0.0210575
0.859068 0.438254 0.0193027
0.871641 0.443549 0.0205234
0.88011 0.447639 0.0298161
0.0285344 0.31426 0.121492
0.0252842 0.316365 0.11545
0.0255589 0.321736 0.111986
0.0293431 0.329046 0.1075
0.0376287 0.337942 0.0982986
0.0522927 0.348089 0.0863966
0.123568 0.350149 0.0784314
0.188388 0.355062 0.0712444
0.244602 0.3617 0.063035
0.295811 0.368658 0.0540169
0.342092 0.375906 0.0451057
0.385473 0.383215 0.0426032
0.426123 0.389944 0.0406348
0.466224 0.396109 0.0381018
0.504448 0.401404 0.0351415
0.54052 0.406455 0.0329137
0.574273 0.411399 0.031342
0.605264 0.416327 0.0297551
0.634745 0.421088 0.0283665
0.661357 0.425116 0.0270085
0.686931 0.428901 0.026566
0.711528 0.432639 0.026276
0.7346 0.436439 0.0257267
0.756374 0.440192 0.0256504
0.775296 0.443702 0.0263523
0.793256 0.447379 0.0274815
0.809964 0.451209 0.0269474
0.826017 0.455375 0.0274357
0.841138 0.459541 0.0256657
0.855619 0.464607 0.0240024
0.869093 0.469978 0.0220951
0.882048 0.475517 0.0228122
0.890105 0.478965 0.0285039
0.0316625 0.340688 0.123461
0.0283665 0.343145 0.116655
0.0287022 0.348562 0.110307
0.0318761 0.356405 0.101732
0.0373388 0.365606 0.0926528
0.0506294 0.375967 0.0870375
0.105104 0.381064 0.0816815
0.184161 0.383108 0.0724041
0.241138 0.389593 0.0650034
0.292821 0.396765 0.0562753
0.340322 0.403983 0.0487984
0.384863 0.411368 0.0449683
0.426703 0.418418 0.0425422
0.466773 0.424781 0.0411231
0.506752 0.430762 0.0388647
0.543648 0.436057 0.0363165
0.577966 0.441245 0.033814
0.609415 0.446372 0.030518
0.638972 0.45124 0.0300298
0.666743 0.455695 0.0296178
0.692729 0.459648 0.0289616
0.717479 0.463508 0.0283665
0.740673 0.467353 0.0275731
0.762737 0.471168 0.0269169
0.782589 0.47512 0.0275731
0.800824 0.478676 0.0282444
0.818112 0.482383 0.0291447
0.834409 0.486412 0.0293584
0.850172 0.491066 0.0293889
0.864912 0.496056 0.0278325
0.87866 0.501564 0.0257877
0.892027 0.507485 0.0242618
0.899687 0.510201 0.0281376
0.0337072 0.366522 0.125566
0.0301671 0.369314 0.117845
0.0297246 0.374731 0.108843
0.0324254 0.382956 0.098497
0.0402686 0.392569 0.089189
0.0509804 0.402838 0.0892348
0.0919356 0.410147 0.0855573
0.173281 0.411749 0.0752728
0.236942 0.416571 0.066392
0.288502 0.423728 0.0586404
0.337453 0.431327 0.0505837
0.382696 0.438605 0.0471046
0.42591 0.445762 0.0445258
0.467308 0.452461 0.0422827
0.507332 0.458701 0.0419013
0.546014 0.464637 0.0404517
0.581338 0.470192 0.0380865
0.61326 0.475547 0.035523
0.643137 0.480644 0.0337987
0.671016 0.485237 0.0324559
0.698054 0.489632 0.0313115
0.723339 0.493706 0.0304723
0.74667 0.497642 0.0299687
0.768902 0.501564 0.0298161
0.788876 0.505531 0.0296178
0.807904 0.50956 0.0297093
0.825544 0.513191 0.030869
0.842283 0.517006 0.032639
0.858396 0.521523 0.0323644
0.873793 0.526818 0.0318608
0.8878 0.532372 0.0305791
0.901518 0.538445 0.0288396
0.908827 0.540856 0.0311284
0.0367285 0.391546 0.128191
0.0332036 0.394736 0.118822
0.0328832 0.400168 0.104295
0.035935 0.408713 0.0950332
0.0403296 0.418219 0.092668
0.0506142 0.428687 0.0913252
0.0800488 0.438071 0.0893263
0.164965 0.438422 0.0773938
0.232227 0.442786 0.0681926
0.283619 0.44976 0.0612192
0.33286 0.457496 0.0554055
0.380545 0.465095 0.0515602
0.42446 0.472251 0.0482032
0.466896 0.479149 0.0465858
0.508095 0.485771 0.0462348
0.547036 0.491997 0.044892
0.58407 0.498146 0.042649
0.616968 0.503746 0.0400244
0.647181 0.509056 0.0379644
0.675303 0.513848 0.0369268
0.70251 0.518425 0.0356451
0.728557 0.52282 0.0333715
0.752468 0.526955 0.0327611
0.774884 0.530892 0.0330663
0.795102 0.53489 0.033341
0.814374 0.538842 0.0329595
0.832761 0.542779 0.033402
0.849851 0.546471 0.0341039
0.866407 0.550774 0.0354467
0.882185 0.556069 0.0354314
0.896696 0.561913 0.0356603
0.910369 0.567636 0.0341192
0.91751 0.570291 0.0349126
0.0396429 0.41561 0.131762
0.0361944 0.419348 0.118563
0.034638 0.424475 0.104112
0.0368353 0.433143 0.0978256
0.0413062 0.442741 0.0972457
0.0516518 0.453223 0.0961471
0.0753338 0.462974 0.0933242
0.152941 0.46421 0.0816358
0.226307 0.467643 0.0714275
0.279484 0.47451 0.0637369
0.327993 0.482246 0.0586404
0.376196 0.490013 0.0548104
0.422675 0.497429 0.0521401
0.465888 0.50428 0.0495613
0.508064 0.511131 0.0485695
0.548043 0.517815 0.0485237
0.58529 0.524147 0.0469673
0.619638 0.530236 0.0449836
0.650813 0.53579 0.0437934
0.679164 0.540719 0.04271
0.706706 0.54551 0.0415351
0.732952 0.549966 0.0400397
0.757565 0.554376 0.0384833
0.780621 0.558511 0.0381628
0.800992 0.562524 0.0377661
0.820417 0.566506 0.0372931
0.839139 0.570459 0.0373693
0.856977 0.574456 0.0387579
0.873945 0.578607 0.039765
0.890135 0.58378 0.0394446
0.904784 0.589837 0.0421149
0.917342 0.595224 0.0407721
0.92401 0.598138 0.0403449
0.0429084 0.439063 0.134813
0.0397955 0.443442 0.116701
0.0374762 0.448127 0.103029
0.0394598 0.456703 0.10277
0.0423438 0.466377 0.101976
0.0496529 0.477012 0.100633
0.0711986 0.486793 0.0976883
0.145708 0.488426 0.0858167
0.216419 0.492042 0.0759136
0.274128 0.498344 0.0675059
0.323842 0.505974 0.0614481
0.371588 0.513802 0.059617
0.418738 0.521294 0.0567025
0.46424 0.528511 0.0543832
0.507088 0.535409 0.0537728
0.547951 0.542336 0.0536202
0.586099 0.54902 0.0524605
0.620706 0.55523 0.0510414
0.653407 0.561227 0.0501869
0.682841 0.566476 0.0487068
0.710613 0.571435 0.0468757
0.737163 0.576059 0.0456703
0.76202 0.580575 0.043946
0.785611 0.58497 0.0437324
0.806745 0.589273 0.0437476
0.826368 0.593286 0.0430152
0.845319 0.597238 0.0415808
0.863523 0.601236 0.0422217
0.881285 0.605554 0.0433356
0.897871 0.610559 0.0446784
0.912795 0.61648 0.0467384
0.923781 0.621836 0.0471351
0.929168 0.624689 0.0475776
0.0463722 0.462348 0.134203
0.0424964 0.466972 0.118502
0.0385748 0.471031 0.109545
0.0399329 0.479591 0.109087
0.0422217 0.489418 0.10811
0.0488136 0.50016 0.106645
0.0667887 0.510277 0.103883
0.132052 0.512963 0.0932021
0.207034 0.515755 0.0809491
0.267933 0.521782 0.0724346
0.318791 0.529213 0.065156
0.367117 0.537148 0.0635691
0.414374 0.544747 0.0616465
0.460975 0.552056 0.0598764
0.505959 0.55938 0.0585794
0.547326 0.566354 0.0574502
0.586069 0.573266 0.0577554
0.621363 0.579812 0.0567178
0.654429 0.585977 0.0549935
0.685252 0.591699 0.0551308
0.71397 0.596902 0.0538796
0.740826 0.601694 0.0525368
0.765805 0.606332 0.0513924
0.789563 0.610803 0.05066
0.811322 0.61529 0.0510872
0.831632 0.619486 0.0514992
0.850858 0.623499 0.0504311
0.869444 0.627558 0.0495918
0.887678 0.631861 0.0500649
0.903029 0.636545 0.0510719
0.916503 0.641917 0.0534524
0.927901 0.647639 0.0562753
0.933608 0.650355 0.0575875
0.0493019 0.485237 0.133898
0.0448157 0.489952 0.12134
0.0400549 0.49398 0.116274
0.0404364 0.502174 0.115297
0.0437476 0.512123 0.114458
0.0476387 0.522881 0.113252
0.0603952 0.533364 0.110719
0.119799 0.536904 0.100694
0.195377 0.539513 0.0887312
0.260227 0.544808 0.0786145
0.312963 0.552148 0.0710307
0.362127 0.559976 0.0679484
0.409903 0.567712 0.0665599
0.456733 0.575204 0.0645151
0.502785 0.582635 0.0638743
0.546197 0.58999 0.0633707
0.585077 0.596918 0.062562
0.621042 0.603693 0.0623484
0.654978 0.610147 0.0620432
0.686275 0.616037 0.0615702
0.71632 0.621607 0.0609445
0.744015 0.626596 0.0602426
0.769253 0.631373 0.06009
0.793286 0.636011 0.0599985
0.815396 0.64065 0.06009
0.836393 0.645075 0.0603647
0.856229 0.649271 0.0601511
0.874846 0.6533 0.0597391
0.893004 0.657465 0.0602121
0.907759 0.661967 0.0606394
0.920317 0.666773 0.0612039
0.931777 0.672465 0.0638437
0.937835 0.675273 0.0672465
0.053315 0.507713 0.134737
0.0480507 0.512306 0.12784
0.0433356 0.516426 0.122637
0.0425574 0.524178 0.12108
0.0431067 0.534249 0.120272
0.0460212 0.545205 0.119173
0.0549783 0.556268 0.117433
0.103365 0.561349 0.109056
0.179034 0.563317 0.0966201
0.25153 0.567391 0.0858015
0.306538 0.57467 0.0775616
0.356741 0.582361 0.0740063
0.404929 0.590127 0.0721294
0.452232 0.597696 0.0701457
0.498711 0.605203 0.0694896
0.542885 0.612589 0.0691386
0.58378 0.619928 0.0690013
0.620218 0.626795 0.0683146
0.654719 0.633524 0.0682536
0.686778 0.639673 0.0686046
0.717266 0.645411 0.068986
0.745953 0.650767 0.069337
0.772091 0.655772 0.0700084
0.796551 0.660548 0.0691844
0.81912 0.66537 0.0690623
0.84062 0.669932 0.0697642
0.86125 0.674296 0.0706035
0.880278 0.67837 0.0699016
0.896315 0.682246 0.0693828
0.910643 0.686305 0.0699168
0.923659 0.69102 0.0706798
0.935607 0.696605 0.0725414
0.942214 0.699519 0.0766918
0.0557412 0.529137 0.140276
0.0501564 0.533837 0.134691
0.0452125 0.538109 0.129397
0.0435798 0.545357 0.127108
0.0441901 0.55555 0.12636
0.0464637 0.566522 0.125353
0.0533455 0.577752 0.123949
0.0888228 0.584237 0.117327
0.165789 0.58555 0.104616
0.242145 0.588937 0.0927138
0.299611 0.596094 0.0850233
0.350942 0.603586 0.079118
0.400107 0.611353 0.077821
0.447791 0.618906 0.0766461
0.49453 0.626459 0.075639
0.539055 0.633906 0.0750591
0.581033 0.641337 0.074464
0.619196 0.648615 0.0753033
0.654078 0.655467 0.075349
0.686809 0.661799 0.0749218
0.717845 0.667765 0.0759289
0.74696 0.673259 0.077409
0.774166 0.678584 0.0780957
0.799802 0.683604 0.0781872
0.822858 0.688563 0.0783246
0.844831 0.693324 0.079469
0.865019 0.697765 0.0802014
0.884215 0.701885 0.0800641
0.899535 0.705577 0.0796521
0.913817 0.709499 0.0802777
0.927337 0.714031 0.0807202
0.939788 0.719661 0.0823072
0.94696 0.72285 0.0856794
0.0590677 0.550195 0.146563
0.0533608 0.555062 0.140795
0.0482643 0.559487 0.135515
0.0457313 0.566125 0.132555
0.0466468 0.576394 0.131823
0.0480354 0.587457 0.13077
0.0504768 0.598856 0.129809
0.082536 0.606058 0.124285
0.150652 0.608072 0.112474
0.230747 0.609949 0.100069
0.291249 0.617044 0.092256
0.344732 0.624277 0.0853285
0.394949 0.631998 0.0838788
0.443015 0.639506 0.0824598
0.489769 0.647013 0.0818952
0.534829 0.654551 0.0814069
0.577173 0.662028 0.0809644
0.616068 0.669383 0.0810712
0.652842 0.676616 0.081651
0.685832 0.683009 0.0824903
0.717327 0.689128 0.0831617
0.747219 0.694835 0.0836042
0.775113 0.700389 0.0854505
0.802075 0.705821 0.0869459
0.826352 0.71107 0.0875715
0.848814 0.716014 0.0881666
0.869291 0.720607 0.0894331
0.887144 0.724681 0.089601
0.90277 0.728313 0.090013
0.917266 0.732265 0.0902876
0.931182 0.736675 0.0908827
0.944045 0.742153 0.0924239
0.951888 0.745754 0.0959793
0.0631876 0.570306 0.153323
0.0573434 0.575357 0.147433
0.0521248 0.579843 0.142061
0.0485542 0.585702 0.138201
0.048127 0.596048 0.137453
0.0480964 0.607111 0.136522
0.0510109 0.61854 0.135805
0.079118 0.625742 0.130541
0.140215 0.627802 0.119081
0.217288 0.629557 0.107317
0.276936 0.636378 0.0997635
0.335195 0.643519 0.0933089
0.387442 0.650904 0.0894636
0.436255 0.658366 0.0884413
0.483467 0.665873 0.0876783
0.528923 0.673396 0.0869612
0.571679 0.680964 0.0866255
0.611124 0.68835 0.087068
0.648646 0.695689 0.087541
0.683375 0.702434 0.0881819
0.715572 0.70869 0.0894484
0.746166 0.714611 0.0906233
0.775158 0.720409 0.0921492
0.803098 0.726116 0.0939345
0.828748 0.731746 0.0959029
0.85214 0.73695 0.0977035
0.872709 0.741634 0.0991073
0.889876 0.745739 0.0999161
0.906371 0.749676 0.100267
0.921553 0.753613 0.100465
0.93579 0.757961 0.101045
0.948882 0.763333 0.102464
0.957504 0.76733 0.10515
0.0671244 0.590158 0.159655
0.0611429 0.595361 0.153674
0.0557107 0.599924 0.148302
0.0509346 0.604929 0.143633
0.0502785 0.615274 0.142901
0.0499123 0.626337 0.142016
0.0504311 0.637705 0.141329
0.0756695 0.644923 0.136385
0.133104 0.646967 0.125338
0.202289 0.648646 0.113619
0.257633 0.655161 0.106355
0.317754 0.662013 0.100267
0.373831 0.66894 0.0945449
0.425696 0.676387 0.0937972
0.474708 0.68394 0.0937057
0.520409 0.691463 0.0934768
0.563638 0.699046 0.0931563
0.603815 0.706554 0.093492
0.641688 0.713893 0.0942092
0.677058 0.720714 0.0950942
0.711147 0.727337 0.0967575
0.743404 0.733577 0.0986496
0.77348 0.73962 0.100267
0.802533 0.745541 0.10248
0.829419 0.751476 0.105058
0.853132 0.757015 0.107393
0.875242 0.76199 0.108888
0.892729 0.766247 0.109667
0.909804 0.770336 0.110124
0.925994 0.774273 0.11075
0.940642 0.77847 0.111131
0.954101 0.783734 0.112184
0.963211 0.788159 0.114931
0.0715496 0.610224 0.166888
0.0654765 0.615534 0.160784
0.0599832 0.620127 0.155337
0.0546578 0.624659 0.150118
