luts/KODAK FPE 08.cube
TITLE "Generated by Resolve"
LUT_3D_SIZE 9
0.0150912 0.0218662 0.0240177
0.0733654 0.0415351 0.0350347
0.174746 0.0709697 0.0380255
0.29276 0.0975662 0.0406653
0.39881 0.124773 0.0451209
0.491814 0.149691 0.0531167
0.571511 0.173999 0.0601663
0.639551 0.197223 0.0665904
0.701762 0.213046 0.0929885
0.0251621 0.0792401 0.0575875
0.091371 0.0924392 0.0637369
0.21059 0.119341 0.0615549
0.342977 0.142672 0.0569772
0.458106 0.16553 0.060502
0.551354 0.192447 0.0714885
0.629969 0.222522 0.0842298
0.699519 0.251743 0.0955062
0.749828 0.267811 0.113024
0.0331121 0.181659 0.100862
0.0804761 0.201694 0.114763
0.243915 0.22742 0.0998398
0.400015 0.251728 0.0729534
0.519738 0.275227 0.0741283
0.613611 0.297078 0.0804913
0.696498 0.320195 0.0869306
0.767575 0.34609 0.0927596
0.807416 0.35613 0.113283
0.0405585 0.309606 0.132265
0.0675059 0.333715 0.139849
0.237629 0.358724 0.126802
0.419272 0.379019 0.0806134
0.555962 0.398352 0.0654459
0.658686 0.419883 0.0725261
0.744137 0.440574 0.0842603
0.817105 0.46215 0.0906081
0.866865 0.465385 0.0874037
0.0561379 0.432624 0.158007
0.094316 0.452125 0.156802
0.242451 0.47602 0.144411
0.420447 0.495583 0.111986
0.577356 0.513603 0.0846571
0.692943 0.532738 0.0786603
0.782101 0.552834 0.084947
0.859495 0.57229 0.0966812
0.91516 0.576165 0.0891432
0.0870222 0.538994 0.182834
0.128222 0.557366 0.184314
0.245563 0.577325 0.171206
0.420569 0.595407 0.152041
0.570748 0.617273 0.141085
0.705989 0.63653 0.110811
0.806149 0.653056 0.110506
0.89131 0.669596 0.116258
0.954131 0.674144 0.116945
0.126177 0.631525 0.230808
0.162905 0.645533 0.235294
0.238025 0.660624 0.232242
0.409461 0.678447 0.22594
0.550027 0.700191 0.232837
0.678904 0.721218 0.233478
0.808362 0.743221 0.165469
0.911254 0.757275 0.160937
0.970245 0.762219 0.149447
0.172549 0.710796 0.283558
0.203357 0.72285 0.290715
0.241703 0.737041 0.297612
0.297597 0.752743 0.30544
0.467704 0.772595 0.314626
0.607569 0.794644 0.330816
0.743526 0.81706 0.341695
0.903761 0.840391 0.256443
0.980377 0.849165 0.215427
0.180468 0.736141 0.373022
0.207553 0.749554 0.384771
0.239338 0.764736 0.40087
0.274586 0.779004 0.41915
0.312734 0.79202 0.44004
0.350256 0.805371 0.466819
0.389776 0.823636 0.502022
0.659937 0.862699 0.546929
0.964202 0.941436 0.522438
0.0180972 0.0326848 0.0789197
0.0779889 0.049546 0.0903334
0.213275 0.0710155 0.0919509
0.338125 0.0954757 0.0935531
0.440558 0.110552 0.101961
0.528984 0.132906 0.110216
0.605554 0.15906 0.114549
0.67097 0.184527 0.118105
0.720226 0.210529 0.121645
0.0147707 0.0913863 0.112154
0.0800031 0.102739 0.122316
0.220996 0.123812 0.117067
0.371939 0.141009 0.115434
0.488457 0.159152 0.123537
0.580575 0.185229 0.134157
0.660731 0.214847 0.144823
0.734508 0.241657 0.152468
0.776074 0.261158 0.148882
0.0206149 0.198566 0.148653
0.052369 0.219394 0.167605
0.232456 0.239567 0.167819
0.411276 0.254337 0.143481
0.530709 0.275898 0.14696
0.630808 0.295872 0.148699
0.718929 0.317861 0.154986
0.792905 0.342184 0.161913
0.837949 0.349004 0.153002
0.0302281 0.325277 0.180941
0.0548104 0.349996 0.191546
0.21767 0.372595 0.203098
0.418418 0.38732 0.166751
0.565942 0.40264 0.139986
0.669352 0.422965 0.146548
0.756878 0.442588 0.15256
0.831556 0.464256 0.153948
0.884077 0.466072 0.138125
0.0483558 0.444373 0.207294
0.0888075 0.462806 0.212696
0.229938 0.485283 0.217227
0.41442 0.501778 0.210788
0.578119 0.520211 0.1664
0.697337 0.538476 0.149462
0.788556 0.556802 0.154665
0.869047 0.575082 0.159426
0.925856 0.580194 0.138491
0.0844282 0.546563 0.24004
0.122621 0.563806 0.246815
0.234104 0.582162 0.244755
0.4121 0.599115 0.240055
0.561898 0.619364 0.247593
0.702785 0.640391 0.193133
0.80737 0.65742 0.173678
0.893904 0.673396 0.175631
0.956008 0.679301 0.15697
0.125444 0.63711 0.280491
0.163149 0.650034 0.286
0.233906 0.664729 0.287465
0.401038 0.68307 0.28864
0.54342 0.704753 0.296849
0.672541 0.725124 0.302235
0.802869 0.744732 0.242924
0.910491 0.760189 0.216297
0.968872 0.767193 0.186465
0.176226 0.714687 0.315328
0.20441 0.727382 0.324498
0.242084 0.741512 0.331991
0.295201 0.75729 0.338888
0.462501 0.777234 0.349126
0.605005 0.799603 0.363699
0.741329 0.822141 0.374853
0.900221 0.843168 0.30782
0.97966 0.852888 0.257694
0.184054 0.742657 0.387213
0.210376 0.75639 0.399298
0.24329 0.771145 0.414481
0.279072 0.785153 0.432639
0.316609 0.798321 0.45417
0.354116 0.811734 0.480766
0.394018 0.829923 0.515343
0.664378 0.868971 0.560983
0.964462 0.94699 0.543465
0.034287 0.0364538 0.192615
0.090547 0.0550088 0.215656
0.213382 0.0729381 0.229007
0.351934 0.0865644 0.223941
0.473213 0.10573 0.231205
0.559136 0.127779 0.235966
0.632685 0.150195 0.244404
0.700069 0.174899 0.242069
0.759411 0.196521 0.205509
0.017731 0.105074 0.233845
0.0798505 0.119203 0.247883
0.21593 0.138689 0.253269
0.386572 0.145861 0.251804
0.512673 0.163668 0.256779
0.599908 0.185107 0.26836
0.678691 0.208286 0.280186
0.761563 0.233082 0.276036
0.813077 0.24744 0.238071
0.0178073 0.217044 0.271244
0.0360113 0.239948 0.291707
0.212085 0.257465 0.299855
0.402853 0.267414 0.280934
0.537163 0.28098 0.2869
0.640085 0.293629 0.292409
0.726131 0.312627 0.29781
0.806867 0.336385 0.296635
0.8607 0.341283 0.25359
0.0256504 0.344701 0.291386
0.0438087 0.371542 0.307134
0.172061 0.396826 0.323873
0.388251 0.405905 0.313298
0.553506 0.412573 0.293751
0.660761 0.427726 0.303639
0.750988 0.443427 0.312047
0.833829 0.461845 0.313726
0.898222 0.460929 0.275898
0.0408179 0.463661 0.318151
0.0734569 0.482933 0.330373
0.175372 0.505501 0.336309
0.383154 0.519753 0.351064
0.5617 0.531701 0.326925
0.690242 0.540932 0.316899
0.783032 0.557397 0.319692
0.862028 0.575387 0.322866
0.92845 0.581353 0.282063
0.0746319 0.562554 0.33991
0.114107 0.578378 0.345769
0.206271 0.595209 0.347601
0.391653 0.612238 0.357214
0.552377 0.630442 0.371359
0.689601 0.645243 0.352804
0.795789 0.658671 0.33492
0.886473 0.673198 0.32813
0.950668 0.680186 0.295064
0.119539 0.647898 0.363226
0.160433 0.658976 0.366964
0.223224 0.673198 0.371496
0.386252 0.692164 0.37615
0.532219 0.714107 0.388281
0.664149 0.733364 0.402014
0.790219 0.748913 0.370047
0.900389 0.762905 0.340978
0.965118 0.769879 0.307424
0.170687 0.722454 0.377737
0.203784 0.732952 0.383612
0.242542 0.746502 0.391119
0.288212 0.763058 0.399634
0.446876 0.78352 0.411429
0.59646 0.806516 0.424216
0.734646 0.82974 0.434211
0.891844 0.848249 0.391943
0.977462 0.858106 0.340032
0.185092 0.74963 0.412604
0.212268 0.762966 0.424445
0.246326 0.777371 0.438712
0.283223 0.791333 0.45481
0.320684 0.804959 0.4748
0.358602 0.818738 0.498939
0.398138 0.837171 0.533959
0.66923 0.876646 0.580133
0.96556 0.953353 0.572122
0.0573587 0.0504005 0.306004
0.108095 0.0638132 0.336126
0.23508 0.081117 0.346303
0.371221 0.0829938 0.354513
0.475257 0.10425 0.356405
0.569482 0.130541 0.361547
0.650431 0.153826 0.366339
0.718853 0.17879 0.367803
0.779507 0.196735 0.357031
0.0454108 0.119127 0.354238
0.0984512 0.139406 0.375296
0.241474 0.155077 0.374548
0.380377 0.161028 0.380179
0.504112 0.170428 0.384268
0.613199 0.188769 0.392706
0.70106 0.211429 0.402274
0.768185 0.240772 0.408362
0.813886 0.257298 0.385992
0.014725 0.240299 0.393942
0.0349584 0.263859 0.411612
0.222126 0.279011 0.417258
0.38233 0.290761 0.415671
0.535454 0.291844 0.411902
0.648722 0.305989 0.415717
0.732555 0.3243 0.422202
0.797009 0.347921 0.431128
0.859464 0.345418 0.411627
0.0226444 0.364004 0.417853
0.0404364 0.388968 0.435966
0.143221 0.418296 0.452613
0.377554 0.419867 0.439139
0.543923 0.426902 0.428458
0.663676 0.437919 0.428855
0.757534 0.447562 0.438056
0.837919 0.458183 0.444083
0.896193 0.457786 0.426871
0.0347448 0.480171 0.431571
0.0576944 0.503716 0.445075
0.122515 0.531579 0.457282
0.370306 0.536599 0.457115
0.537682 0.547478 0.456245
0.675669 0.55552 0.444007
0.769055 0.567483 0.449546
0.854459 0.578225 0.454978
0.922271 0.576669 0.44097
0.0541848 0.585397 0.446174
0.0883803 0.602365 0.45684
0.171923 0.614313 0.459861
0.370245 0.629145 0.461524
0.525826 0.648142 0.485252
0.676966 0.66067 0.466361
0.788907 0.665873 0.457527
0.878386 0.67834 0.457176
0.945876 0.683009 0.441016
0.109316 0.664271 0.453773
0.151781 0.674128 0.45771
0.211231 0.68719 0.459174
0.374014 0.704509 0.462837
0.521996 0.72697 0.478843
0.656962 0.746227 0.495048
0.783627 0.75816 0.477378
0.888716 0.769497 0.460441
0.961944 0.773739 0.439521
0.165286 0.732189 0.449866
0.197528 0.742794 0.456306
0.239246 0.755306 0.462058
0.284962 0.770962 0.468589
0.425299 0.79202 0.480034
0.586175 0.816114 0.492393
0.728817 0.839612 0.502388
0.883146 0.856825 0.47837
0.975525 0.864805 0.437797
0.185489 0.75523 0.446876
0.212757 0.76846 0.458869
0.246235 0.783215 0.473442
0.286458 0.796185 0.486793
0.323842 0.810315 0.50544
0.361624 0.824628 0.528054
0.400977 0.844114 0.558846
0.674296 0.884718 0.603769
0.967697 0.959564 0.608423
0.0904707 0.0734112 0.400031
0.127672 0.0898909 0.422812
0.24921 0.102861 0.434623
0.37641 0.111971 0.436515
0.485328 0.118227 0.448692
0.574609 0.140566 0.45275
0.657618 0.167666 0.459861
0.73373 0.191302 0.467185
0.796811 0.213687 0.459556
0.0863508 0.141848 0.443763
0.12665 0.164523 0.462867
0.259083 0.178775 0.465126
0.395819 0.184833 0.464469
0.501701 0.192355 0.471824
0.606607 0.205386 0.481819
0.7019 0.228534 0.494591
0.77995 0.25539 0.503395
0.831464 0.272923 0.488685
0.0189517 0.266117 0.475776
0.0569162 0.290684 0.499229
0.234791 0.307973 0.510491
0.399908 0.314565 0.498726
0.518456 0.321218 0.507668
0.638056 0.323278 0.51429
0.737118 0.338552 0.515297
0.816617 0.357107 0.524224
0.859617 0.365896 0.509926
0.020264 0.387655 0.506447
0.0386511 0.411841 0.526513
0.181018 0.432044 0.533806
0.387289 0.436225 0.531899
0.523384 0.449928 0.531991
0.655467 0.453101 0.52845
0.758572 0.461845 0.535164
0.838727 0.473533 0.538659
0.88896 0.470817 0.530602
0.0349737 0.498238 0.52929
0.0583963 0.520577 0.545754
0.119173 0.546609 0.559106
0.354223 0.558114 0.557763
0.535439 0.560052 0.550591
0.672084 0.568933 0.546151
0.773541 0.577386 0.544625
0.86183 0.58172 0.549371
0.926177 0.573541 0.541909
0.056611 0.599207 0.536782
0.0910658 0.615686 0.545876
0.152178 0.635904 0.551797
0.322377 0.656352 0.555398
0.524254 0.662943 0.565179
0.664622 0.674449 0.564157
0.77995 0.680583 0.554147
0.869825 0.686931 0.553292
0.944411 0.682353 0.543862
0.0848554 0.688258 0.54316
0.115312 0.70309 0.551095
0.171756 0.716686 0.552529
0.351827 0.722072 0.549081
0.508141 0.742901 0.559594
0.639704 0.762112 0.582528
0.777615 0.773175 0.56231
0.886931 0.77702 0.55053
0.959609 0.781109 0.534585
0.142641 0.751827 0.528893
0.179721 0.760037 0.533989
0.22826 0.769574 0.538598
0.277256 0.784314 0.541421
0.399695 0.804059 0.547265
0.574853 0.82826 0.561913
0.723262 0.851972 0.573846
0.879072 0.867109 0.561135
0.975067 0.87396 0.524712
0.186343 0.758938 0.489342
0.212192 0.772747 0.501991
0.246082 0.787442 0.516152
0.285023 0.80116 0.530022
0.326024 0.814466 0.545068
0.363653 0.829496 0.566155
0.402014 0.849973 0.594781
0.670039 0.892943 0.636118
0.970916 0.96672 0.645945
0.118822 0.110918 0.485451
0.148882 0.12813 0.503136
0.258869 0.139574 0.515526
0.388312 0.14435 0.521065
0.492531 0.150973 0.527764
0.581399 0.162097 0.537133
0.656046 0.188403 0.534722
0.736873 0.212222 0.546258
0.806134 0.236835 0.545922
0.119951 0.174701 0.52253
0.153658 0.197101 0.540917
0.27248 0.211368 0.552163
0.403571 0.217517 0.547951
0.511727 0.222324 0.551858
0.600519 0.23447 0.559228
0.685756 0.25716 0.561669
0.779873 0.278325 0.583825
0.842008 0.294072 0.576898
0.0446632 0.294636 0.555291
0.10753 0.318242 0.579324
0.251667 0.337209 0.595361
0.410117 0.340963 0.577966
0.528466 0.347021 0.581277
0.622034 0.353719 0.590295
0.724239 0.359503 0.59704
0.81355 0.377813 0.604212
0.873762 0.381247 0.597284
0.0206912 0.412024 0.584405
0.0461433 0.436606 0.604227
0.217411 0.455406 0.615381
0.405844 0.456428 0.611307
0.536339 0.469734 0.607034
0.643519 0.476585 0.619028
0.751263 0.476081 0.623316
0.842786 0.486442 0.621469
0.901457 0.482063 0.613565
0.0327459 0.518822 0.607401
0.0611276 0.539223 0.622797
0.168643 0.557794 0.634333
0.383093 0.565728 0.632197
0.53666 0.574685 0.636057
0.652354 0.587671 0.636118
0.765087 0.590463 0.631479
0.860899 0.594415 0.635813
0.924834 0.585168 0.62414
0.0559091 0.615885 0.621164
0.088304 0.632807 0.633265
0.142092 0.65243 0.643397
0.332647 0.66981 0.648478
0.513832 0.681025 0.650339
0.661997 0.68452 0.64686
0.778653 0.690776 0.642664
0.87155 0.694881 0.636439
0.949569 0.679438 0.626413
0.0969863 0.697948 0.615305
0.127993 0.712261 0.624399
0.172107 0.728847 0.631327
0.321447 0.744717 0.630426
0.477073 0.767407 0.637446
0.637934 0.776577 0.651011
0.766476 0.78761 0.645884
0.879667 0.788327 0.630076
0.960037 0.783475 0.618662
0.12311 0.770352 0.608103
0.147753 0.783993 0.617411
0.182818 0.8 0.62565
0.239445 0.81178 0.627192
0.367208 0.820356 0.625498
0.566903 0.841917 0.630426
0.711543 0.865751 0.65272
0.877226 0.878828 0.63473
0.976059 0.882856 0.603677
0.171908 0.767559 0.545296
0.200732 0.780041 0.557122
0.239841 0.792493 0.569665
0.281041 0.805447 0.583383
0.32253 0.819196 0.597894
0.363714 0.834043 0.614115
0.401465 0.855619 0.64123
0.65597 0.90045 0.680842
0.975097 0.974365 0.690074
0.138994 0.159609 0.561517
0.164767 0.178103 0.575982
0.265614 0.188006 0.587243
0.387167 0.192538 0.595254
0.496483 0.196597 0.602533
0.585321 0.202167 0.611521
0.661433 0.214633 0.619013
0.725414 0.24184 0.614832
0.810132 0.262074 0.630488
0.142245 0.21735 0.593042
0.174975 0.238697 0.610651
0.27747 0.256901 0.622446
0.405112 0.261189 0.625895
0.517067 0.264012 0.630594
0.609186 0.270604 0.638911
0.686152 0.285985 0.646342
0.758968 0.314153 0.646754
0.846067 0.318486 0.663523
0.104372 0.32488 0.631113
0.153628 0.351293 0.649882
0.268299 0.371206 0.667552
0.42031 0.369024 0.666438
0.531182 0.378271 0.659464
0.630091 0.380972 0.66865
0.711467 0.388968 0.677516
0.794934 0.404532 0.67808
0.87483 0.40264 0.684184
0.0461738 0.438956 0.659495
0.0991226 0.461265 0.681331
0.251591 0.478706 0.696086
0.418021 0.479362 0.69572
0.544793 0.490074 0.687175
0.646357 0.497932 0.692531
0.733043 0.500526 0.705608
0.832227 0.500664 0.709606
0.904784 0.496971 0.698863
0.0380713 0.539879 0.687419
0.0798505 0.559258 0.701671
0.233967 0.574929 0.710826
0.404242 0.581689 0.713878
0.547799 0.58967 0.718151
0.657923 0.602274 0.715007
0.75285 0.607065 0.726406
0.85214 0.604379 0.727077
0.932219 0.593439 0.711696
0.0561532 0.631937 0.701274
0.0910048 0.647562 0.712444
0.17467 0.662882 0.721736
0.373877 0.674098 0.728725
0.529091 0.68661 0.732448
0.654139 0.695918 0.735729
0.755932 0.705638 0.73489
0.864073 0.704219 0.72723
0.954177 0.686778 0.7178
0.0860151 0.713695 0.704875
0.114488 0.728634 0.715785
0.155245 0.746685 0.726986
0.28246 0.763363 0.733471
0.47422 0.779187 0.737209
0.622156 0.792432 0.740703
0.75787 0.795254 0.734707
0.8766 0.794675 0.721752
0.964218 0.779477 0.705516
0.129778 0.776638 0.68307
0.153887 0.790066 0.693446
0.18616 0.807034 0.70486
0.228183 0.825437 0.713954
0.31165 0.843107 0.718151
0.546639 0.860883 0.712657
0.704341 0.879271 0.732006
0.866529 0.89221 0.721782
0.976715 0.888075 0.689021
0.145663 0.779355 0.617487
0.168994 0.794308 0.631113
0.205264 0.808301 0.64448
0.250095 0.820233 0.656458
0.304295 0.828992 0.668193
0.351019 0.842176 0.685802
0.395407 0.863462 0.704128
0.635554 0.909148 0.738643
0.979965 0.982116 0.752361
0.151553 0.23151 0.629114
0.175265 0.24892 0.641596
0.267735 0.259571 0.651118
0.383673 0.264271 0.662852
0.490822 0.268727 0.67425
0.585138 0.272969 0.686778
0.664668 0.275837 0.699901
0.736568 0.281254 0.710674
0.794079 0.308476 0.704555
0.151705 0.281834 0.658686
0.187762 0.301946 0.673732
0.284703 0.319493 0.685084
0.408637 0.323583 0.699596
0.513802 0.332204 0.70515
0.611154 0.336248 0.718212
0.697276 0.34107 0.736141
0.769268 0.352773 0.747005
0.821897 0.368048 0.732982
0.141512 0.372229 0.697093
0.184817 0.396048 0.713436
0.285542 0.417502 0.727657
0.422797 0.419364 0.739681
0.53782 0.425086 0.742367
0.635447 0.429389 0.751415
0.720729 0.432715 0.766201
0.794537 0.439567 0.777783
0.852522 0.44242 0.760723
0.120974 0.473335 0.733104
0.174624 0.494804 0.750546
0.284291 0.514 0.766262
0.425788 0.51751 0.77731
0.553994 0.520424 0.782147
0.653376 0.528496 0.779431
0.738811 0.531746 0.791775
0.815457 0.533349 0.80499
0.88983 0.521401 0.791165
0.115068 0.569757 0.767361
0.170672 0.587579 0.783108
0.289784 0.601099 0.793988
0.425666 0.608515 0.80145
0.55436 0.61416 0.807416
0.66331 0.622812 0.80267
0.751247 0.629191 0.809552
0.831983 0.62797 0.824384
0.92285 0.606409 0.813916
0.0942092 0.653834 0.787167
0.143557 0.668879 0.798352
0.27042 0.684611 0.808743
0.41207 0.69398 0.815229
0.542687 0.701747 0.821851
0.658885 0.709682 0.826902
0.757885 0.718669 0.825895
0.85034 0.717845 0.838834
0.946014 0.695628 0.826993
0.0888075 0.731487 0.797284
0.119753 0.745342 0.808179
0.183291 0.761135 0.818799
0.358282 0.774426 0.823514
0.507057 0.784009 0.82887
0.634363 0.79469 0.833722
0.747448 0.803326 0.839368
0.854612 0.808499 0.840406
0.965301 0.784863 0.829648
0.103929 0.796704 0.796185
0.12578 0.810788 0.807904
0.155261 0.828519 0.821561
0.193515 0.847425 0.833875
0.281926 0.864546 0.841627
0.502815 0.87921 0.840879
0.677577 0.89514 0.848219
0.847654 0.899199 0.839185
0.975952 0.88574 0.805585
0.161944 0.772091 0.692927
0.183337 0.787823 0.708293
0.211292 0.805783 0.726131
0.243641 0.824018 0.744808
0.281025 0.842222 0.763806
0.322591 0.861158 0.782406
0.372885 0.87953 0.804562
0.610544 0.921828 0.829374
0.983993 0.989334 0.832822
0.189822 0.376699 0.691051
0.196643 0.389151 0.69958
0.268421 0.401038 0.711681
0.361059 0.409461 0.728298
0.451987 0.422675 0.743648
0.549981 0.428199 0.758129
0.647059 0.426749 0.77116
0.731456 0.426047 0.787121
0.808026 0.420966 0.805188
0.187121 0.420157 0.71928
0.211093 0.435492 0.73077
0.292073 0.450843 0.744305
0.389273 0.460868 0.761715
0.477073 0.476707 0.777066
0.578164 0.483253 0.792325
0.676921 0.485512 0.805692
0.7664 0.48629 0.824079
0.836316 0.471916 0.835172
0.195285 0.487877 0.760266
0.234134 0.505135 0.774273
0.314244 0.519951 0.786511
0.414252 0.529641 0.799756
0.503838 0.544411 0.819013
0.601678 0.55346 0.829236
0.703853 0.554513 0.841352
0.795346 0.554269 0.85594
0.861982 0.534997 0.862013
0.224842 0.562097 0.799969
0.268009 0.577554 0.812924
0.347829 0.590829 0.824063
0.43653 0.604212 0.837537
0.527916 0.617792 0.854643
0.623148 0.626688 0.865187
0.724819 0.627283 0.875715
0.819928 0.625635 0.885161
0.884474 0.605264 0.885832
0.268864 0.636332 0.833692
0.311284 0.650019 0.84593
0.378164 0.664546 0.858747
0.461967 0.677455 0.870939
0.553185 0.689204 0.88484
0.644907 0.696757 0.897978
0.736171 0.701793 0.901701
0.837919 0.697704 0.908537
0.906661 0.676966 0.908095
0.309972 0.710063 0.86244
0.349416 0.722103 0.873823
0.411261 0.734722 0.885191
0.488807 0.747509 0.896757
0.575616 0.758114 0.907088
0.66392 0.765835 0.915724
0.745434 0.77409 0.91957
0.848173 0.770138 0.925338
0.927321 0.747158 0.925597
0.345769 0.780987 0.882292
0.379629 0.792844 0.893599
0.435874 0.804471 0.90428
0.512413 0.813413 0.911391
0.595193 0.823835 0.918212
0.675319 0.834104 0.92491
0.756497 0.842252 0.933196
0.852918 0.84361 0.934386
0.944869 0.819318 0.936233
0.364401 0.84004 0.881758
0.391867 0.852613 0.8934
0.437125 0.867033 0.906386
0.499733 0.880018 0.917082
0.577005 0.892134 0.926421
0.66099 0.903105 0.934127
0.756527 0.912718 0.940948
0.859434 0.917037 0.948425
0.962112 0.896193 0.94432
0.184543 0.830793 0.851331
0.206317 0.847227 0.86717
0.232624 0.866682 0.885664
0.261707 0.887785 0.905196
0.295628 0.910216 0.921798
0.332937 0.935622 0.934325
0.414389 0.963546 0.951141
0.722423 0.987228 0.965866
0.979507 0.98793 0.959777
