luts/kodak_trix_400.cube
TITLE Film LUT
LUT_3D_SIZE 9
DOMAIN_MIN 0.0 0.0 0.0
DOMAIN_MAX 1.0 1.0 1.0
0.000000 0.000000 0.000000
0.000000 0.000000 0.000000
0.000000 0.000000 0.000000
0.000000 0.000000 0.000000
0.019475 0.019475 0.019475
0.052571 0.052571 0.052571
0.083932 0.083932 0.083932
0.113370 0.113370 0.113370
0.140750 0.140750 0.140750
0.000578 0.000578 0.000578
0.037908 0.037908 0.037908
0.074642 0.074642 0.074642
0.110459 0.110459 0.110459
0.145053 0.145053 0.145053
0.178150 0.178150 0.178150
0.209510 0.209510 0.209510
0.238948 0.238948 0.238948
0.266328 0.266328 0.266328
0.124155 0.124155 0.124155
0.161484 0.161484 0.161484
0.198219 0.198219 0.198219
0.234036 0.234036 0.234036
0.268630 0.268630 0.268630
0.301727 0.301727 0.301727
0.333087 0.333087 0.333087
0.362525 0.362525 0.362525
0.389905 0.389905 0.389905
0.244645 0.244645 0.244645
0.281974 0.281974 0.281974
0.318709 0.318709 0.318709
0.354525 0.354525 0.354525
0.389120 0.389120 0.389120
0.422216 0.422216 0.422216
0.453577 0.453577 0.453577
0.483014 0.483014 0.483014
0.510395 0.510395 0.510395
0.361022 0.361022 0.361022
0.398352 0.398352 0.398352
0.435086 0.435086 0.435086
0.470903 0.470903 0.470903
0.505497 0.505497 0.505497
0.538594 0.538594 0.538594
0.569954 0.569954 0.569954
0.599392 0.599392 0.599392
0.626772 0.626772 0.626772
0.472362 0.472362 0.472362
0.509691 0.509691 0.509691
0.546426 0.546426 0.546426
0.582242 0.582242 0.582242
0.616837 0.616837 0.616837
0.649933 0.649933 0.649933
0.681294 0.681294 0.681294
0.710731 0.710731 0.710731
0.738112 0.738112 0.738112
0.577860 0.577860 0.577860
0.615189 0.615189 0.615189
0.651924 0.651924 0.651924
0.687741 0.687741 0.687741
0.722335 0.722335 0.722335
0.755432 0.755432 0.755432
0.786792 0.786792 0.786792
0.816230 0.816230 0.816230
0.843610 0.843610 0.843610
0.676890 0.676890 0.676890
0.714220 0.714220 0.714220
0.750954 0.750954 0.750954
0.786771 0.786771 0.786771
0.821365 0.821365 0.821365
0.854462 0.854462 0.854462
0.885822 0.885822 0.885822
0.915260 0.915260 0.915260
0.942640 0.942640 0.942640
0.769000 0.769000 0.769000
0.806329 0.806329 0.806329
0.843064 0.843064 0.843064
0.878880 0.878880 0.878880
0.913475 0.913475 0.913475
0.946571 0.946571 0.946571
0.977932 0.977932 0.977932
1.000000 1.000000 1.000000
1.000000 1.000000 1.000000
0.000000 0.000000 0.000000
0.000000 0.000000 0.000000
0.000000 0.000000 0.000000
0.000000 0.000000 0.000000
0.032152 0.032152 0.032152
0.065249 0.065249 0.065249
0.096609 0.096609 0.096609
0.126047 0.126047 0.126047
0.153427 0.153427 0.153427
0.013256 0.013256 0.013256
0.050585 0.050585 0.050585
0.087319 0.087319 0.087319
0.123136 0.123136 0.123136
0.157730 0.157730 0.157730
0.190827 0.190827 0.190827
0.222187 0.222187 0.222187
0.251625 0.251625 0.251625
0.279006 0.279006 0.279006
0.136832 0.136832 0.136832
0.174162 0.174162 0.174162
0.210896 0.210896 0.210896
0.246713 0.246713 0.246713
0.281307 0.281307 0.281307
0.314404 0.314404 0.314404
0.345764 0.345764 0.345764
0.375202 0.375202 0.375202
0.402582 0.402582 0.402582
0.257322 0.257322 0.257322
0.294651 0.294651 0.294651
0.331386 0.331386 0.331386
0.367203 0.367203 0.367203
0.401797 0.401797 0.401797
0.434894 0.434894 0.434894
0.466254 0.466254 0.466254
0.495692 0.495692 0.495692
0.523072 0.523072 0.523072
0.373699 0.373699 0.373699
0.411029 0.411029 0.411029
0.447763 0.447763 0.447763
0.483580 0.483580 0.483580
0.518174 0.518174 0.518174
0.551271 0.551271 0.551271
0.582631 0.582631 0.582631
0.612069 0.612069 0.612069
0.639449 0.639449 0.639449
0.485039 0.485039 0.485039
0.522368 0.522368 0.522368
0.559103 0.559103 0.559103
0.594920 0.594920 0.594920
0.629514 0.629514 0.629514
0.662611 0.662611 0.662611
0.693971 0.693971 0.693971
0.723409 0.723409 0.723409
0.750789 0.750789 0.750789
0.590537 0.590537 0.590537
0.627867 0.627867 0.627867
0.664601 0.664601 0.664601
0.700418 0.700418 0.700418
0.735012 0.735012 0.735012
0.768109 0.768109 0.768109
0.799469 0.799469 0.799469
0.828907 0.828907 0.828907
0.856287 0.856287 0.856287
0.689568 0.689568 0.689568
0.726897 0.726897 0.726897
0.763631 0.763631 0.763631
0.799448 0.799448 0.799448
0.834042 0.834042 0.834042
0.867139 0.867139 0.867139
0.898499 0.898499 0.898499
0.927937 0.927937 0.927937
0.955318 0.955318 0.955318
0.781677 0.781677 0.781677
0.819007 0.819007 0.819007
0.855741 0.855741 0.855741
0.891558 0.891558 0.891558
0.926152 0.926152 0.926152
0.959249 0.959249 0.959249
0.990609 0.990609 0.990609
1.000000 1.000000 1.000000
1.000000 1.000000 1.000000
0.000000 0.000000 0.000000
0.000000 0.000000 0.000000
0.000000 0.000000 0.000000
0.010033 0.010033 0.010033
0.044627 0.044627 0.044627
0.077724 0.077724 0.077724
0.109084 0.109084 0.109084
0.138522 0.138522 0.138522
0.165902 0.165902 0.165902
0.025731 0.025731 0.025731
0.063060 0.063060 0.063060
0.099795 0.099795 0.099795
0.135611 0.135611 0.135611
0.170206 0.170206 0.170206
0.203302 0.203302 0.203302
0.234663 0.234663 0.234663
0.264100 0.264100 0.264100
0.291481 0.291481 0.291481
0.149308 0.149308 0.149308
0.186637 0.186637 0.186637
0.223371 0.223371 0.223371
0.259188 0.259188 0.259188
0.293782 0.293782 0.293782
0.326879 0.326879 0.326879
0.358239 0.358239 0.358239
0.387677 0.387677 0.387677
0.415058 0.415058 0.415058
0.269797 0.269797 0.269797
0.307127 0.307127 0.307127
0.343861 0.343861 0.343861
0.379678 0.379678 0.379678
0.414272 0.414272 0.414272
0.447369 0.447369 0.447369
0.478729 0.478729 0.478729
0.508167 0.508167 0.508167
0.535547 0.535547 0.535547
0.386175 0.386175 0.386175
0.423504 0.423504 0.423504
0.460238 0.460238 0.460238
0.496055 0.496055 0.496055
0.530649 0.530649 0.530649
0.563746 0.563746 0.563746
0.595106 0.595106 0.595106
0.624544 0.624544 0.624544
0.651925 0.651925 0.651925
0.497514 0.497514 0.497514
0.534844 0.534844 0.534844
0.571578 0.571578 0.571578
0.607395 0.607395 0.607395
0.641989 0.641989 0.641989
0.675086 0.675086 0.675086
0.706446 0.706446 0.706446
0.735884 0.735884 0.735884
0.763264 0.763264 0.763264
0.603013 0.603013 0.603013
0.640342 0.640342 0.640342
0.677076 0.677076 0.677076
0.712893 0.712893 0.712893
0.747487 0.747487 0.747487
0.780584 0.780584 0.780584
0.811944 0.811944 0.811944
0.841382 0.841382 0.841382
0.868763 0.868763 0.868763
0.702043 0.702043 0.702043
0.739372 0.739372 0.739372
0.776106 0.776106 0.776106
0.811923 0.811923 0.811923
0.846517 0.846517 0.846517
0.879614 0.879614 0.879614
0.910975 0.910975 0.910975
0.940412 0.940412 0.940412
0.967793 0.967793 0.967793
0.794152 0.794152 0.794152
0.831482 0.831482 0.831482
0.868216 0.868216 0.868216
0.904033 0.904033 0.904033
0.938627 0.938627 0.938627
0.971724 0.971724 0.971724
1.000000 1.000000 1.000000
1.000000 1.000000 1.000000
1.000000 1.000000 1.000000
0.000000 0.000000 0.000000
0.000000 0.000000 0.000000
0.000000 0.000000 0.000000
0.022196 0.022196 0.022196
0.056791 0.056791 0.056791
0.089887 0.089887 0.089887
0.121248 0.121248 0.121248
0.150685 0.150685 0.150685
0.178066 0.178066 0.178066
0.037894 0.037894 0.037894
0.075224 0.075224 0.075224
0.111958 0.111958 0.111958
0.147775 0.147775 0.147775
0.182369 0.182369 0.182369
0.215466 0.215466 0.215466
0.246826 0.246826 0.246826
0.276264 0.276264 0.276264
0.303644 0.303644 0.303644
0.161471 0.161471 0.161471
0.198800 0.198800 0.198800
0.235535 0.235535 0.235535
0.271352 0.271352 0.271352
0.305946 0.305946 0.305946
0.339043 0.339043 0.339043
0.370403 0.370403 0.370403
0.399841 0.399841 0.399841
0.427221 0.427221 0.427221
0.281961 0.281961 0.281961
0.319290 0.319290 0.319290
0.356025 0.356025 0.356025
0.391841 0.391841 0.391841
0.426436 0.426436 0.426436
0.459532 0.459532 0.459532
0.490893 0.490893 0.490893
0.520330 0.520330 0.520330
0.547711 0.547711 0.547711
0.398338 0.398338 0.398338
0.435668 0.435668 0.435668
0.472402 0.472402 0.472402
0.508219 0.508219 0.508219
0.542813 0.542813 0.542813
0.575910 0.575910 0.575910
0.607270 0.607270 0.607270
0.636708 0.636708 0.636708
0.664088 0.664088 0.664088
0.509678 0.509678 0.509678
0.547007 0.547007 0.547007
0.583742 0.583742 0.583742
0.619558 0.619558 0.619558
0.654153 0.654153 0.654153
0.687249 0.687249 0.687249
0.718610 0.718610 0.718610
0.748047 0.748047 0.748047
0.775428 0.775428 0.775428
0.615176 0.615176 0.615176
0.652505 0.652505 0.652505
0.689240 0.689240 0.689240
0.725057 0.725057 0.725057
0.759651 0.759651 0.759651
0.792748 0.792748 0.792748
0.824108 0.824108 0.824108
0.853546 0.853546 0.853546
0.880926 0.880926 0.880926
0.714206 0.714206 0.714206
0.751536 0.751536 0.751536
0.788270 0.788270 0.788270
0.824087 0.824087 0.824087
0.858681 0.858681 0.858681
0.891778 0.891778 0.891778
0.923138 0.923138 0.923138
0.952576 0.952576 0.952576
0.979956 0.979956 0.979956
0.806316 0.806316 0.806316
0.843645 0.843645 0.843645
0.880380 0.880380 0.880380
0.916196 0.916196 0.916196
0.950791 0.950791 0.950791
0.983887 0.983887 0.983887
1.000000 1.000000 1.000000
1.000000 1.000000 1.000000
1.000000 1.000000 1.000000
0.000000 0.000000 0.000000
0.000000 0.000000 0.000000
0.000000 0.000000 0.000000
0.033945 0.033945 0.033945
0.068539 0.068539 0.068539
0.101636 0.101636 0.101636
0.132996 0.132996 0.132996
0.162434 0.162434 0.162434
0.189814 0.189814 0.189814
0.049643 0.049643 0.049643
0.086972 0.086972 0.086972
0.123706 0.123706 0.123706
0.159523 0.159523 0.159523
0.194117 0.194117 0.194117
0.227214 0.227214 0.227214
0.258575 0.258575 0.258575
0.288012 0.288012 0.288012
0.315393 0.315393 0.315393
0.173219 0.173219 0.173219
0.210549 0.210549 0.210549
0.247283 0.247283 0.247283
0.283100 0.283100 0.283100
0.317694 0.317694 0.317694
0.350791 0.350791 0.350791
0.382151 0.382151 0.382151
0.411589 0.411589 0.411589
0.438969 0.438969 0.438969
0.293709 0.293709 0.293709
0.331039 0.331039 0.331039
0.367773 0.367773 0.367773
0.403590 0.403590 0.403590
0.438184 0.438184 0.438184
0.471281 0.471281 0.471281
0.502641 0.502641 0.502641
0.532079 0.532079 0.532079
0.559459 0.559459 0.559459
0.410087 0.410087 0.410087
0.447416 0.447416 0.447416
0.484150 0.484150 0.484150
0.519967 0.519967 0.519967
0.554561 0.554561 0.554561
0.587658 0.587658 0.587658
0.619018 0.619018 0.619018
0.648456 0.648456 0.648456
0.675837 0.675837 0.675837
0.521426 0.521426 0.521426
0.558756 0.558756 0.558756
0.595490 0.595490 0.595490
0.631307 0.631307 0.631307
0.665901 0.665901 0.665901
0.698998 0.698998 0.698998
0.730358 0.730358 0.730358
0.759796 0.759796 0.759796
0.787176 0.787176 0.787176
0.626924 0.626924 0.626924
0.664254 0.664254 0.664254
0.700988 0.700988 0.700988
0.736805 0.736805 0.736805
0.771399 0.771399 0.771399
0.804496 0.804496 0.804496
0.835856 0.835856 0.835856
0.865294 0.865294 0.865294
0.892674 0.892674 0.892674
0.725955 0.725955 0.725955
0.763284 0.763284 0.763284
0.800018 0.800018 0.800018
0.835835 0.835835 0.835835
0.870429 0.870429 0.870429
0.903526 0.903526 0.903526
0.934886 0.934886 0.934886
0.964324 0.964324 0.964324
0.991705 0.991705 0.991705
0.818064 0.818064 0.818064
0.855394 0.855394 0.855394
0.892128 0.892128 0.892128
0.927945 0.927945 0.927945
0.962539 0.962539 0.962539
0.995636 0.995636 0.995636
1.000000 1.000000 1.000000
1.000000 1.000000 1.000000
1.000000 1.000000 1.000000
0.000000 0.000000 0.000000
0.000000 0.000000 0.000000
0.009368 0.009368 0.009368
0.045185 0.045185 0.045185
0.079779 0.079779 0.079779
0.112876 0.112876 0.112876
0.144236 0.144236 0.144236
0.173674 0.173674 0.173674
0.201054 0.201054 0.201054
0.060883 0.060883 0.060883
0.098212 0.098212 0.098212
0.134946 0.134946 0.134946
0.170763 0.170763 0.170763
0.205357 0.205357 0.205357
0.238454 0.238454 0.238454
0.269814 0.269814 0.269814
0.299252 0.299252 0.299252
0.326633 0.326633 0.326633
0.184459 0.184459 0.184459
0.221789 0.221789 0.221789
0.258523 0.258523 0.258523
0.294340 0.294340 0.294340
0.328934 0.328934 0.328934
0.362031 0.362031 0.362031
0.393391 0.393391 0.393391
0.422829 0.422829 0.422829
0.450209 0.450209 0.450209
0.304949 0.304949 0.304949
0.342278 0.342278 0.342278
0.379013 0.379013 0.379013
0.414829 0.414829 0.414829
0.449424 0.449424 0.449424
0.482521 0.482521 0.482521
0.513881 0.513881 0.513881
0.543319 0.543319 0.543319
0.570699 0.570699 0.570699
0.421326 0.421326 0.421326
0.458656 0.458656 0.458656
0.495390 0.495390 0.495390
0.531207 0.531207 0.531207
0.565801 0.565801 0.565801
0.598898 0.598898 0.598898
0.630258 0.630258 0.630258
0.659696 0.659696 0.659696
0.687076 0.687076 0.687076
0.532666 0.532666 0.532666
0.569995 0.569995 0.569995
0.606730 0.606730 0.606730
0.642546 0.642546 0.642546
0.677141 0.677141 0.677141
0.710237 0.710237 0.710237
0.741598 0.741598 0.741598
0.771036 0.771036 0.771036
0.798416 0.798416 0.798416
0.638164 0.638164 0.638164
0.675494 0.675494 0.675494
0.712228 0.712228 0.712228
0.748045 0.748045 0.748045
0.782639 0.782639 0.782639
0.815736 0.815736 0.815736
0.847096 0.847096 0.847096
0.876534 0.876534 0.876534
0.903914 0.903914 0.903914
0.737194 0.737194 0.737194
0.774524 0.774524 0.774524
0.811258 0.811258 0.811258
0.847075 0.847075 0.847075
0.881669 0.881669 0.881669
0.914766 0.914766 0.914766
0.946126 0.946126 0.946126
0.975564 0.975564 0.975564
1.000000 1.000000 1.000000
0.829304 0.829304 0.829304
0.866634 0.866634 0.866634
0.903368 0.903368 0.903368
0.939185 0.939185 0.939185
0.973779 0.973779 0.973779
1.000000 1.000000 1.000000
1.000000 1.000000 1.000000
1.000000 1.000000 1.000000
1.000000 1.000000 1.000000
0.000000 0.000000 0.000000
0.000000 0.000000 0.000000
0.020018 0.020018 0.020018
0.055835 0.055835 0.055835
0.090429 0.090429 0.090429
0.123526 0.123526 0.123526
0.154886 0.154886 0.154886
0.184324 0.184324 0.184324
0.211704 0.211704 0.211704
0.071533 0.071533 0.071533
0.108862 0.108862 0.108862
0.145596 0.145596 0.145596
0.181413 0.181413 0.181413
0.216007 0.216007 0.216007
0.249104 0.249104 0.249104
0.280465 0.280465 0.280465
0.309902 0.309902 0.309902
0.337283 0.337283 0.337283
0.195109 0.195109 0.195109
0.232439 0.232439 0.232439
0.269173 0.269173 0.269173
0.304990 0.304990 0.304990
0.339584 0.339584 0.339584
0.372681 0.372681 0.372681
0.404041 0.404041 0.404041
0.433479 0.433479 0.433479
0.460859 0.460859 0.460859
0.315599 0.315599 0.315599
0.352929 0.352929 0.352929
0.389663 0.389663 0.389663
0.425480 0.425480 0.425480
0.460074 0.460074 0.460074
0.493171 0.493171 0.493171
0.524531 0.524531 0.524531
0.553969 0.553969 0.553969
0.581349 0.581349 0.581349
0.431976 0.431976 0.431976
0.469306 0.469306 0.469306
0.506040 0.506040 0.506040
0.541857 0.541857 0.541857
0.576451 0.576451 0.576451
0.609548 0.609548 0.609548
0.640908 0.640908 0.640908
0.670346 0.670346 0.670346
0.697726 0.697726 0.697726
0.543316 0.543316 0.543316
0.580646 0.580646 0.580646
0.617380 0.617380 0.617380
0.653197 0.653197 0.653197
0.687791 0.687791 0.687791
0.720888 0.720888 0.720888
0.752248 0.752248 0.752248
0.781686 0.781686 0.781686
0.809066 0.809066 0.809066
0.648814 0.648814 0.648814
0.686144 0.686144 0.686144
0.722878 0.722878 0.722878
0.758695 0.758695 0.758695
0.793289 0.793289 0.793289
0.826386 0.826386 0.826386
0.857746 0.857746 0.857746
0.887184 0.887184 0.887184
0.914564 0.914564 0.914564
0.747845 0.747845 0.747845
0.785174 0.785174 0.785174
0.821908 0.821908 0.821908
0.857725 0.857725 0.857725
0.892319 0.892319 0.892319
0.925416 0.925416 0.925416
0.956776 0.956776 0.956776
0.986214 0.986214 0.986214
1.000000 1.000000 1.000000
0.839954 0.839954 0.839954
0.877284 0.877284 0.877284
0.914018 0.914018 0.914018
0.949835 0.949835 0.949835
0.984429 0.984429 0.984429
1.000000 1.000000 1.000000
1.000000 1.000000 1.000000
1.000000 1.000000 1.000000
1.000000 1.000000 1.000000
0.000000 0.000000 0.000000
0.000000 0.000000 0.000000
0.030015 0.030015 0.030015
0.065832 0.065832 0.065832
0.100426 0.100426 0.100426
0.133523 0.133523 0.133523
0.164883 0.164883 0.164883
0.194321 0.194321 0.194321
0.221701 0.221701 0.221701
0.081530 0.081530 0.081530
0.118859 0.118859 0.118859
0.155594 0.155594 0.155594
0.191410 0.191410 0.191410
0.226005 0.226005 0.226005
0.259101 0.259101 0.259101
0.290462 0.290462 0.290462
0.319899 0.319899 0.319899
0.347280 0.347280 0.347280
0.205107 0.205107 0.205107
0.242436 0.242436 0.242436
0.279170 0.279170 0.279170
0.314987 0.314987 0.314987
0.349581 0.349581 0.349581
0.382678 0.382678 0.382678
0.414038 0.414038 0.414038
0.443476 0.443476 0.443476
0.470857 0.470857 0.470857
0.325596 0.325596 0.325596
0.362926 0.362926 0.362926
0.399660 0.399660 0.399660
0.435477 0.435477 0.435477
0.470071 0.470071 0.470071
0.503168 0.503168 0.503168
0.534528 0.534528 0.534528
0.563966 0.563966 0.563966
0.591346 0.591346 0.591346
0.441974 0.441974 0.441974
0.479303 0.479303 0.479303
0.516037 0.516037 0.516037
0.551854 0.551854 0.551854
0.586448 0.586448 0.586448
0.619545 0.619545 0.619545
0.650906 0.650906 0.650906
0.680343 0.680343 0.680343
0.707724 0.707724 0.707724
0.553313 0.553313 0.553313
0.590643 0.590643 0.590643
0.627377 0.627377 0.627377
0.663194 0.663194 0.663194
0.697788 0.697788 0.697788
0.730885 0.730885 0.730885
0.762245 0.762245 0.762245
0.791683 0.791683 0.791683
0.819063 0.819063 0.819063
0.658812 0.658812 0.658812
0.696141 0.696141 0.696141
0.732875 0.732875 0.732875
0.768692 0.768692 0.768692
0.803286 0.803286 0.803286
0.836383 0.836383 0.836383
0.867743 0.867743 0.867743
0.897181 0.897181 0.897181
0.924562 0.924562 0.924562
0.757842 0.757842 0.757842
0.795171 0.795171 0.795171
0.831905 0.831905 0.831905
0.867722 0.867722 0.867722
0.902316 0.902316 0.902316
0.935413 0.935413 0.935413
0.966774 0.966774 0.966774
0.996211 0.996211 0.996211
1.000000 1.000000 1.000000
0.849951 0.849951 0.849951
0.887281 0.887281 0.887281
0.924015 0.924015 0.924015
0.959832 0.959832 0.959832
0.994426 0.994426 0.994426
1.000000 1.000000 1.000000
1.000000 1.000000 1.000000
1.000000 1.000000 1.000000
1.000000 1.000000 1.000000
0.000000 0.000000 0.000000
0.002579 0.002579 0.002579
0.039314 0.039314 0.039314
0.075130 0.075130 0.075130
0.109725 0.109725 0.109725
0.142821 0.142821 0.142821
0.174182 0.174182 0.174182
0.203620 0.203620 0.203620
0.231000 0.231000 0.231000
0.090828 0.090828 0.090828
0.128158 0.128158 0.128158
0.164892 0.164892 0.164892
0.200709 0.200709 0.200709
0.235303 0.235303 0.235303
0.268400 0.268400 0.268400
0.299760 0.299760 0.299760
0.329198 0.329198 0.329198
0.356578 0.356578 0.356578
0.214405 0.214405 0.214405
0.251734 0.251734 0.251734
0.288469 0.288469 0.288469
0.324286 0.324286 0.324286
0.358880 0.358880 0.358880
0.391977 0.391977 0.391977
0.423337 0.423337 0.423337
0.452775 0.452775 0.452775
0.480155 0.480155 0.480155
0.334895 0.334895 0.334895
0.372224 0.372224 0.372224
0.408959 0.408959 0.408959
0.444775 0.444775 0.444775
0.479370 0.479370 0.479370
0.512466 0.512466 0.512466
0.543827 0.543827 0.543827
0.573264 0.573264 0.573264
0.600645 0.600645 0.600645
0.451272 0.451272 0.451272
0.488602 0.488602 0.488602
0.525336 0.525336 0.525336
0.561153 0.561153 0.561153
0.595747 0.595747 0.595747
0.628844 0.628844 0.628844
0.660204 0.660204 0.660204
0.689642 0.689642 0.689642
0.717022 0.717022 0.717022
0.562612 0.562612 0.562612
0.599941 0.599941 0.599941
0.636676 0.636676 0.636676
0.672492 0.672492 0.672492
0.707087 0.707087 0.707087
0.740183 0.740183 0.740183
0.771544 0.771544 0.771544
0.800981 0.800981 0.800981
0.828362 0.828362 0.828362
0.668110 0.668110 0.668110
0.705439 0.705439 0.705439
0.742174 0.742174 0.742174
0.777991 0.777991 0.777991
0.812585 0.812585 0.812585
0.845682 0.845682 0.845682
0.877042 0.877042 0.877042
0.906480 0.906480 0.906480
0.933860 0.933860 0.933860
0.767140 0.767140 0.767140
0.804470 0.804470 0.804470
0.841204 0.841204 0.841204
0.877021 0.877021 0.877021
0.911615 0.911615 0.911615
0.944712 0.944712 0.944712
0.976072 0.976072 0.976072
1.000000 1.000000 1.000000
1.000000 1.000000 1.000000
0.859250 0.859250 0.859250
0.896579 0.896579 0.896579
0.933314 0.933314 0.933314
0.969130 0.969130 0.969130
1.000000 1.000000 1.000000
1.000000 1.000000 1.000000
1.000000 1.000000 1.000000
1.000000 1.000000 1.000000
1.000000 1.000000 1.000000
