luts/kodak_trix_400.cube
TITLE Film LUT
LUT_3D_SIZE 33
DOMAIN_MIN 0.0 0.0 0.0
DOMAIN_MAX 1.0 1.0 1.0
0.000000 0.000000 0.000000
0.000000 0.000000 0.000000
0.000000 0.000000 0.000000
0.000000 0.000000 0.000000
0.000000 0.000000 0.000000
0.000000 0.000000 0.000000
0.000000 0.000000 0.000000
0.000000 0.000000 0.000000
0.000000 0.000000 0.000000
0.000000 0.000000 0.000000
0.000000 0.000000 0.000000
0.000000 0.000000 0.000000
0.000000 0.000000 0.000000
0.000000 0.000000 0.000000
0.002349 0.002349 0.002349
0.010957 0.010957 0.010957
0.019475 0.019475 0.019475
0.027900 0.027900 0.027900
0.036226 0.036226 0.036226
0.044451 0.044451 0.044451
0.052571 0.052571 0.052571
0.060581 0.060581 0.060581
0.068482 0.068482 0.068482
0.076265 0.076265 0.076265
0.083932 0.083932 0.083932
0.091478 0.091478 0.091478
0.098902 0.098902 0.098902
0.106200 0.106200 0.106200
0.113370 0.113370 0.113370
0.120412 0.120412 0.120412
0.127324 0.127324 0.127324
0.134103 0.134103 0.134103
0.140750 0.140750 0.140750
0.000000 0.000000 0.000000
0.000000 0.000000 0.000000
0.000000 0.000000 0.000000
0.000000 0.000000 0.000000
0.000000 0.000000 0.000000
0.000000 0.000000 0.000000
0.000000 0.000000 0.000000
0.000000 0.000000 0.000000
0.000000 0.000000 0.000000
0.000000 0.000000 0.000000
0.000000 0.000000 0.000000
0.007552 0.007552 0.007552
0.016403 0.016403 0.016403
0.025177 0.025177 0.025177
0.033871 0.033871 0.033871
0.042479 0.042479 0.042479
0.050997 0.050997 0.050997
0.059422 0.059422 0.059422
0.067749 0.067749 0.067749
0.075973 0.075973 0.075973
0.084094 0.084094 0.084094
0.092104 0.092104 0.092104
0.100004 0.100004 0.100004
0.107788 0.107788 0.107788
0.115454 0.115454 0.115454
0.123000 0.123000 0.123000
0.130424 0.130424 0.130424
0.137722 0.137722 0.137722
0.144892 0.144892 0.144892
0.151935 0.151935 0.151935
0.158847 0.158847 0.158847
0.165626 0.165626 0.165626
0.172272 0.172272 0.172272
0.000000 0.000000 0.000000
0.000000 0.000000 0.000000
0.000000 0.000000 0.000000
0.000000 0.000000 0.000000
0.000000 0.000000 0.000000
0.000000 0.000000 0.000000
0.000000 0.000000 0.000000
0.002923 0.002923 0.002923
0.012033 0.012033 0.012033
0.021085 0.021085 0.021085
0.030074 0.030074 0.030074
0.038998 0.038998 0.038998
0.047849 0.047849 0.047849
0.056624 0.056624 0.056624
0.065318 0.065318 0.065318
0.073926 0.073926 0.073926
0.082444 0.082444 0.082444
0.090868 0.090868 0.090868
0.099195 0.099195 0.099195
0.107420 0.107420 0.107420
0.115540 0.115540 0.115540
0.123550 0.123550 0.123550
0.131451 0.131451 0.131451
0.139234 0.139234 0.139234
0.146901 0.146901 0.146901
0.154446 0.154446 0.154446
0.161870 0.161870 0.161870
0.169168 0.169168 0.169168
0.176338 0.176338 0.176338
0.183381 0.183381 0.183381
0.190293 0.190293 0.190293
0.197072 0.197072 0.197072
0.203719 0.203719 0.203719
0.000000 0.000000 0.000000
0.000000 0.000000 0.000000
0.000000 0.000000 0.000000
0.000000 0.000000 0.000000
0.006655 0.006655 0.006655
0.015907 0.015907 0.015907
0.025117 0.025117 0.025117
0.034280 0.034280 0.034280
0.043390 0.043390 0.043390
0.052442 0.052442 0.052442
0.061431 0.061431 0.061431
0.070355 0.070355 0.070355
0.079206 0.079206 0.079206
0.087981 0.087981 0.087981
0.096675 0.096675 0.096675
0.105283 0.105283 0.105283
0.113801 0.113801 0.113801
0.122225 0.122225 0.122225
0.130552 0.130552 0.130552
0.138777 0.138777 0.138777
0.146897 0.146897 0.146897
0.154907 0.154907 0.154907
0.162808 0.162808 0.162808
0.170591 0.170591 0.170591
0.178258 0.178258 0.178258
0.185803 0.185803 0.185803
0.193227 0.193227 0.193227
0.200526 0.200526 0.200526
0.207695 0.207695 0.207695
0.214738 0.214738 0.214738
0.221650 0.221650 0.221650
0.228429 0.228429 0.228429
0.235076 0.235076 0.235076
0.000578 0.000578 0.000578
0.009949 0.009949 0.009949
0.019296 0.019296 0.019296
0.028618 0.028618 0.028618
0.037908 0.037908 0.037908
0.047160 0.047160 0.047160
0.056369 0.056369 0.056369
0.065532 0.065532 0.065532
0.074642 0.074642 0.074642
0.083694 0.083694 0.083694
0.092684 0.092684 0.092684
0.101608 0.101608 0.101608
0.110459 0.110459 0.110459
0.119233 0.119233 0.119233
0.127927 0.127927 0.127927
0.136535 0.136535 0.136535
0.145053 0.145053 0.145053
0.153478 0.153478 0.153478
0.161805 0.161805 0.161805
0.170029 0.170029 0.170029
0.178150 0.178150 0.178150
0.186160 0.186160 0.186160
0.194060 0.194060 0.194060
0.201844 0.201844 0.201844
0.209510 0.209510 0.209510
0.217056 0.217056 0.217056
0.224480 0.224480 0.224480
0.231778 0.231778 0.231778
0.238948 0.238948 0.238948
0.245991 0.245991 0.245991
0.252903 0.252903 0.252903
0.259682 0.259682 0.259682
0.266328 0.266328 0.266328
0.031703 0.031703 0.031703
0.041073 0.041073 0.041073
0.050421 0.050421 0.050421
0.059742 0.059742 0.059742
0.069032 0.069032 0.069032
0.078284 0.078284 0.078284
0.087494 0.087494 0.087494
0.096657 0.096657 0.096657
0.105767 0.105767 0.105767
0.114819 0.114819 0.114819
0.123808 0.123808 0.123808
0.132732 0.132732 0.132732
0.141583 0.141583 0.141583
0.150358 0.150358 0.150358
0.159052 0.159052 0.159052
0.167660 0.167660 0.167660
0.176178 0.176178 0.176178
0.184603 0.184603 0.184603
0.192929 0.192929 0.192929
0.201154 0.201154 0.201154
0.209274 0.209274 0.209274
0.217284 0.217284 0.217284
0.225185 0.225185 0.225185
0.232968 0.232968 0.232968
0.240635 0.240635 0.240635
0.248181 0.248181 0.248181
0.255605 0.255605 0.255605
0.262903 0.262903 0.262903
0.270073 0.270073 0.270073
0.277115 0.277115 0.277115
0.284027 0.284027 0.284027
0.290806 0.290806 0.290806
0.297453 0.297453 0.297453
0.062684 0.062684 0.062684
0.072054 0.072054 0.072054
0.081402 0.081402 0.081402
0.090723 0.090723 0.090723
0.100013 0.100013 0.100013
0.109265 0.109265 0.109265
0.118474 0.118474 0.118474
0.127637 0.127637 0.127637
0.136747 0.136747 0.136747
0.145800 0.145800 0.145800
0.154789 0.154789 0.154789
0.163713 0.163713 0.163713
0.172564 0.172564 0.172564
0.181338 0.181338 0.181338
0.190032 0.190032 0.190032
0.198641 0.198641 0.198641
0.207158 0.207158 0.207158
0.215583 0.215583 0.215583
0.223910 0.223910 0.223910
0.232135 0.232135 0.232135
0.240255 0.240255 0.240255
0.248265 0.248265 0.248265
0.256165 0.256165 0.256165
0.263949 0.263949 0.263949
0.271616 0.271616 0.271616
0.279161 0.279161 0.279161
0.286585 0.286585 0.286585
0.293883 0.293883 0.293883
0.301053 0.301053 0.301053
0.308096 0.308096 0.308096
0.315008 0.315008 0.315008
0.321787 0.321787 0.321787
0.328434 0.328434 0.328434
0.093509 0.093509 0.093509
0.102879 0.102879 0.102879
0.112227 0.112227 0.112227
0.121548 0.121548 0.121548
0.130838 0.130838 0.130838
0.140090 0.140090 0.140090
0.149300 0.149300 0.149300
0.158463 0.158463 0.158463
0.167573 0.167573 0.167573
0.176625 0.176625 0.176625
0.185614 0.185614 0.185614
0.194538 0.194538 0.194538
0.203389 0.203389 0.203389
0.212164 0.212164 0.212164
0.220858 0.220858 0.220858
0.229466 0.229466 0.229466
0.237984 0.237984 0.237984
0.246408 0.246408 0.246408
0.254735 0.254735 0.254735
0.262960 0.262960 0.262960
0.271080 0.271080 0.271080
0.279090 0.279090 0.279090
0.286990 0.286990 0.286990
0.294774 0.294774 0.294774
0.302441 0.302441 0.302441
0.309986 0.309986 0.309986
0.317410 0.317410 0.317410
0.324708 0.324708 0.324708
0.331878 0.331878 0.331878
0.338921 0.338921 0.338921
0.345833 0.345833 0.345833
0.352612 0.352612 0.352612
0.359259 0.359259 0.359259
0.124155 0.124155 0.124155
0.133525 0.133525 0.133525
0.142873 0.142873 0.142873
0.152194 0.152194 0.152194
0.161484 0.161484 0.161484
0.170737 0.170737 0.170737
0.179946 0.179946 0.179946
0.189109 0.189109 0.189109
0.198219 0.198219 0.198219
0.207271 0.207271 0.207271
0.216261 0.216261 0.216261
0.225184 0.225184 0.225184
0.234036 0.234036 0.234036
0.242810 0.242810 0.242810
0.251504 0.251504 0.251504
0.260112 0.260112 0.260112
0.268630 0.268630 0.268630
0.277055 0.277055 0.277055
0.285381 0.285381 0.285381
0.293606 0.293606 0.293606
0.301727 0.301727 0.301727
0.309737 0.309737 0.309737
0.317637 0.317637 0.317637
0.325420 0.325420 0.325420
0.333087 0.333087 0.333087
0.340633 0.340633 0.340633
0.348057 0.348057 0.348057
0.355355 0.355355 0.355355
0.362525 0.362525 0.362525
0.369568 0.369568 0.369568
0.376479 0.376479 0.376479
0.383258 0.383258 0.383258
0.389905 0.389905 0.389905
0.154607 0.154607 0.154607
0.163978 0.163978 0.163978
0.173326 0.173326 0.173326
0.182647 0.182647 0.182647
0.191937 0.191937 0.191937
0.201189 0.201189 0.201189
0.210398 0.210398 0.210398
0.219561 0.219561 0.219561
0.228671 0.228671 0.228671
0.237723 0.237723 0.237723
0.246713 0.246713 0.246713
0.255637 0.255637 0.255637
0.264488 0.264488 0.264488
0.273262 0.273262 0.273262
0.281956 0.281956 0.281956
0.290564 0.290564 0.290564
0.299082 0.299082 0.299082
0.307507 0.307507 0.307507
0.315834 0.315834 0.315834
0.324058 0.324058 0.324058
0.332179 0.332179 0.332179
0.340189 0.340189 0.340189
0.348089 0.348089 0.348089
0.355873 0.355873 0.355873
0.363539 0.363539 0.363539
0.371085 0.371085 0.371085
0.378509 0.378509 0.378509
0.385807 0.385807 0.385807
0.392977 0.392977 0.392977
0.400020 0.400020 0.400020
0.406932 0.406932 0.406932
0.413711 0.413711 0.413711
0.420357 0.420357 0.420357
0.184849 0.184849 0.184849
0.194219 0.194219 0.194219
0.203567 0.203567 0.203567
0.212888 0.212888 0.212888
0.222178 0.222178 0.222178
0.231430 0.231430 0.231430
0.240640 0.240640 0.240640
0.249803 0.249803 0.249803
0.258913 0.258913 0.258913
0.267965 0.267965 0.267965
0.276954 0.276954 0.276954
0.285878 0.285878 0.285878
0.294729 0.294729 0.294729
0.303503 0.303503 0.303503
0.312198 0.312198 0.312198
0.320806 0.320806 0.320806
0.329323 0.329323 0.329323
0.337748 0.337748 0.337748
0.346075 0.346075 0.346075
0.354300 0.354300 0.354300
0.362420 0.362420 0.362420
0.370430 0.370430 0.370430
0.378330 0.378330 0.378330
0.386114 0.386114 0.386114
0.393781 0.393781 0.393781
0.401326 0.401326 0.401326
0.408750 0.408750 0.408750
0.416048 0.416048 0.416048
0.423218 0.423218 0.423218
0.430261 0.430261 0.430261
0.437173 0.437173 0.437173
0.443952 0.443952 0.443952
0.450599 0.450599 0.450599
0.214869 0.214869 0.214869
0.224240 0.224240 0.224240
0.233587 0.233587 0.233587
0.242909 0.242909 0.242909
0.252199 0.252199 0.252199
0.261451 0.261451 0.261451
0.270660 0.270660 0.270660
0.279823 0.279823 0.279823
0.288933 0.288933 0.288933
0.297985 0.297985 0.297985
0.306975 0.306975 0.306975
0.315899 0.315899 0.315899
0.324750 0.324750 0.324750
0.333524 0.333524 0.333524
0.342218 0.342218 0.342218
0.350826 0.350826 0.350826
0.359344 0.359344 0.359344
0.367769 0.367769 0.367769
0.376096 0.376096 0.376096
0.384320 0.384320 0.384320
0.392441 0.392441 0.392441
0.400451 0.400451 0.400451
0.408351 0.408351 0.408351
0.416135 0.416135 0.416135
0.423801 0.423801 0.423801
0.431347 0.431347 0.431347
0.438771 0.438771 0.438771
0.446069 0.446069 0.446069
0.453239 0.453239 0.453239
0.460282 0.460282 0.460282
0.467194 0.467194 0.467194
0.473973 0.473973 0.473973
0.480619 0.480619 0.480619
0.244645 0.244645 0.244645
0.254015 0.254015 0.254015
0.263363 0.263363 0.263363
0.272684 0.272684 0.272684
0.281974 0.281974 0.281974
0.291226 0.291226 0.291226
0.300436 0.300436 0.300436
0.309599 0.309599 0.309599
0.318709 0.318709 0.318709
0.327761 0.327761 0.327761
0.336750 0.336750 0.336750
0.345674 0.345674 0.345674
0.354525 0.354525 0.354525
0.363300 0.363300 0.363300
0.371994 0.371994 0.371994
0.380602 0.380602 0.380602
0.389120 0.389120 0.389120
0.397544 0.397544 0.397544
0.405871 0.405871 0.405871
0.414096 0.414096 0.414096
0.422216 0.422216 0.422216
0.430226 0.430226 0.430226
0.438127 0.438127 0.438127
0.445910 0.445910 0.445910
0.453577 0.453577 0.453577
0.461122 0.461122 0.461122
0.468546 0.468546 0.468546
0.475844 0.475844 0.475844
0.483014 0.483014 0.483014
0.490057 0.490057 0.490057
0.496969 0.496969 0.496969
0.503748 0.503748 0.503748
0.510395 0.510395 0.510395
0.274162 0.274162 0.274162
0.283532 0.283532 0.283532
0.292880 0.292880 0.292880
0.302201 0.302201 0.302201
0.311491 0.311491 0.311491
0.320744 0.320744 0.320744
0.329953 0.329953 0.329953
0.339116 0.339116 0.339116
0.348226 0.348226 0.348226
0.357278 0.357278 0.357278
0.366268 0.366268 0.366268
0.375191 0.375191 0.375191
0.384043 0.384043 0.384043
0.392817 0.392817 0.392817
0.401511 0.401511 0.401511
0.410119 0.410119 0.410119
0.418637 0.418637 0.418637
0.427062 0.427062 0.427062
0.435388 0.435388 0.435388
0.443613 0.443613 0.443613
0.451734 0.451734 0.451734
0.459744 0.459744 0.459744
0.467644 0.467644 0.467644
0.475427 0.475427 0.475427
0.483094 0.483094 0.483094
0.490640 0.490640 0.490640
0.498064 0.498064 0.498064
0.505362 0.505362 0.505362
0.512532 0.512532 0.512532
0.519574 0.519574 0.519574
0.526486 0.526486 0.526486
0.533265 0.533265 0.533265
0.539912 0.539912 0.539912
0.303409 0.303409 0.303409
0.312780 0.312780 0.312780
0.322127 0.322127 0.322127
0.331449 0.331449 0.331449
0.340739 0.340739 0.340739
0.349991 0.349991 0.349991
0.359200 0.359200 0.359200
0.368363 0.368363 0.368363
0.377473 0.377473 0.377473
0.386525 0.386525 0.386525
0.395515 0.395515 0.395515
0.404439 0.404439 0.404439
0.413290 0.413290 0.413290
0.422064 0.422064 0.422064
0.430758 0.430758 0.430758
0.439366 0.439366 0.439366
0.447884 0.447884 0.447884
0.456309 0.456309 0.456309
0.464636 0.464636 0.464636
0.472860 0.472860 0.472860
0.480981 0.480981 0.480981
0.488991 0.488991 0.488991
0.496891 0.496891 0.496891
0.504675 0.504675 0.504675
0.512341 0.512341 0.512341
0.519887 0.519887 0.519887
0.527311 0.527311 0.527311
0.534609 0.534609 0.534609
0.541779 0.541779 0.541779
0.548822 0.548822 0.548822
0.555734 0.555734 0.555734
0.562513 0.562513 0.562513
0.569159 0.569159 0.569159
0.332368 0.332368 0.332368
0.341738 0.341738 0.341738
0.351086 0.351086 0.351086
0.360407 0.360407 0.360407
0.369697 0.369697 0.369697
0.378949 0.378949 0.378949
0.388158 0.388158 0.388158
0.397322 0.397322 0.397322
0.406431 0.406431 0.406431
0.415484 0.415484 0.415484
0.424473 0.424473 0.424473
0.433397 0.433397 0.433397
0.442248 0.442248 0.442248
0.451022 0.451022 0.451022
0.459716 0.459716 0.459716
0.468325 0.468325 0.468325
0.476842 0.476842 0.476842
0.485267 0.485267 0.485267
0.493594 0.493594 0.493594
0.501819 0.501819 0.501819
0.509939 0.509939 0.509939
0.517949 0.517949 0.517949
0.525849 0.525849 0.525849
0.533633 0.533633 0.533633
0.541300 0.541300 0.541300
0.548845 0.548845 0.548845
0.556269 0.556269 0.556269
0.563567 0.563567 0.563567
0.570737 0.570737 0.570737
0.577780 0.577780 0.577780
0.584692 0.584692 0.584692
0.591471 0.591471 0.591471
0.598118 0.598118 0.598118
0.361022 0.361022 0.361022
0.370393 0.370393 0.370393
0.379740 0.379740 0.379740
0.389061 0.389061 0.389061
0.398352 0.398352 0.398352
0.407604 0.407604 0.407604
0.416813 0.416813 0.416813
0.425976 0.425976 0.425976
0.435086 0.435086 0.435086
0.444138 0.444138 0.444138
0.453128 0.453128 0.453128
0.462052 0.462052 0.462052
0.470903 0.470903 0.470903
0.479677 0.479677 0.479677
0.488371 0.488371 0.488371
0.496979 0.496979 0.496979
0.505497 0.505497 0.505497
0.513922 0.513922 0.513922
0.522248 0.522248 0.522248
0.530473 0.530473 0.530473
0.538594 0.538594 0.538594
0.546604 0.546604 0.546604
0.554504 0.554504 0.554504
0.562287 0.562287 0.562287
0.569954 0.569954 0.569954
0.577500 0.577500 0.577500
0.584924 0.584924 0.584924
0.592222 0.592222 0.592222
0.599392 0.599392 0.599392
0.606435 0.606435 0.606435
0.613347 0.613347 0.613347
0.620126 0.620126 0.620126
0.626772 0.626772 0.626772
0.389364 0.389364 0.389364
0.398734 0.398734 0.398734
0.408082 0.408082 0.408082
0.417403 0.417403 0.417403
0.426693 0.426693 0.426693
0.435945 0.435945 0.435945
0.445155 0.445155 0.445155
0.454318 0.454318 0.454318
0.463428 0.463428 0.463428
0.472480 0.472480 0.472480
0.481469 0.481469 0.481469
0.490393 0.490393 0.490393
0.499244 0.499244 0.499244
0.508019 0.508019 0.508019
0.516713 0.516713 0.516713
0.525321 0.525321 0.525321
0.533839 0.533839 0.533839
0.542263 0.542263 0.542263
0.550590 0.550590 0.550590
0.558815 0.558815 0.558815
0.566935 0.566935 0.566935
0.574945 0.574945 0.574945
0.582845 0.582845 0.582845
0.590629 0.590629 0.590629
0.598296 0.598296 0.598296
0.605841 0.605841 0.605841
0.613265 0.613265 0.613265
0.620563 0.620563 0.620563
0.627733 0.627733 0.627733
0.634776 0.634776 0.634776
0.641688 0.641688 0.641688
0.648467 0.648467 0.648467
0.655114 0.655114 0.655114
0.417375 0.417375 0.417375
0.426746 0.426746 0.426746
0.436094 0.436094 0.436094
0.445415 0.445415 0.445415
0.454705 0.454705 0.454705
0.463957 0.463957 0.463957
0.473166 0.473166 0.473166
0.482329 0.482329 0.482329
0.491439 0.491439 0.491439
0.500491 0.500491 0.500491
0.509481 0.509481 0.509481
0.518405 0.518405 0.518405
0.527256 0.527256 0.527256
0.536030 0.536030 0.536030
0.544724 0.544724 0.544724
0.553332 0.553332 0.553332
0.561850 0.561850 0.561850
0.570275 0.570275 0.570275
0.578602 0.578602 0.578602
0.586826 0.586826 0.586826
0.594947 0.594947 0.594947
0.602957 0.602957 0.602957
0.610857 0.610857 0.610857
0.618641 0.618641 0.618641
0.626307 0.626307 0.626307
0.633853 0.633853 0.633853
0.641277 0.641277 0.641277
0.648575 0.648575 0.648575
0.655745 0.655745 0.655745
0.662788 0.662788 0.662788
0.669700 0.669700 0.669700
0.676479 0.676479 0.676479
0.683125 0.683125 0.683125
0.445044 0.445044 0.445044
0.454414 0.454414 0.454414
0.463762 0.463762 0.463762
0.473083 0.473083 0.473083
0.482373 0.482373 0.482373
0.491625 0.491625 0.491625
0.500835 0.500835 0.500835
0.509998 0.509998 0.509998
0.519108 0.519108 0.519108
0.528160 0.528160 0.528160
0.537149 0.537149 0.537149
0.546073 0.546073 0.546073
0.554924 0.554924 0.554924
0.563699 0.563699 0.563699
0.572393 0.572393 0.572393
0.581001 0.581001 0.581001
0.589519 0.589519 0.589519
0.597943 0.597943 0.597943
0.606270 0.606270 0.606270
0.614495 0.614495 0.614495
0.622615 0.622615 0.622615
0.630625 0.630625 0.630625
0.638526 0.638526 0.638526
0.646309 0.646309 0.646309
0.653976 0.653976 0.653976
0.661521 0.661521 0.661521
0.668945 0.668945 0.668945
0.676243 0.676243 0.676243
0.683413 0.683413 0.683413
0.690456 0.690456 0.690456
0.697368 0.697368 0.697368
0.704147 0.704147 0.704147
0.710794 0.710794 0.710794
0.472362 0.472362 0.472362
0.481732 0.481732 0.481732
0.491080 0.491080 0.491080
0.500401 0.500401 0.500401
0.509691 0.509691 0.509691
0.518943 0.518943 0.518943
0.528153 0.528153 0.528153
0.537316 0.537316 0.537316
0.546426 0.546426 0.546426
0.555478 0.555478 0.555478
0.564467 0.564467 0.564467
0.573391 0.573391 0.573391
0.582242 0.582242 0.582242
0.591017 0.591017 0.591017
0.599711 0.599711 0.599711
0.608319 0.608319 0.608319
0.616837 0.616837 0.616837
0.625261 0.625261 0.625261
0.633588 0.633588 0.633588
0.641813 0.641813 0.641813
0.649933 0.649933 0.649933
0.657943 0.657943 0.657943
0.665844 0.665844 0.665844
0.673627 0.673627 0.673627
0.681294 0.681294 0.681294
0.688839 0.688839 0.688839
0.696263 0.696263 0.696263
0.703561 0.703561 0.703561
0.710731 0.710731 0.710731
0.717774 0.717774 0.717774
0.724686 0.724686 0.724686
0.731465 0.731465 0.731465
0.738112 0.738112 0.738112
0.499308 0.499308 0.499308
0.508678 0.508678 0.508678
0.518026 0.518026 0.518026
0.527347 0.527347 0.527347
0.536637 0.536637 0.536637
0.545889 0.545889 0.545889
0.555099 0.555099 0.555099
0.564262 0.564262 0.564262
0.573372 0.573372 0.573372
0.582424 0.582424 0.582424
0.591413 0.591413 0.591413
0.600337 0.600337 0.600337
0.609188 0.609188 0.609188
0.617963 0.617963 0.617963
0.626657 0.626657 0.626657
0.635265 0.635265 0.635265
0.643783 0.643783 0.643783
0.652207 0.652207 0.652207
0.660534 0.660534 0.660534
0.668759 0.668759 0.668759
0.676879 0.676879 0.676879
0.684889 0.684889 0.684889
0.692790 0.692790 0.692790
0.700573 0.700573 0.700573
0.708240 0.708240 0.708240
0.715785 0.715785 0.715785
0.723209 0.723209 0.723209
0.730507 0.730507 0.730507
0.737677 0.737677 0.737677
0.744720 0.744720 0.744720
0.751632 0.751632 0.751632
0.758411 0.758411 0.758411
0.765058 0.765058 0.765058
0.525885 0.525885 0.525885
0.535255 0.535255 0.535255
0.544603 0.544603 0.544603
0.553924 0.553924 0.553924
0.563214 0.563214 0.563214
0.572466 0.572466 0.572466
0.581676 0.581676 0.581676
0.590839 0.590839 0.590839
0.599948 0.599948 0.599948
0.609001 0.609001 0.609001
0.617990 0.617990 0.617990
0.626914 0.626914 0.626914
0.635765 0.635765 0.635765
0.644539 0.644539 0.644539
0.653233 0.653233 0.653233
0.661842 0.661842 0.661842
0.670359 0.670359 0.670359
0.678784 0.678784 0.678784
0.687111 0.687111 0.687111
0.695336 0.695336 0.695336
0.703456 0.703456 0.703456
0.711466 0.711466 0.711466
0.719366 0.719366 0.719366
0.727150 0.727150 0.727150
0.734817 0.734817 0.734817
0.742362 0.742362 0.742362
0.749786 0.749786 0.749786
0.757084 0.757084 0.757084
0.764254 0.764254 0.764254
0.771297 0.771297 0.771297
0.778209 0.778209 0.778209
0.784988 0.784988 0.784988
0.791635 0.791635 0.791635
0.552069 0.552069 0.552069
0.561439 0.561439 0.561439
0.570787 0.570787 0.570787
0.580108 0.580108 0.580108
0.589398 0.589398 0.589398
0.598651 0.598651 0.598651
0.607860 0.607860 0.607860
0.617023 0.617023 0.617023
0.626133 0.626133 0.626133
0.635185 0.635185 0.635185
0.644175 0.644175 0.644175
0.653098 0.653098 0.653098
0.661950 0.661950 0.661950
0.670724 0.670724 0.670724
0.679418 0.679418 0.679418
0.688026 0.688026 0.688026
0.696544 0.696544 0.696544
0.704969 0.704969 0.704969
0.713295 0.713295 0.713295
0.721520 0.721520 0.721520
0.729641 0.729641 0.729641
0.737651 0.737651 0.737651
0.745551 0.745551 0.745551
0.753334 0.753334 0.753334
0.761001 0.761001 0.761001
0.768547 0.768547 0.768547
0.775971 0.775971 0.775971
0.783269 0.783269 0.783269
0.790439 0.790439 0.790439
0.797482 0.797482 0.797482
0.804393 0.804393 0.804393
0.811172 0.811172 0.811172
0.817819 0.817819 0.817819
0.577860 0.577860 0.577860
0.587230 0.587230 0.587230
0.596578 0.596578 0.596578
0.605899 0.605899 0.605899
0.615189 0.615189 0.615189
0.624442 0.624442 0.624442
0.633651 0.633651 0.633651
0.642814 0.642814 0.642814
0.651924 0.651924 0.651924
0.660976 0.660976 0.660976
0.669966 0.669966 0.669966
0.678889 0.678889 0.678889
0.687741 0.687741 0.687741
0.696515 0.696515 0.696515
0.705209 0.705209 0.705209
0.713817 0.713817 0.713817
0.722335 0.722335 0.722335
0.730760 0.730760 0.730760
0.739086 0.739086 0.739086
0.747311 0.747311 0.747311
0.755432 0.755432 0.755432
0.763442 0.763442 0.763442
0.771342 0.771342 0.771342
0.779125 0.779125 0.779125
0.786792 0.786792 0.786792
0.794338 0.794338 0.794338
0.801762 0.801762 0.801762
0.809060 0.809060 0.809060
0.816230 0.816230 0.816230
0.823273 0.823273 0.823273
0.830184 0.830184 0.830184
0.836963 0.836963 0.836963
0.843610 0.843610 0.843610
0.603244 0.603244 0.603244
0.612615 0.612615 0.612615
0.621962 0.621962 0.621962
0.631284 0.631284 0.631284
0.640574 0.640574 0.640574
0.649826 0.649826 0.649826
0.659035 0.659035 0.659035
0.668198 0.668198 0.668198
0.677308 0.677308 0.677308
0.686360 0.686360 0.686360
0.695350 0.695350 0.695350
0.704274 0.704274 0.704274
0.713125 0.713125 0.713125
0.721899 0.721899 0.721899
0.730593 0.730593 0.730593
0.739201 0.739201 0.739201
0.747719 0.747719 0.747719
0.756144 0.756144 0.756144
0.764471 0.764471 0.764471
0.772695 0.772695 0.772695
0.780816 0.780816 0.780816
0.788826 0.788826 0.788826
0.796726 0.796726 0.796726
0.804510 0.804510 0.804510
0.812176 0.812176 0.812176
0.819722 0.819722 0.819722
0.827146 0.827146 0.827146
0.834444 0.834444 0.834444
0.841614 0.841614 0.841614
0.848657 0.848657 0.848657
0.855569 0.855569 0.855569
0.862348 0.862348 0.862348
0.868994 0.868994 0.868994
0.628219 0.628219 0.628219
0.637589 0.637589 0.637589
0.646937 0.646937 0.646937
0.656258 0.656258 0.656258
0.665549 0.665549 0.665549
0.674801 0.674801 0.674801
0.684010 0.684010 0.684010
0.693173 0.693173 0.693173
0.702283 0.702283 0.702283
0.711335 0.711335 0.711335
0.720325 0.720325 0.720325
0.729249 0.729249 0.729249
0.738100 0.738100 0.738100
0.746874 0.746874 0.746874
0.755568 0.755568 0.755568
0.764176 0.764176 0.764176
0.772694 0.772694 0.772694
0.781119 0.781119 0.781119
0.789445 0.789445 0.789445
0.797670 0.797670 0.797670
0.805791 0.805791 0.805791
0.813801 0.813801 0.813801
0.821701 0.821701 0.821701
0.829484 0.829484 0.829484
0.837151 0.837151 0.837151
0.844697 0.844697 0.844697
0.852121 0.852121 0.852121
0.859419 0.859419 0.859419
