luts/kodak_portra_160.cube
TITLE Film LUT
LUT_3D_SIZE 5
DOMAIN_MIN 0.0 0.0 0.0
DOMAIN_MAX 1.0 1.0 1.0
0.025000 0.025000 0.025000
0.284320 0.056118 0.025000
0.532097 0.085852 0.025000
0.763569 0.113628 0.025000
0.975000 0.139000 0.025000
0.025000 0.284322 0.056119
0.253201 0.284322 0.025000
0.532097 0.345173 0.025000
0.763569 0.372950 0.025000
0.975000 0.398321 0.025000
0.025000 0.532093 0.085851
0.223468 0.532093 0.025000
0.471249 0.532097 0.025000
0.763569 0.620721 0.025000
0.975000 0.646093 0.025000
0.025000 0.763570 0.113628
0.195691 0.763570 0.025000
0.443468 0.763570 0.025000
0.674941 0.763570 0.025000
0.975000 0.877570 0.025000
0.025000 0.975000 0.139000
0.170320 0.975000 0.025000
0.418097 0.975000 0.025000
0.649569 0.975000 0.025000
0.861000 0.975000 0.025000
0.056118 0.025000 0.284318
0.284320 0.025000 0.253199
0.532097 0.025000 0.223466
0.763569 0.025000 0.195689
0.975000 0.025000 0.170318
0.025000 0.253207 0.284322
0.284319 0.284322 0.284317
0.532097 0.292251 0.259540
0.763569 0.299658 0.236393
0.975000 0.306424 0.215249
0.025000 0.532093 0.345169
0.259540 0.532093 0.292244
0.499394 0.532097 0.259540
0.763569 0.572206 0.236393
0.975000 0.578972 0.215249
0.025000 0.763570 0.372946
0.236392 0.763570 0.299652
0.445688 0.763570 0.236392
0.700308 0.763570 0.236392
0.975000 0.833597 0.215249
0.025000 0.975000 0.398318
0.215249 0.975000 0.306417
0.396636 0.975000 0.215249
0.651256 0.975000 0.215249
0.883830 0.975000 0.215249
0.085851 0.025000 0.532096
0.345171 0.025000 0.532096
0.532097 0.025000 0.471244
0.763569 0.025000 0.443467
0.975000 0.025000 0.418096
0.025000 0.223470 0.532096
0.292246 0.259542 0.532096
0.532097 0.259544 0.499389
0.763569 0.236397 0.445688
0.975000 0.215254 0.396636
0.025000 0.471241 0.532096
0.259542 0.499386 0.532096
0.532097 0.532093 0.532095
0.763569 0.539497 0.508945
0.975000 0.546263 0.487802
0.025000 0.763570 0.620724
0.236395 0.763570 0.572209
0.508948 0.763570 0.539502
0.733014 0.763570 0.508948
0.975000 0.800890 0.487805
0.025000 0.975000 0.646096
0.215252 0.975000 0.578975
0.487805 0.975000 0.546268
0.683962 0.975000 0.487805
0.916537 0.975000 0.487805
0.113629 0.025000 0.763573
0.372948 0.025000 0.763573
0.620725 0.025000 0.763573
0.763573 0.025000 0.674948
0.975000 0.025000 0.649573
0.025000 0.195693 0.763573
0.299654 0.236394 0.763573
0.572210 0.236396 0.763573
0.763573 0.236396 0.700316
0.975000 0.215254 0.651260
0.025000 0.443464 0.763573
0.236394 0.445683 0.763573
0.539504 0.508945 0.763573
0.763573 0.508945 0.733022
0.975000 0.487802 0.683966
0.025000 0.674941 0.763573
0.236394 0.700308 0.763573
0.508949 0.733015 0.763573
0.763569 0.763569 0.763573
0.975000 0.770333 0.742427
0.025000 0.975000 0.877573
0.215252 0.975000 0.833600
0.487806 0.975000 0.800893
0.742426 0.975000 0.770339
0.947092 0.975000 0.742430
0.139000 0.025000 0.975000
0.398320 0.025000 0.975000
0.646097 0.025000 0.975000
0.877569 0.025000 0.975000
0.975000 0.025000 0.861000
0.025000 0.170321 0.975000
0.306419 0.215252 0.975000
0.578976 0.215254 0.975000
0.833595 0.215254 0.975000
0.975000 0.215254 0.883830
0.025000 0.418093 0.975000
0.215252 0.396632 0.975000
0.546270 0.487802 0.975000
0.800890 0.487802 0.975000
0.975000 0.487802 0.916536
0.025000 0.649570 0.975000
0.215252 0.651257 0.975000
0.487806 0.683964 0.975000
0.770334 0.742426 0.975000
0.975000 0.742427 0.947091
0.025000 0.861000 0.975000
0.215252 0.883830 0.975000
0.487806 0.916537 0.975000
0.742426 0.947091 0.975000
0.975000 0.975000 0.975000
