luts/KODAK FPE 08.cube
TITLE "Generated by Resolve"
LUT_3D_SIZE 5
0.0150912 0.0218662 0.0240177
0.174746 0.0709697 0.0380255
0.39881 0.124773 0.0451209
0.571511 0.173999 0.0601663
0.701762 0.213046 0.0929885
0.0331121 0.181659 0.100862
0.243915 0.22742 0.0998398
0.519738 0.275227 0.0741283
0.696498 0.320195 0.0869306
0.807416 0.35613 0.113283
0.0561379 0.432624 0.158007
0.242451 0.47602 0.144411
0.577356 0.513603 0.0846571
0.782101 0.552834 0.084947
0.91516 0.576165 0.0891432
0.126177 0.631525 0.230808
0.238025 0.660624 0.232242
0.550027 0.700191 0.232837
0.808362 0.743221 0.165469
0.970245 0.762219 0.149447
0.180468 0.736141 0.373022
0.239338 0.764736 0.40087
0.312734 0.79202 0.44004
0.389776 0.823636 0.502022
0.964202 0.941436 0.522438
0.034287 0.0364538 0.192615
0.213382 0.0729381 0.229007
0.473213 0.10573 0.231205
0.632685 0.150195 0.244404
0.759411 0.196521 0.205509
0.0178073 0.217044 0.271244
0.212085 0.257465 0.299855
0.537163 0.28098 0.2869
0.726131 0.312627 0.29781
0.8607 0.341283 0.25359
0.0408179 0.463661 0.318151
0.175372 0.505501 0.336309
0.5617 0.531701 0.326925
0.783032 0.557397 0.319692
0.92845 0.581353 0.282063
0.119539 0.647898 0.363226
0.223224 0.673198 0.371496
0.532219 0.714107 0.388281
0.790219 0.748913 0.370047
0.965118 0.769879 0.307424
0.185092 0.74963 0.412604
0.246326 0.777371 0.438712
0.320684 0.804959 0.4748
0.398138 0.837171 0.533959
0.96556 0.953353 0.572122
0.0904707 0.0734112 0.400031
0.24921 0.102861 0.434623
0.485328 0.118227 0.448692
0.657618 0.167666 0.459861
0.796811 0.213687 0.459556
0.0189517 0.266117 0.475776
0.234791 0.307973 0.510491
0.518456 0.321218 0.507668
0.737118 0.338552 0.515297
0.859617 0.365896 0.509926
0.0349737 0.498238 0.52929
0.119173 0.546609 0.559106
0.535439 0.560052 0.550591
0.773541 0.577386 0.544625
0.926177 0.573541 0.541909
0.0848554 0.688258 0.54316
0.171756 0.716686 0.552529
0.508141 0.742901 0.559594
0.777615 0.773175 0.56231
0.959609 0.781109 0.534585
0.186343 0.758938 0.489342
0.246082 0.787442 0.516152
0.326024 0.814466 0.545068
0.402014 0.849973 0.594781
0.970916 0.96672 0.645945
0.138994 0.159609 0.561517
0.265614 0.188006 0.587243
0.496483 0.196597 0.602533
0.661433 0.214633 0.619013
0.810132 0.262074 0.630488
0.104372 0.32488 0.631113
0.268299 0.371206 0.667552
0.531182 0.378271 0.659464
0.711467 0.388968 0.677516
0.87483 0.40264 0.684184
0.0380713 0.539879 0.687419
0.233967 0.574929 0.710826
0.547799 0.58967 0.718151
0.75285 0.607065 0.726406
0.932219 0.593439 0.711696
0.0860151 0.713695 0.704875
0.155245 0.746685 0.726986
0.47422 0.779187 0.737209
0.75787 0.795254 0.734707
0.964218 0.779477 0.705516
0.145663 0.779355 0.617487
0.205264 0.808301 0.64448
0.304295 0.828992 0.668193
0.395407 0.863462 0.704128
0.979965 0.982116 0.752361
0.189822 0.376699 0.691051
0.268421 0.401038 0.711681
0.451987 0.422675 0.743648
0.647059 0.426749 0.77116
0.808026 0.420966 0.805188
0.195285 0.487877 0.760266
0.314244 0.519951 0.786511
0.503838 0.544411 0.819013
0.703853 0.554513 0.841352
0.861982 0.534997 0.862013
0.268864 0.636332 0.833692
0.378164 0.664546 0.858747
0.553185 0.689204 0.88484
0.736171 0.701793 0.901701
0.906661 0.676966 0.908095
0.345769 0.780987 0.882292
0.435874 0.804471 0.90428
0.595193 0.823835 0.918212
0.756497 0.842252 0.933196
0.944869 0.819318 0.936233
0.184543 0.830793 0.851331
0.232624 0.866682 0.885664
0.295628 0.910216 0.921798
0.414389 0.963546 0.951141
0.979507 0.98793 0.959777
