luts/kodak_aerochrome.cube
TITLE "Aerochrome Infrared Style"
LUT_3D_SIZE 33
DOMAIN_MIN 0.0 0.0 0.0
DOMAIN_MAX 1.0 1.0 1.0
0.000000 0.000000 0.000000
0.028125 0.000000 0.000000
0.056250 0.000000 0.000000
0.084375 0.000000 0.000000
0.112500 0.000000 0.000000
0.140625 0.000000 0.000000
0.168750 0.000000 0.000000
0.196875 0.000000 0.000000
0.225000 0.000000 0.000000
0.253125 0.000000 0.000000
0.281250 0.000000 0.000000
0.309375 0.000000 0.000000
0.337500 0.000000 0.000000
0.365625 0.000000 0.000000
0.393750 0.000000 0.000000
0.421875 0.000000 0.000000
0.450000 0.000000 0.000000
0.478125 0.000000 0.000000
0.506250 0.000000 0.000000
0.534375 0.000000 0.000000
0.562500 0.000000 0.000000
0.590625 0.000000 0.000000
0.618750 0.000000 0.000000
0.646875 0.000000 0.000000
0.675000 0.000000 0.000000
0.703125 0.000000 0.000000
0.731250 0.000000 0.000000
0.759375 0.000000 0.000000
0.787500 0.000000 0.000000
0.815625 0.000000 0.000000
0.843750 0.000000 0.000000
0.871875 0.000000 0.000000
0.900000 0.000000 0.000000
0.431250 0.000000 0.000000
0.031250 0.031250 0.000000
0.056250 0.021875 0.000000
0.084375 0.021875 0.000000
0.112500 0.021875 0.000000
0.140625 0.021875 0.000000
0.168750 0.021875 0.000000
0.196875 0.021875 0.000000
0.225000 0.021875 0.000000
0.253125 0.021875 0.000000
0.281250 0.021875 0.000000
0.309375 0.021875 0.000000
0.337500 0.021875 0.000000
0.365625 0.021875 0.000000
0.393750 0.021875 0.000000
0.421875 0.021875 0.000000
0.450000 0.021875 0.000000
0.478125 0.021875 0.000000
0.506250 0.021875 0.000000
0.534375 0.021875 0.000000
0.562500 0.021875 0.000000
0.590625 0.021875 0.000000
0.618750 0.021875 0.000000
0.646875 0.021875 0.000000
0.675000 0.021875 0.000000
0.703125 0.021875 0.000000
0.731250 0.021875 0.000000
0.759375 0.021875 0.000000
0.787500 0.021875 0.000000
0.815625 0.021875 0.000000
0.843750 0.021875 0.000000
0.871875 0.021875 0.000000
0.900000 0.021875 0.000000
0.462500 0.000000 0.000000
0.462500 0.015625 0.000000
0.062500 0.062500 0.000000
0.084375 0.043750 0.000000
0.112500 0.043750 0.000000
0.140625 0.043750 0.000000
0.168750 0.043750 0.000000
0.196875 0.043750 0.000000
0.225000 0.043750 0.000000
0.253125 0.043750 0.000000
0.281250 0.043750 0.000000
0.309375 0.043750 0.000000
0.337500 0.043750 0.000000
0.365625 0.043750 0.000000
0.393750 0.043750 0.000000
0.421875 0.043750 0.000000
0.450000 0.043750 0.000000
0.478125 0.043750 0.000000
0.506250 0.043750 0.000000
0.534375 0.043750 0.000000
0.562500 0.043750 0.000000
0.590625 0.043750 0.000000
0.618750 0.043750 0.000000
0.646875 0.043750 0.000000
0.675000 0.043750 0.000000
0.703125 0.043750 0.000000
0.731250 0.043750 0.000000
0.759375 0.043750 0.000000
0.787500 0.043750 0.000000
0.815625 0.043750 0.000000
0.843750 0.043750 0.000000
0.871875 0.043750 0.000000
0.900000 0.043750 0.000000
0.493750 0.000000 0.000000
0.493750 0.015625 0.000000
0.493750 0.031250 0.000000
0.093750 0.093750 0.000000
0.112500 0.065625 0.000000
0.140625 0.065625 0.000000
0.168750 0.065625 0.000000
0.196875 0.065625 0.000000
0.225000 0.065625 0.000000
0.253125 0.065625 0.000000
0.281250 0.065625 0.000000
0.309375 0.065625 0.000000
0.337500 0.065625 0.000000
0.365625 0.065625 0.000000
0.393750 0.065625 0.000000
0.421875 0.065625 0.000000
0.450000 0.065625 0.000000
0.478125 0.065625 0.000000
0.506250 0.065625 0.000000
0.534375 0.065625 0.000000
0.562500 0.065625 0.000000
0.590625 0.065625 0.000000
0.618750 0.065625 0.000000
0.646875 0.065625 0.000000
0.675000 0.065625 0.000000
0.703125 0.065625 0.000000
0.731250 0.065625 0.000000
0.759375 0.065625 0.000000
0.787500 0.065625 0.000000
0.815625 0.065625 0.000000
0.843750 0.065625 0.000000
0.871875 0.065625 0.000000
0.900000 0.065625 0.000000
0.525000 0.000000 0.000000
0.525000 0.015625 0.000000
0.525000 0.031250 0.000000
0.525000 0.046875 0.000000
0.125000 0.125000 0.000000
0.140625 0.087500 0.000000
0.168750 0.087500 0.000000
0.196875 0.087500 0.000000
0.225000 0.087500 0.000000
0.253125 0.087500 0.000000
0.281250 0.087500 0.000000
0.309375 0.087500 0.000000
0.337500 0.087500 0.000000
0.365625 0.087500 0.000000
0.393750 0.087500 0.000000
0.421875 0.087500 0.000000
0.450000 0.087500 0.000000
0.478125 0.087500 0.000000
0.506250 0.087500 0.000000
0.534375 0.087500 0.000000
0.562500 0.087500 0.000000
0.590625 0.087500 0.000000
0.618750 0.087500 0.000000
0.646875 0.087500 0.000000
0.675000 0.087500 0.000000
0.703125 0.087500 0.000000
0.731250 0.087500 0.000000
0.759375 0.087500 0.000000
0.787500 0.087500 0.000000
0.815625 0.087500 0.000000
0.843750 0.087500 0.000000
0.871875 0.087500 0.000000
0.900000 0.087500 0.000000
0.556250 0.000000 0.000000
0.556250 0.015625 0.000000
0.556250 0.031250 0.000000
0.556250 0.046875 0.000000
0.556250 0.062500 0.000000
0.156250 0.156250 0.000000
0.168750 0.109375 0.000000
0.196875 0.109375 0.000000
0.225000 0.109375 0.000000
0.253125 0.109375 0.000000
0.281250 0.109375 0.000000
0.309375 0.109375 0.000000
0.337500 0.109375 0.000000
0.365625 0.109375 0.000000
0.393750 0.109375 0.000000
0.421875 0.109375 0.000000
0.450000 0.109375 0.000000
0.478125 0.109375 0.000000
0.506250 0.109375 0.000000
0.534375 0.109375 0.000000
0.562500 0.109375 0.000000
0.590625 0.109375 0.000000
0.618750 0.109375 0.000000
0.646875 0.109375 0.000000
0.675000 0.109375 0.000000
0.703125 0.109375 0.000000
0.731250 0.109375 0.000000
0.759375 0.109375 0.000000
0.787500 0.109375 0.000000
0.815625 0.109375 0.000000
0.843750 0.109375 0.000000
0.871875 0.109375 0.000000
0.900000 0.109375 0.000000
0.587500 0.000000 0.000000
0.587500 0.015625 0.000000
0.587500 0.031250 0.000000
0.587500 0.046875 0.000000
0.587500 0.062500 0.000000
0.587500 0.078125 0.000000
0.187500 0.187500 0.000000
0.196875 0.131250 0.000000
0.225000 0.131250 0.000000
0.253125 0.131250 0.000000
0.281250 0.131250 0.000000
0.309375 0.131250 0.000000
0.337500 0.131250 0.000000
0.365625 0.131250 0.000000
0.393750 0.131250 0.000000
0.421875 0.131250 0.000000
0.450000 0.131250 0.000000
0.478125 0.131250 0.000000
0.506250 0.131250 0.000000
0.534375 0.131250 0.000000
0.562500 0.131250 0.000000
0.590625 0.131250 0.000000
0.618750 0.131250 0.000000
0.646875 0.131250 0.000000
0.675000 0.131250 0.000000
0.703125 0.131250 0.000000
0.731250 0.131250 0.000000
0.759375 0.131250 0.000000
0.787500 0.131250 0.000000
0.815625 0.131250 0.000000
0.843750 0.131250 0.000000
0.871875 0.131250 0.000000
0.900000 0.131250 0.000000
0.618750 0.000000 0.000000
0.618750 0.015625 0.000000
0.618750 0.031250 0.000000
0.618750 0.046875 0.000000
0.618750 0.062500 0.000000
0.618750 0.078125 0.000000
0.618750 0.093750 0.000000
0.218750 0.218750 0.000000
0.225000 0.153125 0.000000
0.253125 0.153125 0.000000
0.281250 0.153125 0.000000
0.309375 0.153125 0.000000
0.337500 0.153125 0.000000
0.365625 0.153125 0.000000
0.393750 0.153125 0.000000
0.421875 0.153125 0.000000
0.450000 0.153125 0.000000
0.478125 0.153125 0.000000
0.506250 0.153125 0.000000
0.534375 0.153125 0.000000
0.562500 0.153125 0.000000
0.590625 0.153125 0.000000
0.618750 0.153125 0.000000
0.646875 0.153125 0.000000
0.675000 0.153125 0.000000
0.703125 0.153125 0.000000
0.731250 0.153125 0.000000
0.759375 0.153125 0.000000
0.787500 0.153125 0.000000
0.815625 0.153125 0.000000
0.843750 0.153125 0.000000
0.871875 0.153125 0.000000
0.900000 0.153125 0.000000
0.650000 0.000000 0.000000
0.650000 0.015625 0.000000
0.650000 0.031250 0.000000
0.650000 0.046875 0.000000
0.650000 0.062500 0.000000
0.650000 0.078125 0.000000
0.650000 0.093750 0.000000
0.650000 0.109375 0.000000
0.250000 0.250000 0.000000
0.253125 0.175000 0.000000
0.281250 0.175000 0.000000
0.309375 0.175000 0.000000
0.337500 0.175000 0.000000
0.365625 0.175000 0.000000
0.393750 0.175000 0.000000
0.421875 0.175000 0.000000
0.450000 0.175000 0.000000
0.478125 0.175000 0.000000
0.506250 0.175000 0.000000
0.534375 0.175000 0.000000
0.562500 0.175000 0.000000
0.590625 0.175000 0.000000
0.618750 0.175000 0.000000
0.646875 0.175000 0.000000
0.675000 0.175000 0.000000
0.703125 0.175000 0.000000
0.731250 0.175000 0.000000
0.759375 0.175000 0.000000
0.787500 0.175000 0.000000
0.815625 0.175000 0.000000
0.843750 0.175000 0.000000
0.871875 0.175000 0.000000
0.900000 0.175000 0.000000
0.681250 0.000000 0.000000
0.681250 0.015625 0.000000
0.681250 0.031250 0.000000
0.681250 0.046875 0.000000
0.681250 0.062500 0.000000
0.681250 0.078125 0.000000
0.681250 0.093750 0.000000
0.681250 0.109375 0.000000
0.681250 0.125000 0.000000
0.281250 0.281250 0.000000
0.281250 0.196875 0.000000
0.309375 0.196875 0.000000
0.337500 0.196875 0.000000
0.365625 0.196875 0.000000
0.393750 0.196875 0.000000
0.421875 0.196875 0.000000
0.450000 0.196875 0.000000
0.478125 0.196875 0.000000
0.506250 0.196875 0.000000
0.534375 0.196875 0.000000
0.562500 0.196875 0.000000
0.590625 0.196875 0.000000
0.618750 0.196875 0.000000
0.646875 0.196875 0.000000
0.675000 0.196875 0.000000
0.703125 0.196875 0.000000
0.731250 0.196875 0.000000
0.759375 0.196875 0.000000
0.787500 0.196875 0.000000
0.815625 0.196875 0.000000
0.843750 0.196875 0.000000
0.871875 0.196875 0.000000
0.900000 0.196875 0.000000
0.712500 0.000000 0.000000
0.712500 0.015625 0.000000
0.712500 0.031250 0.000000
0.712500 0.046875 0.000000
0.712500 0.062500 0.000000
0.712500 0.078125 0.000000
0.712500 0.093750 0.000000
0.712500 0.109375 0.000000
0.712500 0.125000 0.000000
0.712500 0.140625 0.000000
0.312500 0.312500 0.000000
0.309375 0.218750 0.000000
0.337500 0.218750 0.000000
0.365625 0.218750 0.000000
0.393750 0.218750 0.000000
0.421875 0.218750 0.000000
0.450000 0.218750 0.000000
0.478125 0.218750 0.000000
0.506250 0.218750 0.000000
0.534375 0.218750 0.000000
0.562500 0.218750 0.000000
0.590625 0.218750 0.000000
0.618750 0.218750 0.000000
0.646875 0.218750 0.000000
0.675000 0.218750 0.000000
0.703125 0.218750 0.000000
0.731250 0.218750 0.000000
0.759375 0.218750 0.000000
0.787500 0.218750 0.000000
0.815625 0.218750 0.000000
0.843750 0.218750 0.000000
0.871875 0.218750 0.000000
0.900000 0.218750 0.000000
0.743750 0.000000 0.000000
0.743750 0.015625 0.000000
0.743750 0.031250 0.000000
0.743750 0.046875 0.000000
0.743750 0.062500 0.000000
0.743750 0.078125 0.000000
0.743750 0.093750 0.000000
0.743750 0.109375 0.000000
0.743750 0.125000 0.000000
0.743750 0.140625 0.000000
0.743750 0.156250 0.000000
0.343750 0.343750 0.000000
0.337500 0.240625 0.000000
0.365625 0.240625 0.000000
0.393750 0.240625 0.000000
0.421875 0.240625 0.000000
0.450000 0.240625 0.000000
0.478125 0.240625 0.000000
0.506250 0.240625 0.000000
0.534375 0.240625 0.000000
0.562500 0.240625 0.000000
0.590625 0.240625 0.000000
0.618750 0.240625 0.000000
0.646875 0.240625 0.000000
0.675000 0.240625 0.000000
0.703125 0.240625 0.000000
0.731250 0.240625 0.000000
0.759375 0.240625 0.000000
0.787500 0.240625 0.000000
0.815625 0.240625 0.000000
0.843750 0.240625 0.000000
0.871875 0.240625 0.000000
0.900000 0.240625 0.000000
0.775000 0.000000 0.000000
0.775000 0.015625 0.000000
0.775000 0.031250 0.000000
0.775000 0.046875 0.000000
0.775000 0.062500 0.000000
0.775000 0.078125 0.000000
0.775000 0.093750 0.000000
0.775000 0.109375 0.000000
0.775000 0.125000 0.000000
0.775000 0.140625 0.000000
0.775000 0.156250 0.000000
0.775000 0.171875 0.000000
0.375000 0.375000 0.000000
0.365625 0.262500 0.000000
0.393750 0.262500 0.000000
0.421875 0.262500 0.000000
0.450000 0.262500 0.000000
0.478125 0.262500 0.000000
0.506250 0.262500 0.000000
0.534375 0.262500 0.000000
0.562500 0.262500 0.000000
0.590625 0.262500 0.000000
0.618750 0.262500 0.000000
0.646875 0.262500 0.000000
0.675000 0.262500 0.000000
0.703125 0.262500 0.000000
0.731250 0.262500 0.000000
0.759375 0.262500 0.000000
0.787500 0.262500 0.000000
0.815625 0.262500 0.000000
0.843750 0.262500 0.000000
0.871875 0.262500 0.000000
0.900000 0.262500 0.000000
0.806250 0.000000 0.000000
0.806250 0.015625 0.000000
0.806250 0.031250 0.000000
0.806250 0.046875 0.000000
0.806250 0.062500 0.000000
0.806250 0.078125 0.000000
0.806250 0.093750 0.000000
0.806250 0.109375 0.000000
0.806250 0.125000 0.000000
0.806250 0.140625 0.000000
0.806250 0.156250 0.000000
0.806250 0.171875 0.000000
0.806250 0.187500 0.000000
0.406250 0.406250 0.000000
0.393750 0.284375 0.000000
0.421875 0.284375 0.000000
0.450000 0.284375 0.000000
0.478125 0.284375 0.000000
0.506250 0.284375 0.000000
0.534375 0.284375 0.000000
0.562500 0.284375 0.000000
0.590625 0.284375 0.000000
0.618750 0.284375 0.000000
0.646875 0.284375 0.000000
0.675000 0.284375 0.000000
0.703125 0.284375 0.000000
0.731250 0.284375 0.000000
0.759375 0.284375 0.000000
0.787500 0.284375 0.000000
0.815625 0.284375 0.000000
0.843750 0.284375 0.000000
0.871875 0.284375 0.000000
0.900000 0.284375 0.000000
0.837500 0.000000 0.000000
0.837500 0.015625 0.000000
0.837500 0.031250 0.000000
0.837500 0.046875 0.000000
0.837500 0.062500 0.000000
0.837500 0.078125 0.000000
0.837500 0.093750 0.000000
0.837500 0.109375 0.000000
0.837500 0.125000 0.000000
0.837500 0.140625 0.000000
0.837500 0.156250 0.000000
0.837500 0.171875 0.000000
0.837500 0.187500 0.000000
0.837500 0.203125 0.000000
0.437500 0.437500 0.000000
0.421875 0.306250 0.000000
0.450000 0.306250 0.000000
0.478125 0.306250 0.000000
0.506250 0.306250 0.000000
0.534375 0.306250 0.000000
0.562500 0.306250 0.000000
0.590625 0.306250 0.000000
0.618750 0.306250 0.000000
0.646875 0.306250 0.000000
0.675000 0.306250 0.000000
0.703125 0.306250 0.000000
0.731250 0.306250 0.000000
0.759375 0.306250 0.000000
0.787500 0.306250 0.000000
0.815625 0.306250 0.000000
0.843750 0.306250 0.000000
0.871875 0.306250 0.000000
0.900000 0.306250 0.000000
0.868750 0.000000 0.000000
0.868750 0.015625 0.000000
0.868750 0.031250 0.000000
0.868750 0.046875 0.000000
0.868750 0.062500 0.000000
0.868750 0.078125 0.000000
0.868750 0.093750 0.000000
0.868750 0.109375 0.000000
0.868750 0.125000 0.000000
0.868750 0.140625 0.000000
0.868750 0.156250 0.000000
0.868750 0.171875 0.000000
0.868750 0.187500 0.000000
0.868750 0.203125 0.000000
0.868750 0.218750 0.000000
0.468750 0.468750 0.000000
0.450000 0.328125 0.000000
0.478125 0.328125 0.000000
0.506250 0.328125 0.000000
0.534375 0.328125 0.000000
0.562500 0.328125 0.000000
0.590625 0.328125 0.000000
0.618750 0.328125 0.000000
0.646875 0.328125 0.000000
0.675000 0.328125 0.000000
0.703125 0.328125 0.000000
0.731250 0.328125 0.000000
0.759375 0.328125 0.000000
0.787500 0.328125 0.000000
0.815625 0.328125 0.000000
0.843750 0.328125 0.000000
0.871875 0.328125 0.000000
0.900000 0.328125 0.000000
0.900000 0.000000 0.000000
0.900000 0.015625 0.000000
0.900000 0.031250 0.000000
0.900000 0.046875 0.000000
0.900000 0.062500 0.000000
0.900000 0.078125 0.000000
0.900000 0.093750 0.000000
0.900000 0.109375 0.000000
0.900000 0.125000 0.000000
0.900000 0.140625 0.000000
0.900000 0.156250 0.000000
0.900000 0.171875 0.000000
0.900000 0.187500 0.000000
0.900000 0.203125 0.000000
0.900000 0.218750 0.000000
0.900000 0.234375 0.000000
0.500000 0.500000 0.000000
0.478125 0.350000 0.000000
0.506250 0.350000 0.000000
0.534375 0.350000 0.000000
0.562500 0.350000 0.000000
0.590625 0.350000 0.000000
0.618750 0.350000 0.000000
0.646875 0.350000 0.000000
0.675000 0.350000 0.000000
0.703125 0.350000 0.000000
0.731250 0.350000 0.000000
0.759375 0.350000 0.000000
0.787500 0.350000 0.000000
0.815625 0.350000 0.000000
0.843750 0.350000 0.000000
0.871875 0.350000 0.000000
0.900000 0.350000 0.000000
0.931250 0.000000 0.000000
0.931250 0.015625 0.000000
0.931250 0.031250 0.000000
0.931250 0.046875 0.000000
0.931250 0.062500 0.000000
0.931250 0.078125 0.000000
0.931250 0.093750 0.000000
0.931250 0.109375 0.000000
0.931250 0.125000 0.000000
0.931250 0.140625 0.000000
0.931250 0.156250 0.000000
0.931250 0.171875 0.000000
0.931250 0.187500 0.000000
0.931250 0.203125 0.000000
0.931250 0.218750 0.000000
0.931250 0.234375 0.000000
0.931250 0.250000 0.000000
0.531250 0.531250 0.000000
0.506250 0.371875 0.000000
0.534375 0.371875 0.000000
0.562500 0.371875 0.000000
0.590625 0.371875 0.000000
0.618750 0.371875 0.000000
0.646875 0.371875 0.000000
0.675000 0.371875 0.000000
0.703125 0.371875 0.000000
0.731250 0.371875 0.000000
0.759375 0.371875 0.000000
0.787500 0.371875 0.000000
0.815625 0.371875 0.000000
0.843750 0.371875 0.000000
0.871875 0.371875 0.000000
0.900000 0.371875 0.000000
0.962500 0.000000 0.000000
0.962500 0.015625 0.000000
0.962500 0.031250 0.000000
0.962500 0.046875 0.000000
0.962500 0.062500 0.000000
0.962500 0.078125 0.000000
0.962500 0.093750 0.000000
0.962500 0.109375 0.000000
0.962500 0.125000 0.000000
0.962500 0.140625 0.000000
0.962500 0.156250 0.000000
0.962500 0.171875 0.000000
0.962500 0.187500 0.000000
0.962500 0.203125 0.000000
0.962500 0.218750 0.000000
0.962500 0.234375 0.000000
0.962500 0.250000 0.000000
0.962500 0.265625 0.000000
0.562500 0.562500 0.000000
0.534375 0.393750 0.000000
0.562500 0.393750 0.000000
0.590625 0.393750 0.000000
0.618750 0.393750 0.000000
0.646875 0.393750 0.000000
0.675000 0.393750 0.000000
0.703125 0.393750 0.000000
0.731250 0.393750 0.000000
0.759375 0.393750 0.000000
0.787500 0.393750 0.000000
0.815625 0.393750 0.000000
0.843750 0.393750 0.000000
0.871875 0.393750 0.000000
0.900000 0.393750 0.000000
0.993750 0.000000 0.000000
0.993750 0.015625 0.000000
0.993750 0.031250 0.000000
0.993750 0.046875 0.000000
0.993750 0.062500 0.000000
0.993750 0.078125 0.000000
0.993750 0.093750 0.000000
0.993750 0.109375 0.000000
0.993750 0.125000 0.000000
0.993750 0.140625 0.000000
0.993750 0.156250 0.000000
0.993750 0.171875 0.000000
0.993750 0.187500 0.000000
0.993750 0.203125 0.000000
0.993750 0.218750 0.000000
0.993750 0.234375 0.000000
0.993750 0.250000 0.000000
0.993750 0.265625 0.000000
0.993750 0.281250 0.000000
0.593750 0.593750 0.000000
0.562500 0.415625 0.000000
0.590625 0.415625 0.000000
0.618750 0.415625 0.000000
0.646875 0.415625 0.000000
0.675000 0.415625 0.000000
0.703125 0.415625 0.000000
0.731250 0.415625 0.000000
0.759375 0.415625 0.000000
0.787500 0.415625 0.000000
0.815625 0.415625 0.000000
0.843750 0.415625 0.000000
0.871875 0.415625 0.000000
0.900000 0.415625 0.000000
1.000000 0.000000 0.000000
1.000000 0.015625 0.000000
1.000000 0.031250 0.000000
1.000000 0.046875 0.000000
1.000000 0.062500 0.000000
1.000000 0.078125 0.000000
1.000000 0.093750 0.000000
1.000000 0.109375 0.000000
1.000000 0.125000 0.000000
1.000000 0.140625 0.000000
1.000000 0.156250 0.000000
1.000000 0.171875 0.000000
1.000000 0.187500 0.000000
1.000000 0.203125 0.000000
1.000000 0.218750 0.000000
1.000000 0.234375 0.000000
1.000000 0.250000 0.000000
1.000000 0.265625 0.000000
1.000000 0.281250 0.000000
1.000000 0.296875 0.000000
0.625000 0.625000 0.000000
0.590625 0.437500 0.000000
0.618750 0.437500 0.000000
0.646875 0.437500 0.000000
0.675000 0.437500 0.000000
0.703125 0.437500 0.000000
0.731250 0.437500 0.000000
0.759375 0.437500 0.000000
0.787500 0.437500 0.000000
0.815625 0.437500 0.000000
0.843750 0.437500 0.000000
0.871875 0.437500 0.000000
0.900000 0.437500 0.000000
1.000000 0.000000 0.000000
1.000000 0.015625 0.000000
1.000000 0.031250 0.000000
1.000000 0.046875 0.000000
1.000000 0.062500 0.000000
1.000000 0.078125 0.000000
1.000000 0.093750 0.000000
1.000000 0.109375 0.000000
1.000000 0.125000 0.000000
1.000000 0.140625 0.000000
1.000000 0.156250 0.000000
1.000000 0.171875 0.000000
1.000000 0.187500 0.000000
1.000000 0.203125 0.000000
1.000000 0.218750 0.000000
1.000000 0.234375 0.000000
1.000000 0.250000 0.000000
1.000000 0.265625 0.000000
1.000000 0.281250 0.000000
1.000000 0.296875 0.000000
1.000000 0.312500 0.000000
0.656250 0.656250 0.000000
0.618750 0.459375 0.000000
0.646875 0.459375 0.000000
0.675000 0.459375 0.000000
0.703125 0.459375 0.000000
0.731250 0.459375 0.000000
0.759375 0.459375 0.000000
0.787500 0.459375 0.000000
0.815625 0.459375 0.000000
0.843750 0.459375 0.000000
0.871875 0.459375 0.000000
0.900000 0.459375 0.000000
1.000000 0.000000 0.000000
1.000000 0.015625 0.000000
1.000000 0.031250 0.000000
1.000000 0.046875 0.000000
1.000000 0.062500 0.000000
1.000000 0.078125 0.000000
1.000000 0.093750 0.000000
1.000000 0.109375 0.000000
1.000000 0.125000 0.000000
1.000000 0.140625 0.000000
1.000000 0.156250 0.000000
1.000000 0.171875 0.000000
1.000000 0.187500 0.000000
1.000000 0.203125 0.000000
1.000000 0.218750 0.000000
1.000000 0.234375 0.000000
1.000000 0.250000 0.000000
1.000000 0.265625 0.000000
1.000000 0.281250 0.000000
1.000000 0.296875 0.000000
1.000000 0.312500 0.000000
1.000000 0.328125 0.000000
0.687500 0.687500 0.000000
0.646875 0.481250 0.000000
0.675000 0.481250 0.000000
0.703125 0.481250 0.000000
0.731250 0.481250 0.000000
0.759375 0.481250 0.000000
0.787500 0.481250 0.000000
0.815625 0.481250 0.000000
0.843750 0.481250 0.000000
0.871875 0.481250 0.000000
0.900000 0.481250 0.000000
1.000000 0.000000 0.000000
1.000000 0.015625 0.000000
1.000000 0.031250 0.000000
1.000000 0.046875 0.000000
1.000000 0.062500 0.000000
1.000000 0.078125 0.000000
1.000000 0.093750 0.000000
1.000000 0.109375 0.000000
1.000000 0.125000 0.000000
1.000000 0.140625 0.000000
1.000000 0.156250 0.000000
1.000000 0.171875 0.000000
1.000000 0.187500 0.000000
1.000000 0.203125 0.000000
1.000000 0.218750 0.000000
1.000000 0.234375 0.000000
1.000000 0.250000 0.000000
1.000000 0.265625 0.000000
1.000000 0.281250 0.000000
1.000000 0.296875 0.000000
1.000000 0.312500 0.000000
1.000000 0.328125 0.000000
1.000000 0.343750 0.000000
0.718750 0.718750 0.000000
0.675000 0.503125 0.000000
0.703125 0.503125 0.000000
0.731250 0.503125 0.000000
0.759375 0.503125 0.000000
0.787500 0.503125 0.000000
0.815625 0.503125 0.000000
0.843750 0.503125 0.000000
0.871875 0.503125 0.000000
0.900000 0.503125 0.000000
1.000000 0.000000 0.000000
1.000000 0.015625 0.000000
1.000000 0.031250 0.000000
1.000000 0.046875 0.000000
1.000000 0.062500 0.000000
1.000000 0.078125 0.000000
1.000000 0.093750 0.000000
1.000000 0.109375 0.000000
1.000000 0.125000 0.000000
1.000000 0.140625 0.000000
1.000000 0.156250 0.000000
1.000000 0.171875 0.000000
1.000000 0.187500 0.000000
1.000000 0.203125 0.000000
1.000000 0.218750 0.000000
1.000000 0.234375 0.000000
1.000000 0.250000 0.000000
1.000000 0.265625 0.000000
1.000000 0.281250 0.000000
1.000000 0.296875 0.000000
1.000000 0.312500 0.000000
1.000000 0.328125 0.000000
1.000000 0.343750 0.000000
1.000000 0.359375 0.000000
0.750000 0.750000 0.000000
0.703125 0.525000 0.000000
0.731250 0.525000 0.000000
0.759375 0.525000 0.000000
0.787500 0.525000 0.000000
0.815625 0.525000 0.000000
0.843750 0.525000 0.000000
0.871875 0.525000 0.000000
0.900000 0.525000 0.000000
1.000000 0.000000 0.000000
1.000000 0.015625 0.000000
1.000000 0.031250 0.000000
1.000000 0.046875 0.000000
1.000000 0.062500 0.000000
1.000000 0.078125 0.000000
1.000000 0.093750 0.000000
1.000000 0.109375 0.000000
1.000000 0.125000 0.000000
1.000000 0.140625 0.000000
1.000000 0.156250 0.000000
1.000000 0.171875 0.000000
1.000000 0.187500 0.000000
1.000000 0.203125 0.000000
1.000000 0.218750 0.000000
1.000000 0.234375 0.000000
1.000000 0.250000 0.000000
1.000000 0.265625 0.000000
1.000000 0.281250 0.000000
1.000000 0.296875 0.000000
1.000000 0.312500 0.000000
1.000000 0.328125 0.000000
1.000000 0.343750 0.000000
1.000000 0.359375 0.000000
1.000000 0.375000 0.000000
0.781250 0.781250 0.000000
0.731250 0.546875 0.000000
0.759375 0.546875 0.000000
0.787500 0.546875 0.000000
0.815625 0.546875 0.000000
0.843750 0.546875 0.000000
0.871875 0.546875 0.000000
0.900000 0.546875 0.000000
1.000000 0.000000 0.000000
1.000000 0.015625 0.000000
1.000000 0.031250 0.000000
1.000000 0.046875 0.000000
1.000000 0.062500 0.000000
1.000000 0.078125 0.000000
1.000000 0.093750 0.000000
1.000000 0.109375 0.000000
1.000000 0.125000 0.000000
1.000000 0.140625 0.000000
1.000000 0.156250 0.000000
1.000000 0.171875 0.000000
1.000000 0.187500 0.000000
1.000000 0.203125 0.000000
1.000000 0.218750 0.000000
1.000000 0.234375 0.000000
1.000000 0.250000 0.000000
1.000000 0.265625 0.000000
1.000000 0.281250 0.000000
1.000000 0.296875 0.000000
1.000000 0.312500 0.000000
1.000000 0.328125 0.000000
1.000000 0.343750 0.000000
1.000000 0.359375 0.000000
1.000000 0.375000 0.000000
1.000000 0.390625 0.000000
0.812500 0.812500 0.000000
