luts/kodak_colorplus_200.cube
TITLE Film LUT
LUT_3D_SIZE 5
DOMAIN_MIN 0.0 0.0 0.0
DOMAIN_MAX 1.0 1.0 1.0
0.000000 0.000000 0.000000
0.271342 0.000000 0.000000
0.531126 0.000000 0.000000
0.775130 0.000000 0.000000
1.000000 0.000000 0.000000
0.000000 0.271343 0.000000
0.271342 0.271343 0.000000
0.531126 0.271343 0.000000
0.775130 0.271343 0.000000
1.000000 0.271343 0.000000
0.000000 0.531125 0.000000
0.271342 0.531125 0.000000
0.531126 0.531125 0.000000
0.775130 0.531125 0.000000
1.000000 0.531125 0.000000
0.000000 0.775130 0.000000
0.271342 0.775130 0.000000
0.531126 0.775130 0.000000
0.775130 0.775130 0.000000
1.000000 0.775130 0.000000
0.000000 1.000000 0.000000
0.271342 1.000000 0.000000
0.531126 1.000000 0.000000
0.775130 1.000000 0.000000
1.000000 1.000000 0.000000
0.000000 0.000000 0.271342
0.271342 0.000000 0.271342
0.531126 0.000000 0.271342
0.775130 0.000000 0.271342
1.000000 0.000000 0.271342
0.000000 0.271343 0.271342
0.271342 0.271343 0.271342
0.531126 0.271343 0.271342
0.775130 0.271343 0.271342
1.000000 0.271343 0.271342
0.000000 0.531125 0.271342
0.271342 0.531125 0.271342
0.531126 0.531125 0.271342
0.775130 0.531125 0.271342
1.000000 0.531125 0.271342
0.000000 0.775130 0.271342
0.271342 0.775130 0.271342
0.531126 0.775130 0.271342
0.775130 0.775130 0.271342
1.000000 0.775130 0.271342
0.000000 1.000000 0.271342
0.271342 1.000000 0.271342
0.531126 1.000000 0.271342
0.775130 1.000000 0.271342
1.000000 1.000000 0.271342
0.000000 0.000000 0.531124
0.271342 0.000000 0.531124
0.531126 0.000000 0.531124
0.775130 0.000000 0.531124
1.000000 0.000000 0.531124
0.000000 0.271343 0.531124
0.271342 0.271343 0.531124
0.531126 0.271343 0.531124
0.775130 0.271343 0.531124
1.000000 0.271343 0.531124
0.000000 0.531125 0.531124
0.271342 0.531125 0.531124
0.531126 0.531125 0.531124
0.775130 0.531125 0.531124
1.000000 0.531125 0.531124
0.000000 0.775130 0.531124
0.271342 0.775130 0.531124
0.531126 0.775130 0.531124
0.775130 0.775130 0.531124
1.000000 0.775130 0.531124
0.000000 1.000000 0.531124
0.271342 1.000000 0.531124
0.531126 1.000000 0.531124
0.775130 1.000000 0.531124
1.000000 1.000000 0.531124
0.000000 0.000000 0.775135
0.271342 0.000000 0.775135
0.531126 0.000000 0.775135
0.775130 0.000000 0.775135
1.000000 0.000000 0.775135
0.000000 0.271343 0.775135
0.271342 0.271343 0.775135
0.531126 0.271343 0.775135
0.775130 0.271343 0.775135
1.000000 0.271343 0.775135
0.000000 0.531125 0.775135
0.271342 0.531125 0.775135
0.531126 0.531125 0.775135
0.775130 0.531125 0.775135
1.000000 0.531125 0.775135
0.000000 0.775130 0.775135
0.271342 0.775130 0.775135
0.531126 0.775130 0.775135
0.775130 0.775130 0.775135
1.000000 0.775130 0.775135
0.000000 1.000000 0.775135
0.271342 1.000000 0.775135
0.531126 1.000000 0.775135
0.775130 1.000000 0.775135
1.000000 1.000000 0.775135
0.000000 0.000000 1.000000
0.271342 0.000000 1.000000
0.531126 0.000000 1.000000
0.775130 0.000000 1.000000
1.000000 0.000000 1.000000
0.000000 0.271343 1.000000
0.271342 0.271343 1.000000
0.531126 0.271343 1.000000
0.775130 0.271343 1.000000
1.000000 0.271343 1.000000
0.000000 0.531125 1.000000
0.271342 0.531125 1.000000
0.531126 0.531125 1.000000
0.775130 0.531125 1.000000
1.000000 0.531125 1.000000
0.000000 0.775130 1.000000
0.271342 0.775130 1.000000
0.531126 0.775130 1.000000
0.775130 0.775130 1.000000
1.000000 0.775130 1.000000
0.000000 1.000000 1.000000
0.271342 1.000000 1.000000
0.531126 1.000000 1.000000
0.775130 1.000000 1.000000
1.000000 1.000000 1.000000
