luts/kodak_portra_160.cube
TITLE Film LUT
LUT_3D_SIZE 9
DOMAIN_MIN 0.0 0.0 0.0
DOMAIN_MAX 1.0 1.0 1.0
0.025000 0.025000 0.025000
0.155778 0.040693 0.025000
0.284320 0.056118 0.025000
0.409967 0.071196 0.025000
0.532097 0.085852 0.025000
0.650132 0.100016 0.025000
0.763569 0.113628 0.025000
0.871978 0.126637 0.025000
0.975000 0.139000 0.025000
0.025000 0.155778 0.040693
0.140085 0.155778 0.025000
0.284320 0.186896 0.025000
0.409967 0.201974 0.025000
0.532097 0.216630 0.025000
0.650132 0.230794 0.025000
0.763569 0.244406 0.025000
0.871978 0.257415 0.025000
0.975000 0.269778 0.025000
0.025000 0.284322 0.056119
0.124659 0.284322 0.025000
0.253201 0.284322 0.025000
0.409967 0.330517 0.025000
0.532097 0.345173 0.025000
0.650132 0.359337 0.025000
0.763569 0.372950 0.025000
0.871978 0.385959 0.025000
0.975000 0.398321 0.025000
0.025000 0.409963 0.071196
0.109582 0.409963 0.025000
0.238124 0.409963 0.025000
0.363774 0.409967 0.025000
0.532097 0.470814 0.025000
0.650132 0.484979 0.025000
0.763569 0.498591 0.025000
0.871978 0.511600 0.025000
0.975000 0.523963 0.025000
0.025000 0.532093 0.085851
0.094927 0.532093 0.025000
0.223468 0.532093 0.025000
0.349115 0.532093 0.025000
0.471249 0.532097 0.025000
0.650132 0.607109 0.025000
0.763569 0.620721 0.025000
0.871978 0.633730 0.025000
0.975000 0.646093 0.025000
0.025000 0.650134 0.100016
0.080762 0.650134 0.025000
0.209303 0.650134 0.025000
0.334950 0.650134 0.025000
0.457081 0.650134 0.025000
0.575116 0.650134 0.025000
0.763569 0.738762 0.025000
0.871978 0.751772 0.025000
0.975000 0.764134 0.025000
0.025000 0.763570 0.113628
0.067150 0.763570 0.025000
0.195691 0.763570 0.025000
0.321338 0.763570 0.025000
0.443468 0.763570 0.025000
0.561504 0.763570 0.025000
0.674941 0.763570 0.025000
0.871978 0.865207 0.025000
0.975000 0.877570 0.025000
0.025000 0.871974 0.126637
0.054141 0.871974 0.025000
0.182683 0.871974 0.025000
0.308330 0.871974 0.025000
0.430460 0.871974 0.025000
0.548495 0.871974 0.025000
0.661932 0.871974 0.025000
0.770345 0.871978 0.025000
0.964026 0.975000 0.025000
0.025000 0.975000 0.139000
0.041778 0.975000 0.025000
0.170320 0.975000 0.025000
0.295967 0.975000 0.025000
0.418097 0.975000 0.025000
0.536132 0.975000 0.025000
0.649569 0.975000 0.025000
0.757978 0.975000 0.025000
0.861000 0.975000 0.025000
0.040693 0.025000 0.155776
0.155778 0.025000 0.140083
0.284320 0.025000 0.124658
0.409967 0.025000 0.109580
0.532097 0.025000 0.094924
0.650132 0.025000 0.080760
0.763569 0.025000 0.067148
0.871978 0.025000 0.054139
0.975000 0.025000 0.041776
0.025000 0.140086 0.155778
0.155778 0.155778 0.155776
0.284320 0.159892 0.142922
0.409967 0.163912 0.130357
0.532097 0.167820 0.118144
0.650132 0.171598 0.106340
0.763569 0.175228 0.094997
0.871978 0.178697 0.084156
0.975000 0.181993 0.073854
0.025000 0.284322 0.186895
0.142922 0.284322 0.159887
0.267351 0.284322 0.142922
0.409967 0.305310 0.130357
0.532097 0.309218 0.118144
0.650132 0.312995 0.106340
0.763569 0.316625 0.094997
0.871978 0.320095 0.084156
0.975000 0.323391 0.073854
0.025000 0.409963 0.201972
0.130357 0.409963 0.163908
0.238203 0.409963 0.130357
0.376418 0.409967 0.130357
0.532097 0.447424 0.118144
0.650132 0.451201 0.106340
0.763569 0.454831 0.094997
0.871978 0.458300 0.084156
0.975000 0.461597 0.073854
0.025000 0.532093 0.216627
0.118144 0.532093 0.167816
0.209868 0.532093 0.118144
0.348080 0.532093 0.118144
0.482427 0.532097 0.118144
0.650132 0.585544 0.106340
0.763569 0.589174 0.094997
0.871978 0.592643 0.084156
0.975000 0.595940 0.073854
0.025000 0.650134 0.230792
0.106340 0.650134 0.171593
0.182483 0.650134 0.106340
0.320695 0.650134 0.106340
0.455038 0.650134 0.106340
0.584877 0.650134 0.106340
0.763569 0.719019 0.094997
0.871978 0.722488 0.084156
0.975000 0.725785 0.073854
0.025000 0.763570 0.244404
0.094997 0.763570 0.175223
0.156166 0.763570 0.094997
0.294377 0.763570 0.094997
0.428721 0.763570 0.094997
0.558560 0.763570 0.094997
0.683340 0.763570 0.094997
0.871978 0.847268 0.084156
0.975000 0.850564 0.073854
0.025000 0.871974 0.257413
0.084156 0.871974 0.178692
0.131016 0.871974 0.084156
0.269228 0.871974 0.084156
0.403571 0.871974 0.084156
0.533410 0.871974 0.084156
0.658190 0.871974 0.084156
0.777444 0.871978 0.084156
0.975000 0.969809 0.073854
0.025000 0.975000 0.269776
0.073854 0.975000 0.181989
0.107114 0.975000 0.073854
0.245326 0.975000 0.073854
0.379669 0.975000 0.073854
0.509508 0.975000 0.073854
0.634288 0.975000 0.073854
0.753538 0.975000 0.073854
0.866862 0.975000 0.073854
0.056118 0.025000 0.284318
0.186896 0.025000 0.284318
0.284320 0.025000 0.253199
0.409967 0.025000 0.238122
0.532097 0.025000 0.223466
0.650132 0.025000 0.209302
0.763569 0.025000 0.195689
0.871978 0.025000 0.182680
0.975000 0.025000 0.170318
0.025000 0.124660 0.284318
0.159891 0.142924 0.284318
0.284320 0.142924 0.267350
0.409967 0.130359 0.238200
0.532097 0.118146 0.209866
0.650132 0.106343 0.182481
0.763569 0.094999 0.156164
0.871978 0.084158 0.131013
0.975000 0.073856 0.107112
0.025000 0.253207 0.284322
0.142924 0.267358 0.284322
0.284319 0.284322 0.284317
0.409967 0.288343 0.271753
0.532097 0.292251 0.259540
0.650132 0.296028 0.247736
0.763569 0.299658 0.236393
0.871978 0.303127 0.225552
0.975000 0.306424 0.215249
0.025000 0.409963 0.330513
0.130359 0.409963 0.305306
0.271753 0.409963 0.288336
0.393385 0.409967 0.271753
0.532097 0.430456 0.259540
0.650132 0.434233 0.247736
0.763569 0.437863 0.236393
0.871978 0.441332 0.225552
0.975000 0.444629 0.215249
0.025000 0.532093 0.345169
0.118146 0.532093 0.309214
0.259540 0.532093 0.292244
0.365048 0.532093 0.259540
0.499394 0.532097 0.259540
0.650132 0.568576 0.247736
0.763569 0.572206 0.236393
0.871978 0.575676 0.225552
0.975000 0.578972 0.215249
0.025000 0.650134 0.359334
0.106342 0.650134 0.312991
0.247736 0.650134 0.296022
0.337662 0.650134 0.247736
0.472005 0.650134 0.247736
0.601844 0.650134 0.247736
0.763569 0.702052 0.236393
0.871978 0.705521 0.225552
0.975000 0.708818 0.215249
0.025000 0.763570 0.372946
0.094999 0.763570 0.316621
0.236392 0.763570 0.299652
0.311345 0.763570 0.236392
0.445688 0.763570 0.236392
0.575527 0.763570 0.236392
0.700308 0.763570 0.236392
0.871978 0.830300 0.225552
0.975000 0.833597 0.215249
0.025000 0.871974 0.385955
0.084158 0.871974 0.320090
0.225552 0.871974 0.303121
0.286195 0.871974 0.225552
0.420538 0.871974 0.225552
0.550377 0.871974 0.225552
0.675158 0.871974 0.225552
0.794411 0.871978 0.225552
0.975000 0.952842 0.215249
0.025000 0.975000 0.398318
0.073856 0.975000 0.323387
0.215249 0.975000 0.306417
0.262293 0.975000 0.215249
0.396636 0.975000 0.215249
0.526475 0.975000 0.215249
0.651256 0.975000 0.215249
0.770506 0.975000 0.215249
0.883830 0.975000 0.215249
0.071196 0.025000 0.409969
0.201974 0.025000 0.409969
0.330516 0.025000 0.409969
0.409969 0.025000 0.363776
0.532097 0.025000 0.349118
0.650132 0.025000 0.334954
0.763569 0.025000 0.321341
0.871978 0.025000 0.308332
0.975000 0.025000 0.295969
0.025000 0.109582 0.409969
0.163912 0.130359 0.409969
0.305308 0.130359 0.409969
0.409969 0.130359 0.376419
0.532097 0.118146 0.348083
0.650132 0.106343 0.320698
0.763569 0.094999 0.294381
0.871978 0.084158 0.269230
0.975000 0.073856 0.245329
0.025000 0.238125 0.409969
0.130359 0.238203 0.409969
0.288338 0.271755 0.409969
0.409969 0.271757 0.393387
0.532097 0.259544 0.365050
0.650132 0.247740 0.337666
0.763569 0.236397 0.311349
0.871978 0.225556 0.286198
0.975000 0.215254 0.262297
0.025000 0.363766 0.409969
0.130359 0.376409 0.409969
0.271755 0.393376 0.409969
0.409967 0.409962 0.409969
0.532097 0.413864 0.397749
0.650132 0.417641 0.385946
0.763569 0.421271 0.374602
0.871978 0.424740 0.363761
0.975000 0.428037 0.353459
0.025000 0.532093 0.470821
0.118146 0.532093 0.447431
0.259542 0.532093 0.430463
0.397754 0.532093 0.413878
0.515980 0.532097 0.397757
0.650132 0.551990 0.385953
0.763569 0.555620 0.374609
0.871978 0.559090 0.363769
0.975000 0.562386 0.353466
0.025000 0.650134 0.484986
0.106342 0.650134 0.451208
0.247738 0.650134 0.434241
0.385950 0.650134 0.417655
0.488591 0.650134 0.385953
0.618430 0.650134 0.385953
0.763569 0.685466 0.374609
0.871978 0.688935 0.363769
0.975000 0.692232 0.353466
0.025000 0.763570 0.498598
0.094999 0.763570 0.454838
0.236395 0.763570 0.437870
0.374606 0.763570 0.421285
0.462274 0.763570 0.374609
0.592113 0.763570 0.374609
0.716894 0.763570 0.374609
0.871978 0.813714 0.363769
0.975000 0.817011 0.353466
0.025000 0.871974 0.511606
0.084158 0.871974 0.458307
0.225554 0.871974 0.441339
0.363766 0.871974 0.424754
0.437124 0.871974 0.363769
0.566963 0.871974 0.363769
0.691744 0.871974 0.363769
0.810997 0.871978 0.363769
0.975000 0.936256 0.353466
0.025000 0.975000 0.523969
0.073856 0.975000 0.461604
0.215252 0.975000 0.444636
0.353463 0.975000 0.428051
0.413222 0.975000 0.353466
0.543061 0.975000 0.353466
0.667842 0.975000 0.353466
0.787092 0.975000 0.353466
0.900416 0.975000 0.353466
0.085851 0.025000 0.532096
0.216629 0.025000 0.532096
0.345171 0.025000 0.532096
0.470818 0.025000 0.532096
0.532097 0.025000 0.471244
0.650132 0.025000 0.457080
0.763569 0.025000 0.443467
0.871978 0.025000 0.430458
0.975000 0.025000 0.418096
0.025000 0.094926 0.532096
0.167820 0.118146 0.532096
0.309216 0.118146 0.532096
0.447428 0.118146 0.532096
0.532097 0.118146 0.482422
0.650132 0.106343 0.455037
0.763569 0.094999 0.428720
0.871978 0.084158 0.403569
0.975000 0.073856 0.379668
0.025000 0.223470 0.532096
0.118146 0.209870 0.532096
0.292246 0.259542 0.532096
0.430460 0.259544 0.532096
0.532097 0.259544 0.499389
0.650132 0.247740 0.472005
0.763569 0.236397 0.445688
0.871978 0.225556 0.420537
0.975000 0.215254 0.396636
0.025000 0.349111 0.532096
0.118146 0.348076 0.532096
0.259542 0.365043 0.532096
0.413875 0.397750 0.532096
0.532097 0.397749 0.515974
0.650132 0.385946 0.488590
0.763569 0.374602 0.462272
0.871978 0.363761 0.437121
0.975000 0.353459 0.413220
0.025000 0.471241 0.532096
0.118146 0.482419 0.532096
0.259542 0.499386 0.532096
0.397754 0.515972 0.532096
0.532097 0.532093 0.532095
0.650132 0.535867 0.520289
0.763569 0.539497 0.508945
0.871978 0.542966 0.498104
0.975000 0.546263 0.487802
0.025000 0.650134 0.607112
0.106342 0.650134 0.585547
0.247738 0.650134 0.568579
0.385950 0.650134 0.551994
0.520292 0.650134 0.535872
0.634551 0.650134 0.520292
0.763569 0.669345 0.508948
0.871978 0.672814 0.498108
0.975000 0.676111 0.487805
0.025000 0.763570 0.620724
0.094999 0.763570 0.589177
0.236395 0.763570 0.572209
0.374606 0.763570 0.555624
0.508948 0.763570 0.539502
0.608234 0.763570 0.508948
0.733014 0.763570 0.508948
0.871978 0.797594 0.498108
0.975000 0.800890 0.487805
0.025000 0.871974 0.633733
0.084158 0.871974 0.592646
0.225554 0.871974 0.575678
0.363766 0.871974 0.559093
0.498108 0.871974 0.542971
0.583084 0.871974 0.498108
0.707864 0.871974 0.498108
0.827118 0.871978 0.498108
0.975000 0.920135 0.487805
0.025000 0.975000 0.646096
0.073856 0.975000 0.595943
0.215252 0.975000 0.578975
0.353463 0.975000 0.562390
0.487805 0.975000 0.546268
0.559182 0.975000 0.487805
0.683962 0.975000 0.487805
0.803213 0.975000 0.487805
0.916537 0.975000 0.487805
0.100016 0.025000 0.650130
0.230794 0.025000 0.650130
0.359335 0.025000 0.650130
0.484982 0.025000 0.650130
0.607112 0.025000 0.650130
0.650132 0.025000 0.575115
0.763569 0.025000 0.561502
0.871978 0.025000 0.548493
0.975000 0.025000 0.536130
0.025000 0.080762 0.650130
0.171597 0.106343 0.650130
0.312993 0.106343 0.650130
0.451205 0.106343 0.650130
0.585548 0.106343 0.650130
0.650132 0.106343 0.584875
0.763569 0.094999 0.558558
0.871978 0.084158 0.533407
0.975000 0.073856 0.509506
0.025000 0.209306 0.650130
0.106343 0.182486 0.650130
0.296023 0.247739 0.650130
0.434237 0.247741 0.650130
0.568580 0.247741 0.650130
0.650132 0.247740 0.601843
0.763569 0.236397 0.575526
0.871978 0.225556 0.550375
0.975000 0.215254 0.526474
0.025000 0.334947 0.650130
0.106343 0.320692 0.650130
0.247739 0.337659 0.650130
0.417652 0.385946 0.650130
0.551995 0.385946 0.650130
0.650132 0.385946 0.618428
0.763569 0.374602 0.592111
0.871978 0.363761 0.566960
0.975000 0.353459 0.543059
0.025000 0.457077 0.650130
0.106343 0.455035 0.650130
0.247739 0.472002 0.650130
0.385950 0.488588 0.650130
0.535874 0.520289 0.650130
0.650132 0.520289 0.634549
0.763569 0.508945 0.608232
0.871978 0.498104 0.583081
0.975000 0.487802 0.559180
0.025000 0.575122 0.650134
0.106342 0.584883 0.650134
0.247738 0.601851 0.650134
0.385950 0.618436 0.650134
0.520293 0.634557 0.650134
0.650132 0.650134 0.650130
0.763569 0.653765 0.638787
0.871978 0.657234 0.627946
0.975000 0.660530 0.617643
0.025000 0.763570 0.738759
0.094999 0.763570 0.719015
0.236395 0.763570 0.702047
0.374606 0.763570 0.685462
0.508949 0.763570 0.669341
0.638786 0.763570 0.653758
0.748595 0.763570 0.638786
0.871978 0.782013 0.627946
0.975000 0.785310 0.617643
0.025000 0.871974 0.751767
0.084158 0.871974 0.722484
0.225554 0.871974 0.705516
0.363766 0.871974 0.688931
0.498109 0.871974 0.672810
0.627946 0.871974 0.657227
0.723445 0.871974 0.627946
0.842698 0.871978 0.627946
0.975000 0.904555 0.617643
0.025000 0.975000 0.764130
0.073856 0.975000 0.725781
0.215252 0.975000 0.708813
0.353463 0.975000 0.692228
0.487806 0.975000 0.676107
0.617643 0.975000 0.660524
0.699543 0.975000 0.617643
0.818793 0.975000 0.617643
0.932117 0.975000 0.617643
0.113629 0.025000 0.763573
0.244407 0.025000 0.763573
0.372948 0.025000 0.763573
0.498595 0.025000 0.763573
0.620725 0.025000 0.763573
0.738761 0.025000 0.763573
0.763573 0.025000 0.674948
0.871978 0.025000 0.661935
0.975000 0.025000 0.649573
0.025000 0.067149 0.763573
0.175227 0.094998 0.763573
0.316623 0.094998 0.763573
0.454835 0.094998 0.763573
0.589178 0.094998 0.763573
0.719017 0.094998 0.763573
0.763573 0.094998 0.683348
0.871978 0.084158 0.658194
0.975000 0.073856 0.634293
0.025000 0.195693 0.763573
0.094998 0.156167 0.763573
0.299654 0.236394 0.763573
0.437867 0.236396 0.763573
0.572210 0.236396 0.763573
0.702049 0.236396 0.763573
0.763573 0.236396 0.700316
0.871978 0.225556 0.675162
0.975000 0.215254 0.651260
0.025000 0.321334 0.763573
0.094998 0.294373 0.763573
0.236394 0.311340 0.763573
0.421282 0.374602 0.763573
0.555626 0.374602 0.763573
0.685465 0.374602 0.763573
0.763573 0.374602 0.716900
0.871978 0.363761 0.691746
0.975000 0.353459 0.667845
0.025000 0.443464 0.763573
0.094998 0.428716 0.763573
0.236394 0.445683 0.763573
0.374606 0.462269 0.763573
0.539504 0.508945 0.763573
0.669344 0.508945 0.763573
0.763573 0.508945 0.733022
0.871978 0.498104 0.707867
0.975000 0.487802 0.683966
0.025000 0.561505 0.763573
0.094998 0.558561 0.763573
0.236394 0.575529 0.763573
0.374606 0.592114 0.763573
0.508949 0.608236 0.763573
0.653760 0.638788 0.763573
0.763573 0.638790 0.748603
0.871978 0.627950 0.723449
0.975000 0.617648 0.699548
0.025000 0.674941 0.763573
0.094998 0.683341 0.763573
0.236394 0.700308 0.763573
0.374606 0.716894 0.763573
0.508949 0.733015 0.763573
0.638788 0.748595 0.763573
0.763569 0.763569 0.763573
0.871978 0.767036 0.752729
0.975000 0.770333 0.742427
0.025000 0.871974 0.865210
0.084158 0.871974 0.847271
0.225554 0.871974 0.830303
0.363766 0.871974 0.813718
0.498109 0.871974 0.797596
0.627948 0.871974 0.782016
0.752728 0.871974 0.767042
0.857673 0.871978 0.752732
0.975000 0.889580 0.742430
0.025000 0.975000 0.877573
0.073856 0.975000 0.850567
0.215252 0.975000 0.833600
0.353463 0.975000 0.817014
0.487806 0.975000 0.800893
0.617646 0.975000 0.785313
0.742426 0.975000 0.770339
0.833768 0.975000 0.742430
0.947092 0.975000 0.742430
0.126637 0.025000 0.871977
0.257415 0.025000 0.871977
0.385957 0.025000 0.871977
0.511604 0.025000 0.871977
0.633734 0.025000 0.871977
0.751770 0.025000 0.871977
0.865206 0.025000 0.871977
0.871978 0.025000 0.770340
0.975000 0.025000 0.757977
0.025000 0.054141 0.871977
0.178696 0.084158 0.871977
0.320092 0.084158 0.871977
0.458304 0.084158 0.871977
0.592647 0.084158 0.871977
0.722486 0.084158 0.871977
0.847266 0.084158 0.871977
0.871978 0.084158 0.777439
0.975000 0.073856 0.753538
0.025000 0.182684 0.871977
0.084158 0.131018 0.871977
0.303123 0.225554 0.871977
0.441336 0.225556 0.871977
0.575679 0.225556 0.871977
0.705518 0.225556 0.871977
0.830299 0.225556 0.871977
0.871978 0.225556 0.794406
0.975000 0.215254 0.770505
0.025000 0.308326 0.871977
0.084158 0.269223 0.871977
0.225554 0.286191 0.871977
0.424751 0.363761 0.871977
0.559095 0.363761 0.871977
0.688934 0.363761 0.871977
0.813714 0.363761 0.871977
0.871978 0.363761 0.810991
0.975000 0.353459 0.787090
0.025000 0.430456 0.871977
0.084158 0.403566 0.871977
0.225554 0.420534 0.871977
0.363766 0.437119 0.871977
0.542973 0.498104 0.871977
0.672813 0.498104 0.871977
0.797593 0.498104 0.871977
0.871978 0.498104 0.827112
0.975000 0.487802 0.803211
0.025000 0.548497 0.871977
0.084158 0.533412 0.871977
0.225554 0.550379 0.871977
0.363766 0.566964 0.871977
0.498109 0.583086 0.871977
0.657229 0.627948 0.871977
0.782011 0.627950 0.871977
0.871978 0.627950 0.842694
0.975000 0.617648 0.818793
0.025000 0.661933 0.871977
0.084158 0.658191 0.871977
0.225554 0.675158 0.871977
0.363766 0.691744 0.871977
0.498109 0.707865 0.871977
0.627948 0.723446 0.871977
0.767037 0.752728 0.871977
0.871978 0.752729 0.857667
0.975000 0.742427 0.833766
0.025000 0.770337 0.871977
0.084158 0.777436 0.871977
0.225554 0.794403 0.871977
0.363766 0.810989 0.871977
0.498109 0.827110 0.871977
0.627948 0.842691 0.871977
0.752728 0.857664 0.871977
0.871978 0.871974 0.871977
0.975000 0.875268 0.861672
0.025000 0.964023 0.975000
0.073856 0.975000 0.969812
0.215252 0.975000 0.952845
0.353463 0.975000 0.936259
0.487806 0.975000 0.920138
0.617646 0.975000 0.904558
0.742426 0.975000 0.889584
0.861675 0.975000 0.875273
0.961401 0.975000 0.861675
0.139000 0.025000 0.975000
0.269778 0.025000 0.975000
0.398320 0.025000 0.975000
0.523967 0.025000 0.975000
0.646097 0.025000 0.975000
0.764132 0.025000 0.975000
0.877569 0.025000 0.975000
0.975000 0.025000 0.964022
0.975000 0.025000 0.861000
0.025000 0.041778 0.975000
0.181993 0.073856 0.975000
0.323389 0.073856 0.975000
0.461601 0.073856 0.975000
0.595944 0.073856 0.975000
0.725783 0.073856 0.975000
0.850563 0.073856 0.975000
0.969813 0.073856 0.975000
0.975000 0.073856 0.866863
0.025000 0.170321 0.975000
0.073856 0.107116 0.975000
0.306419 0.215252 0.975000
0.444633 0.215254 0.975000
0.578976 0.215254 0.975000
0.708815 0.215254 0.975000
0.833595 0.215254 0.975000
0.952846 0.215254 0.975000
0.975000 0.215254 0.883830
0.025000 0.295963 0.975000
0.073856 0.245322 0.975000
0.215252 0.262289 0.975000
0.428048 0.353459 0.975000
0.562391 0.353459 0.975000
0.692230 0.353459 0.975000
0.817011 0.353459 0.975000
0.936261 0.353459 0.975000
0.975000 0.353459 0.900415
0.025000 0.418093 0.975000
0.073856 0.379665 0.975000
0.215252 0.396632 0.975000
0.353463 0.413218 0.975000
0.546270 0.487802 0.975000
0.676109 0.487802 0.975000
0.800890 0.487802 0.975000
0.920140 0.487802 0.975000
0.975000 0.487802 0.916536
0.025000 0.536134 0.975000
0.073856 0.509510 0.975000
0.215252 0.526478 0.975000
0.353463 0.543063 0.975000
0.487806 0.559184 0.975000
0.660526 0.617646 0.975000
0.785308 0.617648 0.975000
0.904558 0.617648 0.975000
0.975000 0.617648 0.932118
0.025000 0.649570 0.975000
0.073856 0.634290 0.975000
0.215252 0.651257 0.975000
0.353463 0.667842 0.975000
0.487806 0.683964 0.975000
0.617646 0.699544 0.975000
0.770334 0.742426 0.975000
0.889585 0.742427 0.975000
0.975000 0.742427 0.947091
0.025000 0.757974 0.975000
0.073856 0.753535 0.975000
0.215252 0.770502 0.975000
0.353463 0.787087 0.975000
0.487806 0.803209 0.975000
0.617646 0.818789 0.975000
0.742426 0.833763 0.975000
0.875275 0.861672 0.975000
0.975000 0.861672 0.961401
0.025000 0.861000 0.975000
0.073856 0.866863 0.975000
0.215252 0.883830 0.975000
0.353463 0.900416 0.975000
0.487806 0.916537 0.975000
0.617646 0.932117 0.975000
0.742426 0.947091 0.975000
0.861676 0.961401 0.975000
0.975000 0.975000 0.975000
