luts/KODAK FPE 03.cube
TITLE "Generated by Resolve"
LUT_3D_SIZE 33
0.0150912 0.0211032 0.0270542
0.01944 0.0248264 0.0299687
0.0302892 0.0286717 0.032166
0.0515908 0.0327306 0.0331426
0.0785687 0.0391241 0.0338598
0.10341 0.046891 0.0355993
0.131182 0.0529793 0.0356909
0.162753 0.0578317 0.0328832
0.195926 0.0619821 0.0287633
0.23035 0.0664073 0.0242313
0.265522 0.0712139 0.0203708
0.301701 0.0759442 0.0160983
0.336614 0.0802319 0.0163119
0.370306 0.0838178 0.0171511
0.403326 0.0874342 0.0183108
0.435035 0.0909285 0.0211948
0.466346 0.0941634 0.0256504
0.49723 0.0961624 0.0313573
0.527947 0.0981613 0.0377661
0.55346 0.102739 0.0400854
0.578027 0.107927 0.0422065
0.601129 0.113252 0.0433204
0.622766 0.118624 0.0446174
0.643488 0.124361 0.0459449
0.662257 0.13019 0.0478676
0.680018 0.136004 0.0496529
0.696895 0.142184 0.0520943
0.712902 0.14786 0.0552987
0.728191 0.153567 0.0589456
0.742901 0.15903 0.0646372
0.756558 0.163943 0.0717174
0.769635 0.168048 0.0813611
0.782223 0.172137 0.0926986
0.0170748 0.0309453 0.0342565
0.0233921 0.0329747 0.0351415
0.0351568 0.0361486 0.0361791
0.0549935 0.0392004 0.0360723
0.0795453 0.04448 0.0359808
0.103395 0.0514992 0.0369879
0.131411 0.0571908 0.035996
0.163577 0.0615396 0.032517
0.19707 0.0653544 0.0271
0.232029 0.0695354 0.0209964
0.267491 0.073991 0.016434
0.303899 0.0786297 0.0161593
0.339117 0.0829786 0.0164645
0.373114 0.0864576 0.0173495
0.406241 0.0901961 0.0170748
0.437568 0.0941329 0.0177157
0.467536 0.0984665 0.0185702
0.495583 0.102602 0.0188602
0.522896 0.107134 0.0206607
0.551446 0.109667 0.0263828
0.580728 0.111696 0.0333867
0.610071 0.112734 0.04094
0.632654 0.117723 0.0431067
0.653529 0.123507 0.0445563
0.672831 0.1299 0.0470741
0.691569 0.136873 0.0499123
0.709407 0.144183 0.0536049
0.726406 0.151095 0.0581064
0.742687 0.158053 0.0629435
0.758358 0.164706 0.0698253
0.773098 0.170977 0.0783093
0.787259 0.17641 0.0893568
0.798688 0.17966 0.0998398
0.0189517 0.0434272 0.0420996
0.024979 0.0442969 0.0419165
0.0382849 0.047837 0.0432288
0.0599832 0.0515755 0.0431373
0.0827649 0.057023 0.0429084
0.105852 0.0634775 0.0432898
0.135027 0.0691691 0.0415198
0.16788 0.0735332 0.0374456
0.202441 0.0778515 0.0320439
0.238361 0.082414 0.0254063
0.274723 0.0870527 0.0192416
0.311208 0.0912947 0.0168917
0.346319 0.0948806 0.0171054
0.380591 0.0985733 0.0179751
0.413489 0.101961 0.0174563
0.444877 0.106218 0.0179751
0.474754 0.110521 0.0189059
0.502998 0.11545 0.0191196
0.530327 0.120226 0.0189517
0.55726 0.125109 0.0225376
0.583825 0.129915 0.0264744
0.611658 0.132998 0.0327306
0.638086 0.137057 0.0390173
0.664363 0.140337 0.0461891
0.685176 0.146441 0.0501869
0.706264 0.151919 0.0556802
0.72578 0.157763 0.0614328
0.742962 0.164721 0.0664225
0.759396 0.171725 0.071397
0.775097 0.178561 0.0782177
0.789746 0.184894 0.0869001
0.803037 0.19086 0.0972
0.80795 0.194553 0.10103
0.016083 0.0623026 0.0516213
0.0246281 0.0610056 0.0491646
0.0380407 0.0638285 0.050309
0.0620584 0.0676738 0.0502632
0.0865187 0.0740673 0.0510262
0.110948 0.0806744 0.0505837
0.14136 0.0863203 0.0479591
0.176394 0.0907454 0.0422065
0.211872 0.0952316 0.0366979
0.247593 0.100313 0.0293889
0.283848 0.105745 0.021912
0.319936 0.110399 0.018555
0.355245 0.114244 0.0188754
0.389807 0.118059 0.0191196
0.423072 0.121874 0.0184939
0.454505 0.126009 0.0189059
0.484642 0.1308 0.0193484
0.512795 0.135744 0.0194553
0.540047 0.141161 0.0196689
0.566598 0.146639 0.0225681
0.592371 0.151797 0.0255589
0.617639 0.157214 0.0287327
0.641505 0.162509 0.0327001
0.664485 0.167895 0.0367437
0.686168 0.173648 0.041413
0.707805 0.17879 0.0481117
0.729 0.183398 0.0557107
0.74757 0.189578 0.0623636
0.764675 0.195972 0.0679484
0.780041 0.202731 0.0740673
0.794217 0.209384 0.0823072
0.80444 0.215457 0.0899062
0.804456 0.220691 0.088304
0.0159152 0.0829633 0.0626841
0.023331 0.0813153 0.0594339
0.0400549 0.0829786 0.0594492
0.0654307 0.0859083 0.0590066
0.0917372 0.092958 0.0601053
0.117769 0.100374 0.0604105
0.149203 0.106004 0.0570535
0.185641 0.110597 0.0515602
0.224292 0.115648 0.0445869
0.262379 0.121614 0.0363012
0.29926 0.128008 0.0263371
0.334051 0.132692 0.0227512
0.368277 0.136782 0.0212253
0.402304 0.140795 0.0205386
0.435172 0.14464 0.0199893
0.466743 0.148806 0.0200656
0.496971 0.153689 0.0198062
0.525078 0.15877 0.0204929
0.551995 0.163943 0.021912
0.578134 0.169329 0.0238651
0.603632 0.17467 0.0260777
0.628473 0.179858 0.0293431
0.652033 0.185702 0.0327153
0.674617 0.191501 0.035874
0.695293 0.19791 0.0398108
0.714702 0.204532 0.0438544
0.733074 0.211139 0.0484321
0.750759 0.217639 0.0537423
0.767315 0.224323 0.0589456
0.782452 0.231083 0.0643778
0.796124 0.238087 0.0720073
0.80592 0.242222 0.079469
0.809491 0.243488 0.0818189
0.0204471 0.104067 0.07364
0.0205997 0.10486 0.0726482
0.0395056 0.105592 0.0714122
0.0685283 0.10692 0.0697032
0.0973373 0.113283 0.0703746
0.124819 0.121691 0.0715953
0.157717 0.127977 0.0690929
0.195514 0.133043 0.0631876
0.235203 0.138613 0.0556954
0.275715 0.144778 0.0461433
0.31574 0.151949 0.0331579
0.351568 0.157107 0.0299229
0.385962 0.161578 0.0277256
0.419028 0.165759 0.0262913
0.451148 0.16968 0.0251469
0.482261 0.173877 0.0235904
0.511757 0.178408 0.0231632
0.539101 0.183215 0.0240635
0.565759 0.188113 0.0247349
0.591577 0.193423 0.0263218
0.616785 0.198627 0.0282902
0.641505 0.204028 0.03093
0.665003 0.209705 0.0337987
0.687388 0.215671 0.0367437
0.707774 0.221973 0.0400397
0.727062 0.228351 0.0436866
0.745373 0.235035 0.0481117
0.762707 0.241642 0.0522774
0.779141 0.24828 0.0570382
0.794202 0.254902 0.0628977
0.807813 0.26154 0.0699474
0.817349 0.265095 0.0766766
0.819654 0.2654 0.0783703
0.02327 0.128115 0.0838788
0.0229953 0.129198 0.0827497
0.0362554 0.132784 0.0838636
0.0672923 0.133089 0.0807965
0.0988327 0.137942 0.0801556
0.129305 0.146349 0.0809186
0.164263 0.153628 0.0792096
0.203464 0.159518 0.0735027
0.244175 0.16553 0.0637522
0.285649 0.171893 0.0518196
0.325872 0.178622 0.0398871
0.364263 0.184207 0.035172
0.401465 0.189517 0.0328069
0.434836 0.19379 0.0304265
0.467521 0.197864 0.0280156
0.497688 0.201862 0.0268559
0.526299 0.206149 0.0259098
0.553124 0.210773 0.025742
0.579278 0.215747 0.025864
0.604425 0.220935 0.0265202
0.629252 0.226139 0.0278782
0.65362 0.23125 0.0298466
0.676646 0.236774 0.0324865
0.698741 0.242573 0.0351873
0.71902 0.248905 0.0377356
0.738186 0.255238 0.0413367
0.756298 0.261677 0.0455024
0.773571 0.268009 0.0500038
0.789914 0.274647 0.0543526
0.805127 0.281315 0.0598917
0.818875 0.28777 0.0662852
0.827909 0.290776 0.0720836
0.829816 0.289784 0.0749218
0.0265354 0.155138 0.0930037
0.0263523 0.157015 0.0921035
0.0352636 0.162676 0.0945602
0.0603647 0.164416 0.0920577
0.0967422 0.167575 0.0894942
0.130434 0.17528 0.0889296
0.168414 0.182666 0.0858167
0.210101 0.189181 0.0778821
0.251484 0.195712 0.0657054
0.293126 0.201968 0.0541085
0.333471 0.20798 0.0453498
0.372412 0.213306 0.0394598
0.409812 0.218662 0.0362402
0.44535 0.223621 0.0331426
0.480034 0.228244 0.0302281
0.510872 0.23241 0.0274968
0.540246 0.236789 0.0259251
0.566934 0.241337 0.0258183
0.592462 0.24622 0.0252842
0.617166 0.251225 0.0254215
0.64152 0.256123 0.0270695
0.665003 0.261097 0.0284733
0.68748 0.266361 0.0301976
0.709392 0.271901 0.0323796
0.729366 0.27808 0.0349889
0.74844 0.284321 0.0382544
0.766644 0.290669 0.0421607
0.783856 0.297017 0.0456245
0.800168 0.303349 0.0500038
0.81532 0.309728 0.0547799
0.829068 0.31606 0.0608072
0.837324 0.31783 0.0652476
0.839551 0.316701 0.0686656
0.0284886 0.183795 0.101946
0.028748 0.18677 0.101564
0.0344854 0.193744 0.104555
0.0532692 0.197772 0.103426
0.0905318 0.199649 0.0990005
0.129793 0.206104 0.0967269
0.170047 0.212955 0.090898
0.214511 0.219516 0.0798657
0.257816 0.226246 0.0694438
0.299763 0.233066 0.0564431
0.339864 0.239002 0.0488594
0.379507 0.244404 0.0427253
0.417517 0.249592 0.0381018
0.453559 0.254414 0.0347295
0.488457 0.259007 0.0311284
0.521431 0.263523 0.02916
0.552026 0.267796 0.0277867
0.579232 0.272358 0.0265812
0.60557 0.277012 0.0259403
0.630137 0.281865 0.0262608
0.654292 0.286748 0.0269932
0.677729 0.291691 0.028275
0.699763 0.296803 0.0294957
0.721035 0.302174 0.0309606
0.740871 0.30808 0.0330358
0.759777 0.314244 0.0352941
0.777661 0.320577 0.0382544
0.794949 0.326589 0.0426337
0.811307 0.332845 0.0464027
0.82649 0.338918 0.0504616
0.840238 0.345144 0.0552987
0.847684 0.345892 0.0589151
0.849958 0.344488 0.0617227
0.0310979 0.213077 0.110704
0.0318456 0.217166 0.110689
0.0362554 0.224445 0.11313
0.047715 0.231205 0.113909
0.0829938 0.232807 0.108034
0.124163 0.23772 0.103288
0.170611 0.244343 0.0942702
0.217578 0.250813 0.0814221
0.263203 0.257267 0.0707713
0.306096 0.264134 0.0609598
0.346166 0.270268 0.0533455
0.385946 0.275685 0.0463111
0.424201 0.28072 0.0415656
0.461326 0.285527 0.0373541
0.496391 0.289982 0.0334478
0.529595 0.294316 0.0303044
0.560754 0.298741 0.0282292
0.589929 0.303502 0.0274052
0.61706 0.308293 0.0267338
0.642298 0.313024 0.0265202
0.666896 0.317708 0.0277714
0.690211 0.322454 0.0285649
0.712581 0.327504 0.0300298
0.733806 0.332601 0.0310216
0.75317 0.338277 0.032578
0.771725 0.344152 0.0350652
0.789578 0.350134 0.0381476
0.806653 0.356359 0.0408789
0.823072 0.362264 0.0438392
0.83827 0.368444 0.0471504
0.852094 0.374426 0.052369
0.858839 0.374182 0.0522164
0.86099 0.372625 0.0554055
0.0364233 0.243534 0.120089
0.0366979 0.247486 0.119036
0.0414588 0.254963 0.120836
0.0501106 0.262577 0.121584
0.0749828 0.267216 0.117632
0.117601 0.270344 0.109163
0.170001 0.276448 0.0955825
0.219898 0.282536 0.0823682
0.267704 0.288334 0.0724193
0.311345 0.294606 0.0648814
0.352667 0.301335 0.0577249
0.392325 0.307042 0.0497444
0.430869 0.312169 0.0433967
0.468025 0.316884 0.0386664
0.503883 0.321324 0.034165
0.537575 0.325658 0.0316625
0.569039 0.329976 0.0293431
0.598566 0.334569 0.0281376
0.626688 0.3393 0.0269627
0.653391 0.344137 0.0281376
0.678019 0.348592 0.0286107
0.702022 0.353048 0.0302434
0.724437 0.35787 0.0313878
0.745937 0.362844 0.0324865
0.765652 0.368399 0.0340887
0.783993 0.373968 0.0352636
0.801526 0.379782 0.037583
0.818586 0.385626 0.0402533
0.834913 0.39173 0.0424811
0.850233 0.397696 0.0453193
0.864073 0.4038 0.047776
0.870344 0.402991 0.0475471
0.872587 0.401404 0.0499123
0.0424964 0.274434 0.127657
0.0424201 0.278569 0.126009
0.0466011 0.286183 0.12723
0.0523842 0.294865 0.127413
0.0683299 0.302251 0.123308
0.111437 0.304982 0.110674
0.167514 0.309133 0.0972915
0.220447 0.314153 0.0876326
0.269413 0.319554 0.0766003
0.315694 0.325505 0.0683146
0.357336 0.332036 0.0604715
0.397955 0.338186 0.0533913
0.436332 0.343389 0.0469978
0.473518 0.347997 0.0410773
0.509514 0.3523 0.0362707
0.543908 0.356649 0.0323339
0.576455 0.361089 0.0296635
0.606043 0.365606 0.0281834
0.634379 0.370199 0.0270085
0.661219 0.374884 0.0267185
0.687129 0.379431 0.0277562
0.711574 0.383917 0.0286259
0.734508 0.388586 0.0306706
0.756329 0.393393 0.0324407
0.776043 0.398764 0.0340124
0.794903 0.40444 0.0370031
0.812345 0.41001 0.0386358
0.829313 0.415732 0.0408942
0.84567 0.421622 0.0425574
0.861036 0.427924 0.0434424
0.874754 0.4336 0.0459602
0.881132 0.432731 0.0432441
0.883574 0.431022 0.0424353
0.048188 0.305241 0.134752
0.047837 0.309636 0.132357
0.0514992 0.317617 0.132143
0.0566873 0.326619 0.130007
0.0657054 0.337209 0.126574
0.103136 0.341741 0.114244
0.163867 0.341955 0.100038
0.220066 0.345815 0.091249
0.270604 0.350759 0.0813611
0.318257 0.356191 0.0712749
0.361624 0.362478 0.0636759
0.401724 0.368399 0.0564279
0.441032 0.373907 0.049958
0.478538 0.378607 0.0435798
0.514916 0.382864 0.0375677
0.549599 0.387182 0.0338445
0.582391 0.391653 0.0306859
0.613169 0.396536 0.0281987
0.64152 0.401144 0.026627
0.668391 0.405783 0.0273289
0.694377 0.41033 0.0281987
0.719585 0.414939 0.0291142
0.743145 0.41973 0.0297704
0.765148 0.424262 0.0315099
0.785229 0.429297 0.0345922
0.80412 0.434775 0.036759
0.822232 0.440482 0.0399023
0.839292 0.446036 0.0415808
0.855604 0.451835 0.0427405
0.871138 0.458 0.0431678
0.884489 0.463416 0.0423438
0.891249 0.462852 0.037995
0.894102 0.461112 0.0380255
0.0536049 0.335882 0.141405
0.0530556 0.340642 0.138094
0.0563363 0.348837 0.136797
0.0623178 0.358221 0.131426
0.0726482 0.369421 0.123415
0.0886244 0.380529 0.12166
0.159777 0.37467 0.10605
0.218372 0.37702 0.0967117
0.270497 0.381613 0.0867018
0.319188 0.386831 0.0761425
0.363424 0.392615 0.0655222
0.405005 0.39852 0.0587778
0.444083 0.404028 0.0530251
0.48275 0.40911 0.0469825
0.519661 0.413428 0.0407874
0.55465 0.417716 0.0357824
0.587686 0.422187 0.032105
0.618463 0.4271 0.0297551
0.647913 0.432013 0.0283665
0.674922 0.436637 0.0270085
0.700969 0.441093 0.026566
0.726192 0.445655 0.0269474
0.750088 0.450431 0.0276799
0.772732 0.455222 0.0290532
0.792844 0.460044 0.0318456
0.812192 0.465217 0.0355383
0.830411 0.470665 0.0378271
0.84802 0.476478 0.0412299
0.864546 0.482124 0.0421149
0.880232 0.488396 0.0427253
0.893263 0.493339 0.0411841
0.900649 0.493263 0.0365759
0.903899 0.491676 0.0332341
0.0605631 0.365881 0.146715
0.0602274 0.37116 0.142153
0.0641337 0.380026 0.136522
0.0690318 0.3897 0.130159
0.0757153 0.400351 0.126497
0.0904707 0.411734 0.126421
0.154559 0.408133 0.112551
0.217884 0.40795 0.101198
0.270375 0.411933 0.0914778
0.319265 0.417075 0.0809491
0.36437 0.422507 0.0706645
0.406638 0.428077 0.0618906
0.446647 0.433692 0.0552377
0.485084 0.438804 0.0500038
0.523354 0.443458 0.0438544
0.558984 0.447807 0.0382544
0.592309 0.452308 0.033814
0.623316 0.457206 0.030518
0.652705 0.462089 0.0300298
0.680659 0.466926 0.0296178
0.706996 0.471427 0.0289616
0.732189 0.475944 0.0283665
0.756039 0.480629 0.0275731
0.778851 0.485344 0.0273442
0.799756 0.490471 0.0299229
0.819242 0.495399 0.03299
0.837919 0.500603 0.0366064
0.855665 0.506172 0.0396277
0.872709 0.512184 0.0421912
0.888533 0.518288 0.042771
0.901366 0.52285 0.04065
0.909377 0.523384 0.0341039
0.913024 0.521904 0.0290684
0.0664988 0.395331 0.151827
0.066331 0.401328 0.145281
0.0696117 0.410468 0.138552
0.0738384 0.420386 0.130892
0.0821241 0.43064 0.131029
0.0941634 0.441947 0.132326
0.148013 0.44152 0.121065
0.216373 0.439078 0.106905
0.269749 0.441718 0.0960708
0.318135 0.446342 0.0859998
0.364309 0.451789 0.0742809
0.407034 0.457038 0.0654459
0.44799 0.462409 0.0580301
0.48748 0.467613 0.0515297
0.525597 0.472343 0.046952
0.562631 0.476982 0.0418097
0.596796 0.481682 0.0380865
0.628016 0.486595 0.035523
0.657496 0.491493 0.0337987
0.685435 0.496345 0.0324559
0.712612 0.50106 0.0313115
0.738186 0.505653 0.0304723
0.76199 0.510262 0.0299687
0.784787 0.5149 0.0298161
0.805661 0.519905 0.0296178
0.825803 0.52517 0.0314336
0.844678 0.530144 0.035111
0.862715 0.535378 0.0395819
0.879988 0.5411 0.0417029
0.89633 0.547387 0.043183
0.909026 0.551629 0.0414588
0.917601 0.552544 0.0350195
0.921813 0.551507 0.0311284
0.0735027 0.424033 0.156786
0.0740978 0.43122 0.145846
0.0773632 0.440513 0.138949
0.0808728 0.449714 0.137911
0.0860914 0.459876 0.13843
0.0975509 0.47126 0.138216
0.134157 0.477394 0.133165
0.212451 0.469322 0.112947
0.269688 0.470603 0.100877
0.316838 0.474937 0.0915236
0.362737 0.480156 0.081529
0.407523 0.485405 0.0717479
0.44892 0.490562 0.0632029
0.489021 0.495659 0.0567636
0.528084 0.500496 0.0517891
0.565194 0.505241 0.0464637
0.600717 0.510201 0.042649
0.632776 0.515206 0.0400244
0.662379 0.520104 0.0379644
0.690364 0.524987 0.0369268
0.717525 0.529732 0.0356451
0.743679 0.534417 0.0333715
0.767895 0.539071 0.0327611
0.790677 0.543557 0.0330663
0.811612 0.548394 0.033341
0.83183 0.553429 0.0329595
0.851286 0.558556 0.0349584
0.869535 0.5635 0.0381781
0.887114 0.568902 0.0417945
0.9037 0.575051 0.0436713
0.91664 0.579309 0.0432136
0.92575 0.58056 0.0372473
0.930526 0.579965 0.0349126
0.0804913 0.451957 0.161288
0.081178 0.459937 0.150622
0.0833448 0.469017 0.146258
0.0859083 0.478096 0.146914
0.0913252 0.488396 0.14728
0.102678 0.499641 0.147173
0.130434 0.507591 0.142779
0.204028 0.500175 0.12256
0.26862 0.498527 0.1075
0.316609 0.502556 0.0972305
0.361425 0.507561 0.0881514
0.406271 0.512688 0.0778668
0.449866 0.517739 0.069398
0.490501 0.522545 0.0616465
0.530159 0.527337 0.0555581
0.568002 0.53228 0.0511177
0.603571 0.53724 0.0469673
0.63679 0.542458 0.0449836
0.667201 0.547463 0.0437934
0.695201 0.552254 0.04271
0.722469 0.557 0.0415351
0.748623 0.561578 0.0400397
0.773358 0.566262 0.0384833
0.796597 0.570779 0.0381628
0.817502 0.575479 0.0377661
0.837674 0.580346 0.0372931
0.857328 0.585336 0.0373693
0.876173 0.590448 0.0407874
0.89398 0.59556 0.0439155
0.910857 0.601465 0.0453956
0.924254 0.605859 0.0472572
0.933623 0.607477 0.0420386
0.938064 0.607477 0.0403449
0.0877699 0.47924 0.164569
0.0886244 0.488029 0.155306
0.0902113 0.496742 0.155779
0.0930495 0.505913 0.156359
0.0967117 0.516106 0.156344
0.10486 0.527321 0.15584
0.12755 0.536339 0.152377
0.200168 0.528664 0.131319
0.264668 0.526238 0.115572
0.31548 0.529381 0.10428
0.360937 0.53402 0.094667
0.40499 0.538964 0.0859998
0.44889 0.543862 0.0768444
0.491508 0.548669 0.0687724
0.531579 0.553307 0.0627604
0.569924 0.55819 0.0577401
0.606088 0.563226 0.0526284
0.639353 0.568368 0.0510414
0.670954 0.57351 0.0501869
0.699855 0.578439 0.0487068
0.727138 0.583108 0.0468757
0.753353 0.587655 0.0456703
0.778134 0.592279 0.043946
0.80177 0.596841 0.0437324
0.82324 0.601648 0.0437476
0.843442 0.606378 0.0430152
0.863127 0.611231 0.0415808
0.8822 0.616175 0.0424506
0.900633 0.621286 0.0455482
0.917784 0.626917 0.0485695
0.931395 0.631113 0.0497597
0.94136 0.633341 0.0471351
0.944701 0.63389 0.0475776
0.0943923 0.505852 0.169894
0.0949264 0.515099 0.166552
0.0958419 0.523873 0.166796
0.0979934 0.533013 0.167132
0.100908 0.543206 0.166781
0.108156 0.55433 0.165972
0.127794 0.563455 0.162478
0.193759 0.556588 0.142382
0.259831 0.553155 0.124117
0.312993 0.555779 0.11249
0.35938 0.560021 0.102296
0.403555 0.564691 0.0932479
0.447288 0.569421 0.0847028
0.490715 0.574075 0.0767834
0.532555 0.578775 0.0695048
0.571206 0.58349 0.0632181
0.607675 0.588479 0.059144
0.641367 0.593713 0.0567178
0.673152 0.59884 0.0549935
0.703136 0.603967 0.0551308
0.731167 0.608713 0.0538796
0.757488 0.613199 0.0525368
0.782177 0.617746 0.0513924
0.805768 0.622202 0.05066
0.827649 0.626993 0.0510872
0.848417 0.631739 0.0514992
0.868193 0.636439 0.0504311
0.887449 0.641291 0.0495918
0.906355 0.646296 0.0504463
0.92369 0.65182 0.053315
0.936095 0.656291 0.0564431
0.945708 0.659022 0.0568704
0.949767 0.659586 0.0575875
0.101213 0.532753 0.177798
0.100908 0.54168 0.177462
0.101274 0.55053 0.177462
0.102815 0.559655 0.177646
0.106538 0.569772 0.177264
0.110964 0.580743 0.176547
0.12607 0.58996 0.173007
0.188785 0.583566 0.153185
0.254124 0.579965 0.135225
0.308858 0.581567 0.121736
0.356832 0.585428 0.110948
0.401617 0.589822 0.101091
0.445396 0.594339 0.0924849
0.488716 0.598871 0.0838483
0.531395 0.603433 0.0768902
0.571725 0.608179 0.0706493
0.608133 0.612985 0.0651865
0.642222 0.618173 0.0623484
0.674632 0.623346 0.0620432
0.704906 0.628458 0.0615702
0.733959 0.633295 0.0609445
0.760952 0.637827 0.0602426
0.785672 0.642298 0.06009
0.809323 0.646708 0.0599985
0.831403 0.651484 0.06009
0.852644 0.65626 0.0603647
0.872953 0.660975 0.0601511
0.892317 0.665705 0.0597391
0.911299 0.670558 0.0602121
0.928588 0.676143 0.0616922
0.938842 0.680583 0.063798
0.948684 0.683482 0.0653697
0.954376 0.684321 0.0672465
0.10869 0.558724 0.188479
0.108095 0.567712 0.187762
0.108309 0.576516 0.18761
0.109087 0.585595 0.18761
0.10988 0.595636 0.18703
0.1131 0.606577 0.186221
0.125948 0.615946 0.183078
0.182849 0.610391 0.164202
0.245579 0.606195 0.145861
0.303563 0.606821 0.131853
0.353521 0.610193 0.119997
0.399115 0.614252 0.110445
0.443 0.61854 0.100984
0.486351 0.622858 0.0919051
0.529152 0.627222 0.0845045
0.570031 0.631769 0.0781262
0.608087 0.636667 0.0728161
0.642451 0.641749 0.0684062
0.675135 0.646952 0.0682536
0.705959 0.652094 0.0686046
0.735317 0.656947 0.068986
0.763012 0.661555 0.069337
0.788495 0.666087 0.0700084
0.81236 0.670466 0.0691844
0.834684 0.675212 0.0690623
0.856229 0.679957 0.0697642
0.87718 0.684672 0.0706035
0.897002 0.689311 0.0699016
0.915526 0.694209 0.0693828
0.930877 0.699931 0.0712596
0.941543 0.704494 0.0742046
0.951614 0.707073 0.0750439
0.958938 0.708202 0.0766918
0.114916 0.58381 0.199481
0.113985 0.592828 0.198444
0.113802 0.601617 0.197971
0.114183 0.61062 0.197711
0.114839 0.620584 0.197009
0.11722 0.631357 0.196078
0.128084 0.640772 0.193179
0.176089 0.636103 0.175586
0.238422 0.630961 0.156619
0.29752 0.630884 0.141558
0.349676 0.633875 0.129992
0.396216 0.637613 0.119326
0.440711 0.641611 0.109957
0.484154 0.64567 0.101381
0.526879 0.649821 0.0932021
0.567864 0.654169 0.0862135
0.606806 0.658976 0.0801862
0.642557 0.664195 0.0768749
0.675425 0.669337 0.075349
0.706722 0.674464 0.0749218
0.736416 0.679316 0.0759289
0.764401 0.683894 0.077409
0.790677 0.688518 0.0780957
0.815579 0.692973 0.0781872
0.838224 0.697688 0.0783246
0.860014 0.702434 0.079469
0.881025 0.707225 0.0802014
0.901335 0.711955 0.0800641
0.919173 0.717037 0.0796521
0.933059 0.722698 0.0825818
0.944198 0.727413 0.0856794
0.954498 0.729824 0.0862898
0.963851 0.731228 0.0856794
0.121965 0.608377 0.209461
0.120699 0.617395 0.208133
0.120195 0.626139 0.207431
0.120195 0.635065 0.207019
0.120958 0.644892 0.206134
0.122271 0.655543 0.204974
0.128511 0.66508 0.202457
0.174853 0.660975 0.18584
0.231098 0.655955 0.167208
0.289387 0.654322 0.151568
0.344182 0.656931 0.139559
0.392767 0.66038 0.129107
0.437995 0.664057 0.119554
0.481514 0.667826 0.110307
0.524041 0.671717 0.102281
0.565209 0.675898 0.0949874
0.604334 0.680507 0.0887922
0.64065 0.685634 0.0844892
0.67509 0.690883 0.081651
0.706493 0.695903 0.0824903
0.736416 0.700694 0.0831617
0.764981 0.705318 0.0836042
0.791791 0.710018 0.0854505
0.817761 0.714641 0.0869459
0.841489 0.719493 0.0875715
0.863691 0.724254 0.0881666
0.88481 0.729122 0.0894331
0.905119 0.733974 0.089601
0.92253 0.739467 0.090013
0.935347 0.744976 0.0937819
0.946838 0.749981 0.0974289
0.957488 0.752255 0.0980697
0.967239 0.75378 0.097734
0.129656 0.631907 0.219776
0.128054 0.640909 0.218143
0.12726 0.649561 0.217212
0.126894 0.658381 0.216556
0.126146 0.668101 0.215473
0.125872 0.678569 0.214267
0.13167 0.688273 0.212131
0.171298 0.6851 0.196735
0.222751 0.679072 0.177401
0.279576 0.676463 0.161517
0.332738 0.678614 0.149615
0.385763 0.681727 0.139422
0.433036 0.685161 0.129625
0.477058 0.68864 0.120455
0.51986 0.692287 0.11191
0.561257 0.696284 0.104143
0.600473 0.700771 0.0977188
0.637201 0.70573 0.0935378
0.672282 0.710918 0.0899977
0.70518 0.716075 0.0881819
0.735653 0.720851 0.0894484
0.764691 0.72549 0.0906233
0.792432 0.730251 0.0921492
0.819226 0.735027 0.0939345
0.844129 0.740047 0.0959029
0.867521 0.744976 0.0977035
0.888884 0.749996 0.0991073
0.908415 0.755337 0.0999161
0.925139 0.760922 0.1019
0.937774 0.766323 0.106188
0.949584 0.77171 0.110292
0.960403 0.773892 0.110842
0.970245 0.77528 0.109789
0.136858 0.654917 0.229389
0.134966 0.66389 0.227497
0.133822 0.67248 0.226413
0.132998 0.681193 0.225681
0.131853 0.690745 0.224475
0.13106 0.701045 0.223148
0.133547 0.710872 0.221241
0.16791 0.708583 0.207034
0.217899 0.701381 0.186969
0.268025 0.697948 0.170367
0.316335 0.699687 0.158648
0.370901 0.702312 0.148638
0.422019 0.705364 0.139284
0.468879 0.708644 0.130358
0.513222 0.712169 0.12224
0.554711 0.715969 0.114672
0.594263 0.720287 0.108064
0.631495 0.72517 0.103487
0.666789 0.730175 0.0999771
0.700099 0.735271 0.0978714
0.73228 0.740215 0.0968032
0.762844 0.745007 0.0986496
0.791485 0.749828 0.100267
0.819226 0.754665 0.10248
0.845136 0.759869 0.105058
0.86952 0.765194 0.107393
0.892287 0.770474 0.108888
0.911894 0.776226 0.109758
0.926375 0.781842 0.114427
0.940032 0.787182 0.119036
0.952224 0.79266 0.123217
0.963378 0.795041 0.123705
0.9729 0.796216 0.12285
0.144274 0.677852 0.239567
0.142107 0.686778 0.237415
0.140764 0.695247 0.236118
0.139681 0.703777 0.235157
0.13817 0.713176 0.233814
0.136568 0.723308 0.232425
0.137011 0.733318 0.230762
0.164981 0.732036 0.217685
0.211185 0.724102 0.19733
0.257649 0.718975 0.179492
