luts/KODAK FPE 04.cube
TITLE "Generated by Resolve"
LUT_3D_SIZE 5
0.0211948 0.0303349 0.0372473
0.200916 0.066743 0.0343938
0.462531 0.0874342 0.0196078
0.656565 0.120897 0.0385901
0.779126 0.164782 0.0853437
0.0216678 0.179034 0.0983291
0.249409 0.219928 0.0637827
0.545754 0.261555 0.024918
0.725551 0.291478 0.0175631
0.836362 0.329442 0.043595
0.0367285 0.391546 0.128191
0.232227 0.442786 0.0681926
0.58407 0.498146 0.042649
0.795102 0.53489 0.033341
0.91751 0.570291 0.0349126
0.0631876 0.570306 0.153323
0.140215 0.627802 0.119081
0.571679 0.680964 0.0866255
0.828748 0.731746 0.0959029
0.957504 0.76733 0.10515
0.0869154 0.723049 0.312245
0.185016 0.756512 0.213474
0.3738 0.783505 0.197406
0.485649 0.817075 0.237766
0.964202 0.943069 0.37818
0.031632 0.0435798 0.178851
0.226505 0.0738689 0.209781
0.506096 0.0791638 0.229648
0.670878 0.115908 0.245945
0.786374 0.156252 0.264286
0.0118563 0.212924 0.263844
0.227008 0.245136 0.266697
0.549706 0.268849 0.254612
0.724575 0.286564 0.255375
0.832609 0.322606 0.262104
0.0201572 0.4224 0.307683
0.109407 0.481758 0.303609
0.564965 0.515694 0.275532
0.779416 0.540871 0.262516
0.897627 0.5794 0.259571
0.0419776 0.585336 0.351202
0.0458381 0.651743 0.337133
0.536187 0.691234 0.280491
0.803098 0.736202 0.271748
0.952575 0.773754 0.27219
0.0633402 0.731517 0.469718
0.068574 0.778607 0.454643
0.335622 0.789181 0.428061
0.452567 0.816968 0.459998
0.96556 0.943481 0.592081
0.088838 0.0715038 0.378012
0.275151 0.088365 0.416449
0.504387 0.0970016 0.42797
0.686259 0.134356 0.447288
0.809735 0.184482 0.474983
0.0157473 0.253376 0.463004
0.248798 0.288701 0.483024
0.542351 0.299001 0.487846
0.736904 0.308797 0.48571
0.841459 0.349233 0.495674
0.0131991 0.456458 0.52076
0.0289006 0.524575 0.53959
0.541543 0.543801 0.518563
0.769802 0.563851 0.516976
0.884321 0.583902 0.517464
0.0327153 0.613443 0.55407
0.0269322 0.68217 0.558984
0.493263 0.723812 0.533837
0.785061 0.762997 0.543664
0.93225 0.792279 0.539422
0.0581369 0.737987 0.594736
0.0435187 0.790295 0.592889
0.316518 0.799817 0.570703
0.435676 0.826535 0.598856
0.970916 0.958526 0.724132
0.148531 0.154223 0.532448
0.31397 0.161288 0.565133
0.534081 0.163287 0.586664
0.696147 0.176608 0.603784
0.830259 0.227848 0.638331
0.105882 0.298436 0.609705
0.271977 0.346044 0.631998
0.556283 0.34815 0.638498
0.73164 0.341466 0.652598
0.852964 0.386328 0.66537
0.0209506 0.494392 0.665995
0.123568 0.558846 0.694362
0.54786 0.573632 0.684703
0.764446 0.586435 0.69514
0.893599 0.603189 0.688548
0.0318608 0.642329 0.707713
0.02121 0.712001 0.724727
0.481422 0.750927 0.707622
0.771435 0.78613 0.720211
0.932418 0.795666 0.717723
0.059678 0.740215 0.703716
0.0442512 0.792691 0.706401
0.305715 0.806302 0.689296
0.430701 0.837797 0.716564
0.979965 0.973663 0.821576
0.211749 0.345892 0.702937
0.324514 0.3785 0.710506
0.540764 0.370321 0.746166
0.736706 0.360128 0.782071
0.862181 0.370214 0.819455
0.198459 0.468803 0.750866
0.256031 0.526467 0.771984
0.541955 0.530495 0.778698
0.735714 0.532021 0.797772
0.852689 0.54139 0.815808
0.210056 0.616968 0.805692
0.228595 0.67808 0.829923
0.54522 0.686503 0.816327
0.743893 0.696849 0.833448
0.882872 0.694087 0.844465
0.255711 0.742061 0.86331
0.260899 0.803891 0.87863
0.563745 0.822263 0.856794
0.769512 0.842634 0.86833
0.931655 0.835828 0.882948
0.0645304 0.818341 0.900862
0.0487678 0.869245 0.904616
0.298817 0.8916 0.890852
0.472831 0.941604 0.918944
0.983551 0.982147 0.938262
