luts/KODAK FPE 03.cube
TITLE "Generated by Resolve"
LUT_3D_SIZE 5
0.0150912 0.0211032 0.0270542
0.195926 0.0619821 0.0287633
0.466346 0.0941634 0.0256504
0.662257 0.13019 0.0478676
0.782223 0.172137 0.0926986
0.0284886 0.183795 0.101946
0.257816 0.226246 0.0694438
0.552026 0.267796 0.0277867
0.740871 0.30808 0.0330358
0.849958 0.344488 0.0617227
0.0735027 0.424033 0.156786
0.269688 0.470603 0.100877
0.600717 0.510201 0.042649
0.811612 0.548394 0.033341
0.930526 0.579965 0.0349126
0.129656 0.631907 0.219776
0.222751 0.679072 0.177401
0.600473 0.700771 0.0977188
0.844129 0.740047 0.0959029
0.970245 0.77528 0.109789
0.135256 0.763989 0.34818
0.243 0.79115 0.255406
0.394736 0.793683 0.216678
0.496162 0.81883 0.24802
0.964202 0.953323 0.398215
0.031632 0.0426337 0.170428
0.224369 0.0724346 0.202808
0.510857 0.0866255 0.2309
0.677226 0.126528 0.249546
0.792721 0.167437 0.267918
0.0192416 0.217899 0.26305
0.236561 0.251286 0.267597
0.557885 0.27628 0.256748
0.745464 0.307973 0.271138
0.85127 0.341848 0.275364
0.0555886 0.453208 0.333257
0.161959 0.51342 0.330678
0.5841 0.528695 0.283711
0.800214 0.557534 0.273945
0.91397 0.591821 0.266178
0.108537 0.645197 0.406012
0.136584 0.712978 0.393805
0.569162 0.712978 0.297322
0.825376 0.749905 0.272801
0.965118 0.78439 0.261509
0.110506 0.77055 0.50042
0.134997 0.823667 0.49218
0.356466 0.795895 0.427695
0.465202 0.818524 0.454261
0.96556 0.948425 0.589441
0.0942092 0.0768597 0.372457
0.279133 0.0925002 0.409476
0.512932 0.108309 0.427451
0.697017 0.149508 0.45008
0.819165 0.199039 0.476341
0.0265812 0.26511 0.460975
0.264271 0.298634 0.481285
0.552621 0.308248 0.484932
0.758953 0.331197 0.495933
0.859373 0.367636 0.501656
0.0501411 0.488228 0.541039
0.0898604 0.560601 0.563897
0.559594 0.554131 0.517708
0.786938 0.575814 0.517662
0.898238 0.592966 0.515145
0.0972457 0.67097 0.599634
0.0975357 0.743542 0.608835
0.522744 0.739483 0.538949
0.799252 0.767056 0.537148
0.944366 0.794079 0.530587
0.103655 0.775937 0.618524
0.102403 0.838865 0.627939
0.338064 0.804807 0.56321
0.449149 0.827436 0.587289
0.970916 0.958206 0.711376
0.153841 0.159533 0.522972
0.320363 0.166354 0.555154
0.544289 0.176013 0.583185
0.709026 0.19324 0.604364
0.842176 0.244266 0.638209
0.120409 0.321004 0.609094
0.301137 0.361547 0.631235
0.571649 0.362325 0.635462
0.757992 0.368322 0.661921
0.872892 0.406714 0.668238
0.059678 0.529671 0.683375
0.174456 0.603174 0.721431
0.569055 0.586084 0.680919
0.782589 0.59881 0.691051
0.907683 0.611933 0.680812
0.0964981 0.699809 0.748882
0.0902266 0.771832 0.767987
0.512001 0.76582 0.707057
0.784024 0.787518 0.70602
0.942168 0.795377 0.701793
0.106416 0.778515 0.724636
0.103639 0.841825 0.738262
0.330922 0.813138 0.680034
0.445106 0.838712 0.701274
0.979965 0.973053 0.80473
0.215122 0.349248 0.687236
0.323873 0.377234 0.688807
0.543679 0.3785 0.730678
0.74725 0.374929 0.775265
0.873289 0.386221 0.813001
0.208881 0.484504 0.742016
0.283757 0.539574 0.765484
0.547951 0.533104 0.761624
0.747539 0.542611 0.788205
0.860029 0.547677 0.801862
0.246906 0.65037 0.818952
0.275731 0.718334 0.850294
0.566339 0.697368 0.808377
0.759197 0.705409 0.822797
0.89366 0.698787 0.829877
0.31429 0.794232 0.89662
0.325093 0.85893 0.91429
0.595026 0.836576 0.853071
0.783154 0.844495 0.851865
0.94139 0.835157 0.863859
0.110109 0.855482 0.905806
0.109438 0.913176 0.908904
0.32842 0.90164 0.88307
0.487465 0.942168 0.901473
0.983551 0.984909 0.922911
