luts/KODAK FPE 02.cube
TITLE "Generated by Resolve"
LUT_3D_SIZE 33
0.0150912 0.0212253 0.0289769
0.0180209 0.0251164 0.0321355
0.0292515 0.0288243 0.0340887
0.0509804 0.0327153 0.0348058
0.0780499 0.0390478 0.0355688
0.102907 0.0468147 0.0373236
0.130846 0.0527962 0.0374609
0.162661 0.057557 0.0345464
0.196033 0.0616465 0.0302434
0.230533 0.065919 0.0262455
0.265629 0.0703746 0.024445
0.3019 0.0749523 0.0206455
0.337499 0.0792401 0.0177768
0.372381 0.082887 0.0171511
0.40589 0.0862898 0.0175174
0.438117 0.0894942 0.0205386
0.470085 0.0923323 0.0252689
0.501534 0.0940108 0.0311437
0.532647 0.0958114 0.0375372
0.557626 0.100832 0.0389715
0.581933 0.106264 0.0404974
0.60528 0.111467 0.0415656
0.627115 0.116762 0.0427863
0.64802 0.122423 0.0440223
0.666941 0.128191 0.0458839
0.684855 0.133944 0.0475929
0.701854 0.140063 0.0499733
0.717998 0.145678 0.0531319
0.73341 0.151339 0.056733
0.748211 0.156771 0.0623941
0.761959 0.161639 0.0694285
0.775128 0.165713 0.0790265
0.787793 0.169757 0.0903334
0.0156252 0.0312657 0.0364233
0.0221103 0.0332189 0.0371862
0.0339971 0.0363317 0.0382391
0.0541085 0.0392615 0.0380407
0.0788891 0.0444648 0.0377966
0.102831 0.0514534 0.0387274
0.130907 0.057084 0.0378576
0.163256 0.0613413 0.0343938
0.196902 0.0651102 0.0288396
0.231922 0.0691539 0.0233158
0.267231 0.0732433 0.0199893
0.303944 0.0776837 0.0161593
0.339864 0.0820935 0.0164645
0.374853 0.0858167 0.0173495
0.408377 0.0893873 0.0170748
0.440162 0.09308 0.0177157
0.470649 0.0971084 0.018555
0.49926 0.100908 0.0188602
0.527245 0.105028 0.0201114
0.558587 0.105653 0.0283513
0.588266 0.107469 0.0354009
0.614801 0.110582 0.0396277
0.637095 0.115831 0.0412146
0.658152 0.121538 0.0425879
0.677623 0.127855 0.0450446
0.696498 0.134783 0.0478065
0.714458 0.142031 0.0514534
0.731594 0.148882 0.0559091
0.747997 0.155795 0.0606851
0.76376 0.162417 0.0675364
0.778576 0.168643 0.0759899
0.792813 0.174029 0.0869917
0.804303 0.177279 0.0974594
0.0167239 0.0440833 0.0445869
0.0232242 0.0447547 0.0441901
0.0369879 0.0480964 0.0452888
0.0589609 0.0517128 0.0450752
0.0818647 0.0571298 0.0447547
0.105074 0.0635386 0.0450141
0.13434 0.0691539 0.0433051
0.167376 0.0733806 0.0395514
0.202152 0.0775616 0.034287
0.238148 0.0818952 0.0286412
0.274418 0.086183 0.0246128
0.311299 0.0903944 0.0175479
0.34699 0.0940566 0.0171054
0.382223 0.098024 0.0179751
0.415503 0.101244 0.0174563
0.447257 0.105318 0.0179751
0.477501 0.109453 0.0189059
0.506142 0.114153 0.0191196
0.533959 0.118654 0.0189517
0.561364 0.123278 0.0212863
0.588525 0.127687 0.0255589
0.618524 0.129305 0.0337224
0.645045 0.133349 0.0397955
0.670359 0.137392 0.045655
0.692531 0.14258 0.0508125
0.71281 0.148669 0.0552529
0.731106 0.155428 0.0595407
0.748302 0.162417 0.0643473
0.764797 0.16939 0.0692302
0.780591 0.176196 0.0760052
0.795331 0.182483 0.0846571
0.809186 0.188083 0.0954604
0.815976 0.190417 0.101228
0.0130922 0.0632944 0.0544289
0.0209354 0.0623026 0.0521553
0.0357977 0.0645151 0.0526589
0.0605478 0.0680552 0.0522621
0.0852369 0.074342 0.052903
0.109682 0.0809339 0.052491
0.140398 0.0864576 0.0497292
0.175601 0.0907149 0.044419
0.211246 0.0950637 0.0391852
0.246967 0.099855 0.0333257
0.282933 0.104799 0.0291905
0.319951 0.109804 0.0196689
0.355932 0.113832 0.0188754
0.391104 0.117769 0.0191196
0.424704 0.121447 0.0184939
0.456474 0.125429 0.0189059
0.486992 0.130022 0.0193484
0.515435 0.134829 0.0194553
0.542977 0.140108 0.0191196
0.569863 0.145403 0.0203708
0.595972 0.150393 0.0234073
0.621683 0.155535 0.0267796
0.646036 0.160525 0.0310063
0.669596 0.165545 0.0354314
0.693812 0.169558 0.0424659
0.715663 0.174578 0.0491798
0.735775 0.179995 0.055436
0.753506 0.186816 0.0610666
0.770367 0.193408 0.0662547
0.785931 0.200046 0.0724651
0.800137 0.206714 0.0806134
0.811658 0.211872 0.0894484
0.813199 0.216022 0.0894484
0.0144503 0.0832837 0.0648508
0.016556 0.0839094 0.0638743
0.0370489 0.0840009 0.0620737
0.0633402 0.0865339 0.061265
0.0902113 0.0933547 0.0620432
0.116075 0.100862 0.0623636
0.147829 0.106325 0.0589609
0.184558 0.110704 0.0538338
0.223377 0.115587 0.0473182
0.261402 0.121233 0.0408942
0.297871 0.126909 0.0355993
0.333989 0.132296 0.0249332
0.36907 0.136721 0.0212253
0.403449 0.140642 0.0205386
0.436667 0.144335 0.0199893
0.468544 0.148379 0.0200656
0.499031 0.15314 0.0198062
0.527398 0.158114 0.0193027
0.554543 0.16318 0.0191348
0.581064 0.168368 0.0211643
0.606897 0.17351 0.0234531
0.632044 0.178546 0.0267643
0.655879 0.184237 0.0301671
0.678706 0.189899 0.033341
0.699519 0.196262 0.0372168
0.719219 0.202686 0.041413
0.737957 0.209079 0.0462043
0.755825 0.215488 0.0515602
0.772564 0.222065 0.0568246
0.787854 0.228733 0.0623026
0.801587 0.235706 0.0698863
0.8112 0.240009 0.0770428
0.814404 0.24155 0.0789197
0.018677 0.104509 0.0759594
0.0184024 0.105486 0.0751659
0.0326543 0.108232 0.0758373
0.0656443 0.107866 0.0723278
0.0950027 0.114015 0.0726787
0.123003 0.12221 0.0736858
0.155947 0.128466 0.0711528
0.19408 0.133318 0.0655375
0.233982 0.138628 0.0588235
0.274388 0.144381 0.0516823
0.313939 0.150774 0.0438544
0.351217 0.156832 0.0322423
0.386526 0.16173 0.0254673
0.419883 0.165805 0.0238041
0.452369 0.169574 0.0225223
0.483818 0.173617 0.0208133
0.513588 0.178042 0.0202487
0.541238 0.182696 0.021088
0.568215 0.187442 0.0217746
0.594278 0.192645 0.0232853
0.61973 0.197726 0.0252079
0.644709 0.203006 0.0278172
0.668482 0.20853 0.0307164
0.691127 0.214359 0.0337072
0.71165 0.2206 0.0369268
0.73109 0.226917 0.0405585
0.749569 0.233509 0.0450141
0.767086 0.240009 0.0492409
0.783581 0.246632 0.0539254
0.798779 0.253162 0.0597848
0.812482 0.259754 0.0668498
0.821866 0.263447 0.0733043
0.824094 0.263844 0.0747997
0.0213016 0.128649 0.0862135
0.0209201 0.129778 0.0852216
0.0321508 0.134218 0.0872663
0.0625467 0.134813 0.0843671
0.0956436 0.13901 0.0829786
0.12636 0.147341 0.0835431
0.162097 0.154299 0.0814984
0.201587 0.15996 0.076112
0.242283 0.16553 0.0687114
0.283757 0.171527 0.0586099
0.324315 0.178119 0.0465858
0.363745 0.184268 0.0361639
0.401724 0.189899 0.0302281
0.435401 0.194049 0.0276493
0.468421 0.197986 0.0250553
0.498924 0.201846 0.0237125
0.527825 0.206027 0.0226139
0.55491 0.210529 0.0223239
0.581338 0.215381 0.0223697
0.606683 0.220478 0.0229191
0.631754 0.225589 0.0242008
0.656367 0.230579 0.0261387
0.679622 0.235981 0.0287633
0.701946 0.241672 0.0314488
0.722423 0.247898 0.0340124
0.741787 0.254124 0.0376287
0.760037 0.260487 0.0417945
0.777386 0.266789 0.0462348
0.793881 0.273365 0.0505684
0.809201 0.279973 0.0561227
0.822934 0.286458 0.0624094
0.8318 0.289601 0.0679332
0.833677 0.28864 0.070634
0.024033 0.155871 0.0957504
0.0238041 0.157763 0.0948806
0.0315251 0.163943 0.0978714
0.053193 0.167147 0.0967269
0.0911574 0.16968 0.0933242
0.126375 0.17673 0.0920729
0.165057 0.18378 0.0888075
0.207187 0.189715 0.0827802
0.248676 0.195789 0.0727092
0.29073 0.201953 0.0604562
0.332265 0.20856 0.0455482
0.371557 0.213809 0.0391089
0.409583 0.219348 0.0332952
0.445457 0.22417 0.0299535
0.480476 0.228687 0.0267948
0.511635 0.232746 0.0238499
0.541268 0.237003 0.0225376
0.568215 0.241459 0.0220188
0.594003 0.246235 0.02121
0.618952 0.251133 0.0212253
0.643519 0.25594 0.0227817
0.667216 0.260822 0.024094
0.689906 0.265995 0.0257725
0.712032 0.271427 0.027924
0.732174 0.277516 0.030518
0.7514 0.28368 0.033753
0.769741 0.289967 0.037644
0.787045 0.296284 0.041062
0.80351 0.302525 0.0454414
0.818738 0.308873 0.0502022
0.832502 0.315221 0.0561379
0.840681 0.317067 0.0603799
0.842786 0.316045 0.0635843
0.0255283 0.184695 0.105074
0.025742 0.187701 0.104631
0.0311437 0.194827 0.107759
0.0457313 0.200641 0.108354
0.0822156 0.202899 0.104005
0.124147 0.208209 0.100649
0.165499 0.21442 0.0952621
0.210422 0.220233 0.0869001
0.254826 0.227024 0.0732586
0.297032 0.233555 0.0610361
0.33843 0.240192 0.0464485
0.378439 0.245548 0.0396277
0.41677 0.250614 0.0347601
0.453178 0.255329 0.0311131
0.488411 0.259785 0.0272679
0.521706 0.264195 0.0256504
0.55259 0.26836 0.024918
0.580056 0.272816 0.0236057
0.606638 0.277378 0.0223697
0.631449 0.282124 0.0215457
0.655818 0.2869 0.0221714
0.679469 0.291768 0.0233463
0.701717 0.296773 0.024506
0.723186 0.302068 0.0259251
0.743191 0.307881 0.0279393
0.762234 0.314 0.0301518
0.780255 0.320256 0.0330816
0.79765 0.326223 0.0374456
0.81413 0.332418 0.0411994
0.829343 0.338491 0.0451667
0.843107 0.344717 0.0499123
0.850553 0.34551 0.0534218
0.852598 0.344274 0.0559091
0.0278019 0.214115 0.114
0.0284581 0.21825 0.114015
0.0327916 0.225559 0.116487
0.041001 0.233692 0.118669
0.0717632 0.237247 0.114565
0.116487 0.24062 0.108553
0.164538 0.246098 0.101106
0.212604 0.251926 0.0887465
0.259327 0.258335 0.0754711
0.303426 0.265476 0.0610819
0.344213 0.271855 0.0502632
0.384344 0.27718 0.0428321
0.422919 0.282094 0.0378119
0.46041 0.286778 0.0333257
0.495842 0.291112 0.0291295
0.529381 0.295308 0.0267796
0.560845 0.299626 0.0255131
0.59028 0.304295 0.0247501
0.617655 0.30898 0.0237125
0.643137 0.313619 0.0223545
0.667979 0.318196 0.022446
0.691508 0.32285 0.0231174
0.714092 0.327825 0.0244907
0.7355 0.33283 0.0254368
0.755032 0.33843 0.0269322
0.773724 0.344228 0.0293736
0.791699 0.350164 0.0323949
0.808927 0.356313 0.0351415
0.825422 0.362188 0.038056
0.840635 0.368383 0.0412451
0.854459 0.374395 0.0463264
0.861189 0.374182 0.0460822
0.863111 0.372793 0.0489662
0.0328985 0.244724 0.123217
0.0329595 0.248707 0.12253
0.0376135 0.256199 0.124514
0.0442969 0.264637 0.126207
0.0600748 0.273152 0.126162
0.10753 0.274052 0.116487
0.162036 0.278386 0.106477
0.214115 0.284245 0.0887465
0.263508 0.290227 0.0736248
0.308263 0.296727 0.0620279
0.350103 0.303288 0.0543679
0.390143 0.308888 0.0459297
0.429053 0.313893 0.0392767
0.466575 0.318471 0.0342565
0.502831 0.322789 0.0294347
0.536873 0.326986 0.0276799
0.568643 0.331197 0.0265202
0.598428 0.335683 0.0255589
0.626825 0.340322 0.0242161
0.653758 0.345052 0.0244144
0.678614 0.349416 0.0237583
0.702846 0.353796 0.0242466
0.725475 0.358526 0.0252995
0.747158 0.363424 0.0263066
0.76701 0.368917 0.0278172
0.785519 0.374426 0.0289769
0.803174 0.380163 0.031281
0.820371 0.385946 0.0339055
0.836759 0.39205 0.0360571
0.852155 0.397971 0.0388495
0.865995 0.404089 0.0412604
0.87216 0.403388 0.0407721
0.87425 0.401907 0.0429999
0.0385138 0.275746 0.13135
0.0382391 0.279927 0.1299
0.0423133 0.287587 0.131243
0.0479286 0.296269 0.131914
0.0568856 0.306386 0.131975
0.088014 0.313695 0.127199
0.158755 0.312001 0.105516
0.214145 0.316899 0.0899825
0.264561 0.322103 0.0762036
0.311833 0.328084 0.0651408
0.35404 0.334432 0.0567483
0.395071 0.340459 0.0493019
0.433829 0.345525 0.0425574
0.471412 0.349996 0.0363165
0.507851 0.354147 0.0311437
0.542626 0.358358 0.0284733
0.575479 0.362676 0.0272526
0.605341 0.367102 0.026276
0.633951 0.371603 0.0251469
0.661051 0.376181 0.0241703
0.687175 0.380636 0.0242161
0.711864 0.385031 0.0238499
0.734997 0.389624 0.0242466
0.757 0.394354 0.0257267
0.776883 0.399664 0.0272068
0.79588 0.40528 0.0301366
0.813458 0.410788 0.0317388
0.830533 0.416449 0.0339361
0.846998 0.422309 0.0355688
0.862409 0.428595 0.0363928
0.876143 0.434287 0.0388495
0.882429 0.433494 0.035935
0.884688 0.431922 0.0349126
0.0437781 0.306676 0.138872
0.0432288 0.311116 0.136767
0.0467079 0.319081 0.137148
0.0515602 0.327932 0.13666
0.060441 0.338399 0.134249
0.0800488 0.350347 0.130526
0.149248 0.347906 0.107698
0.212879 0.349401 0.0915999
0.264958 0.354177 0.0786145
0.313542 0.359258 0.0678721
0.357519 0.365347 0.0596933
0.398062 0.371115 0.052018
0.437827 0.376471 0.0451514
0.475746 0.381033 0.0384222
0.512566 0.385138 0.0320439
0.547662 0.389303 0.030396
0.580789 0.393652 0.0289006
0.611856 0.398444 0.0272526
0.640467 0.402945 0.0259556
0.667597 0.407492 0.026154
0.693843 0.411933 0.0263371
0.71928 0.416449 0.0261387
0.743053 0.421164 0.0253758
0.765255 0.42562 0.0254368
0.785489 0.430594 0.0272526
0.804532 0.435996 0.0293431
0.822782 0.441657 0.0324407
0.839948 0.447181 0.0340429
0.856367 0.452934 0.0351568
0.871946 0.459083 0.035523
0.885283 0.464515 0.0346227
0.891997 0.464012 0.0301366
0.894636 0.462409 0.0299229
0.0488289 0.337453 0.1458
0.0480812 0.342229 0.143008
0.0510719 0.350393 0.142626
0.0564431 0.35938 0.140871
0.0663615 0.370108 0.136294
0.082536 0.382727 0.126299
0.141329 0.383307 0.109941
0.207889 0.382483 0.0960708
0.26363 0.385641 0.0839704
0.313329 0.390509 0.0725872
0.358419 0.395987 0.0612802
0.400504 0.401724 0.054078
0.440085 0.407065 0.0478828
0.479271 0.411963 0.0413977
0.516625 0.416144 0.0351415
0.55201 0.420279 0.0329137
0.585382 0.424628 0.031342
0.616449 0.42945 0.0297551
0.646159 0.434256 0.0283665
0.673457 0.438773 0.0270085
0.699779 0.443137 0.026566
0.725246 0.447593 0.026276
0.749355 0.452293 0.0257267
0.772213 0.457008 0.0256504
0.792493 0.461769 0.0263523
0.811978 0.46688 0.0275578
0.830335 0.472267 0.0297856
0.848066 0.478019 0.0331579
0.864683 0.483635 0.0339666
0.88043 0.489891 0.0344701
0.893462 0.49485 0.0328832
0.900771 0.494835 0.0281224
0.903822 0.493416 0.0285039
0.0553445 0.367529 0.151904
0.0546883 0.372778 0.148348
0.0579995 0.381231 0.146441
0.0627451 0.390707 0.141497
0.0702068 0.401846 0.133211
0.0857252 0.414328 0.125536
0.12813 0.420386 0.118791
0.205646 0.414328 0.100435
0.262242 0.416617 0.0886549
0.3122 0.421378 0.0772717
0.358236 0.426474 0.0662699
0.401144 0.431846 0.0569314
0.441718 0.437263 0.0498054
0.48072 0.442176 0.0440986
0.519478 0.446647 0.0388647
0.555535 0.450858 0.0363165
0.589273 0.455207 0.033814
0.620584 0.460014 0.030518
0.650233 0.46479 0.0300298
0.678477 0.469535 0.0296178
0.705089 0.47393 0.0289616
0.730556 0.478355 0.0283665
0.75462 0.482948 0.0275731
0.777646 0.487587 0.0269169
0.798718 0.492638 0.0275731
0.818372 0.497505 0.0282444
0.837201 0.502647 0.0291447
0.85507 0.508156 0.0309911
0.872206 0.514122 0.0334783
0.888075 0.520226 0.0339666
0.900908 0.524819 0.031754
0.908873 0.525399 0.0250553
0.912398 0.524041 0.0281376
0.0607767 0.397009 0.158145
0.0601205 0.402808 0.153918
0.0630808 0.411658 0.149538
0.0671702 0.421317 0.143587
0.0772869 0.432929 0.131991
0.0898451 0.444968 0.128069
0.12134 0.454109 0.126177
0.197833 0.448249 0.108263
0.260304 0.447089 0.0931716
0.309926 0.451255 0.0822156
0.357107 0.456336 0.069749
0.400519 0.461357 0.0603037
0.44213 0.466499 0.0523232
0.482261 0.471489 0.0453193
0.520897 0.476036 0.0419013
0.558404 0.480507 0.0404517
0.592981 0.485069 0.0380865
0.624552 0.489845 0.035523
0.654322 0.494652 0.0337987
0.682551 0.499397 0.0324559
0.710002 0.504021 0.0313115
0.735851 0.508507 0.0304723
0.759899 0.513024 0.0299687
0.78291 0.517586 0.0298161
0.803952 0.522515 0.0296178
0.824262 0.527703 0.0297093
0.84329 0.532616 0.030869
0.861479 0.537789 0.032639
0.878843 0.543481 0.0324559
0.895232 0.549752 0.0338598
0.907973 0.554009 0.0319829
0.91635 0.555016 0.0288396
0.920211 0.554162 0.0311284
0.0672007 0.42565 0.16492
0.0669108 0.432212 0.159579
0.0702525 0.441321 0.153368
0.075349 0.451682 0.142275
0.0815442 0.462837 0.135164
0.0928664 0.47454 0.133608
0.120897 0.484398 0.131899
0.192737 0.479103 0.11426
0.257603 0.477211 0.0985733
0.307454 0.480461 0.0876783
0.354543 0.485237 0.0768139
0.400076 0.490227 0.066392
0.442191 0.49514 0.0572519
0.482994 0.499992 0.050248
0.522606 0.504646 0.0462348
0.560204 0.509224 0.044892
0.596155 0.514046 0.042649
0.628565 0.518929 0.0400244
0.658457 0.523705 0.0379644
0.686763 0.528481 0.0369268
0.714229 0.53312 0.0356451
0.740658 0.537697 0.0333715
0.765118 0.54226 0.0327611
0.788144 0.54667 0.0330663
0.809262 0.551431 0.033341
0.829633 0.55639 0.0329595
0.849256 0.561456 0.033402
0.867643 0.566339 0.0341039
0.885344 0.571694 0.0354467
0.901991 0.577844 0.0354314
0.915022 0.582086 0.0356603
0.923934 0.583429 0.0341192
0.927077 0.583383 0.0349126
0.0735485 0.453315 0.172473
0.0736553 0.460731 0.166217
0.0767071 0.470344 0.156817
0.0808423 0.480751 0.146563
0.086656 0.491676 0.142596
0.0977035 0.503136 0.142229
0.120439 0.513298 0.13962
0.186114 0.509285 0.122591
0.254322 0.506172 0.105653
0.30605 0.50869 0.0933852
0.352178 0.513191 0.0833753
0.397955 0.517998 0.072343
0.442313 0.522774 0.0632486
0.48368 0.527337 0.0549172
0.523934 0.531914 0.0485695
0.562325 0.536675 0.0485237
0.598321 0.541497 0.0469673
0.631907 0.546578 0.0449836
0.662623 0.551476 0.0437934
0.690929 0.556176 0.04271
0.718517 0.5608 0.0415351
0.744976 0.56527 0.0400397
0.769955 0.569848 0.0384833
0.793439 0.574289 0.0381628
0.814527 0.578912 0.0377661
0.834897 0.583703 0.0372931
0.854688 0.588632 0.0373693
0.873686 0.593683 0.0387579
0.891646 0.598733 0.039765
0.908461 0.604669 0.0394446
0.921035 0.609323 0.0421149
0.929915 0.611109 0.0407721
0.932906 0.611612 0.0403449
0.0801404 0.480247 0.179355
0.0809339 0.48867 0.172229
0.0847486 0.499107 0.15787
0.088365 0.509194 0.15169
0.0917372 0.519615 0.151385
0.0995956 0.531029 0.150591
0.119493 0.541299 0.147951
0.181582 0.538155 0.131182
0.246891 0.535454 0.114763
0.303593 0.536171 0.100542
0.350607 0.540215 0.0898451
0.395712 0.544778 0.0803845
0.440513 0.549355 0.0705272
0.483894 0.553903 0.0618296
0.524605 0.558312 0.0552834
0.563546 0.562997 0.0536202
0.600183 0.56788 0.0524605
0.633829 0.572885 0.0510414
0.665751 0.57792 0.0501869
0.694942 0.582742 0.0487068
0.722515 0.58732 0.0468757
0.749081 0.591745 0.0456703
0.774136 0.596262 0.043946
0.798001 0.600732 0.0437324
0.819654 0.605463 0.0437476
0.84004 0.610132 0.0430152
0.859907 0.614893 0.0415808
0.879133 0.619791 0.0422217
0.897688 0.624857 0.0433356
0.9149 0.630472 0.0446784
0.926894 0.635142 0.0467384
0.934874 0.63798 0.0471351
0.93785 0.638727 0.0475776
0.0865492 0.506645 0.186404
0.0884108 0.516793 0.174914
0.0906844 0.526848 0.165072
0.093019 0.536492 0.162173
0.0956436 0.546899 0.161547
0.102571 0.558251 0.160449
0.117372 0.569512 0.158618
0.165072 0.570489 0.14609
0.239429 0.563577 0.123964
0.300191 0.563043 0.108675
0.348074 0.566735 0.0974136
0.393439 0.570962 0.0874952
0.438071 0.575372 0.078233
0.482261 0.579751 0.069688
0.524849 0.584192 0.0617838
0.56408 0.588708 0.0574502
0.601053 0.593545 0.0577554
0.635142 0.598642 0.0567178
0.667277 0.603647 0.0549935
0.697612 0.608652 0.0551308
0.725933 0.613291 0.0538796
0.752544 0.61767 0.0525368
0.777539 0.62211 0.0513924
0.801373 0.626474 0.05066
0.823468 0.631189 0.0510872
0.844404 0.635859 0.0514992
0.864363 0.640497 0.0504311
0.883696 0.645319 0.0495918
0.90222 0.650416 0.0500649
0.918288 0.656336 0.0510719
0.930404 0.66099 0.0534524
0.93875 0.664103 0.0562753
0.942321 0.664836 0.0575875
0.0936446 0.533745 0.192493
0.0952926 0.544259 0.178897
0.0963149 0.554009 0.172519
0.0975662 0.563348 0.172412
0.101015 0.573663 0.171756
0.105104 0.584848 0.170733
0.114519 0.596582 0.169207
0.156283 0.599161 0.158068
0.226398 0.593576 0.137743
0.295094 0.589319 0.117845
0.344518 0.592645 0.10602
0.39057 0.596597 0.0952468
0.435386 0.600732 0.0858473
0.479484 0.60499 0.0765698
0.522911 0.609293 0.0689708
0.563912 0.613809 0.0633707
0.600809 0.618448 0.062562
0.635294 0.623514 0.0623484
0.66807 0.628565 0.0620432
0.698695 0.633555 0.0615702
0.728115 0.63827 0.0609445
0.755398 0.64268 0.0602426
0.780392 0.647059 0.06009
0.804318 0.651377 0.0599985
0.826596 0.656062 0.06009
0.84802 0.660777 0.0603647
0.868299 0.665492 0.0601511
0.887602 0.670237 0.0597391
0.905806 0.675319 0.0602121
0.921355 0.681468 0.0606394
0.933562 0.686015 0.0612039
0.942184 0.689006 0.0638437
0.946349 0.689967 0.0672465
0.102281 0.560723 0.195026
0.102861 0.570962 0.184817
0.10309 0.580194 0.182391
0.103593 0.589441 0.182162
0.104097 0.599695 0.181247
0.106966 0.61088 0.180133
0.114504 0.622599 0.178805
0.148226 0.626978 0.169528
0.215717 0.620829 0.148821
0.288243 0.615335 0.128222
0.340185 0.617945 0.115068
0.387121 0.621515 0.10454
0.43212 0.625391 0.0942245
0.476402 0.629374 0.0844129
0.519966 0.633494 0.0763867
0.561517 0.637797 0.0694133
0.600122 0.642512 0.0690013
0.634867 0.647471 0.0683146
0.667918 0.652552 0.0682536
0.699092 0.657588 0.0686046
0.728786 0.662303 0.068986
0.756832 0.666804 0.069337
0.782589 0.671244 0.0700084
0.806714 0.675517 0.0691844
0.829236 0.680186 0.0690623
0.85098 0.684871 0.0697642
0.871839 0.689601 0.0706035
0.891051 0.694408 0.0699016
0.907866 0.699825 0.0693828
0.92369 0.705715 0.0699168
0.936584 0.710338 0.0706798
0.945541 0.712993 0.0725414
0.950347 0.714244 0.0766918
0.109346 0.586664 0.199405
0.108782 0.596414 0.193606
0.108354 0.605447 0.192523
0.108461 0.614649 0.19202
0.108827 0.624826 0.190982
0.110857 0.635828 0.189746
0.116991 0.647349 0.188388
0.143542 0.651896 0.179629
0.20618 0.646677 0.16022
0.280705 0.640116 0.138155
0.335302 0.642161 0.125093
0.383352 0.645319 0.113359
0.429053 0.648875 0.103105
0.473503 0.652583 0.0937514
0.517006 0.656443 0.0849012
0.558679 0.660578 0.0773327
0.598184 0.665187 0.074464
0.634409 0.670268 0.0753033
0.667628 0.675288 0.075349
0.699275 0.680293 0.0749218
0.729305 0.685039 0.0759289
0.75761 0.689494 0.077409
0.784207 0.694011 0.0780957
0.809354 0.698375 0.0781872
0.832227 0.703014 0.0783246
0.854139 0.707713 0.079469
0.874556 0.712688 0.0802014
0.893858 0.717739 0.0800641
0.91046 0.723201 0.0796521
0.926436 0.728878 0.0802777
0.940169 0.733623 0.0807202
0.949416 0.736095 0.0823072
0.954696 0.737682 0.0856794
0.116945 0.611902 0.20444
0.115328 0.621164 0.202762
0.114534 0.630106 0.201816
0.114275 0.639246 0.201099
0.114717 0.649287 0.199893
0.115679 0.660182 0.198398
0.11783 0.67155 0.197162
0.144121 0.676051 0.188739
0.200961 0.670863 0.169528
0.270741 0.664393 0.148592
0.328756 0.665721 0.134737
0.379019 0.668528 0.12314
0.425589 0.671733 0.112642
0.470161 0.675105 0.102571
0.513497 0.678721 0.0938582
0.555398 0.682658 0.0859388
0.595087 0.687083 0.0809644
0.631861 0.692042 0.0810712
0.666743 0.697169 0.081651
0.698482 0.702068 0.0824903
0.728756 0.706752 0.0831617
0.757656 0.711254 0.0836042
0.784756 0.715831 0.0854505
0.811017 0.720363 0.0869459
0.834958 0.725139 0.0875715
0.857114 0.729915 0.0881666
0.877729 0.734936 0.0894331
0.895888 0.74049 0.089601
0.913268 0.745983 0.090013
0.929412 0.751492 0.0902876
0.943938 0.756512 0.0908827
0.953628 0.758846 0.0924239
0.959167 0.760601 0.0959793
0.124483 0.635554 0.214603
0.12253 0.644785 0.212634
0.121462 0.653635 0.211398
0.120806 0.662669 0.210452
0.119738 0.672602 0.209064
0.119097 0.68333 0.207523
0.121538 0.69456 0.206332
0.142855 0.699275 0.198367
0.192706 0.69398 0.179385
0.25951 0.687175 0.158862
0.316564 0.687785 0.144823
0.371389 0.690211 0.13341
0.420066 0.693126 0.122637
0.465202 0.696208 0.112612
0.508843 0.699565 0.103365
0.550958 0.703319 0.0949722
0.590784 0.707591 0.0879835
0.627939 0.712413 0.087068
0.663401 0.717479 0.087541
0.696712 0.722515 0.0881819
0.72755 0.727169 0.0894484
0.756909 0.731685 0.0906233
0.784955 0.736339 0.0921492
0.812024 0.741009 0.0939345
0.837232 0.745937 0.0959029
0.8598 0.751141 0.0977035
0.880415 0.75639 0.0991073
0.898833 0.762081 0.0999161
0.916991 0.767697 0.100267
0.933684 0.773114 0.100465
0.949004 0.778515 0.101045
0.958907 0.780728 0.102464
0.964858 0.782238 0.10515
0.131563 0.658656 0.224079
0.129305 0.667872 0.221836
0.127871 0.676661 0.220462
0.126757 0.685573 0.21944
0.125307 0.695369 0.217914
0.124147 0.705913 0.216251
0.124041 0.71693 0.214939
0.142092 0.721675 0.207294
0.187701 0.716396 0.188769
0.246723 0.709255 0.168017
0.299413 0.709224 0.153918
0.355886 0.711116 0.142657
0.408484 0.713619 0.132265
0.456519 0.716487 0.122454
0.501778 0.719692 0.113588
0.543969 0.723232 0.105394
0.584115 0.727367 0.0982376
0.621851 0.732082 0.093492
0.657511 0.73698 0.0942092
0.691218 0.741939 0.0950942
0.723781 0.746761 0.0967575
0.754681 0.751431 0.0986496
0.783597 0.756161 0.100267
0.811643 0.760891 0.10248
0.837903 0.765972 0.105058
0.861067 0.771695 0.107393
0.882856 0.777295 0.108888
0.901976 0.783215 0.109667
0.920577 0.788861 0.110124
0.93817 0.794217 0.11075
0.952224 0.799741 0.113146
0.963378 0.802136 0.113619
0.97052 0.803357 0.114931
0.138842 0.681666 0.23415
0.136324 0.690837 0.231632
0.134691 0.699519 0.23003
0.133333 0.708247 0.228794
0.131487 0.717891 0.227131
0.129549 0.728252 0.225391
0.12842 0.73904 0.22388
0.142611 0.743694 0.216297
