luts/kodak_tmax_100.cube
TITLE Film LUT
LUT_3D_SIZE 5
DOMAIN_MIN 0.0 0.0 0.0
DOMAIN_MAX 1.0 1.0 1.0
0.000000 0.000000 0.000000
0.276851 0.000000 0.000000
0.540383 0.000000 0.000000
0.783265 0.000000 0.000000
1.000000 0.000000 0.000000
0.000000 0.276851 0.000000
0.276851 0.276851 0.000000
0.540383 0.276851 0.000000
0.783265 0.276851 0.000000
1.000000 0.276851 0.000000
0.000000 0.540383 0.000000
0.276851 0.540383 0.000000
0.540383 0.540383 0.000000
0.783265 0.540383 0.000000
1.000000 0.540383 0.000000
0.000000 0.783265 0.000000
0.276851 0.783265 0.000000
0.540383 0.783265 0.000000
0.783265 0.783265 0.000000
1.000000 0.783265 0.000000
0.000000 1.000000 0.000000
0.276851 1.000000 0.000000
0.540383 1.000000 0.000000
0.783265 1.000000 0.000000
1.000000 1.000000 0.000000
0.000000 0.000000 0.276851
0.276851 0.000000 0.276851
0.540383 0.000000 0.276851
0.783265 0.000000 0.276851
1.000000 0.000000 0.276851
0.000000 0.276851 0.276851
0.276851 0.276851 0.276851
0.540383 0.276851 0.276851
0.783265 0.276851 0.276851
1.000000 0.276851 0.276851
0.000000 0.540383 0.276851
0.276851 0.540383 0.276851
0.540383 0.540383 0.276851
0.783265 0.540383 0.276851
1.000000 0.540383 0.276851
0.000000 0.783265 0.276851
0.276851 0.783265 0.276851
0.540383 0.783265 0.276851
0.783265 0.783265 0.276851
1.000000 0.783265 0.276851
0.000000 1.000000 0.276851
0.276851 1.000000 0.276851
0.540383 1.000000 0.276851
0.783265 1.000000 0.276851
1.000000 1.000000 0.276851
0.000000 0.000000 0.540383
0.276851 0.000000 0.540383
0.540383 0.000000 0.540383
0.783265 0.000000 0.540383
1.000000 0.000000 0.540383
0.000000 0.276851 0.540383
0.276851 0.276851 0.540383
0.540383 0.276851 0.540383
0.783265 0.276851 0.540383
1.000000 0.276851 0.540383
0.000000 0.540383 0.540383
0.276851 0.540383 0.540383
0.540383 0.540383 0.540383
0.783265 0.540383 0.540383
1.000000 0.540383 0.540383
0.000000 0.783265 0.540383
0.276851 0.783265 0.540383
0.540383 0.783265 0.540383
0.783265 0.783265 0.540383
1.000000 0.783265 0.540383
0.000000 1.000000 0.540383
0.276851 1.000000 0.540383
0.540383 1.000000 0.540383
0.783265 1.000000 0.540383
1.000000 1.000000 0.540383
0.000000 0.000000 0.783265
0.276851 0.000000 0.783265
0.540383 0.000000 0.783265
0.783265 0.000000 0.783265
1.000000 0.000000 0.783265
0.000000 0.276851 0.783265
0.276851 0.276851 0.783265
0.540383 0.276851 0.783265
0.783265 0.276851 0.783265
1.000000 0.276851 0.783265
0.000000 0.540383 0.783265
0.276851 0.540383 0.783265
0.540383 0.540383 0.783265
0.783265 0.540383 0.783265
1.000000 0.540383 0.783265
0.000000 0.783265 0.783265
0.276851 0.783265 0.783265
0.540383 0.783265 0.783265
0.783265 0.783265 0.783265
1.000000 0.783265 0.783265
0.000000 1.000000 0.783265
0.276851 1.000000 0.783265
0.540383 1.000000 0.783265
0.783265 1.000000 0.783265
1.000000 1.000000 0.783265
0.000000 0.000000 1.000000
0.276851 0.000000 1.000000
0.540383 0.000000 1.000000
0.783265 0.000000 1.000000
1.000000 0.000000 1.000000
0.000000 0.276851 1.000000
0.276851 0.276851 1.000000
0.540383 0.276851 1.000000
0.783265 0.276851 1.000000
1.000000 0.276851 1.000000
0.000000 0.540383 1.000000
0.276851 0.540383 1.000000
0.540383 0.540383 1.000000
0.783265 0.540383 1.000000
1.000000 0.540383 1.000000
0.000000 0.783265 1.000000
0.276851 0.783265 1.000000
0.540383 0.783265 1.000000
0.783265 0.783265 1.000000
1.000000 0.783265 1.000000
0.000000 1.000000 1.000000
0.276851 1.000000 1.000000
0.540383 1.000000 1.000000
0.783265 1.000000 1.000000
1.000000 1.000000 1.000000
