luts/kodak_gold_200.cube
TITLE Film LUT
LUT_3D_SIZE 33
DOMAIN_MIN 0.0 0.0 0.0
DOMAIN_MAX 1.0 1.0 1.0
0.000000 0.000000 0.000000
0.034423 0.008262 0.000000
0.068725 0.016494 0.000000
0.102899 0.024696 0.000000
0.136939 0.032865 0.000000
0.170832 0.041000 0.000000
0.204573 0.049098 0.000000
0.238147 0.057155 0.000000
0.271549 0.065172 0.000000
0.304767 0.073144 0.000000
0.337799 0.081072 0.000000
0.370627 0.088950 0.000000
0.403245 0.096779 0.000000
0.435645 0.104555 0.000000
0.467816 0.112276 0.000000
0.499758 0.119942 0.000000
0.531457 0.127550 0.000000
0.562907 0.135098 0.000000
0.594095 0.142583 0.000000
0.625016 0.150004 0.000000
0.655675 0.157362 0.000000
0.686041 0.164650 0.000000
0.716132 0.171872 0.000000
0.745924 0.179022 0.000000
0.775415 0.186100 0.000000
0.804614 0.193107 0.000000
0.833493 0.200038 0.000000
0.862060 0.206894 0.000000
0.890307 0.213674 0.000000
0.918223 0.220374 0.000000
0.945820 0.226997 0.000000
0.973079 0.233539 0.000000
1.000000 0.240000 0.000000
0.000000 0.034423 0.008262
0.026161 0.034423 0.000000
0.068725 0.050917 0.000000
0.102899 0.059119 0.000000
0.136939 0.067288 0.000000
0.170832 0.075423 0.000000
0.204573 0.083521 0.000000
0.238147 0.091578 0.000000
0.271549 0.099595 0.000000
0.304767 0.107567 0.000000
0.337799 0.115495 0.000000
0.370627 0.123373 0.000000
0.403245 0.131202 0.000000
0.435645 0.138978 0.000000
0.467816 0.146699 0.000000
0.499758 0.154365 0.000000
0.531457 0.161973 0.000000
0.562907 0.169521 0.000000
0.594095 0.177006 0.000000
0.625016 0.184427 0.000000
0.655675 0.191785 0.000000
0.686041 0.199073 0.000000
0.716132 0.206295 0.000000
0.745924 0.213445 0.000000
0.775415 0.220523 0.000000
0.804614 0.227530 0.000000
0.833493 0.234461 0.000000
0.862060 0.241317 0.000000
0.890307 0.248097 0.000000
0.918223 0.254797 0.000000
0.945820 0.261420 0.000000
0.973079 0.267962 0.000000
1.000000 0.274423 0.000000
0.000000 0.068723 0.016494
0.017929 0.068723 0.000000
0.052233 0.068725 0.000000
0.102899 0.093419 0.000000
0.136939 0.101588 0.000000
0.170832 0.109723 0.000000
0.204573 0.117821 0.000000
0.238147 0.125878 0.000000
0.271549 0.133895 0.000000
0.304767 0.141867 0.000000
0.337799 0.149795 0.000000
0.370627 0.157673 0.000000
0.403245 0.165502 0.000000
0.435645 0.173278 0.000000
0.467816 0.180999 0.000000
0.499758 0.188665 0.000000
0.531457 0.196273 0.000000
0.562907 0.203821 0.000000
0.594095 0.211306 0.000000
0.625016 0.218727 0.000000
0.655675 0.226085 0.000000
0.686041 0.233373 0.000000
0.716132 0.240595 0.000000
0.745924 0.247745 0.000000
0.775415 0.254823 0.000000
0.804614 0.261830 0.000000
0.833493 0.268761 0.000000
0.862060 0.275617 0.000000
0.890307 0.282397 0.000000
0.918223 0.289097 0.000000
0.945820 0.295720 0.000000
0.973079 0.302262 0.000000
1.000000 0.308723 0.000000
0.000000 0.102900 0.024696
0.009727 0.102900 0.000000
0.044029 0.102900 0.000000
0.078203 0.102900 0.000000
0.136939 0.135765 0.000000
0.170832 0.143900 0.000000
0.204573 0.151998 0.000000
0.238147 0.160055 0.000000
0.271549 0.168072 0.000000
0.304767 0.176044 0.000000
0.337799 0.183972 0.000000
0.370627 0.191850 0.000000
0.403245 0.199679 0.000000
0.435645 0.207455 0.000000
0.467816 0.215176 0.000000
0.499758 0.222842 0.000000
0.531457 0.230450 0.000000
0.562907 0.237998 0.000000
0.594095 0.245483 0.000000
0.625016 0.252904 0.000000
0.655675 0.260262 0.000000
0.686041 0.267550 0.000000
0.716132 0.274772 0.000000
0.745924 0.281922 0.000000
0.775415 0.289000 0.000000
0.804614 0.296007 0.000000
0.833493 0.302938 0.000000
0.862060 0.309794 0.000000
0.890307 0.316574 0.000000
0.918223 0.323274 0.000000
0.945820 0.329897 0.000000
0.973079 0.336439 0.000000
1.000000 0.342900 0.000000
0.000000 0.136935 0.032864
0.001559 0.136935 0.000000
0.035861 0.136935 0.000000
0.070035 0.136935 0.000000
0.104078 0.136939 0.000000
0.163729 0.170832 0.000000
0.204573 0.186033 0.000000
0.238147 0.194090 0.000000
0.271549 0.202107 0.000000
0.304767 0.210079 0.000000
0.337799 0.218007 0.000000
0.370627 0.225885 0.000000
0.403245 0.233714 0.000000
0.435645 0.241490 0.000000
0.467816 0.249211 0.000000
0.499758 0.256877 0.000000
0.531457 0.264485 0.000000
0.562907 0.272033 0.000000
0.594095 0.279518 0.000000
0.625016 0.286939 0.000000
0.655675 0.294297 0.000000
0.686041 0.301585 0.000000
0.716132 0.308807 0.000000
0.745924 0.315957 0.000000
0.775415 0.323035 0.000000
0.804614 0.330042 0.000000
0.833493 0.336973 0.000000
0.862060 0.343829 0.000000
0.890307 0.350609 0.000000
0.918223 0.357309 0.000000
0.945820 0.363932 0.000000
0.973079 0.370474 0.000000
1.000000 0.376935 0.000000
0.000000 0.170828 0.040999
0.000000 0.170828 0.006576
0.027726 0.170828 0.000000
0.061900 0.170828 0.000000
0.095940 0.170828 0.000000
0.129836 0.170832 0.000000
0.189220 0.204573 0.000000
0.238147 0.227983 0.000000
0.271549 0.236000 0.000000
0.304767 0.243972 0.000000
0.337799 0.251900 0.000000
0.370627 0.259778 0.000000
0.403245 0.267607 0.000000
0.435645 0.275383 0.000000
0.467816 0.283104 0.000000
0.499758 0.290770 0.000000
0.531457 0.298378 0.000000
0.562907 0.305926 0.000000
0.594095 0.313411 0.000000
0.625016 0.320832 0.000000
0.655675 0.328190 0.000000
0.686041 0.335478 0.000000
0.716132 0.342700 0.000000
0.745924 0.349850 0.000000
0.775415 0.356928 0.000000
0.804614 0.363935 0.000000
0.833493 0.370866 0.000000
0.862060 0.377722 0.000000
0.890307 0.384502 0.000000
0.918223 0.391202 0.000000
0.945820 0.397825 0.000000
0.973079 0.404367 0.000000
1.000000 0.410828 0.000000
0.000000 0.204572 0.049097
0.000000 0.204572 0.014674
0.019628 0.204572 0.000000
0.053802 0.204572 0.000000
0.087842 0.204572 0.000000
0.121735 0.204572 0.000000
0.155476 0.204573 0.000000
0.214567 0.238147 0.000000
0.271549 0.269744 0.000000
0.304767 0.277716 0.000000
0.337799 0.285644 0.000000
0.370627 0.293522 0.000000
0.403245 0.301351 0.000000
0.435645 0.309127 0.000000
0.467816 0.316848 0.000000
0.499758 0.324514 0.000000
0.531457 0.332122 0.000000
0.562907 0.339670 0.000000
0.594095 0.347155 0.000000
0.625016 0.354576 0.000000
0.655675 0.361934 0.000000
0.686041 0.369222 0.000000
0.716132 0.376444 0.000000
0.745924 0.383594 0.000000
0.775415 0.390672 0.000000
0.804614 0.397679 0.000000
0.833493 0.404610 0.000000
0.862060 0.411466 0.000000
0.890307 0.418246 0.000000
0.918223 0.424946 0.000000
0.945820 0.431569 0.000000
0.973079 0.438111 0.000000
1.000000 0.444572 0.000000
0.000000 0.238148 0.057156
0.000000 0.238148 0.022733
0.011569 0.238148 0.000000
0.045743 0.238148 0.000000
0.079783 0.238148 0.000000
0.113676 0.238148 0.000000
0.147417 0.238148 0.000000
0.180991 0.238148 0.000000
0.239778 0.271549 0.000000
0.298242 0.304767 0.000000
0.337799 0.319220 0.000000
0.370627 0.327098 0.000000
0.403245 0.334927 0.000000
0.435645 0.342703 0.000000
0.467816 0.350424 0.000000
0.499758 0.358090 0.000000
0.531457 0.365698 0.000000
0.562907 0.373246 0.000000
0.594095 0.380731 0.000000
0.625016 0.388152 0.000000
0.655675 0.395510 0.000000
0.686041 0.402798 0.000000
0.716132 0.410020 0.000000
0.745924 0.417170 0.000000
0.775415 0.424248 0.000000
0.804614 0.431255 0.000000
0.833493 0.438186 0.000000
0.862060 0.445042 0.000000
0.890307 0.451822 0.000000
0.918223 0.458522 0.000000
0.945820 0.465145 0.000000
0.973079 0.471687 0.000000
1.000000 0.478148 0.000000
0.000000 0.271550 0.065172
0.000000 0.271550 0.030749
0.003553 0.271550 0.000000
0.037727 0.271550 0.000000
0.071767 0.271550 0.000000
0.105660 0.271550 0.000000
0.139401 0.271550 0.000000
0.172975 0.271550 0.000000
0.206377 0.271550 0.000000
0.264840 0.304767 0.000000
0.322976 0.337799 0.000000
0.370627 0.360500 0.000000
0.403245 0.368329 0.000000
0.435645 0.376105 0.000000
0.467816 0.383826 0.000000
0.499758 0.391492 0.000000
0.531457 0.399100 0.000000
0.562907 0.406648 0.000000
0.594095 0.414133 0.000000
0.625016 0.421554 0.000000
0.655675 0.428912 0.000000
0.686041 0.436200 0.000000
0.716132 0.443422 0.000000
0.745924 0.450572 0.000000
0.775415 0.457650 0.000000
0.804614 0.464657 0.000000
0.833493 0.471588 0.000000
0.862060 0.478444 0.000000
0.890307 0.485224 0.000000
0.918223 0.491924 0.000000
0.945820 0.498547 0.000000
0.973079 0.505089 0.000000
1.000000 0.511550 0.000000
0.000000 0.304770 0.073145
0.000000 0.304770 0.038722
0.000000 0.304770 0.004420
0.029754 0.304770 0.000000
0.063794 0.304770 0.000000
0.097687 0.304770 0.000000
0.131428 0.304770 0.000000
0.165002 0.304770 0.000000
0.198404 0.304770 0.000000
0.231622 0.304770 0.000000
0.289756 0.337799 0.000000
0.347534 0.370627 0.000000
0.403245 0.401549 0.000000
0.435645 0.409325 0.000000
0.467816 0.417046 0.000000
0.499758 0.424712 0.000000
0.531457 0.432320 0.000000
0.562907 0.439868 0.000000
0.594095 0.447353 0.000000
0.625016 0.454774 0.000000
0.655675 0.462132 0.000000
0.686041 0.469420 0.000000
0.716132 0.476642 0.000000
0.745924 0.483792 0.000000
0.775415 0.490870 0.000000
0.804614 0.497877 0.000000
0.833493 0.504808 0.000000
0.862060 0.511664 0.000000
0.890307 0.518444 0.000000
0.918223 0.525144 0.000000
0.945820 0.531767 0.000000
0.973079 0.538309 0.000000
1.000000 0.544770 0.000000
0.000000 0.337797 0.081071
0.000000 0.337797 0.046648
0.000000 0.337797 0.012346
0.021828 0.337797 0.000000
0.055868 0.337797 0.000000
0.089761 0.337797 0.000000
0.123502 0.337797 0.000000
0.157076 0.337797 0.000000
0.190478 0.337797 0.000000
0.223696 0.337797 0.000000
0.256729 0.337799 0.000000
0.314507 0.370627 0.000000
0.371914 0.403245 0.000000
0.428938 0.435645 0.000000
0.467816 0.450073 0.000000
0.499758 0.457739 0.000000
0.531457 0.465347 0.000000
0.562907 0.472895 0.000000
0.594095 0.480380 0.000000
0.625016 0.487801 0.000000
0.655675 0.495159 0.000000
0.686041 0.502447 0.000000
0.716132 0.509669 0.000000
0.745924 0.516819 0.000000
0.775415 0.523897 0.000000
0.804614 0.530904 0.000000
0.833493 0.537835 0.000000
0.862060 0.544691 0.000000
0.890307 0.551471 0.000000
0.918223 0.558171 0.000000
0.945820 0.564794 0.000000
0.973079 0.571336 0.000000
1.000000 0.577797 0.000000
0.000000 0.370630 0.088951
0.000000 0.370630 0.054528
0.000000 0.370630 0.020226
0.013948 0.370630 0.000000
0.047988 0.370630 0.000000
0.081881 0.370630 0.000000
0.115622 0.370630 0.000000
0.149196 0.370630 0.000000
0.182598 0.370630 0.000000
0.215816 0.370630 0.000000
0.248848 0.370630 0.000000
0.281676 0.370630 0.000000
0.339081 0.403245 0.000000
0.396105 0.435645 0.000000
0.452726 0.467816 0.000000
0.499758 0.490572 0.000000
0.531457 0.498180 0.000000
0.562907 0.505728 0.000000
0.594095 0.513213 0.000000
0.625016 0.520634 0.000000
0.655675 0.527992 0.000000
0.686041 0.535280 0.000000
0.716132 0.542502 0.000000
0.745924 0.549652 0.000000
0.775415 0.556730 0.000000
0.804614 0.563737 0.000000
0.833493 0.570668 0.000000
0.862060 0.577524 0.000000
0.890307 0.584304 0.000000
0.918223 0.591004 0.000000
0.945820 0.597627 0.000000
0.973079 0.604169 0.000000
1.000000 0.610630 0.000000
0.000000 0.403243 0.096778
0.000000 0.403243 0.062355
0.000000 0.403243 0.028053
0.006121 0.403243 0.000000
0.040161 0.403243 0.000000
0.074054 0.403243 0.000000
0.107795 0.403243 0.000000
0.141369 0.403243 0.000000
0.174771 0.403243 0.000000
0.207989 0.403243 0.000000
0.241021 0.403243 0.000000
0.273849 0.403243 0.000000
0.306468 0.403245 0.000000
0.363492 0.435645 0.000000
0.420113 0.467816 0.000000
0.476331 0.499758 0.000000
0.531457 0.530793 0.000000
0.562907 0.538341 0.000000
0.594095 0.545826 0.000000
0.625016 0.553247 0.000000
0.655675 0.560605 0.000000
0.686041 0.567893 0.000000
0.716132 0.575115 0.000000
0.745924 0.582265 0.000000
0.775415 0.589343 0.000000
0.804614 0.596350 0.000000
0.833493 0.603281 0.000000
0.862060 0.610137 0.000000
0.890307 0.616917 0.000000
0.918223 0.623617 0.000000
0.945820 0.630240 0.000000
0.973079 0.636782 0.000000
1.000000 0.643243 0.000000
0.000000 0.435643 0.104554
0.000000 0.435643 0.070131
0.000000 0.435643 0.035829
0.000000 0.435643 0.001655
0.032385 0.435643 0.000000
0.066278 0.435643 0.000000
0.100019 0.435643 0.000000
0.133593 0.435643 0.000000
0.166995 0.435643 0.000000
0.200213 0.435643 0.000000
0.233245 0.435643 0.000000
0.266073 0.435643 0.000000
0.298691 0.435643 0.000000
0.331092 0.435645 0.000000
0.387713 0.467816 0.000000
0.443931 0.499758 0.000000
0.499721 0.531457 0.000000
0.555073 0.562907 0.000000
0.594095 0.578226 0.000000
0.625016 0.585647 0.000000
0.655675 0.593005 0.000000
0.686041 0.600293 0.000000
0.716132 0.607515 0.000000
0.745924 0.614665 0.000000
0.775415 0.621743 0.000000
0.804614 0.628750 0.000000
0.833493 0.635681 0.000000
0.862060 0.642537 0.000000
0.890307 0.649317 0.000000
0.918223 0.656017 0.000000
0.945820 0.662640 0.000000
0.973079 0.669182 0.000000
1.000000 0.675643 0.000000
0.000000 0.467823 0.112278
0.000000 0.467823 0.077855
0.000000 0.467823 0.043553
0.000000 0.467823 0.009379
0.024661 0.467823 0.000000
0.058554 0.467823 0.000000
0.092295 0.467823 0.000000
0.125869 0.467823 0.000000
0.159271 0.467823 0.000000
0.192489 0.467823 0.000000
0.225521 0.467823 0.000000
0.258349 0.467823 0.000000
0.290967 0.467823 0.000000
0.323367 0.467823 0.000000
0.355538 0.467823 0.000000
0.411751 0.499758 0.000000
0.467541 0.531457 0.000000
0.522893 0.562907 0.000000
0.577784 0.594095 0.000000
0.625016 0.617827 0.000000
0.655675 0.625185 0.000000
0.686041 0.632473 0.000000
0.716132 0.639695 0.000000
0.745924 0.646845 0.000000
0.775415 0.653923 0.000000
0.804614 0.660930 0.000000
0.833493 0.667861 0.000000
0.862060 0.674717 0.000000
0.890307 0.681497 0.000000
0.918223 0.688197 0.000000
0.945820 0.694820 0.000000
0.973079 0.701362 0.000000
1.000000 0.707823 0.000000
0.000000 0.499764 0.119943
0.000000 0.499764 0.085520
0.000000 0.499764 0.051218
0.000000 0.499764 0.017044
0.016996 0.499764 0.000000
0.050889 0.499764 0.000000
0.084630 0.499764 0.000000
0.118204 0.499764 0.000000
0.151606 0.499764 0.000000
0.184824 0.499764 0.000000
0.217856 0.499764 0.000000
0.250684 0.499764 0.000000
0.283302 0.499764 0.000000
0.315702 0.499764 0.000000
0.347873 0.499764 0.000000
0.379815 0.499764 0.000000
0.435600 0.531457 0.000000
0.490952 0.562907 0.000000
0.545843 0.594095 0.000000
0.600264 0.625016 0.000000
0.654224 0.655675 0.000000
0.686041 0.664414 0.000000
0.716132 0.671636 0.000000
0.745924 0.678786 0.000000
0.775415 0.685864 0.000000
0.804614 0.692871 0.000000
0.833493 0.699802 0.000000
0.862060 0.706658 0.000000
0.890307 0.713438 0.000000
0.918223 0.720138 0.000000
0.945820 0.726761 0.000000
0.973079 0.733303 0.000000
1.000000 0.739764 0.000000
0.000000 0.531459 0.127550
0.000000 0.531459 0.093127
0.000000 0.531459 0.058825
0.000000 0.531459 0.024651
0.009389 0.531459 0.000000
0.043282 0.531459 0.000000
0.077023 0.531459 0.000000
0.110597 0.531459 0.000000
0.143999 0.531459 0.000000
0.177217 0.531459 0.000000
0.210249 0.531459 0.000000
0.243077 0.531459 0.000000
0.275695 0.531459 0.000000
0.308095 0.531459 0.000000
0.340266 0.531459 0.000000
0.372208 0.531459 0.000000
0.403907 0.531459 0.000000
0.459257 0.562907 0.000000
0.514148 0.594095 0.000000
0.568569 0.625016 0.000000
0.622529 0.655675 0.000000
0.675973 0.686041 0.000000
0.716132 0.703331 0.000000
0.745924 0.710481 0.000000
0.775415 0.717559 0.000000
0.804614 0.724566 0.000000
0.833493 0.731497 0.000000
0.862060 0.738353 0.000000
0.890307 0.745133 0.000000
0.918223 0.751833 0.000000
0.945820 0.758456 0.000000
0.973079 0.764998 0.000000
1.000000 0.771459 0.000000
0.000000 0.562903 0.135097
0.000000 0.562903 0.100674
0.000000 0.562903 0.066372
0.000000 0.562903 0.032198
0.001842 0.562903 0.000000
0.035735 0.562903 0.000000
0.069476 0.562903 0.000000
0.103050 0.562903 0.000000
0.136452 0.562903 0.000000
0.169670 0.562903 0.000000
0.202702 0.562903 0.000000
0.235530 0.562903 0.000000
0.268148 0.562903 0.000000
0.300548 0.562903 0.000000
0.332719 0.562903 0.000000
0.364661 0.562903 0.000000
0.396360 0.562903 0.000000
0.427813 0.562907 0.000000
0.482704 0.594095 0.000000
0.537125 0.625016 0.000000
0.591085 0.655675 0.000000
0.644529 0.686041 0.000000
0.697489 0.716132 0.000000
0.745924 0.741925 0.000000
0.775415 0.749003 0.000000
0.804614 0.756010 0.000000
0.833493 0.762941 0.000000
0.862060 0.769797 0.000000
0.890307 0.776577 0.000000
0.918223 0.783277 0.000000
0.945820 0.789900 0.000000
0.973079 0.796442 0.000000
1.000000 0.802903 0.000000
0.000000 0.594094 0.142583
0.000000 0.594094 0.108160
0.000000 0.594094 0.073858
0.000000 0.594094 0.039684
0.000000 0.594094 0.005644
0.028249 0.594094 0.000000
0.061990 0.594094 0.000000
0.095564 0.594094 0.000000
0.128966 0.594094 0.000000
0.162184 0.594094 0.000000
0.195216 0.594094 0.000000
0.228044 0.594094 0.000000
0.260662 0.594094 0.000000
0.293062 0.594094 0.000000
0.325233 0.594094 0.000000
0.357175 0.594094 0.000000
0.388874 0.594094 0.000000
0.420324 0.594094 0.000000
0.451513 0.594095 0.000000
0.505934 0.625016 0.000000
0.559894 0.655675 0.000000
0.613338 0.686041 0.000000
0.666298 0.716132 0.000000
0.718732 0.745924 0.000000
0.770636 0.775415 0.000000
0.804614 0.787201 0.000000
0.833493 0.794132 0.000000
0.862060 0.800988 0.000000
0.890307 0.807768 0.000000
0.918223 0.814468 0.000000
0.945820 0.821091 0.000000
0.973079 0.827633 0.000000
1.000000 0.834094 0.000000
0.000000 0.625020 0.150005
0.000000 0.625020 0.115582
0.000000 0.625020 0.081280
0.000000 0.625020 0.047106
0.000000 0.625020 0.013066
0.020827 0.625020 0.000000
0.054568 0.625020 0.000000
0.088142 0.625020 0.000000
0.121544 0.625020 0.000000
0.154762 0.625020 0.000000
0.187794 0.625020 0.000000
0.220622 0.625020 0.000000
0.253240 0.625020 0.000000
0.285640 0.625020 0.000000
0.317811 0.625020 0.000000
0.349753 0.625020 0.000000
0.381452 0.625020 0.000000
0.412902 0.625020 0.000000
0.444090 0.625020 0.000000
0.475011 0.625020 0.000000
0.528968 0.655675 0.000000
0.582412 0.686041 0.000000
0.635372 0.716132 0.000000
0.687806 0.745924 0.000000
0.739710 0.775415 0.000000
0.791101 0.804614 0.000000
0.833493 0.825058 0.000000
0.862060 0.831914 0.000000
0.890307 0.838694 0.000000
0.918223 0.845394 0.000000
0.945820 0.852017 0.000000
0.973079 0.858559 0.000000
1.000000 0.865020 0.000000
0.000000 0.655675 0.157362
0.000000 0.655675 0.122939
0.000000 0.655675 0.088637
0.000000 0.655675 0.054463
0.000000 0.655675 0.020423
0.013470 0.655675 0.000000
0.047211 0.655675 0.000000
0.080785 0.655675 0.000000
0.114187 0.655675 0.000000
0.147405 0.655675 0.000000
0.180437 0.655675 0.000000
0.213265 0.655675 0.000000
0.245883 0.655675 0.000000
0.278283 0.655675 0.000000
0.310454 0.655675 0.000000
0.342396 0.655675 0.000000
0.374095 0.655675 0.000000
0.405545 0.655675 0.000000
0.436733 0.655675 0.000000
0.467654 0.655675 0.000000
0.498313 0.655675 0.000000
0.551757 0.686041 0.000000
0.604717 0.716132 0.000000
0.657151 0.745924 0.000000
0.709055 0.775415 0.000000
0.760446 0.804614 0.000000
0.811273 0.833493 0.000000
0.861551 0.862060 0.000000
0.890307 0.869349 0.000000
0.918223 0.876049 0.000000
0.945820 0.882672 0.000000
0.973079 0.889214 0.000000
1.000000 0.895675 0.000000
0.000000 0.686045 0.164651
0.000000 0.686045 0.130228
0.000000 0.686045 0.095926
0.000000 0.686045 0.061752
0.000000 0.686045 0.027712
0.006181 0.686045 0.000000
0.039922 0.686045 0.000000
0.073496 0.686045 0.000000
0.106898 0.686045 0.000000
0.140116 0.686045 0.000000
0.173148 0.686045 0.000000
0.205976 0.686045 0.000000
0.238594 0.686045 0.000000
0.270994 0.686045 0.000000
0.303165 0.686045 0.000000
0.335107 0.686045 0.000000
0.366806 0.686045 0.000000
0.398256 0.686045 0.000000
0.429444 0.686045 0.000000
0.460365 0.686045 0.000000
0.491024 0.686045 0.000000
0.521390 0.686045 0.000000
0.574347 0.716132 0.000000
0.626781 0.745924 0.000000
0.678685 0.775415 0.000000
0.730076 0.804614 0.000000
0.780903 0.833493 0.000000
0.831181 0.862060 0.000000
0.880895 0.890307 0.000000
0.918223 0.906419 0.000000
0.945820 0.913042 0.000000
0.973079 0.919584 0.000000
1.000000 0.926045 0.000000
0.000000 0.716131 0.171871
0.000000 0.716131 0.137448
0.000000 0.716131 0.103146
0.000000 0.716131 0.068972
0.000000 0.716131 0.034932
0.000000 0.716131 0.001039
0.032702 0.716131 0.000000
0.066276 0.716131 0.000000
0.099678 0.716131 0.000000
0.132896 0.716131 0.000000
0.165928 0.716131 0.000000
0.198756 0.716131 0.000000
0.231374 0.716131 0.000000
0.263774 0.716131 0.000000
0.295945 0.716131 0.000000
0.327887 0.716131 0.000000
0.359586 0.716131 0.000000
0.391036 0.716131 0.000000
0.422224 0.716131 0.000000
0.453145 0.716131 0.000000
0.483804 0.716131 0.000000
0.514170 0.716131 0.000000
0.544261 0.716132 0.000000
0.596695 0.745924 0.000000
0.648599 0.775415 0.000000
0.699990 0.804614 0.000000
0.750817 0.833493 0.000000
0.801095 0.862060 0.000000
0.850809 0.890307 0.000000
0.899941 0.918223 0.000000
0.945820 0.943128 0.000000
0.973079 0.949670 0.000000
1.000000 0.956131 0.000000
0.000000 0.745927 0.179022
0.000000 0.745927 0.144599
0.000000 0.745927 0.110297
0.000000 0.745927 0.076123
0.000000 0.745927 0.042083
0.000000 0.745927 0.008190
0.025551 0.745927 0.000000
0.059125 0.745927 0.000000
0.092527 0.745927 0.000000
0.125745 0.745927 0.000000
0.158777 0.745927 0.000000
0.191605 0.745927 0.000000
0.224223 0.745927 0.000000
0.256623 0.745927 0.000000
0.288794 0.745927 0.000000
0.320736 0.745927 0.000000
0.352435 0.745927 0.000000
0.383885 0.745927 0.000000
0.415073 0.745927 0.000000
0.445994 0.745927 0.000000
0.476653 0.745927 0.000000
0.507019 0.745927 0.000000
0.537110 0.745927 0.000000
0.566902 0.745927 0.000000
0.618803 0.775415 0.000000
0.670194 0.804614 0.000000
0.721021 0.833493 0.000000
0.771299 0.862060 0.000000
0.821013 0.890307 0.000000
0.870145 0.918223 0.000000
0.918716 0.945820 0.000000
0.966692 0.973079 0.000000
1.000000 0.985927 0.000000
0.000000 0.775424 0.186102
0.000000 0.775424 0.151679
0.000000 0.775424 0.117377
0.000000 0.775424 0.083203
0.000000 0.775424 0.049163
0.000000 0.775424 0.015270
0.018471 0.775424 0.000000
0.052045 0.775424 0.000000
0.085447 0.775424 0.000000
0.118665 0.775424 0.000000
0.151697 0.775424 0.000000
0.184525 0.775424 0.000000
0.217143 0.775424 0.000000
0.249543 0.775424 0.000000
0.281714 0.775424 0.000000
0.313656 0.775424 0.000000
0.345355 0.775424 0.000000
0.376805 0.775424 0.000000
0.407993 0.775424 0.000000
0.438914 0.775424 0.000000
0.469573 0.775424 0.000000
0.499939 0.775424 0.000000
0.530030 0.775424 0.000000
0.559822 0.775424 0.000000
0.589313 0.775424 0.000000
0.640697 0.804614 0.000000
0.691524 0.833493 0.000000
0.741802 0.862060 0.000000
0.791516 0.890307 0.000000
0.840648 0.918223 0.000000
0.889219 0.945820 0.000000
0.937195 0.973079 0.000000
0.984576 1.000000 0.000000
0.000000 0.804612 0.193107
0.000000 0.804612 0.158684
0.000000 0.804612 0.124382
0.000000 0.804612 0.090208
0.000000 0.804612 0.056168
0.000000 0.804612 0.022275
0.011466 0.804612 0.000000
0.045040 0.804612 0.000000
0.078442 0.804612 0.000000
0.111660 0.804612 0.000000
0.144692 0.804612 0.000000
0.177520 0.804612 0.000000
0.210138 0.804612 0.000000
0.242538 0.804612 0.000000
0.274709 0.804612 0.000000
0.306651 0.804612 0.000000
0.338350 0.804612 0.000000
0.369800 0.804612 0.000000
0.400988 0.804612 0.000000
0.431909 0.804612 0.000000
0.462568 0.804612 0.000000
0.492934 0.804612 0.000000
0.523025 0.804612 0.000000
0.552817 0.804612 0.000000
0.582308 0.804612 0.000000
0.611509 0.804614 0.000000
0.662336 0.833493 0.000000
0.712614 0.862060 0.000000
0.762328 0.890307 0.000000
0.811460 0.918223 0.000000
0.860031 0.945820 0.000000
0.908007 0.973079 0.000000
0.955388 1.000000 0.000000
0.000000 0.833496 0.200039
0.000000 0.833496 0.165616
0.000000 0.833496 0.131314
0.000000 0.833496 0.097140
0.000000 0.833496 0.063100
0.000000 0.833496 0.029207
0.004534 0.833496 0.000000
0.038108 0.833496 0.000000
0.071510 0.833496 0.000000
0.104728 0.833496 0.000000
0.137760 0.833496 0.000000
0.170588 0.833496 0.000000
0.203206 0.833496 0.000000
0.235606 0.833496 0.000000
0.267777 0.833496 0.000000
0.299719 0.833496 0.000000
0.331418 0.833496 0.000000
0.362868 0.833496 0.000000
0.394056 0.833496 0.000000
0.424977 0.833496 0.000000
0.455636 0.833496 0.000000
0.486002 0.833496 0.000000
0.516093 0.833496 0.000000
0.545885 0.833496 0.000000
0.575376 0.833496 0.000000
0.604575 0.833496 0.000000
0.633454 0.833496 0.000000
0.683730 0.862060 0.000000
