luts/KODAK FPE 08.cube
TITLE "Generated by Resolve"
LUT_3D_SIZE 33
0.0150912 0.0218662 0.0240177
0.0197604 0.0252995 0.0266423
0.0296483 0.0294499 0.0298772
0.0480049 0.0345769 0.0330053
0.0733654 0.0415351 0.0350347
0.0982681 0.0492561 0.0369116
0.122896 0.056611 0.0386511
0.148074 0.0641184 0.0389868
0.174746 0.0709697 0.0380255
0.203601 0.0775311 0.0370184
0.233829 0.0839551 0.0377966
0.264302 0.0905623 0.0388647
0.29276 0.0975662 0.0406653
0.319905 0.104448 0.04271
0.3467 0.111452 0.0431067
0.372992 0.118135 0.0437629
0.39881 0.124773 0.0451209
0.423072 0.130907 0.0468605
0.447028 0.13727 0.0485084
0.469978 0.143191 0.0506142
0.491814 0.149691 0.0531167
0.513161 0.155764 0.055024
0.53341 0.16173 0.0569009
0.553124 0.167895 0.0587015
0.571511 0.173999 0.0601663
0.589197 0.180056 0.0609445
0.606104 0.18645 0.062211
0.622705 0.19205 0.0642557
0.639551 0.197223 0.0665904
0.655772 0.202197 0.0707713
0.671733 0.20621 0.076524
0.687144 0.209445 0.0845045
0.701762 0.213046 0.0929885
0.017258 0.0315862 0.0304875
0.023621 0.0334478 0.0320897
0.0352331 0.0365911 0.0337072
0.052018 0.0407263 0.0359655
0.0758221 0.0461128 0.0373236
0.100175 0.0528267 0.0386206
0.125338 0.0596323 0.0393072
0.151278 0.0665446 0.0390478
0.178637 0.072755 0.0373693
0.208789 0.0786145 0.0352026
0.240284 0.084123 0.0345617
0.271809 0.0901808 0.0350042
0.302022 0.0966354 0.0357366
0.330526 0.102968 0.0369879
0.35761 0.109834 0.0373236
0.383307 0.116609 0.0393683
0.408392 0.123415 0.0419318
0.431952 0.129839 0.0444648
0.455268 0.136538 0.0466163
0.477638 0.142794 0.0492714
0.49926 0.149554 0.0520485
0.520272 0.155871 0.0542458
0.54023 0.162234 0.05626
0.559472 0.168765 0.0580758
0.578042 0.175708 0.0597696
0.596185 0.183215 0.0614176
0.614145 0.190677 0.0639506
0.632151 0.197299 0.0672618
0.6495 0.203983 0.0707103
0.666758 0.210178 0.0758984
0.683528 0.215854 0.082063
0.700175 0.220325 0.0914931
0.713161 0.223377 0.09897
0.0188449 0.0441749 0.0385138
0.024033 0.045182 0.0398566
0.0386816 0.0481117 0.0408026
0.0583047 0.0525978 0.0422827
0.0797894 0.05832 0.0440375
0.103044 0.0645151 0.0453346
0.129244 0.0712444 0.0460059
0.156069 0.0778821 0.0460212
0.18613 0.0838026 0.0440986
0.218082 0.0895399 0.0418708
0.251789 0.0946059 0.0405585
0.284138 0.0999466 0.0395666
0.314855 0.105303 0.0393683
0.344976 0.111208 0.0396277
0.373312 0.116808 0.0397803
0.399634 0.123369 0.0421607
0.42388 0.130266 0.0458228
0.447822 0.137224 0.0487373
0.470237 0.144381 0.0517739
0.492744 0.151614 0.0552377
0.514244 0.159091 0.0586404
0.535225 0.166323 0.0614023
0.555901 0.174029 0.0641031
0.575631 0.181628 0.0662089
0.594034 0.189288 0.068513
0.612375 0.196887 0.0703136
0.630655 0.203937 0.0730602
0.648249 0.210941 0.0768139
0.666026 0.217548 0.0802014
0.683116 0.224109 0.0849012
0.699275 0.230106 0.09131
0.715053 0.235035 0.100404
0.724727 0.236255 0.104479
0.0209354 0.0606851 0.0472725
0.0254978 0.0608377 0.0477302
0.0386206 0.0635996 0.0499886
0.0617838 0.067689 0.0509346
0.0857404 0.0740368 0.0532235
0.110323 0.0803388 0.0539559
0.137774 0.0870375 0.0537118
0.166629 0.0936904 0.0526284
0.196628 0.100008 0.0520333
0.228534 0.105974 0.0501411
0.262272 0.111345 0.0495766
0.295857 0.116579 0.0479286
0.328145 0.121675 0.0476692
0.359762 0.127031 0.0475166
0.389288 0.13254 0.0478828
0.416434 0.13846 0.0506447
0.442359 0.145037 0.0537728
0.466514 0.15172 0.0569924
0.489418 0.159121 0.0598917
0.51165 0.166705 0.0632639
0.532647 0.174243 0.0666209
0.553368 0.18204 0.0693828
0.572976 0.18967 0.0724498
0.592371 0.197177 0.0750439
0.610971 0.205097 0.076585
0.629923 0.212314 0.0796368
0.647883 0.219471 0.082536
0.665904 0.226581 0.0859846
0.682811 0.233494 0.0893873
0.699565 0.239887 0.0936904
0.714992 0.246494 0.0989548
0.728466 0.25095 0.106386
0.736645 0.251194 0.10898
0.0251621 0.0792401 0.0575875
0.0295567 0.0786297 0.0569772
0.0427863 0.0815747 0.0595254
0.0635996 0.0862135 0.0622721
0.091371 0.0924392 0.0637369
0.119112 0.098909 0.0644388
0.147082 0.105699 0.0641489
0.177264 0.11252 0.0636149
0.21059 0.119341 0.0615549
0.244999 0.125963 0.0595102
0.27892 0.132097 0.0586099
0.311131 0.13756 0.0577859
0.342977 0.142672 0.0569772
0.374273 0.148119 0.0557107
0.404013 0.153368 0.0558175
0.431739 0.159091 0.057969
0.458106 0.16553 0.060502
0.48278 0.17203 0.0630655
0.506523 0.178576 0.0657664
0.529503 0.185428 0.068513
0.551354 0.192447 0.0714885
0.571939 0.19971 0.075349
0.59202 0.207294 0.0787518
0.611536 0.214786 0.0812543
0.629969 0.222522 0.0842298
0.648463 0.229831 0.0871138
0.666362 0.237003 0.0900587
0.683497 0.244282 0.0928664
0.699519 0.251743 0.0955062
0.715343 0.258625 0.0984054
0.730007 0.265629 0.103487
0.741375 0.269337 0.109133
0.749828 0.267811 0.113024
0.0275883 0.101259 0.0693523
0.0317998 0.100069 0.0679332
0.0444648 0.103212 0.0707103
0.0656138 0.107607 0.0737163
0.0933242 0.114153 0.0763714
0.124804 0.120714 0.0766308
0.155428 0.127733 0.0762646
0.187152 0.134966 0.0752728
0.221622 0.142092 0.0733806
0.258808 0.148623 0.0706798
0.295811 0.155276 0.0682231
0.329244 0.161364 0.0664836
0.361334 0.166903 0.0647746
0.392325 0.172122 0.063447
0.421317 0.177417 0.0635386
0.448493 0.1832 0.0640879
0.474876 0.188907 0.0657969
0.498985 0.19501 0.068452
0.522622 0.201175 0.0705425
0.545861 0.207614 0.0730602
0.568139 0.21416 0.0758068
0.590539 0.220691 0.0787518
0.611643 0.227588 0.08159
0.631403 0.234867 0.0846571
0.649836 0.242267 0.0874342
0.667704 0.249561 0.090074
0.684703 0.25716 0.0932326
0.700648 0.264897 0.0952926
0.716304 0.272312 0.098024
0.731228 0.27953 0.101091
0.746059 0.285908 0.106279
0.757397 0.288655 0.112459
0.763867 0.286564 0.115618
0.0306859 0.124971 0.0806134
0.0339208 0.124285 0.0794232
0.045182 0.128405 0.0829938
0.064332 0.133394 0.0869306
0.0925307 0.139284 0.0897688
0.126497 0.145968 0.0902419
0.161181 0.153246 0.0892653
0.196521 0.160403 0.0870832
0.232364 0.167544 0.0843824
0.270054 0.174304 0.0802167
0.307378 0.180911 0.0765698
0.343389 0.187518 0.0727855
0.379248 0.193545 0.0703288
0.410498 0.198779 0.0684672
0.439826 0.204242 0.0677806
0.466285 0.209689 0.0688029
0.491249 0.21532 0.0705882
0.515328 0.220951 0.0724193
0.539101 0.226825 0.0741588
0.561929 0.232944 0.0760204
0.5841 0.239368 0.0781567
0.606043 0.245594 0.0806592
0.627527 0.251896 0.0833448
0.647898 0.25861 0.085832
0.667674 0.265415 0.0872969
0.68658 0.27216 0.0894942
0.702922 0.279713 0.0925002
0.718929 0.286931 0.0957961
0.733959 0.29453 0.0986801
0.748379 0.301839 0.102968
0.762661 0.308232 0.108293
0.77322 0.310613 0.113329
0.778881 0.307378 0.117815
0.0333562 0.152041 0.0910353
0.0355383 0.15256 0.0909133
0.0448157 0.157656 0.0953841
0.0590372 0.1635 0.100175
0.0880903 0.169284 0.10338
0.125124 0.175219 0.103136
0.162676 0.182498 0.101717
0.201389 0.18967 0.0982681
0.240772 0.195926 0.092668
0.279759 0.202396 0.0869001
0.318044 0.208789 0.0816205
0.354437 0.215183 0.0768749
0.390051 0.221393 0.0739605
0.423239 0.22739 0.0716259
0.454093 0.233509 0.071107
0.481437 0.238972 0.0708934
0.507622 0.244373 0.0723735
0.53138 0.249928 0.0747539
0.554604 0.255604 0.0762036
0.577295 0.261387 0.0776379
0.599619 0.267155 0.0801404
0.620859 0.273152 0.0820935
0.641993 0.279088 0.0838788
0.662745 0.285359 0.0853285
0.682597 0.291722 0.0872969
0.701579 0.298238 0.0894484
0.719676 0.304952 0.0917067
0.737011 0.311711 0.0927443
0.751995 0.318853 0.0963455
0.766369 0.325719 0.10074
0.77998 0.332174 0.106508
0.788708 0.333608 0.111437
0.793256 0.330831 0.117189
0.0331121 0.181659 0.100862
0.0350347 0.18352 0.101854
0.0421454 0.18941 0.106767
0.0539101 0.195834 0.111604
0.0804761 0.201694 0.114763
0.119921 0.207568 0.115053
0.160006 0.21384 0.112612
0.201114 0.220859 0.108034
0.243915 0.22742 0.0998398
0.286397 0.233463 0.0893873
0.325765 0.239612 0.0826429
0.363684 0.245853 0.0767376
0.400015 0.251728 0.0729534
0.433448 0.257633 0.0708782
0.464027 0.263844 0.0702831
0.493233 0.269642 0.0715648
0.519738 0.275227 0.0741283
0.544488 0.280507 0.0756542
0.56849 0.285954 0.0770581
0.591379 0.291386 0.0788586
0.613611 0.297078 0.0804913
0.635462 0.302693 0.0823835
0.656367 0.308293 0.0840925
0.676493 0.314244 0.0855726
0.696498 0.320195 0.0869306
0.715312 0.326711 0.0876173
0.733425 0.333272 0.088838
0.750942 0.339513 0.0914321
0.767575 0.34609 0.0927596
0.783337 0.352087 0.0957198
0.796765 0.358495 0.100465
0.803967 0.358984 0.106126
0.807416 0.35613 0.113283
0.0329747 0.212375 0.109331
0.035172 0.215473 0.11075
0.0410315 0.221622 0.115114
0.0515908 0.228122 0.119631
0.0741283 0.234409 0.123049
0.109377 0.241093 0.124743
0.155138 0.247044 0.120897
0.197528 0.2542 0.116533
0.243229 0.260441 0.106844
0.287495 0.266773 0.0960861
0.330266 0.272145 0.0853285
0.370962 0.277287 0.0773022
0.407935 0.282887 0.0730297
0.442069 0.288838 0.0707866
0.472648 0.294881 0.0704967
0.501549 0.300938 0.0697337
0.529107 0.306615 0.0705882
0.555276 0.312261 0.073106
0.58027 0.317601 0.0751965
0.603983 0.322805 0.0765698
0.626719 0.328191 0.0791333
0.64828 0.333654 0.0807355
0.669779 0.33904 0.082826
0.689738 0.344762 0.0839246
0.708873 0.350652 0.0848859
0.727962 0.356435 0.0865187
0.746212 0.362509 0.0880598
0.763394 0.369055 0.0888685
0.780636 0.374777 0.0905928
0.796796 0.38085 0.0919356
0.811643 0.386679 0.0953231
0.818479 0.385931 0.0975509
0.821897 0.382528 0.106905
0.03505 0.244694 0.117647
0.0369421 0.247471 0.118471
0.043183 0.253758 0.12253
0.0516976 0.260777 0.126665
0.0670176 0.268727 0.130739
0.0997787 0.274952 0.132189
0.149081 0.280674 0.128664
0.195438 0.287144 0.122759
0.24004 0.294041 0.115557
0.286534 0.299977 0.102266
0.331014 0.30576 0.0916152
0.374395 0.310307 0.0798962
0.41471 0.314931 0.0714733
0.449409 0.320638 0.0681163
0.481025 0.326665 0.0665293
0.510155 0.33254 0.068101
0.537484 0.338293 0.0692607
0.564599 0.343694 0.0701152
0.590326 0.349218 0.0712291
0.615015 0.354711 0.0742809
0.638025 0.359686 0.0762341
0.659937 0.364965 0.0792401
0.681117 0.370245 0.0811933
0.701747 0.37557 0.082826
0.721294 0.381231 0.0842603
0.739849 0.386816 0.0848249
0.757855 0.392508 0.0865187
0.775891 0.398154 0.0876783
0.792935 0.40412 0.0887312
0.809552 0.409689 0.0901808
0.825177 0.415183 0.0911116
0.833524 0.41323 0.0913558
0.837659 0.4094 0.100298
0.0381018 0.277104 0.125414
0.0395666 0.280079 0.125673
0.0453346 0.286488 0.128969
0.0526894 0.293828 0.131945
0.0648508 0.30164 0.135531
0.095079 0.308202 0.13698
0.142 0.314702 0.135485
0.19089 0.321035 0.12958
0.238102 0.326894 0.120806
0.283314 0.333425 0.112398
0.329992 0.338735 0.0976272
0.375006 0.343557 0.0859541
0.418448 0.34696 0.0755322
0.455634 0.351598 0.0694133
0.488228 0.357183 0.0668803
0.51873 0.363073 0.0652171
0.54725 0.368887 0.0660105
0.573678 0.374456 0.0674296
0.599496 0.379858 0.0686809
0.624964 0.384909 0.0700999
0.648447 0.390311 0.0730907
0.670924 0.395468 0.0757
0.692576 0.400549 0.0789654
0.713268 0.405692 0.0819257
0.733104 0.410956 0.0837873
0.752148 0.416617 0.0863355
0.769924 0.422202 0.087068
0.787579 0.427695 0.0886091
0.805005 0.433249 0.0892958
0.821973 0.438911 0.08925
0.837827 0.443717 0.0907149
0.846815 0.441581 0.0876631
0.85301 0.437049 0.0915541
0.0405585 0.309606 0.132265
0.0420996 0.312505 0.13254
0.0476081 0.319112 0.134661
0.0542611 0.326482 0.137087
0.0675059 0.333715 0.139849
0.0944839 0.341039 0.140612
0.13846 0.34728 0.139116
0.18851 0.353231 0.135775
0.237629 0.358724 0.126802
0.284993 0.36437 0.116335
0.327855 0.371145 0.107546
0.374853 0.375265 0.0914626
0.419272 0.379019 0.0806134
0.459709 0.382712 0.0717784
0.495506 0.38706 0.0667735
0.526421 0.392752 0.06598
0.555962 0.398352 0.0654459
0.584482 0.403861 0.0656443
0.610117 0.409308 0.0668803
0.634546 0.414786 0.069688
0.658686 0.419883 0.0725261
0.681468 0.425406 0.0751202
0.703365 0.430732 0.0773327
0.724208 0.435645 0.0802319
0.744137 0.440574 0.0842603
0.763119 0.446006 0.0863813
0.78201 0.451423 0.0889754
0.799634 0.456825 0.0899519
0.817105 0.46215 0.0906081
0.83418 0.467643 0.0904097
0.84976 0.472038 0.0889448
0.859495 0.469932 0.0847944
0.866865 0.465385 0.0874037
0.0432441 0.341527 0.139452
0.0447547 0.344762 0.138705
0.0501259 0.3514 0.139956
0.0588235 0.357916 0.142199
0.0737926 0.364874 0.143862
0.0967269 0.371893 0.144808
0.138766 0.378012 0.143908
0.187137 0.384283 0.141161
0.237125 0.389654 0.132769
0.28571 0.39501 0.121798
0.330266 0.400809 0.110216
0.37261 0.406714 0.101427
0.420279 0.409827 0.0855421
0.462104 0.413809 0.0768597
0.49984 0.417624 0.0711223
0.534234 0.421973 0.0673838
0.564126 0.427451 0.066743
0.592569 0.433066 0.0665904
0.619821 0.438605 0.0670329
0.64506 0.443671 0.0683452
0.668467 0.449027 0.0707256
0.691707 0.454185 0.0733501
0.713726 0.459617 0.0756847
0.734737 0.464958 0.0784772
0.754589 0.469795 0.0819562
0.774105 0.474815 0.0859083
0.792721 0.480034 0.088304
0.811093 0.485573 0.0912184
0.828641 0.490822 0.0914931
0.84622 0.496117 0.0920577
0.861585 0.499931 0.0901808
0.871733 0.49839 0.0859388
0.879454 0.494102 0.0848554
0.0472419 0.372824 0.145861
0.0496376 0.376074 0.144671
0.0562448 0.382055 0.146761
0.0648508 0.388327 0.148196
0.0773632 0.395056 0.149371
0.102403 0.401389 0.148363
0.142962 0.407401 0.1467
0.190127 0.413718 0.144244
0.237736 0.419394 0.138567
0.28687 0.424414 0.127993
0.332387 0.429831 0.116701
0.374548 0.435599 0.107317
0.417365 0.440543 0.0967422
0.463279 0.443534 0.0827649
0.502281 0.447654 0.0775006
0.538155 0.451698 0.0728161
0.571664 0.455833 0.0691844
0.600381 0.461372 0.0672313
0.627436 0.466957 0.0683604
0.653895 0.472221 0.0696422
0.678355 0.477272 0.0713664
0.701137 0.482551 0.0738689
0.723247 0.487724 0.0760662
0.744793 0.492836 0.0780346
0.764981 0.498146 0.081529
0.784329 0.50309 0.0849622
0.803418 0.508095 0.0884871
0.821714 0.513375 0.0915389
0.839902 0.518822 0.0939345
0.857343 0.524102 0.0944991
0.872953 0.527214 0.0926375
0.883757 0.526238 0.0865644
0.892058 0.521935 0.0838636
0.0509194 0.403265 0.151751
0.0540932 0.406378 0.151339
0.061387 0.411948 0.152468
0.0701305 0.417929 0.153307
0.0865644 0.424186 0.152743
0.109606 0.430243 0.152102
0.147387 0.436271 0.149691
0.194217 0.442679 0.146426
0.23978 0.448188 0.141329
0.286275 0.453162 0.134325
0.333822 0.458152 0.121401
0.376471 0.463432 0.112596
0.418296 0.468574 0.104005
0.460655 0.47303 0.0939956
0.502647 0.476799 0.0841382
0.540505 0.480781 0.0802777
0.574899 0.485054 0.0767681
0.607385 0.489158 0.0733349
0.634791 0.494575 0.0730602
0.66096 0.499977 0.0733196
0.686 0.505425 0.074052
0.709865 0.510536 0.0753643
0.73225 0.515541 0.077409
0.753384 0.520729 0.0798657
0.773953 0.525765 0.0820783
0.794095 0.530968 0.0846418
0.813046 0.535882 0.0884565
0.831571 0.540887 0.0928817
0.849821 0.546044 0.0953078
0.867994 0.551339 0.0970321
0.883421 0.554147 0.0956436
0.894881 0.553368 0.0903029
0.903822 0.549477 0.0861982
0.0561379 0.432624 0.158007
0.0607309 0.435798 0.15729
0.0696727 0.440879 0.157244
0.0794995 0.446555 0.157778
0.094316 0.452125 0.156802
0.11693 0.458305 0.15404
0.15227 0.4645 0.152056
0.196368 0.470512 0.148974
0.242451 0.47602 0.144411
0.287465 0.480812 0.138247
0.333028 0.485679 0.130861
0.377997 0.490715 0.121736
0.420447 0.495583 0.111986
0.459861 0.500771 0.106844
0.500618 0.505287 0.0990768
0.541024 0.509377 0.0885634
0.577356 0.513603 0.0846571
0.610468 0.517952 0.0807202
0.641108 0.522179 0.0778058
0.667628 0.527413 0.0783246
0.692943 0.532738 0.0786603
0.717083 0.538125 0.0781567
0.740139 0.543084 0.0796368
0.761746 0.54786 0.0823529
0.782101 0.552834 0.084947
0.802426 0.557671 0.0873121
0.822278 0.562646 0.0899672
0.841047 0.567391 0.0927596
0.859495 0.57229 0.0966812
0.877882 0.577432 0.0991836
0.893538 0.580179 0.0992142
0.905806 0.579614 0.094316
0.91516 0.576165 0.0891432
0.0615854 0.461189 0.163363
0.0678569 0.464591 0.161563
0.0768902 0.469337 0.161532
0.0882429 0.474144 0.161196
0.102998 0.479744 0.161196
0.125689 0.485512 0.159564
0.156085 0.491783 0.156909
0.197513 0.497566 0.153079
0.244724 0.502708 0.148531
0.288914 0.507759 0.143008
0.333074 0.512413 0.137484
0.377874 0.517205 0.12903
0.422629 0.521737 0.120119
0.462242 0.526864 0.113481
0.498939 0.532616 0.110231
0.538994 0.537072 0.10248
0.577676 0.541466 0.092134
0.612238 0.545785 0.0887465
0.643778 0.550072 0.0866255
0.672953 0.554223 0.0850233
0.698863 0.559319 0.0850233
0.723308 0.564431 0.0851759
0.746578 0.569574 0.0853285
0.768856 0.57435 0.0869306
0.789731 0.578912 0.0885939
0.809934 0.583673 0.0903487
0.829953 0.588434 0.0928359
0.849622 0.593103 0.0966659
0.86833 0.597757 0.0998093
0.887068 0.60264 0.101732
0.903029 0.6056 0.104173
0.91603 0.605203 0.099794
0.925734 0.602197 0.0935378
0.0694285 0.488029 0.167437
0.0773632 0.491417 0.167422
0.0870985 0.496025 0.167636
0.098558 0.500954 0.167422
0.111955 0.506355 0.166629
0.130816 0.512276 0.165225
0.159792 0.51812 0.161746
0.200076 0.523613 0.157549
0.246159 0.528359 0.153155
0.29218 0.532906 0.147234
0.334707 0.538048 0.142672
0.377859 0.542748 0.137606
0.421607 0.547402 0.130053
0.463935 0.552239 0.122637
0.501015 0.557824 0.1196
0.535988 0.563699 0.118303
0.575067 0.568292 0.107866
0.612131 0.572732 0.0973831
0.645212 0.576989 0.0950332
0.675853 0.581018 0.092546
0.703792 0.585214 0.0906386
0.728588 0.590188 0.090547
0.752041 0.595193 0.0904555
0.774609 0.600015 0.0920424
0.796109 0.604623 0.0939956
0.816846 0.609033 0.0951858
0.83711 0.61355 0.0959029
0.857145 0.618021 0.0986954
0.876814 0.622461 0.101976
0.895842 0.627039 0.105455
0.912077 0.629786 0.107195
0.925475 0.630152 0.104646
0.935775 0.627161 0.099382
0.0775311 0.513542 0.174533
0.0871595 0.517555 0.174243
0.0966354 0.522011 0.17435
0.10663 0.527047 0.175158
0.119539 0.532296 0.174029
0.137621 0.538018 0.172686
0.163867 0.543572 0.170275
0.200153 0.548653 0.166461
0.245655 0.553292 0.160571
0.292393 0.5579 0.155581
0.336919 0.562234 0.149783
0.379187 0.56701 0.145174
0.420798 0.572106 0.140307
0.462379 0.57731 0.134386
0.501671 0.582696 0.13022
0.537331 0.588205 0.127687
0.570916 0.593744 0.128389
0.609003 0.59855 0.1149
0.644572 0.603098 0.103777
0.676417 0.607355 0.102144
0.705791 0.611292 0.100404
0.733333 0.615213 0.098146
0.756924 0.62002 0.0983291
0.779538 0.62472 0.0990463
0.801511 0.629358 0.100862
0.822843 0.633707 0.10309
0.843519 0.638025 0.103548
0.863966 0.642283 0.10457
0.884291 0.646479 0.107286
0.90399 0.650797 0.110216
0.920897 0.653346 0.112276
0.934691 0.653956 0.112337
0.945144 0.651164 0.108339
0.0870222 0.538994 0.182834
0.0956283 0.543206 0.183459
0.104662 0.547585 0.183734
0.114565 0.552316 0.184649
0.128222 0.557366 0.184314
0.144488 0.562463 0.182757
0.16669 0.567803 0.180606
0.201434 0.572641 0.176272
0.245563 0.577325 0.171206
0.291966 0.581643 0.16556
0.337774 0.585565 0.160128
0.380194 0.590219 0.1552
0.420569 0.595407 0.152041
0.460197 0.600778 0.148791
0.499352 0.606409 0.14551
0.537438 0.611734 0.142214
0.570748 0.617273 0.141085
0.603052 0.622446 0.142138
0.640681 0.627573 0.125628
0.675563 0.632395 0.112902
0.705989 0.63653 0.110811
0.734478 0.640299 0.109209
0.760967 0.643977 0.108064
0.783856 0.648524 0.109102
0.806149 0.653056 0.110506
0.827878 0.657481 0.112352
0.84918 0.661723 0.113527
0.870085 0.665751 0.114565
0.89131 0.669596 0.116258
0.911681 0.673777 0.118471
0.929015 0.676158 0.118624
0.943191 0.676692 0.118181
0.954131 0.674144 0.116945
0.0969863 0.563928 0.192401
0.105409 0.568063 0.193057
0.114244 0.572259 0.193973
0.123888 0.57673 0.194415
0.135256 0.581384 0.193835
0.151308 0.585977 0.192142
0.17229 0.59086 0.190692
0.202701 0.595621 0.18822
0.243473 0.599878 0.183917
0.291768 0.603601 0.179263
0.337514 0.607797 0.174228
0.38088 0.612085 0.169375
0.420508 0.617273 0.166476
0.457603 0.62298 0.166583
0.496086 0.628443 0.164889
0.534112 0.633722 0.162249
0.5691 0.639323 0.161288
0.60174 0.644495 0.160876
0.632563 0.649744 0.162325
0.670741 0.655467 0.13846
0.704067 0.66067 0.124941
0.733532 0.664561 0.123033
0.761212 0.668132 0.122347
0.787243 0.671687 0.119615
0.810056 0.676081 0.120333
0.832349 0.680385 0.122286
0.854215 0.684718 0.123949
0.875746 0.688624 0.124193
0.897124 0.692256 0.125216
0.918502 0.695872 0.127047
0.937072 0.698222 0.12694
0.951461 0.698497 0.125734
0.961044 0.696452 0.124788
0.105608 0.587625 0.204211
0.114366 0.591424 0.2047
0.122805 0.595468 0.205951
0.133074 0.599405 0.205997
0.144427 0.603708 0.206317
0.159167 0.608133 0.205722
0.17937 0.612451 0.204562
0.203143 0.616999 0.202991
0.241825 0.620874 0.199649
0.289418 0.624689 0.194705
0.336294 0.628962 0.190326
0.378698 0.633463 0.186557
0.418433 0.638422 0.184695
0.455894 0.64387 0.18471
0.492164 0.649424 0.18613
0.528771 0.654887 0.184955
0.565072 0.660258 0.182971
0.598962 0.665751 0.183062
0.63006 0.670985 0.183886
0.66006 0.675868 0.18587
0.698375 0.682292 0.154192
0.730938 0.687587 0.138521
0.75964 0.691463 0.135637
0.786923 0.694865 0.134295
0.813321 0.698222 0.131792
0.835798 0.702571 0.13373
0.858366 0.70663 0.135485
0.880659 0.710628 0.135866
0.902419 0.714137 0.136553
0.924041 0.717723 0.137438
0.943969 0.719982 0.137026
0.954498 0.720073 0.134508
0.964172 0.71841 0.132372
0.115694 0.610162 0.216678
0.123705 0.613886 0.218235
0.132982 0.617395 0.218906
0.142718 0.62118 0.219547
0.153994 0.625238 0.220661
0.167697 0.629313 0.22092
0.183688 0.633509 0.220371
0.20911 0.637247 0.218189
0.241703 0.641154 0.215579
0.284718 0.644831 0.212726
0.332784 0.649104 0.209705
0.375937 0.653773 0.207156
0.415183 0.658778 0.206485
0.452277 0.664286 0.205066
0.488289 0.669703 0.206256
0.523171 0.674952 0.209949
0.55877 0.68043 0.208499
0.593256 0.685817 0.20766
0.625986 0.691325 0.207752
0.65594 0.696284 0.210147
0.684932 0.701183 0.210391
0.722957 0.707729 0.174411
0.755611 0.713603 0.153674
0.784527 0.71751 0.150225
0.81207 0.720913 0.148226
0.838499 0.724392 0.144793
0.861692 0.728374 0.146471
0.884642 0.732235 0.147036
0.907393 0.735805 0.147814
0.929397 0.739132 0.14818
0.946838 0.741756 0.148013
0.957488 0.741558 0.144732
0.967239 0.740291 0.141115
0.126177 0.631525 0.230808
0.134676 0.634775 0.232364
0.143526 0.638071 0.233677
0.152117 0.641917 0.235187
0.162905 0.645533 0.235294
0.175143 0.649363 0.235462
0.19176 0.653239 0.234958
0.212436 0.656931 0.233936
0.238025 0.660624 0.232242
0.276722 0.664439 0.230838
0.322942 0.668376 0.227939
0.368978 0.673243 0.227085
0.409461 0.678447 0.22594
0.446082 0.683894 0.226062
0.481605 0.689357 0.227237
0.516106 0.694911 0.229541
0.550027 0.700191 0.232837
0.584863 0.70547 0.231968
0.618021 0.710903 0.232151
0.649485 0.716335 0.232486
0.678904 0.721218 0.233478
0.707485 0.72604 0.232898
0.745617 0.732631 0.196292
0.77908 0.739055 0.170977
0.808362 0.743221 0.165469
0.836744 0.746548 0.162753
0.863722 0.749935 0.159289
0.887495 0.753658 0.160662
0.911254 0.757275 0.160937
0.933715 0.760647 0.160555
0.949584 0.763729 0.159762
0.960403 0.763455 0.155108
0.970245 0.762219 0.149447
0.136538 0.652247 0.244022
0.1449 0.65536 0.245411
0.153674 0.658442 0.246586
0.162356 0.661891 0.248035
0.172747 0.665278 0.248463
0.184039 0.668986 0.249348
0.198505 0.672328 0.249378
0.215381 0.676097 0.24979
0.236973 0.679591 0.249149
0.26714 0.683345 0.247822
0.30573 0.687831 0.247456
0.352407 0.692546 0.247395
0.395712 0.697749 0.247333
0.435325 0.702968 0.247517
0.471916 0.708553 0.249104
0.506294 0.714199 0.250629
0.539971 0.719844 0.252689
0.572671 0.725322 0.256794
0.606226 0.730571 0.256641
0.638361 0.735836 0.256672
0.66923 0.741039 0.257801
0.698558 0.745892 0.260349
0.728115 0.750591 0.258488
0.766796 0.757122 0.222019
0.801205 0.763745 0.194461
0.831647 0.768353 0.18497
0.861189 0.771847 0.179538
0.88893 0.775189 0.175265
0.913741 0.778592 0.175158
0.937362 0.781842 0.174853
0.952224 0.785183 0.173266
0.963378 0.785306 0.167102
0.9729 0.783825 0.159869
0.147921 0.672526 0.25742
0.156435 0.675395 0.258396
0.164584 0.678492 0.259907
0.172763 0.681804 0.26154
0.18291 0.684886 0.26215
0.193408 0.68838 0.263233
0.206149 0.691737 0.263615
0.219394 0.695323 0.263981
0.234989 0.698955 0.264302
0.256565 0.702937 0.264805
0.284489 0.707225 0.265583
0.325567 0.71191 0.26685
0.372549 0.716869 0.267079
0.416968 0.722164 0.267994
0.455726 0.727535 0.268879
0.491554 0.733166 0.270451
0.525887 0.738811 0.272923
