luts/kodak_aerochrome.cube
TITLE "Aerochrome Infrared Style"
LUT_3D_SIZE 5
DOMAIN_MIN 0.0 0.0 0.0
DOMAIN_MAX 1.0 1.0 1.0
0.000000 0.000000 0.000000
0.225000 0.000000 0.000000
0.450000 0.000000 0.000000
0.675000 0.000000 0.000000
0.900000 0.000000 0.000000
0.650000 0.000000 0.000000
0.250000 0.250000 0.000000
0.450000 0.175000 0.000000
0.675000 0.175000 0.000000
0.900000 0.175000 0.000000
0.900000 0.000000 0.000000
0.900000 0.125000 0.000000
0.500000 0.500000 0.000000
0.675000 0.350000 0.000000
0.900000 0.350000 0.000000
1.000000 0.000000 0.000000
1.000000 0.125000 0.000000
1.000000 0.250000 0.000000
0.750000 0.750000 0.000000
0.900000 0.525000 0.000000
1.000000 0.000000 0.000000
1.000000 0.125000 0.000000
1.000000 0.250000 0.000000
1.000000 0.375000 0.000000
1.000000 1.000000 0.000000
0.000000 0.550000 0.250000
0.250000 0.000000 0.250000
0.450000 0.000000 0.200000
0.675000 0.000000 0.200000
0.900000 0.000000 0.200000
0.000000 0.250000 0.250000
0.250000 0.250000 0.250000
0.450000 0.175000 0.200000
0.675000 0.175000 0.200000
0.900000 0.175000 0.200000
0.900000 0.000000 0.125000
0.900000 0.125000 0.125000
0.500000 0.500000 0.250000
0.675000 0.350000 0.200000
0.900000 0.350000 0.200000
1.000000 0.000000 0.125000
1.000000 0.125000 0.125000
1.000000 0.250000 0.125000
0.750000 0.750000 0.250000
0.900000 0.525000 0.200000
1.000000 0.000000 0.125000
1.000000 0.125000 0.125000
1.000000 0.250000 0.125000
1.000000 0.375000 0.125000
1.000000 1.000000 0.250000
0.000000 0.800000 0.500000
0.125000 0.800000 0.500000
0.500000 0.000000 0.500000
0.675000 0.000000 0.400000
0.900000 0.000000 0.400000
0.000000 0.800000 0.500000
0.125000 0.800000 0.500000
0.500000 0.250000 0.500000
0.675000 0.175000 0.400000
0.900000 0.175000 0.400000
0.000000 0.500000 0.500000
0.250000 0.500000 0.500000
0.500000 0.500000 0.500000
0.675000 0.350000 0.400000
0.900000 0.350000 0.400000
1.000000 0.000000 0.250000
1.000000 0.125000 0.250000
1.000000 0.250000 0.250000
0.750000 0.750000 0.500000
0.900000 0.525000 0.400000
1.000000 0.000000 0.250000
1.000000 0.125000 0.250000
1.000000 0.250000 0.250000
1.000000 0.375000 0.250000
1.000000 1.000000 0.500000
0.000000 1.000000 0.750000
0.125000 1.000000 0.750000
0.250000 1.000000 0.750000
0.750000 0.000000 0.750000
0.900000 0.000000 0.600000
0.000000 1.000000 0.750000
0.125000 1.000000 0.750000
0.250000 1.000000 0.750000
0.750000 0.250000 0.750000
0.900000 0.175000 0.600000
0.000000 1.000000 0.750000
0.125000 1.000000 0.750000
0.250000 1.000000 0.750000
0.750000 0.500000 0.750000
0.900000 0.350000 0.600000
0.000000 0.750000 0.750000
0.250000 0.750000 0.750000
0.500000 0.750000 0.750000
0.750000 0.750000 0.750000
0.900000 0.525000 0.600000
1.000000 0.000000 0.375000
1.000000 0.125000 0.375000
1.000000 0.250000 0.375000
1.000000 0.375000 0.375000
1.000000 1.000000 0.750000
0.000000 1.000000 1.000000
0.125000 1.000000 1.000000
0.250000 1.000000 1.000000
0.375000 1.000000 1.000000
1.000000 0.000000 1.000000
0.000000 1.000000 1.000000
0.125000 1.000000 1.000000
0.250000 1.000000 1.000000
0.375000 1.000000 1.000000
1.000000 0.250000 1.000000
0.000000 1.000000 1.000000
0.125000 1.000000 1.000000
0.250000 1.000000 1.000000
0.375000 1.000000 1.000000
1.000000 0.500000 1.000000
0.000000 1.000000 1.000000
0.125000 1.000000 1.000000
0.250000 1.000000 1.000000
0.375000 1.000000 1.000000
1.000000 0.750000 1.000000
0.000000 1.000000 1.000000
0.250000 1.000000 1.000000
0.500000 1.000000 1.000000
0.750000 1.000000 1.000000
1.000000 1.000000 1.000000
