luts/Lava Lamp.cube
TITLE "Generated by Resolve"
LUT_3D_SIZE 9
0 0 0
0.0288701 0 0
0.0889448 0 0.0722362
0.12192 0 0.167132
0.170764 0 0.263523
0.221393 0 0.357595
0.272923 0 0.449042
0.325002 0 0.537804
0.377432 0 0.624109
0 0.0522774 0
0 0.0648356 0
0.0117189 0 0.114015
0.0282902 0 0.223194
0.059617 0 0.331411
0.100511 0 0.428199
0.151476 0 0.513817
0.203677 0 0.595789
0.256306 0 0.676112
0.054612 0.213962 0
0 0.227939 0
0.00347906 0.239933 0.121218
0.0102083 0.235477 0.240635
0.0275425 0.228641 0.350668
0.0535744 0.217395 0.456779
0.0853285 0.199786 0.560678
0.120012 0.168521 0.662013
0.154986 0.0548409 0.759136
0.0270542 0.341451 0
0 0.355871 0
0 0.368673 0.0971542
0.0103761 0.38056 0.242832
0.0204929 0.376974 0.362676
0.0362097 0.373465 0.473106
0.0576333 0.369512 0.577432
0.0843366 0.364767 0.677913
0.115068 0.359457 0.775189
0.0129702 0.469841 0
0 0.484413 0
0 0.497856 0.0585336
0 0.510018 0.201328
0.0223697 0.52195 0.34522
0.0335088 0.518547 0.466026
0.0484169 0.515679 0.577783
0.0673228 0.513161 0.682811
0.0903334 0.510735 0.783475
0.0255131 0.598764 0
0 0.613367 0
0 0.627283 0.0103609
0 0.639933 0.153033
0.00906386 0.651896 0.297322
0.0354314 0.66392 0.442908
0.0471504 0.660563 0.564736
0.0616007 0.657847 0.678691
0.0791333 0.655665 0.78645
0.03682 0.728115 0
0 0.742718 0
0 0.756924 0
0 0.770047 0.106249
0 0.7823 0.250385
0.0215763 0.794202 0.396139
0.0487068 0.806302 0.543359
0.0608682 0.802945 0.665919
0.0750744 0.800259 0.781491
0.0476081 0.857755 0
0 0.872328 0
0 0.886748 0
0 0.900252 0.0608225
0 0.912871 0.204578
0.00680552 0.92491 0.350103
0.0344549 0.936812 0.497292
0.0621195 0.948974 0.646143
0.0746471 0.945617 0.769268
0.0581369 0.98761 0
0.00794995 1 0
0 1 0
0 1 0.0165408
0 1 0.159869
0 1 0.304982
0.01944 1 0.451881
0.0475776 1 0.600519
0.075639 1 0.751003
0.0207675 0 0
0.0861524 0 0.0695659
0.167269 0 0.170321
0.228992 0 0.250568
0.288777 0 0.338567
0.34551 0 0.431907
0.40148 0 0.530358
0.457237 0 0.635096
0.513069 0 0.738903
0.0212253 0.0241093 0
0.103059 0.0754711 0.186267
0.147402 0.0632181 0.232166
0.190219 0 0.252049
0.238651 0 0.335943
0.289128 0 0.428397
0.340719 0 0.527031
0.393027 0 0.630991
0.445853 0 0.729946
0.146441 0.186358 0
0.100298 0.216663 0.122011
0.113588 0.228779 0.281636
0.125368 0.224033 0.310124
0.150896 0.215946 0.398596
0.182284 0.205142 0.500175
0.222629 0.190127 0.6
0.273167 0.1682 0.692195
0.325124 0.132036 0.784436
0.121324 0.314046 0
0.0831922 0.344884 0.00544747
0.100099 0.357595 0.151446
0.123095 0.369528 0.302266
0.134569 0.365881 0.408057
0.153658 0.361822 0.511391
0.179858 0.356817 0.61648
0.211093 0.35108 0.72578
0.245075 0.345281 0.840681
0.117647 0.442451 0
0.075639 0.473579 0
0.0864576 0.486885 0.0820783
0.110246 0.499046 0.227085
0.135485 0.511009 0.374365
0.147234 0.507591 0.49453
0.163836 0.504479 0.609888
0.185443 0.501396 0.724453
0.21181 0.498131 0.842206
0.126757 0.571389 0
0.0762951 0.60267 0
0.0738689 0.616464 0.0288396
0.0961318 0.629053 0.172778
0.122026 0.641016 0.31902
0.148425 0.653071 0.467399
0.160525 0.649714 0.594018
0.176074 0.646845 0.717174
0.195239 0.644388 0.840116
0.136889 0.70074 0
0.0835279 0.732097 0
0.0639506 0.746197 0
0.082002 0.759243 0.125628
0.107515 0.771466 0.271229
0.134493 0.783383 0.419104
0.161639 0.795499 0.569314
0.174075 0.792157 0.701076
0.189075 0.78938 0.830991
0.147173 0.830381 0
0.0950179 0.861769 0
0.0576638 0.876081 0
0.068864 0.889509 0.0828565
0.0926986 0.902083 0.227909
0.119692 0.914107 0.375326
0.147356 0.92604 0.52517
0.175036 0.938216 0.677775
0.187747 0.934874 0.814481
0.157397 0.960235 0
0.108904 0.991623 0
0.0553902 1 0
0.0574502 1 0.0432136
0.0782177 1 0.187747
0.104463 1 0.334691
0.132296 1 0.484154
0.160464 1 0.636393
0.188556 1 0.792081
0.124727 0 0.134585
0.170718 0 0.274968
0.198245 0 0.417029
0.236194 0 0.539879
0.330968 0 0.648692
0.417197 0 0.732387
0.488975 0 0.80943
0.553567 0 0.886046
0.614694 0 0.963882
0.124117 0 0.125246
0.18912 0 0.297185
0.202426 0.0477302 0.439261
0.269657 0 0.555077
0.346654 0 0.635172
0.408026 0 0.711666
0.465675 0 0.789303
0.522225 0 0.867964
0.578363 0 0.947814
0.234943 0.157458 0.116609
0.196582 0.187869 0.288945
0.225971 0.216709 0.463249
0.269245 0.205371 0.543618
0.315129 0.193378 0.624598
0.36318 0.180117 0.705928
0.412833 0.164996 0.787564
0.46363 0.147372 0.869627
0.51519 0.126009 0.952407
0.23975 0.28571 0.0750591
0.190158 0.316518 0.247608
0.21561 0.345769 0.421851
0.237339 0.358068 0.564935
0.25182 0.354131 0.665248
0.278386 0.348211 0.759823
0.309606 0.342 0.853635
0.349172 0.335088 0.938643
0.398703 0.326925 1
0.237507 0.414542 0.0271458
0.183124 0.445624 0.201236
0.20238 0.475441 0.376516
0.224552 0.487755 0.519875
0.249195 0.499916 0.664271
0.261906 0.496498 0.769238
0.281621 0.492805 0.86656
0.307805 0.488518 0.962448
0.338567 0.48397 1
0.237736 0.54374 0
0.181216 0.574975 0.146532
0.18909 0.60531 0.324987
0.210239 0.617929 0.468971
0.235569 0.629984 0.614603
0.261738 0.642145 0.761181
0.274311 0.638819 0.869078
0.291478 0.635721 0.970672
0.313283 0.632654 1
0.241688 0.673228 0
0.185626 0.70454 0.0727703
0.177783 0.735271 0.262272
0.195697 0.748272 0.407858
0.220874 0.760525 0.556039
0.247654 0.772503 0.70573
0.274723 0.78468 0.856031
0.287434 0.781369 0.966781
0.303471 0.778454 1
0.248341 0.802945 0
0.19501 0.834302 0
0.16968 0.865309 0.150271
0.181979 0.87866 0.312383
0.205814 0.891218 0.473884
0.232715 0.903273 0.633967
0.260319 0.915236 0.792447
0.287999 0.927459 0.949447
0.300908 0.924132 1
0.256535 0.932845 0
0.207553 0.964218 0
0.165377 0.995438 0
0.169863 1 0.119722
0.191058 1 0.271183
0.217365 1 0.431846
0.245197 1 0.627054
0.273335 1 0.871763
0.301457 1 1
0.203449 0 0.22417
0.135576 0 0.364355
0.260258 0 0.505776
0.295796 0 0.648966
0.333928 0 0.770962
0.415198 0 0.89424
0.514656 0 0.997101
0.605234 0 1
0.683787 0 1
0.190005 0 0.215076
0.11194 0 0.387167
0.268559 0 0.528893
0.304784 0 0.672251
0.353429 0 0.795575
0.449775 0 0.903853
0.537041 0 0.987213
0.609491 0 1
0.674571 0 1
0.204929 0.112276 0.207263
0.248005 0.142947 0.37966
0.299031 0.172534 0.553628
0.325246 0.185214 0.696529
0.393362 0.163958 0.811719
0.470085 0.142672 0.891188
0.530907 0.12488 0.967239
0.587961 0.105821 1
0.644022 0.0833143 1
0.330571 0.256428 0.200107
0.282124 0.287343 0.372412
0.30927 0.317143 0.546059
0.347326 0.346349 0.720974
0.39379 0.335698 0.801053
0.441108 0.325536 0.881651
0.489418 0.315877 0.962631
0.538705 0.306722 1
0.588861 0.298161 1
0.345647 0.385794 0.160159
0.284886 0.416876 0.332525
0.299901 0.446937 0.505959
0.336385 0.47602 0.680705
0.361089 0.488579 0.823758
0.377447 0.484901 0.923796
0.405112 0.479347 1
0.436744 0.473732 1
0.476219 0.467765 1
0.349126 0.51545 0.118166
0.286122 0.546654 0.290852
0.28864 0.57705 0.464378
0.323293 0.606348 0.6392
0.348165 0.618662 0.782269
0.374197 0.631067 0.926009
0.388067 0.627802 1
0.408591 0.62417 1
0.435203 0.619898 1
0.351324 0.645243 0.0734875
0.290196 0.676524 0.246891
0.278065 0.707256 0.420844
0.309285 0.736889 0.596063
0.333898 0.749279 0.739208
0.360388 0.761425 0.883238
0.387366 0.77377 1
0.400717 0.770535 1
0.418494 0.767422 1
0.354849 0.775158 0.0254368
0.297948 0.806485 0.200122
0.269917 0.837476 0.374929
0.295567 0.867475 0.550912
0.319005 0.880079 0.694209
0.345602 0.892241 0.838605
0.373053 0.904311 0.983841
0.400671 0.916655 1
0.413962 0.91339 1
0.360159 0.905196 0
0.308782 0.936538 0.149767
0.265156 0.967742 0.326085
0.283009 0.998062 0.503349
0.304189 1 0.646891
0.330297 1 0.791791
0.357977 1 0.937758
0.386053 1 1
0.414145 1 1
0.219989 0 0.316091
0.132677 0 0.456153
0.255436 0 0.597238
0.361746 0 0.73991
0.40238 0 0.883452
0.436683 0 1
0.504295 0 1
0.59855 0 1
0.699031 0 1
0.213581 0 0.307012
0.123644 0 0.479316
0.295491 0 0.62063
0.371069 0 0.763272
0.409903 0 0.906767
0.449668 0 1
0.532509 0 1
0.633204 0 1
0.724743 0 1
0.232883 0.0683299 0.299153
0.153582 0.0990463 0.471565
0.350256 0.128969 0.645182
0.393652 0.141833 0.787579
0.426139 0.154101 0.930816
0.474159 0.137987 1
0.570291 0.107103 1
0.65742 0.0790112 1
0.729809 0.052369 1
0.272602 0.211124 0.292165
0.234684 0.242161 0.46453
0.37464 0.272526 0.637919
0.419837 0.302388 0.812512
0.447822 0.315938 0.955459
0.517113 0.296651 1
0.594247 0.279149 1
0.654994 0.267491 1
0.711742 0.257633 1
0.409491 0.356512 0.285039
0.362478 0.387655 0.457374
0.387823 0.418036 0.630594
0.427237 0.447654 0.804944
0.468803 0.477134 0.980163
0.516228 0.467079 1
0.565896 0.45687 1
0.614878 0.44773 1
0.664363 0.439384 1
0.441184 0.486519 0.245624
0.377966 0.517739 0.418006
0.381735 0.548302 0.591058
0.416876 0.577905 0.765209
0.457496 0.607065 0.940276
0.484123 0.619852 1
0.5019 0.616312 1
0.530602 0.610834 1
0.56286 0.605264 1
0.451637 0.616678 0.205234
0.388037 0.647959 0.377752
0.374304 0.678737 0.550774
0.404746 0.708553 0.724834
0.444495 0.737697 0.899855
0.471183 0.750118 1
0.49836 0.762737 1
0.513207 0.759564 1
0.534524 0.755947 1
0.457633 0.746899 0.163653
0.39791 0.77821 0.336446
0.367864 0.809216 0.50956
0.392203 0.839292 0.683665
0.430472 0.868605 0.858732
0.457053 0.880949 1
0.48455 0.893233 1
0.512245 0.905745 1
0.526314 0.902586 1
0.462959 0.877165 0.120714
0.409018 0.908492 0.29395
0.363836 0.939666 0.467277
0.380316 0.970031 0.641566
0.416159 0.999588 0.816815
0.442206 1 0.959854
0.469841 1 1
0.497902 1 1
0.52604 1 1
0.261967 0 0.409369
0.173358 0 0.549447
0.129732 0 0.690211
0.406516 0 0.832227
0.468421 0 0.975189
0.509163 0 1
0.541482 0 1
0.599725 0 1
0.683528 0 1
0.25832 0 0.400397
0.165087 0 0.572747
0.136248 0 0.713603
0.419165 0 0.855634
0.47628 0 0.998581
0.516121 0 1
0.551781 0 1
0.620813 0 1
0.716289 0 1
0.270176 0.0259403 0.392126
0.181048 0.0566567 0.564553
0.214725 0.086656 0.737835
0.446998 0.0994278 0.879759
0.492882 0.111406 1
0.529046 0.123186 1
0.568154 0.109209 1
0.650965 0.0796216 1
0.751797 0.0435645 1
0.299428 0.166705 0.384817
0.216175 0.197742 0.557244
0.405325 0.228458 0.730419
0.481254 0.258839 0.904723
0.516976 0.272847 1
0.548714 0.287114 1
0.596643 0.274846 1
0.692653 0.250126 1
0.779599 0.231159 1
0.33576 0.311147 0.377859
0.267704 0.342336 0.550256
0.44271 0.373083 0.723308
0.494896 0.403235 0.897383
0.54081 0.433265 1
0.570108 0.447074 1
0.640452 0.428107 1
0.718227 0.411185 1
0.779232 0.400366 1
0.399863 0.457252 0.370779
0.434485 0.488518 0.543175
0.461921 0.519265 0.716136
0.503639 0.549279 0.890043
0.546868 0.578897 1
0.590402 0.608576 1
0.6392 0.598611 1
0.689921 0.588464 1
0.73962 0.579385 1
0.525536 0.587655 0.331609
0.468086 0.618952 0.504036
0.461112 0.649836 0.67689
0.49485 0.679896 0.850629
0.535958 0.709377 1
0.57882 0.738659 1
0.606806 0.751598 1
0.625681 0.748165 1
0.655253 0.742702 1
0.545937 0.718181 0.291905
0.487404 0.749477 0.464424
0.458991 0.780529 0.637217
0.484703 0.810758 0.810834
0.523537 0.840284 0.985306
0.565866 0.869429 1
0.593851 0.881971 1
0.621973 0.894743 1
0.637644 0.891661 1
0.557198 0.848707 0.251545
0.502937 0.880018 0.424201
0.457679 0.911208 0.597009
0.474464 0.941649 0.770596
0.510414 0.971344 0.945022
0.551949 1 1
0.579873 1 1
0.608179 1 1
0.636545 1 1
0.310307 0 0.503441
0.221546 0 0.643503
0.154986 0 0.783963
0.370123 0 0.92546
0.521279 0 1
0.575097 0 1
0.616068 0 1
0.647242 0 1
0.699214 0 1
0.306447 0 0.494438
0.211429 0 0.666819
0.152453 0 0.807355
0.417578 0 0.948898
0.530861 0 1
0.582498 0 1
0.622873 0 1
0.656336 0 1
0.715831 0 1
0.311467 0 0.485847
0.219379 0.0158999 0.658305
0.170397 0.0459144 0.831327
0.468315 0.0584878 0.972839
0.54873 0.0700542 1
0.595209 0.0813001 1
0.633463 0.0931258 1
0.668696 0.0800183 1
0.737819 0.0536202 1
0.334066 0.123735 0.478172
0.245243 0.154665 0.650645
0.217227 0.185504 0.823636
0.52256 0.216144 0.997635
0.576913 0.230472 1
0.616083 0.244968 1
0.650721 0.259846 1
0.689235 0.25182 1
0.77174 0.230869 1
0.363638 0.266361 0.471046
0.279606 0.297551 0.643503
0.419013 0.328542 0.816434
0.548119 0.359152 0.990265
0.605417 0.38967 1
0.639567 0.403922 1
0.671351 0.41857 1
0.719524 0.406897 1
0.815656 0.383047 1
0.396658 0.411826 0.464103
0.322454 0.443107 0.636545
0.499855 0.474098 0.8094
0.565347 0.504524 0.983093
0.615305 0.534615 1
0.661997 0.564752 1
0.692256 0.578653 1
0.763455 0.559747 1
0.841856 0.54287 1
0.442664 0.558404 0.457069
0.481056 0.589731 0.629511
0.530526 0.620737 0.802319
0.576623 0.651072 0.975906
0.622156 0.680934 1
0.667262 0.710613 1
0.712077 0.740459 1
0.761883 0.730541 1
0.813443 0.720394 1
0.590539 0.689097 0.418036
0.55378 0.720424 0.590509
0.537453 0.751522 0.763226
0.570428 0.781933 0.936675
0.612192 0.811749 1
0.656001 0.841199 1
0.700298 0.870634 1
0.72929 0.883696 1
0.74902 0.880323 1
0.631174 0.819867 0.378668
0.58352 0.851194 0.551202
0.542138 0.882414 0.723888
0.563119 0.912947 0.897231
0.600977 0.94284 1
0.643458 0.972244 1
0.687358 1 1
0.71632 1 1
0.745205 1 1
0.358465 0 0.597879
0.270497 0 0.737957
0.192187 0 0.878233
0.182788 0 1
0.54992 0 1
0.631464 0 1
0.68188 0 1
0.723095 0 1
0.753521 0 1
0.354925 0 0.588891
0.259785 0 0.761318
0.186587 0 0.90164
0.193347 0 1
0.56492 0 1
0.640162 0 1
0.689204 0 1
0.7299 0 1
0.762036 0 1
0.355215 0 0.580087
0.262364 0 0.752575
0.19118 0.00715648 0.925399
0.231647 0.0195621 1
0.586603 0.0307622 1
0.65301 0.0415045 1
0.699397 0.052781 1
0.738903 0.0656748 1
0.772122 0.054139 1
0.372015 0.082475 0.572076
0.281727 0.113237 0.744595
0.217258 0.143984 0.917433
0.507134 0.174655 1
0.622446 0.189166 1
0.675837 0.203784 1
0.717174 0.218753 1
0.753918 0.234302 1
0.788434 0.228916 1
0.397696 0.222614 0.564691
0.310399 0.253758 0.737209
0.257969 0.28484 0.910033
0.57116 0.315755 1
0.658915 0.346639 1
0.702434 0.361273 1
0.739178 0.376242 1
0.773129 0.391699 1
0.811368 0.384527 1
0.425956 0.366827 0.557641
0.343114 0.398093 0.730159
0.316594 0.429252 0.902922
0.607584 0.460029 1
0.674769 0.490578 1
0.728069 0.521141 1
0.761837 0.535439 1
0.793866 0.550149 1
0.842374 0.538537 1
0.456336 0.512947 0.550713
0.38143 0.544274 0.723201
0.530755 0.575433 0.895949
0.630488 0.606088 1
0.686442 0.636347 1
0.736049 0.666453 1
0.783352 0.696666 1
0.814343 0.710613 1
0.886213 0.691676 1
0.494926 0.659861 0.543725
0.443366 0.691218 0.716213
0.590692 0.722393 0.88893
0.645869 0.753002 1
0.694728 0.783108 1
0.741848 0.812924 1
0.788083 0.842695 1
0.833814 0.872648 1
0.885451 0.862394 1
0.549187 0.790768 0.504768
0.632868 0.82211 0.677302
0.609522 0.853361 0.849943
0.64332 0.884047 1
0.68629 0.914137 1
0.731228 0.943832 1
0.776562 0.973327 1
0.821866 1 1
0.851652 1 1
0.4065 0 0.692607
0.319768 0 0.832715
0.234348 0 0.972854
0.193851 0 1
0.481483 0 1
0.673243 0 1
0.740185 0 1
0.788785 0 1
0.830198 0 1
0.40351 0 0.68365
0.309087 0 0.856107
0.227405 0 0.996307
0.195361 0 1
0.541772 0 1
0.684871 0 1
0.748608 0 1
0.796155 0 1
0.837125 0 1
0.400565 0 0.674708
0.307942 0 0.847211
0.224811 0 1
0.203876 0 1
0.583368 0 1
0.698634 0.00483711 1
0.758618 0.0156863 1
0.80473 0.0282292 1
0.844999 0.0436103 1
0.412299 0.0430304 0.666423
0.32192 0.0735637 0.838972
0.242191 0.104128 1
0.248341 0.134661 1
0.640955 0.149218 1
0.724758 0.163867 1
0.777234 0.178851 1
0.819867 0.19443 1
0.858122 0.210834 1
0.434333 0.180224 0.658763
0.346349 0.211246 0.831342
0.271305 0.242298 1
0.327733 0.27332 1
0.693996 0.304417 1
0.75613 0.319341 1
0.801205 0.334585 1
0.839933 0.350256 1
0.8757 0.366476 1
0.460182 0.322591 0.65153
0.37528 0.353826 0.824109
0.307362 0.385046 0.996811
0.595468 0.416068 1
0.720104 0.446967 1
0.786557 0.477913 1
0.826322 0.492576 1
0.862013 0.507622 1
0.895705 0.52314 1
0.486931 0.467811 0.644541
0.406455 0.499138 0.81709
0.350652 0.530404 0.989761
0.65568 0.561318 1
0.739712 0.591928 1
0.798367 0.622431 1
0.850233 0.65304 1
0.883955 0.667338 1
0.916274 0.682033 1
0.515282 0.614389 0.637613
0.441947 0.645731 0.810162
0.414694 0.677012 0.982818
0.688655 0.707851 1
0.753964 0.738293 1
0.807446 0.76846 1
0.857038 0.798581 1
0.904845 0.82887 1
0.936385 0.842847 1
0.549523 0.761532 0.630671
0.491768 0.79292 0.803204
0.632776 0.824216 0.97586
0.710491 0.855024 1
0.764446 0.885374 1
0.814176 0.915358 1
0.862165 0.945159 1
0.909194 0.975006 1
0.955596 1 1
