luts/Lava Lamp.cube
TITLE "Generated by Resolve"
LUT_3D_SIZE 33
0 0 0
0 0 0
0 0 0
0 0 0
0.0288701 0 0
0.0472877 0 0
0.0628672 0 0.0237278
0.0771801 0 0.0479896
0.0889448 0 0.0722362
0.0952621 0 0.0959793
0.101884 0 0.119387
0.110857 0 0.143023
0.12192 0 0.167132
0.133867 0 0.191424
0.146029 0 0.215579
0.158328 0 0.239628
0.170764 0 0.263523
0.183307 0 0.287282
0.195941 0 0.310872
0.208637 0 0.334325
0.221393 0 0.357595
0.234211 0 0.380713
0.247074 0 0.403662
0.259983 0 0.426429
0.272923 0 0.449042
0.285893 0 0.471473
0.298909 0 0.493736
0.31194 0 0.515846
0.325002 0 0.537804
0.338079 0 0.559594
0.351171 0 0.581247
0.364294 0 0.602747
0.377432 0 0.624109
0 0 0
0 0 0
0 0 0
0 0 0
0.000854505 0 0
0.0168765 0 0.0171511
0.0323186 0 0.039826
0.0466621 0 0.0624094
0.0583047 0 0.0851759
0.0644999 0 0.107607
0.0711986 0 0.129946
0.0803693 0 0.152728
0.0915694 0 0.17615
0.103441 0 0.199756
0.115511 0 0.223331
0.127733 0 0.24686
0.140078 0 0.270283
0.152499 0 0.293614
0.165042 0 0.316884
0.177661 0 0.340017
0.190311 0 0.362997
0.203006 0 0.385809
0.215747 0 0.408453
0.228519 0 0.430976
0.241321 0 0.45333
0.25417 0 0.475517
0.267048 0 0.497551
0.279927 0 0.519448
0.292836 0 0.541192
0.305776 0 0.562783
0.31873 0 0.584222
0.331701 0 0.605524
0.344717 0 0.626703
0 0 0
0 0 0
0 0 0
0 0 0
0 0 0
0.0043183 0 0.0238804
0.0152132 0 0.0513313
0.0253605 0 0.0788739
0.032578 0 0.105882
0.0352026 0 0.131411
0.0409247 0 0.154467
0.0499733 0 0.176928
0.0612497 0 0.199557
0.0732433 0 0.222202
0.0854047 0 0.244678
0.0977951 0 0.267231
0.110231 0 0.289693
0.122774 0 0.312108
0.135409 0 0.334478
0.148074 0 0.356786
0.160815 0 0.379034
0.173571 0 0.40119
0.186404 0 0.423224
0.199237 0 0.445167
0.212131 0 0.467002
0.22504 0 0.488716
0.23798 0 0.510307
0.250919 0 0.531792
0.26389 0 0.553124
0.27689 0 0.574365
0.289891 0 0.595468
0.302937 0 0.616464
0.315969 0 0.637369
0 0 0
0 0 0
0 0 0
0 0 0
0 0 0
0 0 0.027451
0.00695811 0 0.0551919
0.0153048 0 0.0827955
0.0209659 0 0.110231
0.0227359 0 0.13727
0.0259861 0 0.164157
0.0314641 0 0.191119
0.0385901 0 0.218036
0.0463111 0 0.244526
0.0564126 0 0.269139
0.0677043 0 0.292592
0.0797894 0 0.315267
0.0922408 0 0.33753
0.104875 0 0.359533
0.117617 0 0.381292
0.130419 0 0.40293
0.143252 0 0.424323
0.156191 0 0.445777
0.169116 0 0.467048
0.182086 0 0.488212
0.195056 0 0.50927
0.208072 0 0.530236
0.221103 0 0.551095
0.234119 0 0.571893
0.247181 0 0.592569
0.260243 0 0.613153
0.273335 0 0.633661
0.286442 0 0.654078
0 0.0522774 0
0 0.0559396 0
0 0.0593729 0
0 0.0623789 0
0 0.0648356 0
0 0.0437934 0.0288853
0.00320439 0 0.0581064
0.00927749 0 0.0864576
0.0117189 0 0.114015
0.0124514 0 0.141039
0.0157626 0.000411994 0.168154
0.0213321 0 0.19556
0.0282902 0 0.223194
0.0358129 0 0.250751
0.0436408 0 0.278019
0.0515602 0 0.304952
0.059617 0 0.331411
0.0677653 0 0.357504
0.0774395 0 0.3823
0.088777 0 0.405524
0.100511 0 0.428199
0.112947 0 0.450126
0.125658 0 0.471641
0.138537 0 0.492851
0.151476 0 0.513817
0.164508 0 0.534569
0.177554 0 0.555154
0.190646 0 0.575586
0.203677 0 0.595789
0.216846 0 0.616068
0.229999 0 0.636194
0.243137 0 0.656184
0.256306 0 0.676112
0 0.112383 0
0 0.11606 0
0 0.119692 0
0 0.123186 0
0 0.126528 0
0 0.129671 0.0280308
0.0021973 0.126543 0.0589914
0.005066 0.124346 0.0886091
0.00505074 0.125124 0.117128
0.00631724 0.125154 0.145037
0.00962844 0.121889 0.172747
0.0143587 0.11574 0.20032
0.0200351 0.106874 0.227787
0.0265049 0.0920272 0.255161
0.0336004 0.0271763 0.28246
0.0412146 0.00753796 0.309712
0.0492256 0 0.336889
0.0574197 0 0.36379
0.0657206 0 0.390372
0.0740215 0 0.416587
0.082414 0 0.442405
0.0908064 0 0.467918
0.100008 0 0.4925
0.110994 0 0.515663
0.122805 0 0.53782
0.134768 0 0.559594
0.147372 0 0.580713
0.160189 0 0.60145
0.173175 0 0.621866
0.186236 0 0.642054
0.199359 0 0.662043
0.212528 0 0.681849
0.225711 0 0.701518
0 0.152987 0
0 0.156664 0
0 0.160281 0
0 0.163684 0
0 0.166644 0
0 0.168811 0.0223392
0.00373846 0.170245 0.0586252
0.00311284 0.168826 0.0897688
0.0031281 0.167468 0.119722
0.00442512 0.165805 0.148806
0.00683604 0.163745 0.177172
0.0102846 0.161166 0.205051
0.0147097 0.157931 0.232609
0.0199741 0.153872 0.259953
0.0259861 0.148821 0.28716
0.0326085 0.142443 0.314244
0.0397498 0.134096 0.341222
0.0473487 0.122286 0.368124
0.055314 0.100023 0.394934
0.0635843 0.0322881 0.421622
0.0720226 0.0170748 0.448096
0.0805219 0.00776684 0.474235
0.0889754 0.00120546 0.500145
0.0975357 0 0.525536
0.106111 0 0.550668
0.114672 0 0.575509
0.123659 0 0.59971
0.134127 0 0.622721
0.145647 0 0.644617
0.157641 0 0.665873
0.169802 0 0.686809
0.182513 0 0.707149
0.195407 0 0.727184
0.0355383 0.183871 0
0.0158846 0.187488 0
0 0.191043 0
0 0.194217 0
0 0.196872 0
0 0.199237 0.0176547
0.00114443 0.20206 0.0537423
0.00334173 0.204944 0.0900282
0.00317388 0.203861 0.121202
0.00396735 0.202701 0.151278
0.00569162 0.201373 0.180529
0.00828565 0.199847 0.209079
0.0116884 0.198047 0.237079
0.0158846 0.195911 0.264668
0.0208133 0.193378 0.291951
0.0263981 0.190387 0.319036
0.0325933 0.186892 0.345953
0.0393072 0.182788 0.372717
0.046479 0.177981 0.399359
0.0540169 0.17232 0.425879
0.0619211 0.165515 0.452308
0.0700999 0.157046 0.478614
0.0785382 0.145769 0.504814
0.0871138 0.127657 0.530785
0.0957351 0.0572213 0.556466
0.104402 0.0384833 0.581857
0.112993 0.028275 0.607019
0.12166 0.0213779 0.631693
0.130358 0.0164187 0.656168
0.139025 0.0128328 0.680354
0.147845 0.0102235 0.704189
0.157885 0.00816358 0.726894
0.169131 0.00653086 0.748653
0.054612 0.213962 0
0.0339513 0.217594 0
0.0132753 0.221225 0
0.00178531 0.224659 0
0 0.227939 0
0 0.231083 0.012726
0 0.234089 0.0486915
0 0.237034 0.0848707
0.00347906 0.239933 0.121218
0.00411994 0.238911 0.152407
0.00543221 0.237858 0.182574
0.00746166 0.236728 0.211948
0.0102083 0.235477 0.240635
0.0135958 0.234073 0.268742
0.0176242 0.232502 0.296391
0.0222782 0.230701 0.323659
0.0275425 0.228641 0.350668
0.033341 0.226307 0.377432
0.0396582 0.223667 0.404044
0.0464179 0.220706 0.430472
0.0535744 0.217395 0.456779
0.0610819 0.213703 0.482933
0.0688945 0.209583 0.508965
0.076997 0.204974 0.534874
0.0853285 0.199786 0.560678
0.0938735 0.193881 0.586343
0.102541 0.187045 0.611841
0.111269 0.178897 0.637064
0.120012 0.168521 0.662013
0.12871 0.153277 0.686748
0.137453 0.0885328 0.711192
0.146212 0.0653849 0.735241
0.154986 0.0548409 0.759136
0.0493324 0.24567 0
0.0299382 0.249302 0
0.00834669 0.252964 0
0 0.256504 0
0 0.259861 0
0 0.263066 0.00750744
0 0.266133 0.0433814
0 0.269123 0.0794537
0.000106813 0.272068 0.115724
0.00447089 0.274998 0.152163
0.0056611 0.274006 0.183337
0.00735485 0.273014 0.213565
0.00961318 0.271992 0.243015
0.0124514 0.270909 0.271809
0.0158389 0.269749 0.300008
0.0197604 0.268482 0.327718
0.0242008 0.267094 0.354986
0.0291905 0.265553 0.381949
0.0346838 0.263844 0.408621
0.0406348 0.261967 0.43508
0.0470283 0.259876 0.461341
0.0538338 0.257603 0.487449
0.0609751 0.255131 0.51339
0.0684367 0.252461 0.539178
0.076173 0.249592 0.564828
0.084184 0.246494 0.590372
0.0924239 0.243183 0.615793
0.100862 0.239643 0.641093
0.109483 0.235843 0.666285
0.118227 0.231785 0.69131
0.127001 0.227481 0.716106
0.135836 0.222843 0.740673
0.144671 0.217838 0.764996
0.0422522 0.277531 0
0.0249332 0.281163 0
0.00283818 0.28484 0
0 0.288411 0
0 0.291829 0
0 0.295094 0.00198367
0 0.298222 0.0377508
0 0.301259 0.0737469
0 0.304219 0.109926
0.00108339 0.307164 0.146273
0.00604257 0.310124 0.182788
0.00762951 0.309148 0.213947
0.00959792 0.308202 0.244205
0.0120241 0.307256 0.273701
0.0149386 0.306264 0.302571
0.0183413 0.305241 0.330831
0.0221866 0.304173 0.358587
0.0264897 0.303044 0.385885
0.0312352 0.301823 0.412802
0.0364691 0.300496 0.439429
0.0421302 0.299046 0.465766
0.048188 0.29749 0.49189
0.0546426 0.295796 0.517815
0.0614633 0.293996 0.543572
0.0685893 0.292073 0.569162
0.0760052 0.290028 0.594614
0.0836957 0.287892 0.619928
0.0916152 0.285649 0.64509
0.0997635 0.283284 0.670161
0.10811 0.280842 0.695125
0.11664 0.278309 0.719982
0.125307 0.2757 0.744732
0.134112 0.273045 0.769329
0.0348211 0.309453 0
0.0202029 0.313085 0
0 0.316762 0
0 0.320363 0
0 0.323827 0
0 0.327153 0
0 0.330343 0.031754
0 0.333425 0.0676432
0 0.336431 0.103746
0 0.339391 0.140017
0.00265507 0.342351 0.176455
0.00805676 0.345312 0.213031
0.00993362 0.34435 0.24416
0.0121004 0.343435 0.274434
0.0146639 0.342535 0.303975
0.0176394 0.341619 0.33286
0.0210269 0.340688 0.361181
0.0248264 0.339742 0.388983
0.0290227 0.338766 0.416312
0.0336004 0.337743 0.443214
0.0386053 0.33666 0.469764
0.044007 0.3355 0.49604
0.0497902 0.334264 0.522042
0.0559548 0.332952 0.547829
0.0624399 0.331563 0.573419
0.069276 0.330098 0.59884
0.0763867 0.328557 0.624109
0.083772 0.326955 0.649226
0.0914015 0.325292 0.67422
0.0992447 0.323583 0.699062
0.107317 0.321828 0.723751
0.115587 0.320027 0.748241
0.124025 0.318212 0.772549
0.0270542 0.341451 0
0.0158389 0.345068 0
0 0.34876 0
0 0.352377 0
0 0.355871 0
0 0.359243 0
0 0.362493 0.0253147
0 0.365621 0.0611429
0 0.368673 0.0971542
0 0.371664 0.133349
0 0.374624 0.169696
0.00466926 0.377584 0.20621
0.0103761 0.38056 0.242832
0.0124666 0.379614 0.27393
0.0148165 0.378714 0.304204
0.0174716 0.377829 0.333761
0.0204929 0.376974 0.362676
0.0238956 0.376104 0.391028
0.0276493 0.375235 0.41886
0.031754 0.374365 0.446204
0.0362097 0.373465 0.473106
0.0410163 0.372549 0.499626
0.0462043 0.371588 0.525826
0.0517433 0.370565 0.551751
0.0576333 0.369512 0.577432
0.063859 0.368399 0.602884
0.0703899 0.367239 0.628107
0.0772412 0.366018 0.653117
0.0843366 0.364767 0.677913
0.0916915 0.36347 0.702525
0.0992752 0.362158 0.72694
0.107088 0.360815 0.751156
0.115068 0.359457 0.775189
0.0189822 0.373495 0
0.0120394 0.377111 0
0 0.380789 0
0 0.384436 0
0 0.387976 0
0 0.391379 0
0 0.394675 0.0184329
0 0.397848 0.0541848
0 0.400946 0.0901198
0 0.403967 0.126223
0 0.406943 0.162448
0.00112917 0.409903 0.198795
0.00701915 0.412863 0.235203
0.0129854 0.415854 0.271641
0.0152438 0.414908 0.302754
0.0177157 0.414023 0.333059
0.0204471 0.413169 0.362646
0.0234989 0.412345 0.391592
0.0269017 0.411521 0.419959
0.0306249 0.410697 0.447776
0.0346532 0.409903 0.47509
0.0390021 0.409094 0.501945
0.0436866 0.40827 0.528374
0.0486915 0.407446 0.554421
0.0540169 0.406577 0.580133
0.0596933 0.405692 0.60557
0.0656596 0.404776 0.630716
0.0719615 0.403815 0.655604
0.0785229 0.402838 0.680278
0.085359 0.401816 0.704768
0.0924544 0.400778 0.729122
0.0997787 0.399725 0.753384
0.107317 0.398672 0.777554
0.0119326 0.405585 0
0.00962844 0.409186 0
0 0.412879 0
0 0.416526 0
0 0.420096 0
0 0.423545 0
0 0.426886 0.0103456
0 0.430106 0.0459144
0 0.433234 0.0816358
0 0.436286 0.117464
0 0.439292 0.153399
0 0.442252 0.18941
0.00367742 0.445212 0.225452
0.00979629 0.448188 0.261494
0.0159457 0.451194 0.297505
0.0183261 0.450248 0.328664
0.0208743 0.449363 0.35903
0.0236667 0.448539 0.388678
0.0267491 0.447715 0.41767
0.0301213 0.446921 0.446052
0.0337987 0.446143 0.473899
0.0377813 0.44538 0.501198
0.0420539 0.444633 0.528038
0.0466011 0.4439 0.554406
0.0514534 0.443153 0.580423
0.0565957 0.442405 0.606088
0.0620584 0.441642 0.631479
0.0678111 0.440848 0.656626
0.0738537 0.440055 0.681559
0.0801709 0.439231 0.70631
0.0867475 0.438392 0.730922
0.0935836 0.437552 0.755398
0.100633 0.436698 0.779767
0.0100404 0.437705 0
0.0102846 0.441306 0
0 0.444984 0
0 0.448661 0
0 0.452247 0
0 0.455726 0
0 0.459098 0
0 0.462364 0.0353094
0 0.465537 0.0708324
0 0.46862 0.106432
0 0.471656 0.142107
0 0.474632 0.177844
0.000411994 0.477607 0.213626
0.00663767 0.480568 0.24947
0.0128786 0.483543 0.285359
0.0191501 0.486549 0.321294
0.0216068 0.485618 0.352499
0.0242161 0.484749 0.382925
0.027039 0.483909 0.41268
0.0301213 0.483116 0.441779
0.0334783 0.482338 0.470314
0.0371252 0.48159 0.498314
0.0410315 0.480873 0.525811
0.0451972 0.480156 0.552834
0.0496529 0.479469 0.579446
0.0543679 0.478782 0.605661
0.0593576 0.478111 0.631525
0.0646067 0.47744 0.657099
0.070161 0.476753 0.682429
0.0759899 0.476066 0.70753
0.0820783 0.47538 0.732418
0.088426 0.474678 0.757168
0.0950179 0.47396 0.781765
0.0129702 0.469841 0
0.0133516 0.473457 0
0 0.477134 0
0 0.480797 0
0 0.484413 0
0 0.487922 0
0 0.491325 0
0 0.494636 0.0230716
0 0.497856 0.0585336
0 0.500984 0.0941024
0 0.504036 0.129763
0 0.507042 0.165499
0 0.510018 0.201328
0.0033875 0.512978 0.237217
0.00968948 0.515953 0.273167
0.016022 0.518929 0.309163
0.0223697 0.52195 0.34522
0.0249027 0.521019 0.37644
0.0275578 0.52015 0.406943
0.0304265 0.519341 0.43679
0.0335088 0.518547 0.466026
0.0368505 0.517784 0.494713
0.0404517 0.517067 0.522866
0.0443122 0.51635 0.550546
0.0484169 0.515679 0.577783
0.0527657 0.515023 0.604578
0.0573739 0.514382 0.630991
0.0622263 0.513771 0.657069
0.0673228 0.513161 0.682811
0.072694 0.512551 0.708293
0.0783246 0.51194 0.733562
0.0842145 0.511345 0.758618
0.0903334 0.510735 0.783475
0.0163119 0.502022 0
0.0166323 0.505623 0
0 0.5093 0
0 0.512978 0
0 0.516609 0
0 0.52015 0
0 0.523583 0
0 0.526925 0.0108644
0 0.53019 0.0463111
0 0.533349 0.0818647
0 0.536446 0.11751
0 0.539483 0.153277
0 0.542473 0.189105
1.5259e-05 0.545434 0.225025
0.00639353 0.548409 0.261021
0.0127871 0.551369 0.297078
0.0191958 0.554376 0.333181
0.0256199 0.557397 0.369345
0.0282139 0.556466 0.40061
0.03093 0.555596 0.431174
0.033814 0.554788 0.461112
0.0369116 0.554009 0.490455
0.040238 0.553262 0.519265
0.0438087 0.552544 0.547585
0.0476234 0.551858 0.575433
0.051667 0.551202 0.602823
0.0559396 0.550576 0.629816
0.060441 0.549966 0.656413
0.0651865 0.549386 0.682673
0.070161 0.548821 0.708614
0.0753643 0.548272 0.734264
0.0808118 0.547723 0.75967
0.0865339 0.547189 0.784878
0.019501 0.534249 0
0.0198215 0.53785 0
0.00115969 0.541512 0
0 0.545205 0
0 0.548837 0
0 0.552392 0
0 0.555871 0
0 0.559243 0
0 0.562539 0.0341955
0 0.565728 0.069749
0 0.568856 0.105394
0 0.571923 0.141146
0 0.574945 0.176989
0 0.57792 0.212924
0.00299077 0.580896 0.248936
0.00944533 0.583856 0.285023
0.0159152 0.586831 0.321187
0.022385 0.589837 0.357412
0.0288701 0.592874 0.393683
0.0315251 0.591943 0.424964
0.034287 0.591089 0.455604
0.0372015 0.590265 0.485603
0.0403143 0.589502 0.515053
0.0436408 0.588769 0.543984
0.0471809 0.588052 0.572442
0.0509651 0.587381 0.600427
0.0549477 0.58674 0.628
0.0591592 0.586114 0.655161
0.0635843 0.585534 0.681941
0.0682231 0.584985 0.70837
0.0730755 0.584451 0.734478
0.0781567 0.583932 0.760296
0.0834516 0.583444 0.785855
0.0225528 0.566491 0
0.0229496 0.570092 0
0.00505074 0.573754 0
0 0.577447 0
0 0.581094 0
0 0.584665 0
0 0.588159 0
0 0.591577 0
0 0.594903 0.0222171
0 0.598138 0.0577401
0 0.601297 0.0933852
0 0.604395 0.129122
0 0.607431 0.164965
0 0.610437 0.2009
0 0.613413 0.236927
0.00601205 0.616388 0.273045
0.0125277 0.619348 0.309224
0.0190585 0.622339 0.345495
0.0256046 0.625345 0.381811
0.0321508 0.628382 0.418219
0.0348516 0.627451 0.449516
0.0376593 0.626596 0.480186
0.0406043 0.625788 0.510277
0.0437324 0.625025 0.539818
0.0470436 0.624292 0.568872
0.0505837 0.62359 0.597436
0.0543221 0.622919 0.625574
0.0582589 0.622278 0.653284
0.0624094 0.621683 0.680613
0.0667582 0.621118 0.707546
0.0713207 0.620569 0.734157
0.0760815 0.620066 0.760418
0.0810407 0.619577 0.786404
0.0255131 0.598764 0
0.0260166 0.602365 0
0.00885023 0.606027 0
0 0.60972 0
0 0.613367 0
0 0.616968 0
0 0.620493 0
0 0.623926 0
0 0.627283 0.0103609
0 0.630549 0.0458534
0 0.633738 0.0814832
0 0.636866 0.117205
0 0.639933 0.153033
0 0.642969 0.188968
0 0.64596 0.22501
0.00250248 0.648936 0.261128
0.00906386 0.651896 0.297322
0.0156405 0.654871 0.333608
0.0222324 0.657862 0.36997
0.0288396 0.660868 0.406409
0.0354314 0.66392 0.442908
0.0381933 0.662989 0.474235
0.0410315 0.662135 0.504952
0.044007 0.661326 0.535103
0.0471504 0.660563 0.564736
0.0504616 0.659831 0.593896
0.0539712 0.659144 0.622583
0.0576791 0.658473 0.650843
0.0616007 0.657847 0.678691
0.0656901 0.657252 0.706157
0.0699931 0.656687 0.733257
0.074464 0.656168 0.760006
0.0791333 0.655665 0.78645
0.0284123 0.631067 0
0.0290379 0.634668 0
0.0125734 0.638315 0
0 0.642008 0
0 0.645685 0
0 0.649287 0
0 0.652827 0
0 0.656291 0
0 0.659678 0
0 0.662974 0.0340734
0 0.666194 0.0696727
0 0.669352 0.105379
0 0.67245 0.141207
0 0.675502 0.177127
0 0.678523 0.213153
0 0.681498 0.249271
0.00552377 0.684474 0.285496
0.0121462 0.687434 0.321798
0.0187839 0.69041 0.358175
0.0254368 0.693416 0.394629
0.0320897 0.696422 0.431174
0.0387274 0.699474 0.467796
0.0415351 0.698558 0.499123
0.044419 0.697704 0.529885
0.047425 0.696895 0.560098
0.0505684 0.696132 0.589822
0.0538796 0.695399 0.619058
0.0573892 0.694713 0.647868
0.0610666 0.694057 0.676234
0.0649424 0.693431 0.704219
0.0690013 0.692836 0.731823
0.0732433 0.692287 0.75906
0.0776532 0.691768 0.785962
0.0312657 0.663401 0
0.0320134 0.666987 0
0.0161898 0.670634 0
0 0.674327 0
0 0.678004 0
0 0.68162 0
0 0.685176 0
0 0.68867 0
0 0.692073 0
0 0.695415 0.0224002
0 0.698665 0.057969
0 0.701854 0.0936599
0 0.704982 0.129458
0 0.708049 0.165377
0 0.711086 0.201389
0 0.714092 0.237507
0.0019379 0.717067 0.273716
0.00859083 0.720027 0.310018
0.0152743 0.723003 0.34641
0.0219577 0.725978 0.382895
0.0286564 0.728985 0.419455
0.0353552 0.732006 0.456107
0.0420539 0.735073 0.492821
0.044892 0.734142 0.524178
0.0478065 0.733288 0.554986
0.0508431 0.732479 0.58526
0.0540017 0.731716 0.615045
0.0573129 0.730983 0.644373
0.0608072 0.730297 0.673274
0.0644694 0.729641 0.701762
0.0683146 0.729015 0.72987
0.0723278 0.728435 0.757595
0.0765087 0.727886 0.78497
0.0340581 0.69575 0
0.0349584 0.699336 0
0.0197604 0.702983 0
0 0.706676 0
0 0.710353 0
0 0.713985 0
0 0.717556 0
0 0.721065 0
0 0.724498 0
0 0.727855 0.0108186
0 0.731136 0.0463722
0 0.734356 0.0820325
0 0.737514 0.117815
0 0.740612 0.153704
0 0.743664 0.1897
0 0.746685 0.225818
0 0.749676 0.262013
0.00497444 0.752651 0.298314
0.0116884 0.755627 0.334722
0.0184176 0.758587 0.371206
0.0251469 0.761578 0.407782
0.0318914 0.764584 0.444434
0.0386206 0.767605 0.481178
0.0453651 0.770672 0.518013
0.048249 0.769757 0.549386
0.051194 0.768887 0.580224
0.0542611 0.768078 0.610559
0.057435 0.767315 0.640406
0.0607462 0.766598 0.669825
0.0642252 0.765911 0.698817
0.0678721 0.765255 0.727413
0.0716869 0.76463 0.755611
0.0756847 0.76405 0.783475
0.03682 0.728115 0
0.0378576 0.731701 0
0.0232395 0.735348 0
0.000900282 0.739025 0
0 0.742718 0
0 0.746365 0
0 0.74995 0
0 0.753475 0
0 0.756924 0
0 0.760311 0
0 0.763622 0.0348516
0 0.766873 0.0704967
0 0.770047 0.106249
0 0.773175 0.142123
0 0.776257 0.178103
0 0.779293 0.214191
0 0.7823 0.250385
0.00131228 0.78529 0.286687
0.00805676 0.788251 0.323079
0.0148165 0.791226 0.359564
0.0215763 0.794202 0.396139
0.0283665 0.797192 0.432807
0.0351415 0.800198 0.469566
0.0419318 0.803235 0.506416
0.0487068 0.806302 0.543359
0.0516213 0.805386 0.574746
0.0545968 0.804517 0.605615
0.0576791 0.803708 0.635996
0.0608682 0.802945 0.665919
0.0641947 0.802228 0.695415
0.0676738 0.801526 0.724483
0.0712902 0.800885 0.75317
0.0750744 0.800259 0.781491
0.0395514 0.760494 0
0.0407416 0.76408 0
0.0266728 0.767727 0
0.00483711 0.771405 0
0 0.775097 0
0 0.778744 0
0 0.782345 0
0 0.785885 0
0 0.789364 0
0 0.792767 0
0 0.796109 0.0234226
0 0.79939 0.0590524
0 0.802594 0.0947738
0 0.805753 0.130617
0 0.80885 0.166583
0 0.811917 0.202655
0 0.814939 0.238819
0 0.817929 0.275105
0.00436408 0.820905 0.311482
0.0111543 0.82388 0.347967
0.0179599 0.826856 0.384543
0.0247807 0.829831 0.421225
0.0315862 0.832822 0.457984
0.038407 0.835828 0.49485
0.0452277 0.83888 0.531807
0.0520485 0.841947 0.568856
0.0549935 0.841031 0.600244
0.0579995 0.840162 0.631159
0.0610971 0.839353 0.661585
0.0643015 0.83859 0.691569
0.0676432 0.837858 0.721126
0.071107 0.837171 0.750286
0.0747234 0.836515 0.779065
0.0422675 0.792905 0
0.043595 0.79649 0
0.0300603 0.800122 0
0.00874342 0.8038 0
0 0.807492 0
0 0.811154 0
0 0.814771 0
0 0.818326 0
0 0.82182 0
0 0.825238 0
0 0.828611 0.0120851
0 0.831907 0.0476692
0 0.835142 0.0833753
0 0.838315 0.119203
0 0.841443 0.155138
0 0.844526 0.19118
0 0.847578 0.227344
0 0.850584 0.2636
0.000640879 0.853574 0.299977
0.0074464 0.85655 0.336446
0.0142824 0.859525 0.373007
0.0211337 0.862486 0.409674
0.027985 0.865476 0.446448
0.0348363 0.868467 0.483314
0.0417029 0.871489 0.520272
0.0485389 0.874525 0.557321
0.0553902 0.877607 0.594476
0.058381 0.876692 0.625895
0.0614023 0.875822 0.656825
0.0645304 0.875013 0.687312
0.0677501 0.87425 0.717342
0.0710918 0.873518 0.74696
0.0745556 0.872831 0.776196
0.0449531 0.825315 0
0.0464179 0.828901 0
0.0333867 0.832532 0
0.0125887 0.83621 0
0 0.839902 0
0 0.843565 0
0 0.847196 0
0 0.850767 0
0 0.854276 0
