luts/Lava Lamp.cube
TITLE "Generated by Resolve"
LUT_3D_SIZE 5
0 0 0
0.0889448 0 0.0722362
0.170764 0 0.263523
0.272923 0 0.449042
0.377432 0 0.624109
0.054612 0.213962 0
0.00347906 0.239933 0.121218
0.0275425 0.228641 0.350668
0.0853285 0.199786 0.560678
0.154986 0.0548409 0.759136
0.0129702 0.469841 0
0 0.497856 0.0585336
0.0223697 0.52195 0.34522
0.0484169 0.515679 0.577783
0.0903334 0.510735 0.783475
0.03682 0.728115 0
0 0.756924 0
0 0.7823 0.250385
0.0487068 0.806302 0.543359
0.0750744 0.800259 0.781491
0.0581369 0.98761 0
0 1 0
0 1 0.159869
0.01944 1 0.451881
0.075639 1 0.751003
0.124727 0 0.134585
0.198245 0 0.417029
0.330968 0 0.648692
0.488975 0 0.80943
0.614694 0 0.963882
0.234943 0.157458 0.116609
0.225971 0.216709 0.463249
0.315129 0.193378 0.624598
0.412833 0.164996 0.787564
0.51519 0.126009 0.952407
0.237507 0.414542 0.0271458
0.20238 0.475441 0.376516
0.249195 0.499916 0.664271
0.281621 0.492805 0.86656
0.338567 0.48397 1
0.241688 0.673228 0
0.177783 0.735271 0.262272
0.220874 0.760525 0.556039
0.274723 0.78468 0.856031
0.303471 0.778454 1
0.256535 0.932845 0
0.165377 0.995438 0
0.191058 1 0.271183
0.245197 1 0.627054
0.301457 1 1
0.219989 0 0.316091
0.255436 0 0.597238
0.40238 0 0.883452
0.504295 0 1
0.699031 0 1
0.232883 0.0683299 0.299153
0.350256 0.128969 0.645182
0.426139 0.154101 0.930816
0.570291 0.107103 1
0.729809 0.052369 1
0.409491 0.356512 0.285039
0.387823 0.418036 0.630594
0.468803 0.477134 0.980163
0.565896 0.45687 1
0.664363 0.439384 1
0.451637 0.616678 0.205234
0.374304 0.678737 0.550774
0.444495 0.737697 0.899855
0.49836 0.762737 1
0.534524 0.755947 1
0.462959 0.877165 0.120714
0.363836 0.939666 0.467277
0.416159 0.999588 0.816815
0.469841 1 1
0.52604 1 1
0.310307 0 0.503441
0.154986 0 0.783963
0.521279 0 1
0.616068 0 1
0.699214 0 1
0.311467 0 0.485847
0.170397 0.0459144 0.831327
0.54873 0.0700542 1
0.633463 0.0931258 1
0.737819 0.0536202 1
0.363638 0.266361 0.471046
0.419013 0.328542 0.816434
0.605417 0.38967 1
0.671351 0.41857 1
0.815656 0.383047 1
0.442664 0.558404 0.457069
0.530526 0.620737 0.802319
0.622156 0.680934 1
0.712077 0.740459 1
0.813443 0.720394 1
0.631174 0.819867 0.378668
0.542138 0.882414 0.723888
0.600977 0.94284 1
0.687358 1 1
0.745205 1 1
0.4065 0 0.692607
0.234348 0 0.972854
0.481483 0 1
0.740185 0 1
0.830198 0 1
0.400565 0 0.674708
0.224811 0 1
0.583368 0 1
0.758618 0.0156863 1
0.844999 0.0436103 1
0.434333 0.180224 0.658763
0.271305 0.242298 1
0.693996 0.304417 1
0.801205 0.334585 1
0.8757 0.366476 1
0.486931 0.467811 0.644541
0.350652 0.530404 0.989761
0.739712 0.591928 1
0.850233 0.65304 1
0.916274 0.682033 1
0.549523 0.761532 0.630671
0.632776 0.824216 0.97586
0.764446 0.885374 1
0.862165 0.945159 1
0.955596 1 1
