luts/lomography_cn.cube
TITLE "lomography_cn"
LUT_3D_SIZE 33
DOMAIN_MIN 0.0 0.0 0.0
DOMAIN_MAX 1.0 1.0 1.0
0.000000 0.000000 0.000000
0.034375 0.000000 0.000000
0.068750 0.000000 0.000000
0.103125 0.000000 0.000000
0.137500 0.000000 0.000000
0.171875 0.000000 0.000000
0.206250 0.000000 0.000000
0.240625 0.000000 0.000000
0.275000 0.000000 0.000000
0.309375 0.000000 0.000000
0.343750 0.000000 0.000000
0.378125 0.000000 0.000000
0.412500 0.000000 0.000000
0.446875 0.000000 0.000000
0.481250 0.000000 0.000000
0.515625 0.000000 0.000000
0.550000 0.000000 0.000000
0.584375 0.000000 0.000000
0.618750 0.000000 0.000000
0.653125 0.000000 0.000000
0.687500 0.000000 0.000000
0.721875 0.000000 0.000000
0.756250 0.000000 0.000000
0.790625 0.000000 0.000000
0.825000 0.000000 0.000000
0.859375 0.000000 0.000000
0.893750 0.000000 0.000000
0.928125 0.000000 0.000000
0.962500 0.000000 0.000000
0.996875 0.000000 0.000000
1.000000 0.000000 0.000000
1.000000 0.000000 0.000000
1.000000 0.000000 0.000000
0.000000 0.029687 0.000000
0.034375 0.029687 0.000000
0.068750 0.029687 0.000000
0.103125 0.029687 0.000000
0.137500 0.029687 0.000000
0.171875 0.029687 0.000000
0.206250 0.029687 0.000000
0.240625 0.029687 0.000000
0.275000 0.029687 0.000000
0.309375 0.029687 0.000000
0.343750 0.029687 0.000000
0.378125 0.029687 0.000000
0.412500 0.029687 0.000000
0.446875 0.029687 0.000000
0.481250 0.029687 0.000000
0.515625 0.029687 0.000000
0.550000 0.029687 0.000000
0.584375 0.029687 0.000000
0.618750 0.029687 0.000000
0.653125 0.029687 0.000000
0.687500 0.029687 0.000000
0.721875 0.029687 0.000000
0.756250 0.029687 0.000000
0.790625 0.029687 0.000000
0.825000 0.029687 0.000000
0.859375 0.029687 0.000000
0.893750 0.029687 0.000000
0.928125 0.029687 0.000000
0.962500 0.029687 0.000000
0.996875 0.029687 0.000000
1.000000 0.029687 0.000000
1.000000 0.029687 0.000000
1.000000 0.029687 0.000000
0.000000 0.059375 0.000000
0.034375 0.059375 0.000000
0.068750 0.059375 0.000000
0.103125 0.059375 0.000000
0.137500 0.059375 0.000000
0.171875 0.059375 0.000000
0.206250 0.059375 0.000000
0.240625 0.059375 0.000000
0.275000 0.059375 0.000000
0.309375 0.059375 0.000000
0.343750 0.059375 0.000000
0.378125 0.059375 0.000000
0.412500 0.059375 0.000000
0.446875 0.059375 0.000000
0.481250 0.059375 0.000000
0.515625 0.059375 0.000000
0.550000 0.059375 0.000000
0.584375 0.059375 0.000000
0.618750 0.059375 0.000000
0.653125 0.059375 0.000000
0.687500 0.059375 0.000000
0.721875 0.059375 0.000000
0.756250 0.059375 0.000000
0.790625 0.059375 0.000000
0.825000 0.059375 0.000000
0.859375 0.059375 0.000000
0.893750 0.059375 0.000000
0.928125 0.059375 0.000000
0.962500 0.059375 0.000000
0.996875 0.059375 0.000000
1.000000 0.059375 0.000000
1.000000 0.059375 0.000000
1.000000 0.059375 0.000000
0.000000 0.089062 0.000000
0.034375 0.089062 0.000000
0.068750 0.089062 0.000000
0.103125 0.089062 0.000000
0.137500 0.089062 0.000000
0.171875 0.089062 0.000000
0.206250 0.089062 0.000000
0.240625 0.089062 0.000000
0.275000 0.089062 0.000000
0.309375 0.089062 0.000000
0.343750 0.089062 0.000000
0.378125 0.089062 0.000000
0.412500 0.089062 0.000000
0.446875 0.089062 0.000000
0.481250 0.089062 0.000000
0.515625 0.089062 0.000000
0.550000 0.089062 0.000000
0.584375 0.089062 0.000000
0.618750 0.089062 0.000000
0.653125 0.089062 0.000000
0.687500 0.089062 0.000000
0.721875 0.089062 0.000000
0.756250 0.089062 0.000000
0.790625 0.089062 0.000000
0.825000 0.089062 0.000000
0.859375 0.089062 0.000000
0.893750 0.089062 0.000000
0.928125 0.089062 0.000000
0.962500 0.089062 0.000000
0.996875 0.089062 0.000000
1.000000 0.089062 0.000000
1.000000 0.089062 0.000000
1.000000 0.089062 0.000000
0.000000 0.118750 0.000000
0.034375 0.118750 0.000000
0.068750 0.118750 0.000000
0.103125 0.118750 0.000000
0.137500 0.118750 0.000000
0.171875 0.118750 0.000000
0.206250 0.118750 0.000000
0.240625 0.118750 0.000000
0.275000 0.118750 0.000000
0.309375 0.118750 0.000000
0.343750 0.118750 0.000000
0.378125 0.118750 0.000000
0.412500 0.118750 0.000000
0.446875 0.118750 0.000000
0.481250 0.118750 0.000000
0.515625 0.118750 0.000000
0.550000 0.118750 0.000000
0.584375 0.118750 0.000000
0.618750 0.118750 0.000000
0.653125 0.118750 0.000000
0.687500 0.118750 0.000000
0.721875 0.118750 0.000000
0.756250 0.118750 0.000000
0.790625 0.118750 0.000000
0.825000 0.118750 0.000000
0.859375 0.118750 0.000000
0.893750 0.118750 0.000000
0.928125 0.118750 0.000000
0.962500 0.118750 0.000000
0.996875 0.118750 0.000000
1.000000 0.118750 0.000000
1.000000 0.118750 0.000000
1.000000 0.118750 0.000000
0.000000 0.148438 0.000000
0.034375 0.148438 0.000000
0.068750 0.148438 0.000000
0.103125 0.148438 0.000000
0.137500 0.148438 0.000000
0.171875 0.148438 0.000000
0.206250 0.148438 0.000000
0.240625 0.148438 0.000000
0.275000 0.148438 0.000000
0.309375 0.148438 0.000000
0.343750 0.148438 0.000000
0.378125 0.148438 0.000000
0.412500 0.148438 0.000000
0.446875 0.148438 0.000000
0.481250 0.148438 0.000000
0.515625 0.148438 0.000000
0.550000 0.148438 0.000000
0.584375 0.148438 0.000000
0.618750 0.148438 0.000000
0.653125 0.148438 0.000000
0.687500 0.148438 0.000000
0.721875 0.148438 0.000000
0.756250 0.148438 0.000000
0.790625 0.148438 0.000000
0.825000 0.148438 0.000000
0.859375 0.148438 0.000000
0.893750 0.148438 0.000000
0.928125 0.148438 0.000000
0.962500 0.148438 0.000000
0.996875 0.148438 0.000000
1.000000 0.148438 0.000000
1.000000 0.148438 0.000000
1.000000 0.148438 0.000000
0.000000 0.178125 0.000000
0.034375 0.178125 0.000000
0.068750 0.178125 0.000000
0.103125 0.178125 0.000000
0.137500 0.178125 0.000000
0.171875 0.178125 0.000000
0.206250 0.178125 0.000000
0.240625 0.178125 0.000000
0.275000 0.178125 0.000000
0.309375 0.178125 0.000000
0.343750 0.178125 0.000000
0.378125 0.178125 0.000000
0.412500 0.178125 0.000000
0.446875 0.178125 0.000000
0.481250 0.178125 0.000000
0.515625 0.178125 0.000000
0.550000 0.178125 0.000000
0.584375 0.178125 0.000000
0.618750 0.178125 0.000000
0.653125 0.178125 0.000000
0.687500 0.178125 0.000000
0.721875 0.178125 0.000000
0.756250 0.178125 0.000000
0.790625 0.178125 0.000000
0.825000 0.178125 0.000000
0.859375 0.178125 0.000000
0.893750 0.178125 0.000000
0.928125 0.178125 0.000000
0.962500 0.178125 0.000000
0.996875 0.178125 0.000000
1.000000 0.178125 0.000000
1.000000 0.178125 0.000000
1.000000 0.178125 0.000000
0.000000 0.207812 0.000000
0.034375 0.207812 0.000000
0.068750 0.207812 0.000000
0.103125 0.207812 0.000000
0.137500 0.207812 0.000000
0.171875 0.207812 0.000000
0.206250 0.207812 0.000000
0.240625 0.207812 0.000000
0.275000 0.207812 0.000000
0.309375 0.207812 0.000000
0.343750 0.207812 0.000000
0.378125 0.207812 0.000000
0.412500 0.207812 0.000000
0.446875 0.207812 0.000000
0.481250 0.207812 0.000000
0.515625 0.207812 0.000000
0.550000 0.207812 0.000000
0.584375 0.207812 0.000000
0.618750 0.207812 0.000000
0.653125 0.207812 0.000000
0.687500 0.207812 0.000000
0.721875 0.207812 0.000000
0.756250 0.207812 0.000000
0.790625 0.207812 0.000000
0.825000 0.207812 0.000000
0.859375 0.207812 0.000000
0.893750 0.207812 0.000000
0.928125 0.207812 0.000000
0.962500 0.207812 0.000000
0.996875 0.207812 0.000000
1.000000 0.207812 0.000000
1.000000 0.207812 0.000000
1.000000 0.207812 0.000000
0.000000 0.237500 0.000000
0.034375 0.237500 0.000000
0.068750 0.237500 0.000000
0.103125 0.237500 0.000000
0.137500 0.237500 0.000000
0.171875 0.237500 0.000000
0.206250 0.237500 0.000000
0.240625 0.237500 0.000000
0.275000 0.237500 0.000000
0.309375 0.237500 0.000000
0.343750 0.237500 0.000000
0.378125 0.237500 0.000000
0.412500 0.237500 0.000000
0.446875 0.237500 0.000000
0.481250 0.237500 0.000000
0.515625 0.237500 0.000000
0.550000 0.237500 0.000000
0.584375 0.237500 0.000000
0.618750 0.237500 0.000000
0.653125 0.237500 0.000000
0.687500 0.237500 0.000000
0.721875 0.237500 0.000000
0.756250 0.237500 0.000000
0.790625 0.237500 0.000000
0.825000 0.237500 0.000000
0.859375 0.237500 0.000000
0.893750 0.237500 0.000000
0.928125 0.237500 0.000000
0.962500 0.237500 0.000000
0.996875 0.237500 0.000000
1.000000 0.237500 0.000000
1.000000 0.237500 0.000000
1.000000 0.237500 0.000000
0.000000 0.267187 0.000000
0.034375 0.267187 0.000000
0.068750 0.267187 0.000000
0.103125 0.267187 0.000000
0.137500 0.267187 0.000000
0.171875 0.267187 0.000000
0.206250 0.267187 0.000000
0.240625 0.267187 0.000000
0.275000 0.267187 0.000000
0.309375 0.267187 0.000000
0.343750 0.267187 0.000000
0.378125 0.267187 0.000000
0.412500 0.267187 0.000000
0.446875 0.267187 0.000000
0.481250 0.267187 0.000000
0.515625 0.267187 0.000000
0.550000 0.267187 0.000000
0.584375 0.267187 0.000000
0.618750 0.267187 0.000000
0.653125 0.267187 0.000000
0.687500 0.267187 0.000000
0.721875 0.267187 0.000000
0.756250 0.267187 0.000000
0.790625 0.267187 0.000000
0.825000 0.267187 0.000000
0.859375 0.267187 0.000000
0.893750 0.267187 0.000000
0.928125 0.267187 0.000000
0.962500 0.267187 0.000000
0.996875 0.267187 0.000000
1.000000 0.267187 0.000000
1.000000 0.267187 0.000000
1.000000 0.267187 0.000000
0.000000 0.296875 0.000000
0.034375 0.296875 0.000000
0.068750 0.296875 0.000000
0.103125 0.296875 0.000000
0.137500 0.296875 0.000000
0.171875 0.296875 0.000000
0.206250 0.296875 0.000000
0.240625 0.296875 0.000000
0.275000 0.296875 0.000000
0.309375 0.296875 0.000000
0.343750 0.296875 0.000000
0.378125 0.296875 0.000000
0.412500 0.296875 0.000000
0.446875 0.296875 0.000000
0.481250 0.296875 0.000000
0.515625 0.296875 0.000000
0.550000 0.296875 0.000000
0.584375 0.296875 0.000000
0.618750 0.296875 0.000000
0.653125 0.296875 0.000000
0.687500 0.296875 0.000000
0.721875 0.296875 0.000000
0.756250 0.296875 0.000000
0.790625 0.296875 0.000000
0.825000 0.296875 0.000000
0.859375 0.296875 0.000000
0.893750 0.296875 0.000000
0.928125 0.296875 0.000000
0.962500 0.296875 0.000000
0.996875 0.296875 0.000000
1.000000 0.296875 0.000000
1.000000 0.296875 0.000000
1.000000 0.296875 0.000000
0.000000 0.326562 0.000000
0.034375 0.326562 0.000000
0.068750 0.326562 0.000000
0.103125 0.326562 0.000000
0.137500 0.326562 0.000000
0.171875 0.326562 0.000000
0.206250 0.326562 0.000000
0.240625 0.326562 0.000000
0.275000 0.326562 0.000000
0.309375 0.326562 0.000000
0.343750 0.326562 0.000000
0.378125 0.326562 0.000000
0.412500 0.326562 0.000000
0.446875 0.326562 0.000000
0.481250 0.326562 0.000000
0.515625 0.326562 0.000000
0.550000 0.326562 0.000000
0.584375 0.326562 0.000000
0.618750 0.326562 0.000000
0.653125 0.326562 0.000000
0.687500 0.326562 0.000000
0.721875 0.326562 0.000000
0.756250 0.326562 0.000000
0.790625 0.326562 0.000000
0.825000 0.326562 0.000000
0.859375 0.326562 0.000000
0.893750 0.326562 0.000000
0.928125 0.326562 0.000000
0.962500 0.326562 0.000000
0.996875 0.326562 0.000000
1.000000 0.326562 0.000000
1.000000 0.326562 0.000000
1.000000 0.326562 0.000000
0.000000 0.356250 0.000000
0.034375 0.356250 0.000000
0.068750 0.356250 0.000000
0.103125 0.356250 0.000000
0.137500 0.356250 0.000000
0.171875 0.356250 0.000000
0.206250 0.356250 0.000000
0.240625 0.356250 0.000000
0.275000 0.356250 0.000000
0.309375 0.356250 0.000000
0.343750 0.356250 0.000000
0.378125 0.356250 0.000000
0.412500 0.356250 0.000000
0.446875 0.356250 0.000000
0.481250 0.356250 0.000000
0.515625 0.356250 0.000000
0.550000 0.356250 0.000000
0.584375 0.356250 0.000000
0.618750 0.356250 0.000000
0.653125 0.356250 0.000000
0.687500 0.356250 0.000000
0.721875 0.356250 0.000000
0.756250 0.356250 0.000000
0.790625 0.356250 0.000000
0.825000 0.356250 0.000000
0.859375 0.356250 0.000000
0.893750 0.356250 0.000000
0.928125 0.356250 0.000000
0.962500 0.356250 0.000000
0.996875 0.356250 0.000000
1.000000 0.356250 0.000000
1.000000 0.356250 0.000000
1.000000 0.356250 0.000000
0.000000 0.385937 0.000000
0.034375 0.385937 0.000000
0.068750 0.385937 0.000000
0.103125 0.385937 0.000000
0.137500 0.385937 0.000000
0.171875 0.385937 0.000000
0.206250 0.385937 0.000000
0.240625 0.385937 0.000000
0.275000 0.385937 0.000000
0.309375 0.385937 0.000000
0.343750 0.385937 0.000000
0.378125 0.385937 0.000000
0.412500 0.385937 0.000000
0.446875 0.385937 0.000000
0.481250 0.385937 0.000000
0.515625 0.385937 0.000000
0.550000 0.385937 0.000000
0.584375 0.385937 0.000000
0.618750 0.385937 0.000000
0.653125 0.385937 0.000000
0.687500 0.385937 0.000000
0.721875 0.385937 0.000000
0.756250 0.385937 0.000000
0.790625 0.385937 0.000000
0.825000 0.385937 0.000000
0.859375 0.385937 0.000000
0.893750 0.385937 0.000000
0.928125 0.385937 0.000000
0.962500 0.385937 0.000000
0.996875 0.385937 0.000000
1.000000 0.385937 0.000000
1.000000 0.385937 0.000000
1.000000 0.385937 0.000000
0.000000 0.415625 0.000000
0.034375 0.415625 0.000000
0.068750 0.415625 0.000000
0.103125 0.415625 0.000000
0.137500 0.415625 0.000000
0.171875 0.415625 0.000000
0.206250 0.415625 0.000000
0.240625 0.415625 0.000000
0.275000 0.415625 0.000000
0.309375 0.415625 0.000000
0.343750 0.415625 0.000000
0.378125 0.415625 0.000000
0.412500 0.415625 0.000000
0.446875 0.415625 0.000000
0.481250 0.415625 0.000000
0.515625 0.415625 0.000000
0.550000 0.415625 0.000000
0.584375 0.415625 0.000000
0.618750 0.415625 0.000000
0.653125 0.415625 0.000000
0.687500 0.415625 0.000000
0.721875 0.415625 0.000000
0.756250 0.415625 0.000000
0.790625 0.415625 0.000000
0.825000 0.415625 0.000000
0.859375 0.415625 0.000000
0.893750 0.415625 0.000000
0.928125 0.415625 0.000000
0.962500 0.415625 0.000000
0.996875 0.415625 0.000000
1.000000 0.415625 0.000000
1.000000 0.415625 0.000000
1.000000 0.415625 0.000000
0.000000 0.445312 0.000000
0.034375 0.445312 0.000000
0.068750 0.445312 0.000000
0.103125 0.445312 0.000000
0.137500 0.445312 0.000000
0.171875 0.445312 0.000000
0.206250 0.445312 0.000000
0.240625 0.445312 0.000000
0.275000 0.445312 0.000000
0.309375 0.445312 0.000000
0.343750 0.445312 0.000000
0.378125 0.445312 0.000000
0.412500 0.445312 0.000000
0.446875 0.445312 0.000000
0.481250 0.445312 0.000000
0.515625 0.445312 0.000000
0.550000 0.445312 0.000000
0.584375 0.445312 0.000000
0.618750 0.445312 0.000000
0.653125 0.445312 0.000000
0.687500 0.445312 0.000000
0.721875 0.445312 0.000000
0.756250 0.445312 0.000000
0.790625 0.445312 0.000000
0.825000 0.445312 0.000000
0.859375 0.445312 0.000000
0.893750 0.445312 0.000000
0.928125 0.445312 0.000000
0.962500 0.445312 0.000000
0.996875 0.445312 0.000000
1.000000 0.445312 0.000000
1.000000 0.445312 0.000000
1.000000 0.445312 0.000000
0.000000 0.475000 0.000000
0.034375 0.475000 0.000000
0.068750 0.475000 0.000000
0.103125 0.475000 0.000000
0.137500 0.475000 0.000000
0.171875 0.475000 0.000000
0.206250 0.475000 0.000000
0.240625 0.475000 0.000000
0.275000 0.475000 0.000000
0.309375 0.475000 0.000000
0.343750 0.475000 0.000000
0.378125 0.475000 0.000000
0.412500 0.475000 0.000000
0.446875 0.475000 0.000000
0.481250 0.475000 0.000000
0.515625 0.475000 0.000000
0.550000 0.475000 0.000000
0.584375 0.475000 0.000000
0.618750 0.475000 0.000000
0.653125 0.475000 0.000000
0.687500 0.475000 0.000000
0.721875 0.475000 0.000000
0.756250 0.475000 0.000000
0.790625 0.475000 0.000000
0.825000 0.475000 0.000000
0.859375 0.475000 0.000000
0.893750 0.475000 0.000000
0.928125 0.475000 0.000000
0.962500 0.475000 0.000000
0.996875 0.475000 0.000000
1.000000 0.475000 0.000000
1.000000 0.475000 0.000000
1.000000 0.475000 0.000000
0.000000 0.504687 0.000000
0.034375 0.504687 0.000000
0.068750 0.504687 0.000000
0.103125 0.504687 0.000000
0.137500 0.504687 0.000000
0.171875 0.504687 0.000000
0.206250 0.504687 0.000000
0.240625 0.504687 0.000000
0.275000 0.504687 0.000000
0.309375 0.504687 0.000000
0.343750 0.504687 0.000000
0.378125 0.504687 0.000000
0.412500 0.504687 0.000000
0.446875 0.504687 0.000000
0.481250 0.504687 0.000000
0.515625 0.504687 0.000000
0.550000 0.504687 0.000000
0.584375 0.504687 0.000000
0.618750 0.504687 0.000000
0.653125 0.504687 0.000000
0.687500 0.504687 0.000000
0.721875 0.504687 0.000000
0.756250 0.504687 0.000000
0.790625 0.504687 0.000000
0.825000 0.504687 0.000000
0.859375 0.504687 0.000000
0.893750 0.504687 0.000000
0.928125 0.504687 0.000000
0.962500 0.504687 0.000000
0.996875 0.504687 0.000000
1.000000 0.504687 0.000000
1.000000 0.504687 0.000000
1.000000 0.504687 0.000000
0.000000 0.534375 0.000000
0.034375 0.534375 0.000000
0.068750 0.534375 0.000000
0.103125 0.534375 0.000000
0.137500 0.534375 0.000000
0.171875 0.534375 0.000000
0.206250 0.534375 0.000000
0.240625 0.534375 0.000000
0.275000 0.534375 0.000000
0.309375 0.534375 0.000000
0.343750 0.534375 0.000000
0.378125 0.534375 0.000000
0.412500 0.534375 0.000000
0.446875 0.534375 0.000000
0.481250 0.534375 0.000000
0.515625 0.534375 0.000000
0.550000 0.534375 0.000000
0.584375 0.534375 0.000000
0.618750 0.534375 0.000000
0.653125 0.534375 0.000000
0.687500 0.534375 0.000000
0.721875 0.534375 0.000000
0.756250 0.534375 0.000000
0.790625 0.534375 0.000000
0.825000 0.534375 0.000000
0.859375 0.534375 0.000000
0.893750 0.534375 0.000000
0.928125 0.534375 0.000000
0.962500 0.534375 0.000000
0.996875 0.534375 0.000000
1.000000 0.534375 0.000000
1.000000 0.534375 0.000000
1.000000 0.534375 0.000000
0.000000 0.564063 0.000000
0.034375 0.564063 0.000000
0.068750 0.564063 0.000000
0.103125 0.564063 0.000000
0.137500 0.564063 0.000000
0.171875 0.564063 0.000000
0.206250 0.564063 0.000000
0.240625 0.564063 0.000000
0.275000 0.564063 0.000000
0.309375 0.564063 0.000000
0.343750 0.564063 0.000000
0.378125 0.564063 0.000000
0.412500 0.564063 0.000000
0.446875 0.564063 0.000000
0.481250 0.564063 0.000000
0.515625 0.564063 0.000000
0.550000 0.564063 0.000000
0.584375 0.564063 0.000000
0.618750 0.564063 0.000000
0.653125 0.564063 0.000000
0.687500 0.564063 0.000000
0.721875 0.564063 0.000000
0.756250 0.564063 0.000000
0.790625 0.564063 0.000000
0.825000 0.564063 0.000000
0.859375 0.564063 0.000000
0.893750 0.564063 0.000000
0.928125 0.564063 0.000000
0.962500 0.564063 0.000000
0.996875 0.564063 0.000000
1.000000 0.564063 0.000000
1.000000 0.564063 0.000000
1.000000 0.564063 0.000000
0.000000 0.593750 0.000000
0.034375 0.593750 0.000000
0.068750 0.593750 0.000000
0.103125 0.593750 0.000000
0.137500 0.593750 0.000000
0.171875 0.593750 0.000000
0.206250 0.593750 0.000000
0.240625 0.593750 0.000000
0.275000 0.593750 0.000000
0.309375 0.593750 0.000000
0.343750 0.593750 0.000000
0.378125 0.593750 0.000000
0.412500 0.593750 0.000000
0.446875 0.593750 0.000000
0.481250 0.593750 0.000000
0.515625 0.593750 0.000000
0.550000 0.593750 0.000000
0.584375 0.593750 0.000000
0.618750 0.593750 0.000000
0.653125 0.593750 0.000000
0.687500 0.593750 0.000000
0.721875 0.593750 0.000000
0.756250 0.593750 0.000000
0.790625 0.593750 0.000000
0.825000 0.593750 0.000000
0.859375 0.593750 0.000000
0.893750 0.593750 0.000000
0.928125 0.593750 0.000000
0.962500 0.593750 0.000000
0.996875 0.593750 0.000000
1.000000 0.593750 0.000000
1.000000 0.593750 0.000000
1.000000 0.593750 0.000000
0.000000 0.623437 0.000000
0.034375 0.623437 0.000000
0.068750 0.623437 0.000000
0.103125 0.623437 0.000000
0.137500 0.623437 0.000000
0.171875 0.623437 0.000000
0.206250 0.623437 0.000000
0.240625 0.623437 0.000000
0.275000 0.623437 0.000000
0.309375 0.623437 0.000000
0.343750 0.623437 0.000000
0.378125 0.623437 0.000000
0.412500 0.623437 0.000000
0.446875 0.623437 0.000000
0.481250 0.623437 0.000000
0.515625 0.623437 0.000000
0.550000 0.623437 0.000000
0.584375 0.623437 0.000000
0.618750 0.623437 0.000000
0.653125 0.623437 0.000000
0.687500 0.623437 0.000000
0.721875 0.623437 0.000000
0.756250 0.623437 0.000000
0.790625 0.623437 0.000000
0.825000 0.623437 0.000000
0.859375 0.623437 0.000000
0.893750 0.623437 0.000000
0.928125 0.623437 0.000000
0.962500 0.623437 0.000000
0.996875 0.623437 0.000000
1.000000 0.623437 0.000000
1.000000 0.623437 0.000000
1.000000 0.623437 0.000000
0.000000 0.653125 0.000000
0.034375 0.653125 0.000000
0.068750 0.653125 0.000000
0.103125 0.653125 0.000000
0.137500 0.653125 0.000000
0.171875 0.653125 0.000000
0.206250 0.653125 0.000000
0.240625 0.653125 0.000000
0.275000 0.653125 0.000000
0.309375 0.653125 0.000000
0.343750 0.653125 0.000000
0.378125 0.653125 0.000000
0.412500 0.653125 0.000000
0.446875 0.653125 0.000000
0.481250 0.653125 0.000000
0.515625 0.653125 0.000000
0.550000 0.653125 0.000000
0.584375 0.653125 0.000000
0.618750 0.653125 0.000000
0.653125 0.653125 0.000000
0.687500 0.653125 0.000000
0.721875 0.653125 0.000000
0.756250 0.653125 0.000000
0.790625 0.653125 0.000000
0.825000 0.653125 0.000000
0.859375 0.653125 0.000000
0.893750 0.653125 0.000000
0.928125 0.653125 0.000000
0.962500 0.653125 0.000000
0.996875 0.653125 0.000000
1.000000 0.653125 0.000000
1.000000 0.653125 0.000000
1.000000 0.653125 0.000000
0.000000 0.682812 0.000000
0.034375 0.682812 0.000000
0.068750 0.682812 0.000000
0.103125 0.682812 0.000000
0.137500 0.682812 0.000000
0.171875 0.682812 0.000000
0.206250 0.682812 0.000000
0.240625 0.682812 0.000000
0.275000 0.682812 0.000000
0.309375 0.682812 0.000000
0.343750 0.682812 0.000000
0.378125 0.682812 0.000000
0.412500 0.682812 0.000000
0.446875 0.682812 0.000000
0.481250 0.682812 0.000000
0.515625 0.682812 0.000000
0.550000 0.682812 0.000000
0.584375 0.682812 0.000000
0.618750 0.682812 0.000000
0.653125 0.682812 0.000000
0.687500 0.682812 0.000000
0.721875 0.682812 0.000000
0.756250 0.682812 0.000000
0.790625 0.682812 0.000000
0.825000 0.682812 0.000000
0.859375 0.682812 0.000000
0.893750 0.682812 0.000000
0.928125 0.682812 0.000000
0.962500 0.682812 0.000000
0.996875 0.682812 0.000000
1.000000 0.682812 0.000000
1.000000 0.682812 0.000000
1.000000 0.682812 0.000000
0.000000 0.712500 0.000000
0.034375 0.712500 0.000000
0.068750 0.712500 0.000000
0.103125 0.712500 0.000000
0.137500 0.712500 0.000000
0.171875 0.712500 0.000000
0.206250 0.712500 0.000000
0.240625 0.712500 0.000000
0.275000 0.712500 0.000000
0.309375 0.712500 0.000000
0.343750 0.712500 0.000000
0.378125 0.712500 0.000000
0.412500 0.712500 0.000000
0.446875 0.712500 0.000000
0.481250 0.712500 0.000000
0.515625 0.712500 0.000000
0.550000 0.712500 0.000000
0.584375 0.712500 0.000000
0.618750 0.712500 0.000000
0.653125 0.712500 0.000000
0.687500 0.712500 0.000000
0.721875 0.712500 0.000000
0.756250 0.712500 0.000000
0.790625 0.712500 0.000000
0.825000 0.712500 0.000000
0.859375 0.712500 0.000000
0.893750 0.712500 0.000000
0.928125 0.712500 0.000000
0.962500 0.712500 0.000000
0.996875 0.712500 0.000000
1.000000 0.712500 0.000000
1.000000 0.712500 0.000000
1.000000 0.712500 0.000000
0.000000 0.742188 0.000000
0.034375 0.742188 0.000000
0.068750 0.742188 0.000000
0.103125 0.742188 0.000000
0.137500 0.742188 0.000000
0.171875 0.742188 0.000000
0.206250 0.742188 0.000000
0.240625 0.742188 0.000000
0.275000 0.742188 0.000000
0.309375 0.742188 0.000000
0.343750 0.742188 0.000000
0.378125 0.742188 0.000000
0.412500 0.742188 0.000000
0.446875 0.742188 0.000000
0.481250 0.742188 0.000000
0.515625 0.742188 0.000000
0.550000 0.742188 0.000000
0.584375 0.742188 0.000000
0.618750 0.742188 0.000000
0.653125 0.742188 0.000000
0.687500 0.742188 0.000000
0.721875 0.742188 0.000000
0.756250 0.742188 0.000000
0.790625 0.742188 0.000000
0.825000 0.742188 0.000000
0.859375 0.742188 0.000000
0.893750 0.742188 0.000000
0.928125 0.742188 0.000000
0.962500 0.742188 0.000000
0.996875 0.742188 0.000000
1.000000 0.742188 0.000000
1.000000 0.742188 0.000000
1.000000 0.742188 0.000000
0.000000 0.771875 0.000000
0.034375 0.771875 0.000000
0.068750 0.771875 0.000000
0.103125 0.771875 0.000000
0.137500 0.771875 0.000000
0.171875 0.771875 0.000000
0.206250 0.771875 0.000000
0.240625 0.771875 0.000000
0.275000 0.771875 0.000000
0.309375 0.771875 0.000000
0.343750 0.771875 0.000000
0.378125 0.771875 0.000000
0.412500 0.771875 0.000000
0.446875 0.771875 0.000000
0.481250 0.771875 0.000000
0.515625 0.771875 0.000000
0.550000 0.771875 0.000000
0.584375 0.771875 0.000000
0.618750 0.771875 0.000000
0.653125 0.771875 0.000000
0.687500 0.771875 0.000000
0.721875 0.771875 0.000000
0.756250 0.771875 0.000000
0.790625 0.771875 0.000000
0.825000 0.771875 0.000000
0.859375 0.771875 0.000000
0.893750 0.771875 0.000000
