luts/lomography_cn.cube
TITLE "lomography_cn"
LUT_3D_SIZE 9
DOMAIN_MIN 0.0 0.0 0.0
DOMAIN_MAX 1.0 1.0 1.0
0.000000 0.000000 0.000000
0.137500 0.000000 0.000000
0.275000 0.000000 0.000000
0.412500 0.000000 0.000000
0.550000 0.000000 0.000000
0.687500 0.000000 0.000000
0.825000 0.000000 0.000000
0.962500 0.000000 0.000000
1.000000 0.000000 0.000000
0.000000 0.118750 0.000000
0.137500 0.118750 0.000000
0.275000 0.118750 0.000000
0.412500 0.118750 0.000000
0.550000 0.118750 0.000000
0.687500 0.118750 0.000000
0.825000 0.118750 0.000000
0.962500 0.118750 0.000000
1.000000 0.118750 0.000000
0.000000 0.237500 0.000000
0.137500 0.237500 0.000000
0.275000 0.237500 0.000000
0.412500 0.237500 0.000000
0.550000 0.237500 0.000000
0.687500 0.237500 0.000000
0.825000 0.237500 0.000000
0.962500 0.237500 0.000000
1.000000 0.237500 0.000000
0.000000 0.356250 0.000000
0.137500 0.356250 0.000000
0.275000 0.356250 0.000000
0.412500 0.356250 0.000000
0.550000 0.356250 0.000000
0.687500 0.356250 0.000000
0.825000 0.356250 0.000000
0.962500 0.356250 0.000000
1.000000 0.356250 0.000000
0.000000 0.475000 0.000000
0.137500 0.475000 0.000000
0.275000 0.475000 0.000000
0.412500 0.475000 0.000000
0.550000 0.475000 0.000000
0.687500 0.475000 0.000000
0.825000 0.475000 0.000000
0.962500 0.475000 0.000000
1.000000 0.475000 0.000000
0.000000 0.593750 0.000000
0.137500 0.593750 0.000000
0.275000 0.593750 0.000000
0.412500 0.593750 0.000000
0.550000 0.593750 0.000000
0.687500 0.593750 0.000000
0.825000 0.593750 0.000000
0.962500 0.593750 0.000000
1.000000 0.593750 0.000000
0.000000 0.712500 0.000000
0.137500 0.712500 0.000000
0.275000 0.712500 0.000000
0.412500 0.712500 0.000000
0.550000 0.712500 0.000000
0.687500 0.712500 0.000000
0.825000 0.712500 0.000000
0.962500 0.712500 0.000000
1.000000 0.712500 0.000000
0.000000 0.831250 0.000000
0.137500 0.831250 0.000000
0.275000 0.831250 0.000000
0.412500 0.831250 0.000000
0.550000 0.831250 0.000000
0.687500 0.831250 0.000000
0.825000 0.831250 0.000000
0.962500 0.831250 0.000000
1.000000 0.831250 0.000000
0.000000 0.950000 0.000000
0.137500 0.950000 0.000000
0.275000 0.950000 0.000000
0.412500 0.950000 0.000000
0.550000 0.950000 0.000000
0.687500 0.950000 0.000000
0.825000 0.950000 0.000000
0.962500 0.950000 0.000000
1.000000 0.950000 0.000000
0.000000 0.000000 0.112500
0.137500 0.000000 0.112500
0.275000 0.000000 0.112500
0.412500 0.000000 0.112500
0.550000 0.000000 0.112500
0.687500 0.000000 0.112500
0.825000 0.000000 0.112500
0.962500 0.000000 0.112500
1.000000 0.000000 0.112500
0.000000 0.118750 0.112500
0.137500 0.118750 0.112500
0.275000 0.118750 0.112500
0.412500 0.118750 0.112500
0.550000 0.118750 0.112500
0.687500 0.118750 0.112500
0.825000 0.118750 0.112500
0.962500 0.118750 0.112500
1.000000 0.118750 0.112500
0.000000 0.237500 0.112500
0.137500 0.237500 0.112500
0.275000 0.237500 0.112500
0.412500 0.237500 0.112500
0.550000 0.237500 0.112500
0.687500 0.237500 0.112500
0.825000 0.237500 0.112500
0.962500 0.237500 0.112500
1.000000 0.237500 0.112500
0.000000 0.356250 0.112500
0.137500 0.356250 0.112500
0.275000 0.356250 0.112500
0.412500 0.356250 0.112500
0.550000 0.356250 0.112500
0.687500 0.356250 0.112500
0.825000 0.356250 0.112500
0.962500 0.356250 0.112500
1.000000 0.356250 0.112500
0.000000 0.475000 0.112500
0.137500 0.475000 0.112500
0.275000 0.475000 0.112500
0.412500 0.475000 0.112500
0.550000 0.475000 0.112500
0.687500 0.475000 0.112500
0.825000 0.475000 0.112500
0.962500 0.475000 0.112500
1.000000 0.475000 0.112500
0.000000 0.593750 0.112500
0.137500 0.593750 0.112500
0.275000 0.593750 0.112500
0.412500 0.593750 0.112500
0.550000 0.593750 0.112500
0.687500 0.593750 0.112500
0.825000 0.593750 0.112500
0.962500 0.593750 0.112500
1.000000 0.593750 0.112500
0.000000 0.712500 0.112500
0.137500 0.712500 0.112500
0.275000 0.712500 0.112500
0.412500 0.712500 0.112500
0.550000 0.712500 0.112500
0.687500 0.712500 0.112500
0.825000 0.712500 0.112500
0.962500 0.712500 0.112500
1.000000 0.712500 0.112500
0.000000 0.831250 0.112500
0.137500 0.831250 0.112500
0.275000 0.831250 0.112500
0.412500 0.831250 0.112500
0.550000 0.831250 0.112500
0.687500 0.831250 0.112500
0.825000 0.831250 0.112500
0.962500 0.831250 0.112500
1.000000 0.831250 0.112500
0.000000 0.950000 0.112500
0.137500 0.950000 0.112500
0.275000 0.950000 0.112500
0.412500 0.950000 0.112500
0.550000 0.950000 0.112500
0.687500 0.950000 0.112500
0.825000 0.950000 0.112500
0.962500 0.950000 0.112500
1.000000 0.950000 0.112500
0.000000 0.000000 0.225000
0.137500 0.000000 0.225000
0.275000 0.000000 0.225000
0.412500 0.000000 0.225000
0.550000 0.000000 0.225000
0.687500 0.000000 0.225000
0.825000 0.000000 0.225000
0.962500 0.000000 0.225000
1.000000 0.000000 0.225000
0.000000 0.118750 0.225000
0.137500 0.118750 0.225000
0.275000 0.118750 0.225000
0.412500 0.118750 0.225000
0.550000 0.118750 0.225000
0.687500 0.118750 0.225000
0.825000 0.118750 0.225000
0.962500 0.118750 0.225000
1.000000 0.118750 0.225000
0.000000 0.237500 0.225000
0.137500 0.237500 0.225000
0.275000 0.237500 0.225000
0.412500 0.237500 0.225000
0.550000 0.237500 0.225000
0.687500 0.237500 0.225000
0.825000 0.237500 0.225000
0.962500 0.237500 0.225000
1.000000 0.237500 0.225000
0.000000 0.356250 0.225000
0.137500 0.356250 0.225000
0.275000 0.356250 0.225000
0.412500 0.356250 0.225000
0.550000 0.356250 0.225000
0.687500 0.356250 0.225000
0.825000 0.356250 0.225000
0.962500 0.356250 0.225000
1.000000 0.356250 0.225000
0.000000 0.475000 0.225000
0.137500 0.475000 0.225000
0.275000 0.475000 0.225000
0.412500 0.475000 0.225000
0.550000 0.475000 0.225000
0.687500 0.475000 0.225000
0.825000 0.475000 0.225000
0.962500 0.475000 0.225000
1.000000 0.475000 0.225000
0.000000 0.593750 0.225000
0.137500 0.593750 0.225000
0.275000 0.593750 0.225000
0.412500 0.593750 0.225000
0.550000 0.593750 0.225000
0.687500 0.593750 0.225000
0.825000 0.593750 0.225000
0.962500 0.593750 0.225000
1.000000 0.593750 0.225000
0.000000 0.712500 0.225000
0.137500 0.712500 0.225000
0.275000 0.712500 0.225000
0.412500 0.712500 0.225000
0.550000 0.712500 0.225000
0.687500 0.712500 0.225000
0.825000 0.712500 0.225000
0.962500 0.712500 0.225000
1.000000 0.712500 0.225000
0.000000 0.831250 0.225000
0.137500 0.831250 0.225000
0.275000 0.831250 0.225000
0.412500 0.831250 0.225000
0.550000 0.831250 0.225000
0.687500 0.831250 0.225000
0.825000 0.831250 0.225000
0.962500 0.831250 0.225000
1.000000 0.831250 0.225000
0.000000 0.950000 0.225000
0.137500 0.950000 0.225000
0.275000 0.950000 0.225000
0.412500 0.950000 0.225000
0.550000 0.950000 0.225000
0.687500 0.950000 0.225000
0.825000 0.950000 0.225000
0.962500 0.950000 0.225000
1.000000 0.950000 0.225000
0.000000 0.000000 0.337500
0.137500 0.000000 0.337500
0.275000 0.000000 0.337500
0.412500 0.000000 0.337500
0.550000 0.000000 0.337500
0.687500 0.000000 0.337500
0.825000 0.000000 0.337500
0.962500 0.000000 0.337500
1.000000 0.000000 0.337500
0.000000 0.118750 0.337500
0.137500 0.118750 0.337500
0.275000 0.118750 0.337500
0.412500 0.118750 0.337500
0.550000 0.118750 0.337500
0.687500 0.118750 0.337500
0.825000 0.118750 0.337500
0.962500 0.118750 0.337500
1.000000 0.118750 0.337500
0.000000 0.237500 0.337500
0.137500 0.237500 0.337500
0.275000 0.237500 0.337500
0.412500 0.237500 0.337500
0.550000 0.237500 0.337500
0.687500 0.237500 0.337500
0.825000 0.237500 0.337500
0.962500 0.237500 0.337500
1.000000 0.237500 0.337500
0.000000 0.356250 0.337500
0.137500 0.356250 0.337500
0.275000 0.356250 0.337500
0.412500 0.356250 0.337500
0.550000 0.356250 0.337500
0.687500 0.356250 0.337500
0.825000 0.356250 0.337500
0.962500 0.356250 0.337500
1.000000 0.356250 0.337500
0.000000 0.475000 0.337500
0.137500 0.475000 0.337500
0.275000 0.475000 0.337500
0.412500 0.475000 0.337500
0.550000 0.475000 0.337500
0.687500 0.475000 0.337500
0.825000 0.475000 0.337500
0.962500 0.475000 0.337500
1.000000 0.475000 0.337500
0.000000 0.593750 0.337500
0.137500 0.593750 0.337500
0.275000 0.593750 0.337500
0.412500 0.593750 0.337500
0.550000 0.593750 0.337500
0.687500 0.593750 0.337500
0.825000 0.593750 0.337500
0.962500 0.593750 0.337500
1.000000 0.593750 0.337500
0.000000 0.712500 0.337500
0.137500 0.712500 0.337500
0.275000 0.712500 0.337500
0.412500 0.712500 0.337500
0.550000 0.712500 0.337500
0.687500 0.712500 0.337500
0.825000 0.712500 0.337500
0.962500 0.712500 0.337500
1.000000 0.712500 0.337500
0.000000 0.831250 0.337500
0.137500 0.831250 0.337500
0.275000 0.831250 0.337500
0.412500 0.831250 0.337500
0.550000 0.831250 0.337500
0.687500 0.831250 0.337500
0.825000 0.831250 0.337500
0.962500 0.831250 0.337500
1.000000 0.831250 0.337500
0.000000 0.950000 0.337500
0.137500 0.950000 0.337500
0.275000 0.950000 0.337500
0.412500 0.950000 0.337500
0.550000 0.950000 0.337500
0.687500 0.950000 0.337500
0.825000 0.950000 0.337500
0.962500 0.950000 0.337500
1.000000 0.950000 0.337500
0.000000 0.000000 0.450000
0.137500 0.000000 0.450000
0.275000 0.000000 0.450000
0.412500 0.000000 0.450000
0.550000 0.000000 0.450000
0.687500 0.000000 0.450000
0.825000 0.000000 0.450000
0.962500 0.000000 0.450000
1.000000 0.000000 0.450000
0.000000 0.118750 0.450000
0.137500 0.118750 0.450000
0.275000 0.118750 0.450000
0.412500 0.118750 0.450000
0.550000 0.118750 0.450000
0.687500 0.118750 0.450000
0.825000 0.118750 0.450000
0.962500 0.118750 0.450000
1.000000 0.118750 0.450000
0.000000 0.237500 0.450000
0.137500 0.237500 0.450000
0.275000 0.237500 0.450000
0.412500 0.237500 0.450000
0.550000 0.237500 0.450000
0.687500 0.237500 0.450000
0.825000 0.237500 0.450000
0.962500 0.237500 0.450000
1.000000 0.237500 0.450000
0.000000 0.356250 0.450000
0.137500 0.356250 0.450000
0.275000 0.356250 0.450000
0.412500 0.356250 0.450000
0.550000 0.356250 0.450000
0.687500 0.356250 0.450000
0.825000 0.356250 0.450000
0.962500 0.356250 0.450000
1.000000 0.356250 0.450000
0.000000 0.475000 0.450000
0.137500 0.475000 0.450000
0.275000 0.475000 0.450000
0.412500 0.475000 0.450000
0.550000 0.475000 0.450000
0.687500 0.475000 0.450000
0.825000 0.475000 0.450000
0.962500 0.475000 0.450000
1.000000 0.475000 0.450000
0.000000 0.593750 0.450000
0.137500 0.593750 0.450000
0.275000 0.593750 0.450000
0.412500 0.593750 0.450000
0.550000 0.593750 0.450000
0.687500 0.593750 0.450000
0.825000 0.593750 0.450000
0.962500 0.593750 0.450000
1.000000 0.593750 0.450000
0.000000 0.712500 0.450000
0.137500 0.712500 0.450000
0.275000 0.712500 0.450000
0.412500 0.712500 0.450000
0.550000 0.712500 0.450000
0.687500 0.712500 0.450000
0.825000 0.712500 0.450000
0.962500 0.712500 0.450000
1.000000 0.712500 0.450000
0.000000 0.831250 0.450000
0.137500 0.831250 0.450000
0.275000 0.831250 0.450000
0.412500 0.831250 0.450000
0.550000 0.831250 0.450000
0.687500 0.831250 0.450000
0.825000 0.831250 0.450000
0.962500 0.831250 0.450000
1.000000 0.831250 0.450000
0.000000 0.950000 0.450000
0.137500 0.950000 0.450000
0.275000 0.950000 0.450000
0.412500 0.950000 0.450000
0.550000 0.950000 0.450000
0.687500 0.950000 0.450000
0.825000 0.950000 0.450000
0.962500 0.950000 0.450000
1.000000 0.950000 0.450000
0.000000 0.000000 0.562500
0.137500 0.000000 0.562500
0.275000 0.000000 0.562500
0.412500 0.000000 0.562500
0.550000 0.000000 0.562500
0.687500 0.000000 0.562500
0.825000 0.000000 0.562500
0.962500 0.000000 0.562500
1.000000 0.000000 0.562500
0.000000 0.118750 0.562500
0.137500 0.118750 0.562500
0.275000 0.118750 0.562500
0.412500 0.118750 0.562500
0.550000 0.118750 0.562500
0.687500 0.118750 0.562500
0.825000 0.118750 0.562500
0.962500 0.118750 0.562500
1.000000 0.118750 0.562500
0.000000 0.237500 0.562500
0.137500 0.237500 0.562500
0.275000 0.237500 0.562500
0.412500 0.237500 0.562500
0.550000 0.237500 0.562500
0.687500 0.237500 0.562500
0.825000 0.237500 0.562500
0.962500 0.237500 0.562500
1.000000 0.237500 0.562500
0.000000 0.356250 0.562500
0.137500 0.356250 0.562500
0.275000 0.356250 0.562500
0.412500 0.356250 0.562500
0.550000 0.356250 0.562500
0.687500 0.356250 0.562500
0.825000 0.356250 0.562500
0.962500 0.356250 0.562500
1.000000 0.356250 0.562500
0.000000 0.475000 0.562500
0.137500 0.475000 0.562500
0.275000 0.475000 0.562500
0.412500 0.475000 0.562500
0.550000 0.475000 0.562500
0.687500 0.475000 0.562500
0.825000 0.475000 0.562500
0.962500 0.475000 0.562500
1.000000 0.475000 0.562500
0.000000 0.593750 0.562500
0.137500 0.593750 0.562500
0.275000 0.593750 0.562500
0.412500 0.593750 0.562500
0.550000 0.593750 0.562500
0.687500 0.593750 0.562500
0.825000 0.593750 0.562500
0.962500 0.593750 0.562500
1.000000 0.593750 0.562500
0.000000 0.712500 0.562500
0.137500 0.712500 0.562500
0.275000 0.712500 0.562500
0.412500 0.712500 0.562500
0.550000 0.712500 0.562500
0.687500 0.712500 0.562500
0.825000 0.712500 0.562500
0.962500 0.712500 0.562500
1.000000 0.712500 0.562500
0.000000 0.831250 0.562500
0.137500 0.831250 0.562500
0.275000 0.831250 0.562500
0.412500 0.831250 0.562500
0.550000 0.831250 0.562500
0.687500 0.831250 0.562500
0.825000 0.831250 0.562500
0.962500 0.831250 0.562500
1.000000 0.831250 0.562500
0.000000 0.950000 0.562500
0.137500 0.950000 0.562500
0.275000 0.950000 0.562500
0.412500 0.950000 0.562500
0.550000 0.950000 0.562500
0.687500 0.950000 0.562500
0.825000 0.950000 0.562500
0.962500 0.950000 0.562500
1.000000 0.950000 0.562500
0.000000 0.000000 0.675000
0.137500 0.000000 0.675000
0.275000 0.000000 0.675000
0.412500 0.000000 0.675000
0.550000 0.000000 0.675000
0.687500 0.000000 0.675000
0.825000 0.000000 0.675000
0.962500 0.000000 0.675000
1.000000 0.000000 0.675000
0.000000 0.118750 0.675000
0.137500 0.118750 0.675000
0.275000 0.118750 0.675000
0.412500 0.118750 0.675000
0.550000 0.118750 0.675000
0.687500 0.118750 0.675000
0.825000 0.118750 0.675000
0.962500 0.118750 0.675000
1.000000 0.118750 0.675000
0.000000 0.237500 0.675000
0.137500 0.237500 0.675000
0.275000 0.237500 0.675000
0.412500 0.237500 0.675000
0.550000 0.237500 0.675000
0.687500 0.237500 0.675000
0.825000 0.237500 0.675000
0.962500 0.237500 0.675000
1.000000 0.237500 0.675000
0.000000 0.356250 0.675000
0.137500 0.356250 0.675000
0.275000 0.356250 0.675000
0.412500 0.356250 0.675000
0.550000 0.356250 0.675000
0.687500 0.356250 0.675000
0.825000 0.356250 0.675000
0.962500 0.356250 0.675000
1.000000 0.356250 0.675000
0.000000 0.475000 0.675000
0.137500 0.475000 0.675000
0.275000 0.475000 0.675000
0.412500 0.475000 0.675000
0.550000 0.475000 0.675000
0.687500 0.475000 0.675000
0.825000 0.475000 0.675000
0.962500 0.475000 0.675000
1.000000 0.475000 0.675000
0.000000 0.593750 0.675000
0.137500 0.593750 0.675000
0.275000 0.593750 0.675000
0.412500 0.593750 0.675000
0.550000 0.593750 0.675000
0.687500 0.593750 0.675000
0.825000 0.593750 0.675000
0.962500 0.593750 0.675000
1.000000 0.593750 0.675000
0.000000 0.712500 0.675000
0.137500 0.712500 0.675000
0.275000 0.712500 0.675000
0.412500 0.712500 0.675000
0.550000 0.712500 0.675000
0.687500 0.712500 0.675000
0.825000 0.712500 0.675000
0.962500 0.712500 0.675000
1.000000 0.712500 0.675000
0.000000 0.831250 0.675000
0.137500 0.831250 0.675000
0.275000 0.831250 0.675000
0.412500 0.831250 0.675000
0.550000 0.831250 0.675000
0.687500 0.831250 0.675000
0.825000 0.831250 0.675000
0.962500 0.831250 0.675000
1.000000 0.831250 0.675000
0.000000 0.950000 0.675000
0.137500 0.950000 0.675000
0.275000 0.950000 0.675000
0.412500 0.950000 0.675000
0.550000 0.950000 0.675000
0.687500 0.950000 0.675000
0.825000 0.950000 0.675000
0.962500 0.950000 0.675000
1.000000 0.950000 0.675000
0.000000 0.000000 0.787500
0.137500 0.000000 0.787500
0.275000 0.000000 0.787500
0.412500 0.000000 0.787500
0.550000 0.000000 0.787500
0.687500 0.000000 0.787500
0.825000 0.000000 0.787500
0.962500 0.000000 0.787500
1.000000 0.000000 0.787500
0.000000 0.118750 0.787500
0.137500 0.118750 0.787500
0.275000 0.118750 0.787500
0.412500 0.118750 0.787500
0.550000 0.118750 0.787500
0.687500 0.118750 0.787500
0.825000 0.118750 0.787500
0.962500 0.118750 0.787500
1.000000 0.118750 0.787500
0.000000 0.237500 0.787500
0.137500 0.237500 0.787500
0.275000 0.237500 0.787500
0.412500 0.237500 0.787500
0.550000 0.237500 0.787500
0.687500 0.237500 0.787500
0.825000 0.237500 0.787500
0.962500 0.237500 0.787500
1.000000 0.237500 0.787500
0.000000 0.356250 0.787500
0.137500 0.356250 0.787500
0.275000 0.356250 0.787500
0.412500 0.356250 0.787500
0.550000 0.356250 0.787500
0.687500 0.356250 0.787500
0.825000 0.356250 0.787500
0.962500 0.356250 0.787500
1.000000 0.356250 0.787500
0.000000 0.475000 0.787500
0.137500 0.475000 0.787500
0.275000 0.475000 0.787500
0.412500 0.475000 0.787500
0.550000 0.475000 0.787500
0.687500 0.475000 0.787500
0.825000 0.475000 0.787500
0.962500 0.475000 0.787500
1.000000 0.475000 0.787500
0.000000 0.593750 0.787500
0.137500 0.593750 0.787500
0.275000 0.593750 0.787500
0.412500 0.593750 0.787500
0.550000 0.593750 0.787500
0.687500 0.593750 0.787500
0.825000 0.593750 0.787500
0.962500 0.593750 0.787500
1.000000 0.593750 0.787500
0.000000 0.712500 0.787500
0.137500 0.712500 0.787500
0.275000 0.712500 0.787500
0.412500 0.712500 0.787500
0.550000 0.712500 0.787500
0.687500 0.712500 0.787500
0.825000 0.712500 0.787500
0.962500 0.712500 0.787500
1.000000 0.712500 0.787500
0.000000 0.831250 0.787500
0.137500 0.831250 0.787500
0.275000 0.831250 0.787500
0.412500 0.831250 0.787500
0.550000 0.831250 0.787500
0.687500 0.831250 0.787500
0.825000 0.831250 0.787500
0.962500 0.831250 0.787500
1.000000 0.831250 0.787500
0.000000 0.950000 0.787500
0.137500 0.950000 0.787500
0.275000 0.950000 0.787500
0.412500 0.950000 0.787500
0.550000 0.950000 0.787500
0.687500 0.950000 0.787500
0.825000 0.950000 0.787500
0.962500 0.950000 0.787500
1.000000 0.950000 0.787500
0.000000 0.000000 0.900000
0.137500 0.000000 0.900000
0.275000 0.000000 0.900000
0.412500 0.000000 0.900000
0.550000 0.000000 0.900000
0.687500 0.000000 0.900000
0.825000 0.000000 0.900000
0.962500 0.000000 0.900000
1.000000 0.000000 0.900000
0.000000 0.118750 0.900000
0.137500 0.118750 0.900000
0.275000 0.118750 0.900000
0.412500 0.118750 0.900000
0.550000 0.118750 0.900000
0.687500 0.118750 0.900000
0.825000 0.118750 0.900000
0.962500 0.118750 0.900000
1.000000 0.118750 0.900000
0.000000 0.237500 0.900000
0.137500 0.237500 0.900000
0.275000 0.237500 0.900000
0.412500 0.237500 0.900000
0.550000 0.237500 0.900000
0.687500 0.237500 0.900000
0.825000 0.237500 0.900000
0.962500 0.237500 0.900000
1.000000 0.237500 0.900000
0.000000 0.356250 0.900000
0.137500 0.356250 0.900000
0.275000 0.356250 0.900000
0.412500 0.356250 0.900000
0.550000 0.356250 0.900000
0.687500 0.356250 0.900000
0.825000 0.356250 0.900000
0.962500 0.356250 0.900000
1.000000 0.356250 0.900000
0.000000 0.475000 0.900000
0.137500 0.475000 0.900000
0.275000 0.475000 0.900000
0.412500 0.475000 0.900000
0.550000 0.475000 0.900000
0.687500 0.475000 0.900000
0.825000 0.475000 0.900000
0.962500 0.475000 0.900000
1.000000 0.475000 0.900000
0.000000 0.593750 0.900000
0.137500 0.593750 0.900000
0.275000 0.593750 0.900000
0.412500 0.593750 0.900000
0.550000 0.593750 0.900000
0.687500 0.593750 0.900000
0.825000 0.593750 0.900000
0.962500 0.593750 0.900000
1.000000 0.593750 0.900000
0.000000 0.712500 0.900000
0.137500 0.712500 0.900000
0.275000 0.712500 0.900000
0.412500 0.712500 0.900000
0.550000 0.712500 0.900000
0.687500 0.712500 0.900000
0.825000 0.712500 0.900000
0.962500 0.712500 0.900000
1.000000 0.712500 0.900000
0.000000 0.831250 0.900000
0.137500 0.831250 0.900000
0.275000 0.831250 0.900000
0.412500 0.831250 0.900000
0.550000 0.831250 0.900000
0.687500 0.831250 0.900000
0.825000 0.831250 0.900000
0.962500 0.831250 0.900000
1.000000 0.831250 0.900000
0.000000 0.950000 0.900000
0.137500 0.950000 0.900000
0.275000 0.950000 0.900000
0.412500 0.950000 0.900000
0.550000 0.950000 0.900000
0.687500 0.950000 0.900000
0.825000 0.950000 0.900000
0.962500 0.950000 0.900000
1.000000 0.950000 0.900000
