luts/Lucid Pulse.cube
TITLE "Generated by Resolve"
LUT_3D_SIZE 9
0.0506294 0.00946059 0.0215
0.0508888 0.0153658 0.0282444
0.0477455 0.0382696 0.05449
0.0328679 0.068986 0.0902266
0.00352483 0.105531 0.132616
0 0.150195 0.181277
0 0.198856 0.230945
0 0.250294 0.280003
0 0.302708 0.32752
0.0576486 0.043534 0.0608988
0.0448615 0.0700236 0.0914778
0.0258183 0.112093 0.140734
0 0.159014 0.193408
0 0.209171 0.24567
0 0.260838 0.295521
0 0.31281 0.342489
0 0.364126 0.386526
0 0.412787 0.426703
0.134508 0.14313 0.179873
0.0221561 0.153826 0.188373
0 0.199832 0.237064
0 0.2542 0.290913
0 0.310338 0.342992
0 0.363867 0.389288
0 0.415793 0.433021
0 0.468055 0.47689
0 0.520653 0.51841
0.198016 0.232944 0.274434
0.123781 0.275196 0.312169
0 0.301106 0.335744
0 0.352544 0.380301
0 0.407156 0.426764
0 0.4654 0.477012
0 0.524697 0.524742
0 0.582391 0.568261
0 0.638193 0.60737
0.295201 0.332631 0.36611
0.215625 0.388251 0.415763
0.141863 0.435477 0.45771
0 0.461158 0.475288
0 0.513527 0.516823
0 0.573938 0.563043
0 0.638544 0.609506
0 0.702647 0.653468
0 0.759106 0.693187
0.419562 0.442222 0.46511
0.332296 0.499458 0.514641
0.245487 0.553948 0.556344
0.17557 0.610117 0.596551
0.126238 0.662547 0.630182
0.092607 0.71368 0.664012
0.10457 0.770626 0.703792
0.147372 0.826047 0.744274
0.184314 0.874784 0.77969
0.560647 0.553033 0.558999
0.466392 0.610712 0.60029
0.371344 0.66186 0.632593
0.295689 0.713588 0.666423
0.24155 0.767895 0.703334
0.211566 0.817716 0.738796
0.20676 0.863523 0.77174
0.223529 0.907393 0.80322
0.256092 0.948882 0.832593
0.686656 0.657725 0.631403
0.600259 0.71043 0.66656
0.5084 0.755169 0.695537
0.429053 0.79762 0.724529
0.37142 0.843275 0.757153
0.334829 0.889601 0.790433
0.315785 0.933654 0.82179
0.31429 0.975479 0.851041
0.329305 1 0.878859
0.795163 0.752758 0.694331
0.730205 0.792081 0.720592
0.648325 0.834226 0.750317
0.573861 0.871031 0.776638
0.510246 0.90901 0.80351
0.46276 0.951965 0.833814
0.431159 0.995956 0.864576
0.41619 1 0.894179
0.418204 1 0.923186
0.0763104 0.0375525 0.0569772
0.0519722 0.0138247 0.0265812
0.0511635 0.0316472 0.0469368
0.044007 0.0653239 0.0859541
0.0220645 0.103563 0.13077
0 0.146761 0.178943
0 0.194614 0.228809
0 0.245319 0.277897
0 0.296971 0.325032
0.152346 0.0696422 0.107134
0.100557 0.0915541 0.118791
0.0364843 0.0999008 0.126619
0.0103151 0.143526 0.176516
0 0.194675 0.23154
0 0.248463 0.285008
0 0.301732 0.334279
0 0.353536 0.379294
0 0.403326 0.420569
0.259709 0.132418 0.185519
0.163317 0.177157 0.218891
0.0291142 0.195102 0.233326
0 0.237797 0.27541
0 0.291768 0.326268
0 0.347341 0.375662
0 0.402243 0.422324
0 0.456641 0.468711
0 0.511315 0.51281
0.369024 0.215534 0.270665
0.240742 0.269795 0.309697
0.165469 0.319203 0.352865
0.00675975 0.345785 0.376181
0 0.391546 0.41387
0 0.446006 0.460441
0 0.505989 0.510307
0 0.568032 0.558328
0 0.628428 0.602136
0.470787 0.328542 0.362844
0.350042 0.375021 0.404929
0.267063 0.430869 0.454536
0.186038 0.48368 0.500328
0.116258 0.532311 0.537072
0 0.561517 0.554879
0 0.618799 0.596506
0 0.682963 0.640055
0.082002 0.762982 0.697963
0.566537 0.450004 0.460945
0.48484 0.484947 0.504265
0.392554 0.543328 0.54992
0.301762 0.597147 0.588968
0.227207 0.652781 0.625238
0.174914 0.708675 0.662394
0.147082 0.760281 0.697261
0.148806 0.810239 0.732906
0.17615 0.859037 0.768307
0.692882 0.562951 0.550484
0.624735 0.593881 0.589136
0.529335 0.651301 0.627344
0.434501 0.700023 0.658442
0.352453 0.747539 0.689494
0.297688 0.798627 0.725231
0.264118 0.846708 0.759747
0.251362 0.891768 0.792096
0.259083 0.934218 0.822293
0.801572 0.674754 0.629252
0.738262 0.696986 0.65713
0.659709 0.743816 0.688136
0.571176 0.787167 0.717479
0.493248 0.826459 0.745037
0.43241 0.86836 0.774929
0.38967 0.913649 0.80734
0.363668 0.95761 0.838376
0.354314 0.999619 0.867597
0.877333 0.78175 0.702983
0.833021 0.791867 0.720317
0.78764 0.820401 0.742794
0.710384 0.861814 0.769345
0.638148 0.897978 0.795468
0.571862 0.934035 0.820813
0.5187 0.974212 0.848707
0.483085 1 0.879652
0.463294 1 0.91043
0.14757 0.0399481 0.0753033
0.110582 0.0549783 0.0829786
0.0566415 0.03122 0.0467689
0.0487831 0.054551 0.0733806
0.0343481 0.0936751 0.119341
0.0087892 0.138277 0.170474
0 0.186145 0.221851
0 0.236759 0.272023
0 0.288594 0.320195
0.241169 0.0673991 0.105486
0.200229 0.0909743 0.135195
0.133181 0.125856 0.161074
0.0300755 0.133883 0.165988
0 0.178042 0.214206
0 0.231373 0.26865
0 0.287114 0.321828
0 0.341024 0.369665
0 0.392569 0.412955
0.358709 0.135561 0.16968
0.312169 0.161379 0.217914
0.195987 0.212009 0.255833
0.119265 0.252766 0.290517
0 0.277653 0.314076
0 0.329717 0.360494
0 0.384253 0.406867
0 0.441062 0.45594
0 0.498863 0.504189
0.47155 0.227268 0.255879
0.41622 0.259892 0.30547
0.289372 0.308583 0.346227
0.207523 0.363149 0.392844
0.134615 0.409644 0.434577
0 0.434623 0.452018
0 0.487831 0.496132
0 0.547768 0.543084
0 0.611597 0.591028
0.578912 0.339574 0.353094
0.510674 0.379843 0.400778
0.411154 0.416846 0.444144
0.322438 0.474189 0.493324
0.236072 0.528878 0.537102
0.165515 0.583291 0.576928
0.110521 0.634302 0.610925
0.0133364 0.673106 0.63447
0.067216 0.742199 0.68304
0.6972 0.456733 0.452491
0.61735 0.497368 0.499367
0.556176 0.526696 0.540246
0.45565 0.586145 0.582757
0.359869 0.638468 0.617014
0.282673 0.691157 0.65127
0.226719 0.746822 0.688731
0.194034 0.797848 0.724437
0.189151 0.844633 0.758099
0.81355 0.581506 0.547845
0.747509 0.60676 0.580087
0.674006 0.635493 0.61619
0.589899 0.688945 0.652506
0.496605 0.735363 0.682307
0.413809 0.779202 0.711498
0.354925 0.826032 0.744793
0.317983 0.873228 0.778775
0.298772 0.917662 0.810513
0.888594 0.712902 0.642649
0.83856 0.721111 0.660395
0.786786 0.734401 0.680858
0.719326 0.773709 0.70808
0.634485 0.817136 0.738354
0.558434 0.854673 0.765103
0.493721 0.893172 0.792386
0.446387 0.936599 0.823224
0.41413 0.980774 0.854124
0.955688 0.817304 0.716426
0.91043 0.820722 0.730541
0.872175 0.825757 0.743633
0.837812 0.848768 0.76495
0.770886 0.887739 0.787366
0.700359 0.924575 0.813733
0.633448 0.959289 0.837995
0.576288 0.997177 0.864195
0.537011 1 0.894514
0.14432 0.00679026 0.0335699
0.192935 0.0534524 0.0924544
0.143343 0.0613413 0.0970779
0.0955825 0.0766308 0.101869
0.0429541 0.0819409 0.105562
0.020325 0.123888 0.154345
0 0.172992 0.208637
0 0.225116 0.261997
0 0.277958 0.312245
0.319478 0.067216 0.0991073
0.290074 0.0920424 0.12665
0.251041 0.11635 0.165347
0.161593 0.158679 0.199924
0.0342107 0.173571 0.210315
0 0.21503 0.252705
0 0.268635 0.304753
0 0.324697 0.355856
0 0.379309 0.402487
0.465873 0.130632 0.154223
0.412299 0.168124 0.200961
0.362066 0.198138 0.25153
0.237263 0.247791 0.291279
0.159365 0.295476 0.33048
0 0.320714 0.353979
0 0.368078 0.393713
0 0.422126 0.43975
0 0.480949 0.490059
0.58761 0.22359 0.241047
0.519936 0.269764 0.292256
0.460136 0.307073 0.341466
0.343374 0.349752 0.384863
0.257527 0.405829 0.431312
0.179126 0.458137 0.478645
0.103319 0.504112 0.514549
0 0.533455 0.533013
0 0.591333 0.576257
0.69955 0.337636 0.341466
0.630579 0.386557 0.392447
0.555093 0.42855 0.43978
0.478767 0.458762 0.484337
0.381308 0.517678 0.529519
0.291432 0.572305 0.570687
0.215122 0.62797 0.608743
0.161822 0.683436 0.645121
0.130678 0.735546 0.679835
0.816144 0.455604 0.442298
0.761837 0.500542 0.486946
0.680247 0.541192 0.531991
0.614862 0.568902 0.570077
0.518853 0.627802 0.611826
0.422553 0.678065 0.643854
0.339681 0.726955 0.675593
0.281773 0.779293 0.711437
0.246311 0.828717 0.746777
0.905043 0.593591 0.551019
0.849638 0.635843 0.589548
0.793179 0.654337 0.61326
0.727611 0.677409 0.642649
0.649546 0.723827 0.675151
0.558526 0.768612 0.704723
0.477974 0.809079 0.732754
0.415335 0.851774 0.763134
0.372305 0.897673 0.796048
0.975769 0.724651 0.647074
0.919387 0.759365 0.674083
0.871489 0.764355 0.689464
0.824247 0.774914 0.707347
0.776272 0.802823 0.730587
0.697063 0.845472 0.7579
0.622995 0.882063 0.784298
0.556054 0.918456 0.810025
0.502693 0.958831 0.83827
1 0.836149 0.724132
0.989807 0.8551 0.744213
0.946777 0.854185 0.754376
0.910094 0.858488 0.766659
0.882002 0.877638 0.786099
0.829618 0.913085 0.80618
0.759777 0.950317 0.831037
0.693935 0.985077 0.855207
0.635599 1 0.880262
0.190234 0.00567636 0.0324865
0.266972 0.0552529 0.0897993
0.228336 0.0590372 0.0972457
0.188159 0.0770123 0.119142
0.130877 0.109026 0.142458
0.0371405 0.114794 0.143999
0.00485237 0.156725 0.191119
0 0.208652 0.245899
0 0.263951 0.300084
0.422126 0.0611124 0.0896315
0.38114 0.0874952 0.115328
0.342336 0.119249 0.15169
0.302937 0.146609 0.198764
0.1944 0.192111 0.237598
0.116274 0.230579 0.26865
0 0.254353 0.291875
0 0.306645 0.339925
0 0.36141 0.38764
0.577081 0.124269 0.139208
0.522866 0.163607 0.184802
0.461738 0.205203 0.234699
0.407858 0.239353 0.284688
0.285222 0.285313 0.32723
0.199878 0.338293 0.369894
0.127092 0.383978 0.411429
0 0.409583 0.430106
0 0.46244 0.474861
0.694057 0.218753 0.226535
0.638605 0.265949 0.278202
0.569635 0.314351 0.330175
0.500313 0.35697 0.379553
0.405447 0.391608 0.424033
0.3122 0.448753 0.470466
0.227176 0.503365 0.516915
0.155993 0.556161 0.556481
0.0913252 0.60473 0.59057
0.796567 0.335637 0.331594
0.750271 0.384527 0.38143
0.684565 0.432532 0.431037
0.606073 0.475425 0.478843
0.550408 0.500572 0.51989
0.444968 0.561318 0.564034
0.349386 0.614816 0.601678
0.269978 0.667887 0.635599
0.212177 0.724346 0.67335
0.904921 0.457145 0.436408
0.866438 0.505104 0.482963
0.809995 0.552285 0.524514
0.738552 0.584863 0.561837
0.661524 0.613565 0.600946
0.580148 0.667048 0.638132
0.485206 0.71487 0.668681
0.399313 0.760174 0.698253
0.338613 0.808179 0.732052
0.989105 0.604181 0.553399
0.936446 0.648966 0.593225
0.884459 0.687602 0.625223
0.832044 0.701869 0.645655
0.777401 0.71577 0.66714
0.709667 0.754955 0.695689
0.620996 0.799542 0.725963
0.543206 0.837934 0.753231
0.477409 0.877302 0.781201
1 0.734661 0.649348
1 0.771282 0.67866
0.949676 0.801663 0.703304
0.9037 0.804639 0.717449
0.862119 0.811185 0.732174
0.826703 0.831876 0.752926
0.757885 0.871702 0.776074
0.686122 0.908949 0.802915
0.618509 0.94403 0.827604
1 0.846601 0.72755
1 0.875776 0.752972
1 0.888548 0.768612
0.984085 0.887007 0.777996
0.947936 0.890761 0.789364
0.923156 0.906798 0.807324
0.88072 0.939727 0.826886
0.817182 0.975433 0.847868
0.752697 1 0.872297
0.256764 0.00202945 0.0296025
0.288212 0.0223697 0.055848
0.308263 0.062562 0.0951705
0.273396 0.0778058 0.113039
0.240589 0.102922 0.14818
0.159487 0.140841 0.181064
0.0399176 0.153017 0.187655
0 0.192584 0.229709
0 0.245518 0.282536
0.501488 0.0376593 0.0678569
0.489403 0.0776074 0.100755
0.448951 0.114061 0.137682
0.398123 0.149691 0.18146
0.353552 0.180056 0.231403
0.234867 0.226154 0.273106
0.15375 0.272465 0.308751
0 0.29688 0.332509
0 0.344991 0.373999
0.67892 0.123644 0.131487
0.629831 0.158679 0.170153
0.575387 0.201038 0.21912
0.510796 0.246143 0.270329
0.450706 0.284581 0.319783
0.338827 0.324681 0.36495
0.247837 0.380987 0.408026
0.172488 0.43238 0.45568
0.0860761 0.474922 0.490303
0.78056 0.221485 0.221164
0.741436 0.262592 0.266041
0.68838 0.311467 0.317556
0.621012 0.361028 0.369604
0.544991 0.405417 0.418051
0.475868 0.432822 0.4636
0.370062 0.49189 0.508095
0.281422 0.547066 0.551583
0.20354 0.60264 0.591745
0.880156 0.337636 0.32604
0.84155 0.383444 0.372946
0.801328 0.430457 0.42034
0.746242 0.476524 0.466972
0.667506 0.51957 0.5131
0.605203 0.543832 0.550622
0.507912 0.603281 0.59559
0.411093 0.655421 0.628809
0.32723 0.70544 0.661097
0.991562 0.46833 0.439429
0.950637 0.514717 0.484901
0.901823 0.563973 0.527443
0.843503 0.60853 0.567407
0.78436 0.633494 0.597025
0.716091 0.657298 0.627314
0.63949 0.703075 0.661738
0.547295 0.749508 0.691981
0.463035 0.791302 0.720104
1 0.613352 0.554253
1 0.659678 0.595224
0.970733 0.699825 0.629282
0.915587 0.736431 0.657984
0.865736 0.746685 0.675746
0.817441 0.756619 0.693812
0.765408 0.784756 0.718303
0.683696 0.828672 0.74609
0.608057 0.866056 0.773053
1 0.742077 0.648692
1 0.780835 0.681544
1 0.815167 0.708721
0.982818 0.840238 0.73135
0.938399 0.841016 0.743511
0.899916 0.844327 0.755322
0.871519 0.86099 0.77409
0.817182 0.897261 0.795041
0.746517 0.935088 0.820661
1 0.853162 0.728054
1 0.886931 0.756725
1 0.908278 0.777462
1 0.921263 0.792584
1 0.919371 0.801236
0.985809 0.922606 0.81181
0.959792 0.936568 0.82855
0.924849 0.967559 0.84828
0.872175 1 0.865843
0.341131 0 0.023621
0.365728 0.0129397 0.0458076
0.412833 0.0596628 0.0887312
0.359808 0.0740215 0.103685
0.325704 0.103899 0.135805
0.292424 0.131151 0.179232
0.19237 0.172839 0.21883
0.114504 0.208911 0.246983
0 0.231357 0.269368
0.602625 0.0319829 0.0616007
0.58912 0.0634928 0.0851911
0.56022 0.106966 0.123171
0.509606 0.143999 0.165148
0.45098 0.184207 0.213794
0.399207 0.218585 0.263691
0.282353 0.262058 0.308446
0.192615 0.313893 0.347005
0.11928 0.357961 0.388556
0.756771 0.129076 0.132692
0.7243 0.160204 0.163745
0.681636 0.196735 0.205112
0.627588 0.241856 0.255634
0.560449 0.289723 0.307607
0.491279 0.33286 0.357382
0.403098 0.365911 0.404135
0.301427 0.423453 0.446677
0.218631 0.477928 0.496101
0.8607 0.228397 0.220249
0.824018 0.266133 0.261952
0.785122 0.309667 0.307759
0.738506 0.358312 0.357839
0.673091 0.407492 0.408743
0.595346 0.452537 0.457038
0.543053 0.474571 0.498451
0.433234 0.535698 0.543908
0.338842 0.590341 0.584543
0.968093 0.343816 0.323293
0.928054 0.384939 0.366583
0.890471 0.430289 0.412863
0.853529 0.476768 0.458595
0.804608 0.522576 0.501076
0.729702 0.562737 0.543008
0.649317 0.592203 0.584314
0.569879 0.643778 0.622721
0.474144 0.693935 0.65481
1 0.482094 0.441932
1 0.525811 0.484398
0.984161 0.57377 0.529183
0.931243 0.621195 0.571176
0.879316 0.661662 0.607141
0.825284 0.682094 0.630457
0.767681 0.696559 0.652857
0.699809 0.735271 0.682811
0.608728 0.781674 0.713649
1 0.624262 0.556146
1 0.667536 0.594919
1 0.710079 0.630884
1 0.747616 0.66212
0.945663 0.781277 0.688487
0.897307 0.788128 0.704143
0.852552 0.796414 0.720668
0.815793 0.814542 0.740459
0.74519 0.855665 0.764782
1 0.749004 0.647318
1 0.787442 0.681224
1 0.824979 0.711894
1 0.856229 0.737972
1 0.875914 0.757748
0.975097 0.873991 0.767193
0.937575 0.876921 0.778408
0.910658 0.890913 0.795636
0.869795 0.92401 0.815976
1 0.857206 0.725994
1 0.89395 0.757397
1 0.919676 0.781262
1 0.939071 0.80087
1 0.953445 0.816205
1 0.951339 0.823972
1 0.954086 0.833799
0.995697 0.966567 0.84979
0.965576 0.996078 0.869657
0.43714 0 0.0170443
0.464515 0.00555428 0.0375067
0.470893 0.0284733 0.0605783
0.464622 0.0639963 0.0902876
0.429419 0.0985275 0.123201
0.382132 0.13228 0.162829
0.343191 0.162371 0.211002
0.233249 0.204898 0.254841
0.149416 0.25008 0.287465
0.698131 0.0348058 0.0631723
0.655695 0.0408637 0.0682994
0.663401 0.102846 0.113909
0.61709 0.138994 0.151049
0.562905 0.179446 0.197803
0.500908 0.223178 0.248631
0.441093 0.262043 0.298054
0.336904 0.299763 0.345418
0.238727 0.356008 0.385183
0.825406 0.130068 0.132235
0.802853 0.169055 0.166079
0.768261 0.199329 0.199649
0.730053 0.238392 0.243153
0.677348 0.28574 0.29395
0.61117 0.335225 0.346319
0.536202 0.380987 0.395804
0.472526 0.407233 0.441733
0.358434 0.4663 0.485573
0.945525 0.236515 0.219654
0.906981 0.271595 0.259159
0.868009 0.31281 0.303349
0.829236 0.357824 0.349874
0.787381 0.404852 0.39762
0.730907 0.452415 0.445914
0.654597 0.49752 0.493233
0.595758 0.518685 0.530571
0.496696 0.578408 0.577188
1 0.364797 0.334096
1 0.399313 0.372061
0.978058 0.439612 0.413962
0.939406 0.484764 0.458961
0.896864 0.533593 0.502327
0.83946 0.580194 0.544869
0.775753 0.612711 0.579431
0.705425 0.636439 0.611841
0.62916 0.6813 0.647608
1 0.499626 0.447211
1 0.539406 0.488579
1 0.583963 0.530816
1 0.631235 0.572946
0.964446 0.674327 0.610437
0.911727 0.712261 0.641215
0.859785 0.728435 0.661555
0.810483 0.737835 0.679927
0.754955 0.76611 0.705821
1 0.636698 0.558892
1 0.676509 0.595239
1 0.717403 0.629969
1 0.757183 0.664469
1 0.793225 0.693095
0.976867 0.823087 0.717662
0.930159 0.826917 0.731807
0.890394 0.830396 0.744244
0.860075 0.844572 0.762142
1 0.75729 0.64683
1 0.792981 0.679149
1 0.830701 0.711635
1 0.866423 0.741115
1 0.89337 0.765484
1 0.908812 0.781796
1 0.906569 0.790677
0.975433 0.909056 0.801099
0.946899 0.92105 0.817075
1 0.86276 0.724269
1 0.897169 0.754864
1 0.926116 0.781277
1 0.950561 0.804562
1 0.969421 0.82385
1 0.983658 0.838849
1 0.983566 0.846754
1 0.985931 0.855894
1 0.996475 0.870985
0.537484 0 0.0102083
0.563287 0.0024567 0.0332647
0.571008 0.0217136 0.053254
0.537606 0.0363317 0.0660105
0.53901 0.088838 0.107973
0.493812 0.125978 0.147127
0.438941 0.16434 0.19353
0.390249 0.198505 0.243153
0.28191 0.239078 0.290181
0.787869 0.0417487 0.0666056
0.752911 0.0538033 0.077409
0.739818 0.101411 0.111269
0.712261 0.141268 0.145922
0.668467 0.175341 0.184054
0.615595 0.21828 0.233188
0.550988 0.265339 0.285145
0.482063 0.308614 0.334966
0.402319 0.340169 0.383963
0.876432 0.0956283 0.106889
0.88217 0.179004 0.169665
0.847623 0.207126 0.199893
0.812161 0.242313 0.239368
0.774136 0.284215 0.284245
0.726848 0.332006 0.333898
0.662791 0.382452 0.386221
0.586038 0.427665 0.434531
0.535271 0.448859 0.476204
1 0.264591 0.238682
0.996033 0.286381 0.264393
0.954406 0.316609 0.298375
0.914412 0.359594 0.343771
0.876005 0.404868 0.390433
0.838926 0.451469 0.436683
0.792294 0.496773 0.4813
0.720333 0.540597 0.52369
0.63743 0.570459 0.566613
1 0.3888 0.34725
1 0.418219 0.381033
1 0.454383 0.419577
1 0.49633 0.457511
0.978927 0.543053 0.504067
0.927306 0.591959 0.54818
0.872816 0.635126 0.586984
0.817975 0.661982 0.614816
0.757885 0.676951 0.638132
1 0.519738 0.456321
1 0.555413 0.494331
1 0.596139 0.5337
1 0.640101 0.57348
1 0.684565 0.61178
0.998596 0.723629 0.645151
0.942138 0.759289 0.672969
0.891661 0.771191 0.6907
0.845014 0.779248 0.707317
1 0.65127 0.562997
1 0.687373 0.596719
1 0.725109 0.62916
1 0.763882 0.663478
1 0.802319 0.695735
1 0.83592 0.722789
1 0.86244 0.746151
0.966293 0.860868 0.756207
0.927687 0.863188 0.767437
1 0.766827 0.647044
1 0.800137 0.677897
1 0.835386 0.709636
1 0.872511 0.741192
1 0.904036 0.76878
1 0.924254 0.788876
1 0.93962 0.805158
1 0.938857 0.813886
1 0.940764 0.823392
1 0.869932 0.723186
1 0.900084 0.751507
1 0.928267 0.777905
1 0.956817 0.804303
1 0.981216 0.827741
1 1 0.847013
1 1 0.862211
1 1 0.870024
1 1 0.878523
