luts/Lucid Pulse.cube
TITLE "Generated by Resolve"
LUT_3D_SIZE 5
0.0506294 0.00946059 0.0215
0.0477455 0.0382696 0.05449
0.00352483 0.105531 0.132616
0 0.198856 0.230945
0 0.302708 0.32752
0.134508 0.14313 0.179873
0 0.199832 0.237064
0 0.310338 0.342992
0 0.415793 0.433021
0 0.520653 0.51841
0.295201 0.332631 0.36611
0.141863 0.435477 0.45771
0 0.513527 0.516823
0 0.638544 0.609506
0 0.759106 0.693187
0.560647 0.553033 0.558999
0.371344 0.66186 0.632593
0.24155 0.767895 0.703334
0.20676 0.863523 0.77174
0.256092 0.948882 0.832593
0.795163 0.752758 0.694331
0.648325 0.834226 0.750317
0.510246 0.90901 0.80351
0.431159 0.995956 0.864576
0.418204 1 0.923186
0.14757 0.0399481 0.0753033
0.0566415 0.03122 0.0467689
0.0343481 0.0936751 0.119341
0 0.186145 0.221851
0 0.288594 0.320195
0.358709 0.135561 0.16968
0.195987 0.212009 0.255833
0 0.277653 0.314076
0 0.384253 0.406867
0 0.498863 0.504189
0.578912 0.339574 0.353094
0.411154 0.416846 0.444144
0.236072 0.528878 0.537102
0.110521 0.634302 0.610925
0.067216 0.742199 0.68304
0.81355 0.581506 0.547845
0.674006 0.635493 0.61619
0.496605 0.735363 0.682307
0.354925 0.826032 0.744793
0.298772 0.917662 0.810513
0.955688 0.817304 0.716426
0.872175 0.825757 0.743633
0.770886 0.887739 0.787366
0.633448 0.959289 0.837995
0.537011 1 0.894514
0.190234 0.00567636 0.0324865
0.228336 0.0590372 0.0972457
0.130877 0.109026 0.142458
0.00485237 0.156725 0.191119
0 0.263951 0.300084
0.577081 0.124269 0.139208
0.461738 0.205203 0.234699
0.285222 0.285313 0.32723
0.127092 0.383978 0.411429
0 0.46244 0.474861
0.796567 0.335637 0.331594
0.684565 0.432532 0.431037
0.550408 0.500572 0.51989
0.349386 0.614816 0.601678
0.212177 0.724346 0.67335
0.989105 0.604181 0.553399
0.884459 0.687602 0.625223
0.777401 0.71577 0.66714
0.620996 0.799542 0.725963
0.477409 0.877302 0.781201
1 0.846601 0.72755
1 0.888548 0.768612
0.947936 0.890761 0.789364
0.88072 0.939727 0.826886
0.752697 1 0.872297
0.341131 0 0.023621
0.412833 0.0596628 0.0887312
0.325704 0.103899 0.135805
0.19237 0.172839 0.21883
0 0.231357 0.269368
0.756771 0.129076 0.132692
0.681636 0.196735 0.205112
0.560449 0.289723 0.307607
0.403098 0.365911 0.404135
0.218631 0.477928 0.496101
0.968093 0.343816 0.323293
0.890471 0.430289 0.412863
0.804608 0.522576 0.501076
0.649317 0.592203 0.584314
0.474144 0.693935 0.65481
1 0.624262 0.556146
1 0.710079 0.630884
0.945663 0.781277 0.688487
0.852552 0.796414 0.720668
0.74519 0.855665 0.764782
1 0.857206 0.725994
1 0.919676 0.781262
1 0.953445 0.816205
1 0.954086 0.833799
0.965576 0.996078 0.869657
0.537484 0 0.0102083
0.571008 0.0217136 0.053254
0.53901 0.088838 0.107973
0.438941 0.16434 0.19353
0.28191 0.239078 0.290181
0.876432 0.0956283 0.106889
0.847623 0.207126 0.199893
0.774136 0.284215 0.284245
0.662791 0.382452 0.386221
0.535271 0.448859 0.476204
1 0.3888 0.34725
1 0.454383 0.419577
0.978927 0.543053 0.504067
0.872816 0.635126 0.586984
0.757885 0.676951 0.638132
1 0.65127 0.562997
1 0.725109 0.62916
1 0.802319 0.695735
1 0.86244 0.746151
0.927687 0.863188 0.767437
1 0.869932 0.723186
1 0.928267 0.777905
1 0.981216 0.827741
1 1 0.862211
1 1 0.878523
