luts/Lucid Pulse.cube
TITLE "Generated by Resolve"
LUT_3D_SIZE 33
0.0506294 0.00946059 0.0215
0.0505074 0.00933852 0.0213474
0.0505531 0.0100099 0.0221103
0.050721 0.0119783 0.0243534
0.0508888 0.0153658 0.0282444
0.0508278 0.019913 0.0334478
0.0503853 0.0253147 0.0396277
0.0494087 0.0313115 0.046479
0.0477455 0.0382696 0.05449
0.0452888 0.0453193 0.0626078
0.0419776 0.0527047 0.0711681
0.0381476 0.0606088 0.0803693
0.0328679 0.068986 0.0902266
0.0267796 0.0775311 0.100298
0.0199283 0.0863813 0.110643
0.0122225 0.0955825 0.121263
0.00352483 0.105531 0.132616
0 0.116487 0.144869
0 0.127352 0.156786
0 0.138552 0.168887
0 0.150195 0.181277
0 0.161929 0.193515
0 0.173968 0.205936
0 0.186481 0.218601
0 0.198856 0.230945
0 0.211933 0.243763
0 0.224109 0.255344
0 0.237095 0.267628
0 0.250294 0.280003
0 0.263233 0.291966
0 0.276356 0.303899
0 0.28957 0.315847
0 0.302708 0.32752
0.051133 0.0110628 0.0233616
0.0509346 0.0118563 0.0242466
0.0510414 0.0146944 0.0274968
0.0512551 0.0193942 0.0328832
0.0513313 0.02533 0.0396887
0.0509957 0.0320745 0.047425
0.0500496 0.0394903 0.0559548
0.0483253 0.0475624 0.0652628
0.045716 0.0555734 0.0745556
0.0421454 0.0638132 0.084184
0.0379187 0.0724193 0.094316
0.0324254 0.081117 0.104601
0.0260319 0.0903029 0.115404
0.0185702 0.100359 0.127016
0.0102541 0.110903 0.13904
0.00117494 0.12137 0.150805
0 0.132204 0.162737
0 0.143481 0.175006
0 0.155428 0.187762
0 0.166735 0.199573
0 0.178775 0.211978
0 0.191272 0.224704
0 0.203616 0.236912
0 0.216114 0.249088
0 0.228733 0.261189
0 0.241596 0.273396
0 0.254719 0.28571
0 0.267613 0.297566
0 0.280568 0.309346
0 0.29369 0.321096
0 0.30663 0.332616
0 0.319997 0.344366
0 0.332967 0.355688
0.0523842 0.0166476 0.0298161
0.0519722 0.0195163 0.0330663
0.0516976 0.0242618 0.0384833
0.0513313 0.0304417 0.0455482
0.0507057 0.0380102 0.0542611
0.0496223 0.0465858 0.0641489
0.0478218 0.055314 0.0742657
0.0451057 0.0642557 0.0847028
0.0417792 0.0733806 0.0954452
0.0370336 0.0827649 0.106569
0.0318456 0.0933242 0.118944
0.0245975 0.103227 0.130388
0.0170901 0.113603 0.142336
0.00885023 0.124285 0.154391
0 0.135302 0.166644
0 0.146441 0.178836
0 0.157855 0.191119
0 0.169802 0.203693
0 0.182101 0.216495
0 0.194308 0.228916
0 0.206668 0.241245
0 0.219196 0.253452
0 0.231983 0.265751
0 0.244907 0.278035
0 0.257801 0.290089
0 0.270634 0.30193
0 0.283604 0.313695
0 0.29659 0.325292
0 0.309529 0.336721
0 0.322759 0.348363
0 0.335637 0.359548
0 0.348608 0.370657
0 0.361318 0.38146
0.0544747 0.0274357 0.0423133
0.0531777 0.0317082 0.0471046
0.051957 0.0376287 0.0538491
0.0505074 0.0450141 0.0623484
0.0486458 0.0531624 0.0717632
0.0462501 0.0621347 0.0822156
0.0431678 0.0717937 0.0935683
0.0399329 0.0818647 0.105501
0.034638 0.0923171 0.117754
0.0289006 0.103212 0.130419
0.0227207 0.114076 0.142977
0.0158694 0.125017 0.15555
0.00807202 0.136248 0.168124
0 0.147646 0.180697
0 0.159426 0.193484
0 0.171283 0.206119
0 0.183413 0.218784
0 0.195773 0.231449
0 0.208301 0.243961
0 0.221073 0.256535
0 0.234043 0.269062
0 0.246906 0.2813
0 0.259724 0.293309
0 0.272557 0.30515
0 0.285557 0.317006
0 0.298497 0.328557
0 0.311391 0.339971
0 0.324544 0.351415
0 0.337377 0.362539
0 0.350225 0.373571
0 0.362921 0.384268
0 0.375479 0.394553
0 0.387717 0.404685
0.0576486 0.043534 0.0608988
0.0545052 0.0478218 0.0656748
0.0514534 0.0540475 0.0728466
0.0483558 0.0614633 0.0814374
0.0448615 0.0700236 0.0914778
0.0414588 0.079469 0.102647
0.0363622 0.0895552 0.114519
0.0310826 0.10074 0.127565
0.0258183 0.112093 0.140734
0.0200198 0.123583 0.153964
0.013489 0.135241 0.167208
0.00608835 0.147127 0.180407
0 0.159014 0.193408
0 0.171405 0.206729
0 0.183856 0.219883
0 0.196429 0.232837
0 0.209171 0.24567
0 0.222034 0.258381
0 0.234943 0.270954
0 0.247883 0.28333
0 0.260838 0.295521
0 0.273884 0.307576
0 0.286839 0.319371
0 0.299794 0.330999
0 0.31281 0.342489
0 0.325856 0.353933
0 0.338796 0.365057
0 0.351522 0.375921
0 0.364126 0.386526
0 0.376577 0.396704
0 0.388693 0.406668
0 0.400839 0.416815
0 0.412787 0.426703
0.0639353 0.0642252 0.0848554
0.0554208 0.0663462 0.087129
0.0498054 0.0721141 0.093904
0.0444648 0.07953 0.102693
0.039292 0.0885023 0.113252
0.0335241 0.0985885 0.125048
0.0278019 0.109285 0.137499
0.0220035 0.120531 0.150469
0.0159304 0.132311 0.163912
0.00950637 0.144533 0.177615
0.00254826 0.157046 0.191409
0 0.169635 0.205066
0 0.182193 0.218402
0 0.195087 0.231861
0 0.208225 0.245212
0 0.221424 0.25835
0 0.234668 0.271336
0 0.247822 0.284047
0 0.26099 0.296498
0 0.27422 0.308843
0 0.287465 0.320943
0 0.300664 0.332799
0 0.313634 0.344289
0 0.326696 0.355734
0 0.339559 0.366812
0 0.352285 0.377646
0 0.364874 0.388128
0 0.377279 0.398276
0 0.389548 0.408484
0 0.401755 0.418616
0 0.41387 0.428672
0 0.426017 0.438727
0 0.438361 0.448981
0.102876 0.0992142 0.127626
0.0581369 0.0876173 0.112062
0.0473793 0.0922103 0.117571
0.0400092 0.100114 0.126879
0.0328985 0.109087 0.137346
0.0259861 0.119112 0.148928
0.0191196 0.130068 0.161425
0.0120394 0.14168 0.174456
0.00489815 0.153811 0.187869
0 0.166445 0.201648
0 0.179492 0.215641
0 0.192523 0.229313
0 0.205905 0.243091
0 0.219501 0.256748
0 0.233097 0.270222
0 0.246677 0.283375
0 0.260166 0.2963
0 0.273655 0.308934
0 0.287083 0.321294
0 0.300343 0.333288
0 0.313558 0.344991
0 0.326665 0.356497
0 0.339635 0.367727
0 0.352468 0.378653
0 0.365072 0.38912
0 0.377752 0.399542
0 0.390249 0.409964
0 0.402472 0.420233
0 0.414771 0.430457
0 0.427176 0.440726
0 0.439658 0.451133
0 0.452216 0.46157
0 0.464759 0.472023
0.119738 0.121324 0.154269
0.092134 0.123476 0.154238
0.0473487 0.115206 0.144457
0.0363317 0.121874 0.152193
0.0270237 0.130861 0.162493
0.0183719 0.140902 0.173785
0.00993362 0.152102 0.18613
0.00170901 0.163867 0.198947
0 0.176303 0.212284
0 0.189212 0.22594
0 0.202609 0.239734
0 0.216159 0.253483
0 0.229999 0.267262
0 0.243931 0.280964
0 0.257847 0.294347
0 0.271702 0.307454
0 0.285374 0.32015
0 0.299016 0.332555
0 0.312535 0.344671
0 0.325933 0.356466
0 0.339162 0.367926
0 0.352132 0.379034
0 0.36495 0.389746
0 0.377829 0.40029
0 0.390402 0.41088
0 0.402869 0.421424
0 0.415473 0.431907
0 0.428138 0.442512
0 0.440879 0.453208
0 0.45359 0.463859
0 0.466377 0.474434
0 0.479515 0.485206
0 0.492454 0.495476
0.134508 0.14313 0.179873
0.114748 0.148989 0.184161
0.0564584 0.141772 0.174853
0.0350347 0.145617 0.179339
0.0221561 0.153826 0.188373
0.0112306 0.164111 0.199542
0.00117494 0.175311 0.211521
0 0.187274 0.224079
0 0.199832 0.237064
0 0.213016 0.25037
0 0.226596 0.263935
0 0.240162 0.277272
0 0.2542 0.290913
0 0.26836 0.304448
0 0.282521 0.317647
0 0.296407 0.330419
0 0.310338 0.342992
0 0.323842 0.354955
0 0.337346 0.366751
0 0.350698 0.378195
0 0.363867 0.389288
0 0.377066 0.400275
0 0.390021 0.41117
0 0.402853 0.42208
0 0.415793 0.433021
0 0.428748 0.443885
0 0.441718 0.45478
0 0.454734 0.465766
0 0.468055 0.47689
0 0.481163 0.487602
0 0.494347 0.498054
0 0.507515 0.508278
0 0.520653 0.51841
0.14902 0.164721 0.20441
0.13077 0.172213 0.210254
0.107988 0.178744 0.215778
0.0414282 0.172183 0.208804
0.0202792 0.17882 0.215869
0.00595102 0.188312 0.225681
0 0.199451 0.237064
0 0.211566 0.249287
0 0.224292 0.261906
0 0.237369 0.274693
0 0.250797 0.287724
0 0.264652 0.300938
0 0.278676 0.314137
0 0.292821 0.327169
0 0.30695 0.340032
0 0.320958 0.352575
0 0.3346 0.364538
0 0.348287 0.376379
0 0.361883 0.38793
0 0.375463 0.399268
0 0.388815 0.410574
0 0.40206 0.421942
0 0.415442 0.433371
0 0.428901 0.444694
0 0.442252 0.456062
0 0.455634 0.467414
0 0.46894 0.478523
0 0.482383 0.489494
0 0.495842 0.50016
0 0.50927 0.510628
0 0.522698 0.520989
0 0.536095 0.531197
0 0.549432 0.541192
0.164111 0.186801 0.228519
0.145754 0.195758 0.235309
0.126406 0.204364 0.242649
0.100938 0.211521 0.249699
0.026978 0.205997 0.244663
0.00483711 0.214191 0.252644
0 0.224964 0.263157
0 0.236774 0.274647
0 0.249302 0.286641
0 0.262364 0.299046
0 0.275822 0.31162
0 0.289464 0.324224
0 0.303273 0.336797
0 0.317281 0.349294
0 0.331136 0.361547
0 0.344778 0.373404
0 0.358663 0.385321
0 0.372656 0.39707
0 0.386419 0.408759
0 0.400137 0.420554
0 0.413931 0.432425
0 0.427436 0.443946
0 0.441276 0.455772
0 0.455161 0.467658
0 0.469078 0.479362
0 0.482918 0.490684
0 0.496651 0.501625
0 0.510475 0.512428
0 0.524254 0.523095
0 0.537926 0.533516
0 0.551553 0.543694
0 0.565408 0.55404
0 0.578927 0.564004
0.17995 0.209613 0.251804
0.161059 0.219776 0.259358
0.142931 0.229679 0.267857
0.123522 0.239124 0.277058
0.0961166 0.246647 0.285023
0.0142977 0.242283 0.281056
0 0.251408 0.28954
0 0.262776 0.300084
0 0.275029 0.311391
0 0.287938 0.323171
0 0.301045 0.335027
0 0.314458 0.347005
0 0.328023 0.358892
0 0.341512 0.370642
0 0.355184 0.382437
0 0.368826 0.393881
0 0.382956 0.405753
0 0.396796 0.417807
0 0.411032 0.430121
0 0.424933 0.442008
0 0.439292 0.454398
0 0.453727 0.466804
0 0.46804 0.478996
0 0.482414 0.490852
0 0.496788 0.502419
0 0.51104 0.513649
0 0.525292 0.524636
0 0.539361 0.535409
0 0.553384 0.545953
0 0.567285 0.556329
0 0.580987 0.56643
0 0.594629 0.576349
0 0.608255 0.586221
0.198016 0.232944 0.274434
0.177874 0.244221 0.282826
0.16022 0.25507 0.292271
0.143114 0.26566 0.302464
0.123781 0.275196 0.312169
0.095552 0.283207 0.320409
0.00582895 0.280034 0.31722
0 0.289601 0.325551
0 0.301106 0.335744
0 0.313405 0.346517
0 0.326284 0.357778
0 0.339223 0.368948
0 0.352544 0.380301
0 0.365743 0.391394
0 0.379446 0.40293
0 0.39321 0.414694
0 0.407156 0.426764
0 0.421576 0.43917
0 0.435752 0.451423
0 0.450584 0.464332
0 0.4654 0.477012
0 0.480369 0.489494
0 0.495277 0.501564
0 0.509865 0.513161
0 0.524697 0.524742
0 0.539254 0.535943
0 0.553811 0.54699
0 0.568231 0.557763
0 0.582391 0.568261
0 0.596475 0.578485
0 0.610483 0.588678
0 0.62443 0.598337
0 0.638193 0.60737
0.219516 0.256733 0.296773
0.197818 0.268879 0.305669
0.17966 0.28072 0.316106
0.163516 0.292317 0.327352
0.146822 0.302968 0.337957
0.127337 0.312932 0.347677
0.0998703 0.321386 0.35552
0.0053254 0.318471 0.352163
0 0.327993 0.360052
0 0.339544 0.369818
0 0.351781 0.380148
0 0.364446 0.390707
0 0.377554 0.401602
0 0.390753 0.412848
0 0.404181 0.424369
0 0.418143 0.436347
0 0.43241 0.448569
0 0.446769 0.461006
0 0.46154 0.473762
0 0.476631 0.486488
0 0.492058 0.499168
0 0.507134 0.511208
0 0.522591 0.523445
0 0.53785 0.535225
0 0.553094 0.546914
0 0.567926 0.558038
0 0.582589 0.568963
0 0.59733 0.579797
0 0.611811 0.590372
0 0.626261 0.600305
0 0.640467 0.609583
0 0.654337 0.618723
0 0.668162 0.627955
0.242878 0.281041 0.319142
0.220722 0.293751 0.32845
0.201526 0.307027 0.340337
0.184787 0.319478 0.352514
0.168536 0.331182 0.364034
0.151308 0.342351 0.374685
0.131701 0.352865 0.384192
0.10602 0.3617 0.391592
0.017731 0.359274 0.388052
0 0.367346 0.394095
0 0.378546 0.403189
0 0.390723 0.413458
0 0.403494 0.424231
0 0.416617 0.435416
0 0.430182 0.446998
0 0.444083 0.4589
0 0.458183 0.471
0 0.472953 0.483452
0 0.487922 0.495796
0 0.503365 0.508263
0 0.518685 0.520409
0 0.534417 0.532723
0 0.550271 0.544961
0 0.565606 0.556619
0 0.581231 0.568338
0 0.596658 0.579812
0 0.612055 0.591119
0 0.627085 0.601434
0 0.641901 0.611124
0 0.656214 0.620645
0 0.670542 0.63032
0 0.684611 0.639857
0 0.69836 0.649226
0.26836 0.306386 0.342306
0.245396 0.319387 0.351766
0.226337 0.333486 0.364462
0.208194 0.346944 0.377813
0.190875 0.359823 0.390158
0.173709 0.371969 0.401266
0.155703 0.383215 0.411185
0.13637 0.39382 0.420478
0.113329 0.403555 0.428641
0.0759594 0.41059 0.433997
0 0.408133 0.429587
0 0.418631 0.438132
0 0.430793 0.44828
0 0.443687 0.459129
0 0.457145 0.470573
0 0.47097 0.48217
0 0.485328 0.493935
0 0.500191 0.505898
0 0.515251 0.5178
0 0.530373 0.529625
0 0.546029 0.541695
0 0.56199 0.553918
0 0.577691 0.565789
0 0.593805 0.577844
0 0.609949 0.589807
0 0.625666 0.600793
0 0.641413 0.611215
0 0.656977 0.621714
0 0.672084 0.631998
0 0.686732 0.641993
0 0.700877 0.651667
0 0.714931 0.66128
0 0.728588 0.670756
0.295201 0.332631 0.36611
0.272541 0.346365 0.37615
0.252796 0.36051 0.388891
0.234485 0.374624 0.402594
0.215625 0.388251 0.415763
0.196719 0.400824 0.427451
0.178454 0.412741 0.438117
0.160555 0.424582 0.448463
0.141863 0.435477 0.45771
0.121401 0.446204 0.466651
0.0951553 0.455726 0.474189
0.0065156 0.452522 0.468788
0 0.461158 0.475288
0 0.47274 0.484596
0 0.485634 0.494865
0 0.499352 0.505699
0 0.513527 0.516823
0 0.528161 0.528161
0 0.543053 0.53962
0 0.558434 0.551324
0 0.573938 0.563043
0 0.589578 0.574746
0 0.605798 0.586831
0 0.622232 0.598581
0 0.638544 0.609506
0 0.65507 0.620676
0 0.671077 0.631693
0 0.687022 0.64268
0 0.702647 0.653468
0 0.717525 0.663722
0 0.731975 0.673838
0 0.745815 0.68368
0 0.759106 0.693187
0.323644 0.359686 0.390387
0.300771 0.373754 0.400412
0.281346 0.388067 0.41355
0.26247 0.401923 0.427466
0.242817 0.415793 0.440848
0.222599 0.429145 0.453254
0.202548 0.441978 0.464729
0.183749 0.454658 0.47567
0.16582 0.466514 0.485496
0.148287 0.478523 0.49514
0.129839 0.489799 0.503838
0.109483 0.501076 0.512352
0.081117 0.510521 0.518975
0 0.506813 0.513375
0 0.517235 0.520897
0 0.530007 0.53048
0 0.543557 0.540673
0 0.55758 0.551186
0 0.572076 0.561929
0 0.58706 0.573083
0 0.602502 0.584497
0 0.618357 0.595972
0 0.634577 0.606897
0 0.650858 0.617807
0 0.667536 0.629297
0 0.684398 0.641016
0 0.701183 0.65275
0 0.718349 0.664805
0.00325017 0.735225 0.676829
0.0223239 0.752743 0.689616
0.0669108 0.774548 0.705959
0.0770581 0.788663 0.71635
0.0806897 0.801617 0.725734
0.353918 0.387396 0.415061
0.33051 0.401022 0.425101
0.31107 0.415412 0.438636
0.292226 0.429816 0.453056
0.271824 0.443549 0.466209
0.250492 0.457008 0.478386
0.229618 0.470573 0.490043
0.208927 0.483787 0.500832
0.189929 0.496681 0.511009
0.172366 0.509575 0.520897
0.155474 0.521981 0.530175
0.139101 0.53431 0.5393
0.122347 0.546578 0.548211
0.10341 0.557839 0.556176
0.078294 0.567742 0.562844
0 0.565698 0.558953
0 0.575967 0.565957
0 0.58912 0.575433
0 0.60293 0.585397
0 0.617441 0.595743
0 0.632517 0.605798
0 0.648066 0.616098
0 0.664088 0.627039
0 0.680262 0.638224
0 0.697261 0.65005
0 0.714702 0.662379
0.0209812 0.735103 0.677104
0.0831159 0.760876 0.696498
0.0996872 0.776883 0.708202
0.111376 0.791257 0.718746
0.120653 0.805097 0.728832
0.128008 0.81799 0.738216
0.133898 0.830457 0.74728
0.385733 0.414664 0.439902
0.361624 0.428458 0.450034
0.342229 0.443153 0.464179
0.322591 0.45742 0.478279
0.301579 0.47126 0.490898
0.280003 0.485054 0.502541
0.258259 0.498878 0.513695
0.236912 0.512322 0.524147
0.216571 0.525765 0.534401
0.197467 0.539498 0.544701
0.180179 0.552728 0.554421
0.164569 0.565988 0.564065
0.149905 0.579309 0.573617
0.135302 0.591928 0.582498
0.120729 0.604181 0.591028
0.10576 0.616495 0.599115
0.0889601 0.627924 0.60621
0.0665599 0.638468 0.612543
0.00399786 0.639445 0.611566
0 0.651469 0.619226
0 0.665354 0.628504
0 0.680262 0.638636
0 0.695796 0.649332
0 0.712383 0.660929
0.0231174 0.731868 0.674891
0.0803693 0.756649 0.693431
0.0991531 0.77319 0.705516
0.114137 0.788327 0.716655
0.126894 0.802792 0.727275
0.137545 0.816281 0.737102
0.146899 0.829221 0.746563
0.154955 0.841581 0.75555
0.161959 0.853635 0.764279
0.419562 0.442222 0.46511
0.395117 0.456458 0.475593
0.374914 0.471122 0.489479
0.354147 0.485451 0.502754
0.332296 0.499458 0.514641
0.310338 0.513451 0.525872
0.288182 0.527016 0.536324
0.266499 0.540444 0.54641
0.245487 0.553948 0.556344
0.225971 0.567971 0.566598
0.207294 0.581964 0.576669
0.190402 0.595956 0.586694
0.17557 0.610117 0.596551
0.161929 0.623499 0.605158
0.149203 0.636606 0.613413
0.137316 0.649454 0.621698
0.126238 0.662547 0.630182
0.115877 0.675151 0.638453
0.106447 0.68777 0.646738
0.098497 0.700542 0.655207
0.092607 0.71368 0.664012
0.0899214 0.727398 0.67332
0.0912337 0.74168 0.683162
0.0965286 0.756207 0.693462
0.10457 0.770626 0.703792
0.114504 0.78526 0.714458
0.125154 0.799176 0.724666
0.136278 0.81294 0.734676
0.147372 0.826047 0.744274
0.157855 0.838773 0.753552
0.167514 0.851148 0.76257
0.176226 0.863005 0.771145
0.184314 0.874784 0.77969
0.45417 0.469856 0.489998
0.429801 0.484443 0.500206
0.409552 0.499245 0.513634
0.387289 0.513649 0.526238
0.364431 0.527977 0.537728
0.341497 0.54168 0.548226
0.318837 0.555138 0.55819
0.297002 0.56846 0.567864
0.276051 0.582162 0.577737
0.255741 0.595697 0.587335
0.236774 0.609537 0.596887
0.21944 0.623774 0.606073
0.203311 0.63859 0.615579
0.188785 0.65275 0.624887
0.175845 0.666377 0.633829
0.164446 0.679637 0.642573
0.154269 0.692744 0.651225
0.145571 0.705989 0.660044
0.137942 0.718944 0.668666
0.131792 0.731868 0.677348
0.127428 0.744884 0.686152
0.125383 0.757992 0.695262
0.125795 0.771145 0.704555
0.12813 0.783932 0.713664
0.133165 0.797131 0.723308
0.139757 0.810208 0.732784
0.147539 0.822889 0.74197
0.156512 0.835569 0.751263
0.165896 0.847898 0.76022
0.175875 0.860044 0.769039
0.185763 0.871794 0.777569
0.195056 0.88333 0.785916
0.203723 0.894438 0.793896
0.489311 0.498116 0.514138
0.464927 0.512718 0.523919
0.444709 0.527489 0.536995
0.422049 0.541833 0.548837
0.398032 0.555993 0.559716
0.3738 0.569467 0.569589
0.350408 0.582712 0.57911
0.328222 0.595987 0.588464
0.30692 0.609415 0.597559
0.286564 0.622782 0.606088
0.267445 0.636378 0.614649
0.249485 0.650385 0.623804
0.233524 0.664973 0.633448
0.218692 0.679332 0.643015
0.20473 0.693462 0.65243
0.192203 0.70724 0.661585
0.181567 0.720562 0.670512
0.172473 0.733837 0.679454
0.165179 0.746883 0.688258
0.159274 0.759625 0.696956
0.155413 0.772091 0.705699
0.153216 0.78439 0.714382
0.152926 0.796521 0.72311
0.15462 0.80882 0.731975
0.157992 0.821042 0.740795
0.16286 0.833158 0.749569
0.168933 0.84506 0.758206
0.176318 0.856977 0.766842
0.184482 0.868666 0.775311
0.193362 0.880247 0.783688
0.202792 0.891539 0.791836
0.212528 0.902495 0.799695
0.221897 0.913375 0.807492
0.524773 0.525795 0.537041
0.500359 0.540688 0.546639
0.479698 0.55555 0.559411
0.456779 0.569986 0.570687
0.432349 0.583734 0.580774
0.407797 0.597025 0.590249
0.383398 0.610208 0.599023
0.36054 0.623209 0.607217
0.338674 0.636057 0.615198
0.317998 0.649027 0.623529
0.298665 0.662226 0.632074
0.280964 0.675975 0.641093
0.264302 0.689815 0.650278
0.248997 0.70399 0.65977
0.235172 0.717998 0.669169
0.222416 0.731838 0.678477
0.211002 0.745464 0.687739
0.200855 0.758846 0.696864
0.192981 0.771588 0.705776
0.186892 0.78407 0.714519
0.182589 0.796231 0.723217
0.180087 0.808148 0.731777
0.179095 0.819852 0.740124
0.179797 0.831449 0.748516
0.182055 0.843122 0.756954
0.18558 0.854597 0.765194
0.190585 0.866148 0.773556
0.19646 0.877363 0.781628
0.203616 0.888579 0.789715
0.211414 0.899413 0.797482
0.220111 0.910369 0.805341
0.229236 0.92105 0.812955
0.238804 0.931289 0.820218
0.560647 0.553033 0.558999
0.535836 0.568307 0.568551
0.515114 0.583093 0.580743
0.491005 0.597162 0.591196
0.466392 0.610712 0.60029
0.441962 0.623819 0.608484
0.417868 0.636896 0.616663
0.394156 0.649424 0.624628
0.371344 0.66186 0.632593
0.350149 0.674311 0.64062
0.330632 0.68719 0.648981
0.312474 0.700282 0.657557
0.295689 0.713588 0.666423
0.280278 0.727321 0.675624
0.266133 0.741054 0.684932
0.252903 0.75462 0.694133
0.24155 0.767895 0.703334
0.231983 0.780911 0.712489
0.22356 0.793454 0.721401
0.216861 0.805646 0.73019
0.211566 0.817716 0.738796
0.207996 0.829496 0.747265
0.206149 0.841031 0.755581
0.205676 0.852308 0.763684
0.20676 0.863523 0.77174
0.209277 0.874708 0.779812
0.212924 0.885756 0.787732
0.217777 0.896635 0.795529
0.223529 0.907393 0.80322
0.230518 0.91809 0.810849
0.238056 0.928313 0.818097
0.246754 0.938659 0.825406
0.256092 0.948882 0.832593
0.597452 0.579721 0.579797
0.570993 0.595514 0.589685
0.549157 0.609918 0.600397
0.525109 0.623911 0.609369
0.500801 0.637278 0.617838
0.476249 0.650156 0.626078
0.45214 0.662501 0.633875
0.42858 0.674601 0.641581
0.405493 0.68658 0.649287
0.383612 0.698985 0.657282
0.36318 0.71107 0.665156
0.344335 0.72343 0.673259
0.327077 0.736141 0.681697
0.311345 0.749264 0.690562
0.297276 0.762631 0.699733
0.284962 0.775845 0.709026
0.273564 0.788663 0.718059
0.263676 0.801114 0.727016
0.254932 0.813382 0.735775
0.247776 0.82533 0.74435
0.241962 0.83711 0.752819
0.237629 0.848737 0.761196
0.234775 0.860151 0.769406
0.233234 0.871397 0.777478
0.233005 0.882429 0.785412
0.234058 0.893294 0.793179
0.236591 0.904128 0.800931
0.24033 0.914824 0.80853
0.245182 0.925277 0.815976
0.250828 0.935531 0.823194
0.257801 0.94583 0.830442
0.265248 0.955871 0.837461
0.273564 0.965972 0.844511
0.629633 0.606134 0.598047
0.605005 0.621637 0.608225
0.582101 0.635981 0.617655
0.558434 0.649622 0.626505
0.534722 0.662852 0.635035
0.51046 0.675258 0.642908
0.48632 0.687175 0.650477
0.462745 0.698817 0.657908
0.440146 0.710506 0.6654
0.418128 0.722103 0.672908
0.396902 0.733837 0.680537
0.376913 0.745571 0.688304
0.358984 0.75758 0.69633
0.343145 0.769848 0.704814
0.32932 0.782635 0.713787
0.317006 0.795407 0.722927
0.305806 0.807828 0.731838
0.29575 0.820035 0.740536
0.287037 0.832044 0.749218
0.279561 0.843946 0.757778
0.273136 0.855543 0.76611
0.26804 0.866957 0.774304
0.264225 0.878218 0.782391
0.261784 0.889311 0.790356
0.260594 0.900252 0.798154
0.260578 0.911009 0.805829
0.261585 0.921447 0.81323
0.264164 0.931991 0.820706
0.267826 0.942428 0.828046
0.272557 0.952743 0.835279
0.277958 0.962783 0.842298
0.284504 0.972885 0.849317
0.291554 0.982666 0.856138
0.65539 0.633204 0.615305
0.637034 0.64683 0.625193
0.614588 0.66125 0.634546
0.591241 0.674601 0.643168
0.567697 0.687175 0.651225
0.544121 0.699184 0.658915
0.520348 0.710796 0.6663
0.497185 0.722301 0.673686
0.474266 0.733303 0.680766
