luts/Mind Mirage.cube
TITLE "Generated by Resolve"
LUT_3D_SIZE 33
0.0506294 0.00946059 0.0215
0.0505531 0.00939956 0.0213779
0.0507515 0.010605 0.0226902
0.0512245 0.0137636 0.026154
0.0518807 0.0192111 0.0320897
0.0524605 0.0259709 0.0392767
0.0527504 0.0338903 0.0474556
0.0525216 0.0426184 0.0560311
0.0514229 0.051957 0.0644999
0.0492561 0.0616007 0.0722667
0.0458076 0.0713664 0.0789654
0.0415503 0.0813611 0.0845045
0.0358892 0.09131 0.0881361
0.0298924 0.100679 0.0875257
0.0415198 0.0957809 0.055375
0.0432593 0.0996719 0.0465553
0.0412909 0.107149 0.0428321
0.0373846 0.115633 0.0398413
0.0325628 0.12491 0.0370336
0.0269627 0.135027 0.0342412
0.0206607 0.145754 0.031342
0.0136568 0.157275 0.0283207
0.00610361 0.168978 0.0250248
0 0.18114 0.0215305
0 0.193484 0.017792
0 0.206149 0.0138857
0 0.219074 0.00984207
0 0.232212 0.00567636
0 0.245609 0.00149538
0 0.259556 0
0 0.272892 0
0 0.286656 0
0 0.300771 0
0.0517586 0.0121157 0.0246891
0.0513619 0.0119631 0.0243992
0.0513619 0.0142977 0.0269932
0.0516213 0.0191958 0.0324865
0.0519417 0.0260319 0.0400702
0.0522164 0.0345464 0.0493782
0.0522774 0.0442664 0.0597391
0.0519112 0.0547189 0.0704509
0.0509346 0.0656443 0.0810101
0.049073 0.0767987 0.0909133
0.0462043 0.0882887 0.100023
0.0419623 0.100359 0.108171
0.0359197 0.112978 0.115175
0.0284886 0.125383 0.120073
0.0199741 0.13753 0.122286
0.0115663 0.148882 0.120928
0.00663767 0.15761 0.111681
0.0282902 0.147097 0.0679942
0.0279088 0.152895 0.0582284
0.023743 0.161486 0.0526589
0.018204 0.171695 0.0482338
0.0118563 0.182574 0.0441444
0.00482185 0.194018 0.0401617
0 0.205859 0.0361791
0 0.218067 0.0321813
0 0.23061 0.0281834
0 0.243336 0.0241855
0 0.256336 0.0202487
0 0.269383 0.0163119
0 0.282551 0.0124361
0 0.295888 0.00866712
0 0.309285 0.005066
0 0.322789 0.00169375
0.0554971 0.0202335 0.0348821
0.0539254 0.0195315 0.0335546
0.0534218 0.0224002 0.0364538
0.0531777 0.027924 0.0424506
0.0528573 0.0351568 0.050309
0.0522927 0.044007 0.0599222
0.0514229 0.0541238 0.0707103
0.050248 0.0652323 0.0822461
0.0487221 0.0769055 0.0937819
0.0466621 0.0894484 0.105516
0.0431067 0.103105 0.117189
0.0389258 0.116945 0.127687
0.0331884 0.130526 0.136477
0.0260471 0.144366 0.143679
0.0181582 0.158099 0.14902
0.00968948 0.171603 0.151995
0.00114443 0.184497 0.15201
0 0.196201 0.148211
0 0.205585 0.139345
0 0.209689 0.11989
0.0151064 0.199664 0.0755322
0.0122835 0.207874 0.0666819
0.00727855 0.218372 0.0606851
0.00111391 0.229572 0.0555276
0 0.241428 0.0509651
0 0.253376 0.04654
0 0.265568 0.0423438
0 0.278065 0.0383917
0 0.290761 0.0346685
0 0.303487 0.0310674
0 0.316335 0.0277104
0 0.329305 0.0246433
0 0.342412 0.0219577
0.087068 0.0508431 0.0778668
0.0633249 0.0372473 0.0562905
0.0587472 0.0369421 0.0543069
0.0568093 0.0413519 0.0583505
0.0557107 0.0482948 0.0654002
0.0539559 0.0564584 0.0737316
0.0521401 0.0661631 0.0836194
0.0501717 0.0772259 0.0947127
0.0467994 0.0887312 0.105821
0.0427863 0.102174 0.118288
0.0385901 0.116258 0.130495
0.0335699 0.13048 0.141833
0.0283207 0.145266 0.152438
0.022446 0.160113 0.1617
0.0158236 0.174762 0.169284
0.00851453 0.1897 0.175372
0.000793469 0.204379 0.179355
0 0.218555 0.180835
0 0.231785 0.179309
0 0.243458 0.174273
0 0.253071 0.165377
0 0.259754 0.151202
0.00425727 0.249271 0.100496
0.00660716 0.2551 0.0840925
0.00302129 0.265187 0.0763256
0 0.276112 0.0704204
0 0.287617 0.065568
0 0.299321 0.0612039
0 0.311269 0.0573892
0 0.323461 0.054078
0 0.335882 0.0512856
0 0.34815 0.0488136
0 0.360388 0.0468757
0.111437 0.0633097 0.103807
0.106432 0.0673991 0.103807
0.100725 0.0719615 0.104112
0.0907759 0.0753338 0.102693
0.0637675 0.0677348 0.0888838
0.0588235 0.0734264 0.0935378
0.0551766 0.0818647 0.101305
0.051194 0.0921645 0.110658
0.0463569 0.103975 0.121035
0.0412146 0.116457 0.131487
0.0352636 0.129976 0.142519
0.029099 0.144259 0.153643
0.0227207 0.158999 0.164462
0.0162356 0.173907 0.174411
0.00965896 0.189563 0.183886
0.00296025 0.205325 0.192203
0 0.220798 0.198734
0 0.236118 0.203723
0 0.251041 0.20676
0 0.265141 0.207279
0 0.27808 0.205142
0 0.289815 0.20029
0 0.300008 0.192782
0 0.308461 0.182315
0 0.314443 0.166674
0.00273136 0.304036 0.11046
0.00440986 0.311589 0.0967422
0.00161746 0.321798 0.0899672
0 0.332815 0.0852979
0 0.344335 0.0818799
0 0.35581 0.0791485
0 0.367453 0.0770123
0 0.379248 0.0752422
0.135805 0.0731975 0.12874
0.13019 0.0790723 0.129915
0.125307 0.0860304 0.132113
0.120378 0.0936294 0.134676
0.114931 0.101717 0.137484
0.10779 0.109712 0.13991
0.0928054 0.115709 0.140734
0.0602579 0.11281 0.134447
0.0515755 0.122225 0.141115
0.0438544 0.133715 0.149264
0.0364233 0.146197 0.157717
0.028336 0.15964 0.166522
0.0201114 0.173907 0.175723
0.0117647 0.188754 0.185107
0.00352483 0.20412 0.194537
0 0.219562 0.203387
0 0.23537 0.211734
0 0.251316 0.219211
0 0.266789 0.225177
0 0.2822 0.229801
0 0.296864 0.232517
0 0.310674 0.233188
0 0.323857 0.232029
0 0.335897 0.22884
0 0.346761 0.223819
0 0.356649 0.217197
0 0.365362 0.208255
0 0.37174 0.19408
0.00595102 0.360983 0.134981
0.0108949 0.367712 0.11931
0.0107729 0.377523 0.112245
0.00859083 0.388296 0.108263
0.00512703 0.399542 0.105837
0.169039 0.0833448 0.157031
0.15967 0.0910048 0.158541
0.152071 0.099733 0.161242
0.145388 0.108782 0.164004
0.139559 0.118547 0.167452
0.133547 0.128344 0.170611
0.127077 0.138293 0.173754
0.119982 0.14876 0.177859
0.110277 0.158419 0.182635
0.0656596 0.15787 0.177493
0.0465858 0.166552 0.180163
0.034165 0.178302 0.185336
0.0226749 0.191379 0.191485
0.0120546 0.205463 0.198398
0.00195315 0.22002 0.205554
0 0.235035 0.213169
0 0.25037 0.221134
0 0.265629 0.229038
0 0.281361 0.236866
0 0.296895 0.243824
0 0.312139 0.249668
0 0.327321 0.254688
0 0.341787 0.258274
0 0.355535 0.260487
0 0.369085 0.261601
0 0.381949 0.261295
0 0.393896 0.259403
0 0.405173 0.25597
0 0.415183 0.250538
0 0.424598 0.243427
0 0.432654 0.232822
0 0.434302 0.206439
0.0167391 0.425772 0.15108
0.217105 0.0904707 0.18584
0.20267 0.0999161 0.187716
0.188846 0.110048 0.189853
0.177035 0.120882 0.192615
0.16762 0.13225 0.196002
0.159548 0.143557 0.199237
0.152361 0.155108 0.202686
0.14548 0.166995 0.206332
0.13875 0.178943 0.210513
0.132052 0.191211 0.216602
0.122148 0.202838 0.222843
0.100008 0.213138 0.225467
0.0395209 0.213519 0.21651
0.0210727 0.225147 0.218967
0.00704967 0.238361 0.222873
0 0.252277 0.227543
0 0.266697 0.232929
0 0.281422 0.23888
0 0.29633 0.24538
0 0.311299 0.252201
0 0.326589 0.259419
0 0.341665 0.266117
0 0.356603 0.272404
0 0.371511 0.278065
0 0.38613 0.282979
0 0.400229 0.287037
0 0.414038 0.29012
0 0.427741 0.29247
0 0.440955 0.293721
0 0.453727 0.293965
0 0.465797 0.292988
0 0.477302 0.290593
0 0.488182 0.286656
0.27689 0.0963302 0.214664
0.258976 0.106706 0.216892
0.240635 0.117861 0.219059
0.22359 0.129915 0.221576
0.207477 0.14258 0.224155
0.193332 0.155886 0.227253
0.181964 0.169192 0.230411
0.172503 0.182681 0.234012
0.164187 0.196262 0.237568
0.157015 0.210101 0.242206
0.151293 0.223957 0.249042
0.143282 0.237232 0.255741
0.129168 0.249912 0.259419
0.108431 0.261769 0.260746
0.0415961 0.263523 0.251469
0.0101778 0.272801 0.249866
0 0.285359 0.251545
0 0.298848 0.254383
0 0.312795 0.25803
0 0.326986 0.262531
0 0.34136 0.267781
0 0.355795 0.273762
0 0.370703 0.280598
0 0.385733 0.287694
0 0.400656 0.294713
0 0.415366 0.30106
0 0.430426 0.307195
0 0.445258 0.312627
0 0.459709 0.317296
0 0.474052 0.321416
0 0.488258 0.325048
0 0.501808 0.327489
0 0.515175 0.329351
0.34612 0.101671 0.241672
0.326055 0.113161 0.245014
0.305394 0.125032 0.247837
0.283864 0.137713 0.250462
0.262181 0.151003 0.252659
0.24152 0.165164 0.254871
0.223713 0.18027 0.257664
0.208392 0.195712 0.260639
0.195132 0.211307 0.263951
0.184695 0.226566 0.267552
0.177081 0.242222 0.273182
0.172 0.257328 0.281071
0.16408 0.271443 0.287556
0.151095 0.284962 0.290898
0.134997 0.298009 0.292424
0.115877 0.309941 0.292119
0.0884871 0.320165 0.28986
0.00950637 0.320531 0.278325
0 0.331701 0.277699
0 0.344396 0.279026
0 0.357717 0.281529
0 0.371603 0.285359
0 0.38587 0.290196
0 0.4 0.295842
0 0.414649 0.302296
0 0.42974 0.309682
0 0.444999 0.317159
0 0.460212 0.324315
0 0.475608 0.331365
0 0.491112 0.338201
0 0.506035 0.344167
0 0.521019 0.349844
0 0.535805 0.355062
0.422461 0.107042 0.265797
0.401144 0.119722 0.270436
0.37792 0.132769 0.274556
0.354284 0.14612 0.27805
0.329458 0.159838 0.280766
0.304189 0.174472 0.283116
0.279332 0.189914 0.285023
0.256168 0.206638 0.287022
0.237369 0.223789 0.289586
0.222095 0.240818 0.292668
0.209705 0.257816 0.296849
0.201221 0.274861 0.303548
0.19559 0.291142 0.312688
0.185962 0.306172 0.319112
0.172259 0.320699 0.322499
0.156817 0.334249 0.323751
0.140581 0.34696 0.323308
0.123354 0.359014 0.321843
0.102312 0.369162 0.318563
0.056733 0.375204 0.312001
0 0.378042 0.303227
0 0.390066 0.303761
0 0.403067 0.305959
0 0.416632 0.30927
0 0.430426 0.313466
0 0.444739 0.318898
0 0.459709 0.325429
0 0.474861 0.332631
0 0.490486 0.340505
0 0.505928 0.348318
0 0.521675 0.356329
0 0.537453 0.36408
0 0.552666 0.37116
0.500359 0.113405 0.287724
0.478157 0.127184 0.293019
0.455161 0.141207 0.297932
0.43064 0.15555 0.302541
0.40444 0.170474 0.306798
0.376349 0.185504 0.310063
0.346975 0.20116 0.312322
0.317754 0.217594 0.313817
0.290898 0.23534 0.31548
0.269444 0.25388 0.318212
0.252369 0.271977 0.321584
0.239063 0.289738 0.326055
0.229816 0.308156 0.334142
0.222171 0.325719 0.344579
0.209705 0.342123 0.351339
0.193896 0.357168 0.354467
0.177813 0.371206 0.355459
0.162158 0.384314 0.354681
0.14699 0.396307 0.352743
0.131533 0.406943 0.349569
0.114427 0.416648 0.34583
0.0904402 0.425452 0.341787
0.00619516 0.42562 0.330434
0 0.436591 0.329763
0 0.449088 0.331197
0 0.46247 0.334173
0 0.476402 0.338338
0 0.490822 0.343572
0 0.505852 0.350011
0 0.521019 0.357153
0 0.536675 0.365209
0 0.552102 0.373419
0 0.567987 0.382071
0.576364 0.121523 0.307652
0.553353 0.136309 0.313405
0.529412 0.151431 0.318944
0.504936 0.167041 0.324575
0.479164 0.182757 0.329763
0.451865 0.198749 0.334325
0.422461 0.214969 0.33814
0.390494 0.231403 0.341054
0.358343 0.248478 0.343236
0.328359 0.266453 0.344976
0.303883 0.285603 0.347692
0.28571 0.304692 0.351492
0.271458 0.323293 0.356451
0.262119 0.342794 0.365789
0.252842 0.360983 0.376623
0.236912 0.377981 0.383032
0.218357 0.393469 0.386191
0.200641 0.407645 0.386954
0.184344 0.421073 0.386297
0.169345 0.432975 0.383719
0.155352 0.443809 0.380118
0.141466 0.453895 0.376242
0.126726 0.463661 0.372625
0.10869 0.472953 0.369207
0.0768902 0.481682 0.365774
0 0.485069 0.357656
0 0.496864 0.358297
0 0.509911 0.360861
0 0.523644 0.364843
0 0.53785 0.36994
0 0.552636 0.376226
0 0.567636 0.383307
0 0.583093 0.391257
0.648997 0.131899 0.326696
0.626551 0.147631 0.333227
0.603067 0.163424 0.339391
0.578668 0.179507 0.345556
0.553201 0.195987 0.351522
0.526238 0.212818 0.357061
0.498146 0.230167 0.36257
0.468116 0.247257 0.367254
0.436881 0.264302 0.371115
0.403128 0.281422 0.3738
0.369192 0.299458 0.375769
0.341588 0.319265 0.378698
0.321614 0.339376 0.38291
0.306737 0.358648 0.388174
0.297139 0.378454 0.39794
0.286091 0.39649 0.408347
0.267781 0.413184 0.413916
0.247456 0.429023 0.416785
0.227939 0.443534 0.41735
0.209384 0.456901 0.416022
0.193179 0.46891 0.413199
0.178729 0.479927 0.409506
0.165682 0.490394 0.405768
0.153017 0.500435 0.402258
0.140002 0.510445 0.399313
0.125536 0.521065 0.397543
0.106172 0.531685 0.396277
0.0257725 0.535698 0.388174
0 0.545632 0.38706
0 0.557931 0.389044
0 0.571221 0.392615
0 0.585229 0.397589
0 0.599756 0.403754
0.719234 0.143771 0.34641
0.698299 0.159884 0.353185
0.67599 0.176394 0.35996
0.65243 0.193194 0.366583
0.626963 0.210636 0.37319
0.600412 0.228153 0.379446
0.57261 0.245762 0.385458
0.544015 0.263462 0.39115
0.514473 0.281193 0.39649
0.482994 0.298878 0.401221
0.450324 0.316686 0.405188
0.415335 0.334752 0.407706
0.382712 0.354421 0.410315
0.360067 0.374975 0.414435
0.344167 0.394354 0.419974
0.334295 0.414008 0.430488
0.321111 0.432319 0.440421
0.300923 0.44889 0.445045
0.279713 0.464271 0.446845
0.25893 0.478508 0.446387
0.23949 0.491554 0.444282
0.22208 0.503868 0.441474
0.205509 0.515175 0.438025
0.19118 0.525811 0.43444
0.178393 0.536263 0.431281
0.166537 0.546914 0.428946
0.155184 0.558312 0.427893
0.143206 0.569848 0.427512
0.128557 0.581598 0.427726
0.104967 0.592004 0.426825
0.0164492 0.5953 0.417685
0 0.606546 0.418753
0 0.619516 0.422187
0.786175 0.15729 0.367224
0.766461 0.1738 0.374136
0.745693 0.19089 0.381308
0.722911 0.208499 0.388067
0.698787 0.226246 0.394629
0.67306 0.244221 0.401099
0.646387 0.262226 0.407553
0.618524 0.280293 0.41384
0.590249 0.298772 0.420264
0.560815 0.316945 0.42623
0.530404 0.335119 0.431876
0.498039 0.353201 0.436652
0.462867 0.371252 0.440085
0.428138 0.390219 0.442679
0.402335 0.410819 0.447028
0.384543 0.43035 0.452644
0.374136 0.449928 0.463539
0.357351 0.46775 0.471962
0.33518 0.484184 0.475517
0.313329 0.499336 0.476127
0.292897 0.513375 0.474968
0.27361 0.525704 0.471946
0.255085 0.537148 0.468406
0.237842 0.548165 0.464881
0.221775 0.559228 0.461952
0.206928 0.57084 0.459998
0.194217 0.58233 0.458457
0.183093 0.594278 0.457923
0.172656 0.606561 0.458289
0.16199 0.618936 0.459113
0.149493 0.63061 0.459693
0.133227 0.642023 0.460349
0.100832 0.652033 0.459297
0.849332 0.173098 0.389471
0.830839 0.189975 0.396323
0.810742 0.207324 0.403067
0.788983 0.225147 0.409827
0.765743 0.243076 0.416403
0.741421 0.261204 0.423072
0.716594 0.279698 0.429908
0.690639 0.298116 0.436576
0.663462 0.316503 0.443091
0.635218 0.33492 0.449592
0.606226 0.353292 0.456001
0.576303 0.371756 0.462165
0.545144 0.38996 0.467979
0.512047 0.408026 0.472984
0.475944 0.426383 0.476158
0.446403 0.446708 0.479866
0.427909 0.466499 0.485267
0.41648 0.485908 0.495781
0.395834 0.503639 0.502235
0.372213 0.520073 0.504662
0.349981 0.534524 0.504097
0.32929 0.547295 0.501503
0.310048 0.55874 0.497993
0.291615 0.569528 0.494347
0.274128 0.580438 0.491218
0.257084 0.591257 0.488411
0.241077 0.60267 0.486564
0.226642 0.614939 0.48603
0.213535 0.628183 0.486717
0.202518 0.64152 0.487984
0.19202 0.654047 0.489006
0.181582 0.666148 0.490105
0.170443 0.677882 0.491249
0.90605 0.191043 0.412924
0.889296 0.208057 0.419409
0.870588 0.225666 0.426017
0.849912 0.243626 0.432685
0.828336 0.261967 0.439597
0.805585 0.280171 0.446281
0.782025 0.298344 0.452934
0.757397 0.31664 0.459586
0.731762 0.335027 0.466194
0.705379 0.353414 0.472801
0.678248 0.371862 0.479301
0.650492 0.390448 0.485985
0.621286 0.408515 0.492256
0.591501 0.426612 0.498329
0.56025 0.4448 0.503929
0.525658 0.463142 0.508278
0.49218 0.483177 0.511681
0.472221 0.503441 0.516777
0.459159 0.522408 0.526253
0.436347 0.539681 0.530877
0.41239 0.555062 0.531518
0.389746 0.568338 0.529503
0.368795 0.579919 0.526223
0.349493 0.590799 0.522759
0.330388 0.601007 0.519142
0.312169 0.611154 0.515755
0.294697 0.621698 0.513191
0.278172 0.632883 0.511467
0.262959 0.645045 0.511009
0.249042 0.658579 0.512184
0.236194 0.672404 0.513939
0.223911 0.686015 0.515892
0.212894 0.698711 0.517494
0.95436 0.211963 0.437858
0.939025 0.229419 0.444724
0.922301 0.246845 0.451164
0.904265 0.264439 0.457496
0.884871 0.282246 0.463874
0.864179 0.300206 0.470283
0.842023 0.318334 0.476783
0.818845 0.336522 0.483223
0.794995 0.35494 0.489662
0.770535 0.373266 0.49601
0.745022 0.391257 0.502159
0.718624 0.409079 0.508263
0.691768 0.427115 0.514473
0.664302 0.44509 0.520516
0.635737 0.463233 0.526604
0.606165 0.481788 0.532753
0.574639 0.500481 0.538308
0.539834 0.519936 0.542107
0.516869 0.539879 0.546319
0.501152 0.558007 0.554391
0.477028 0.574594 0.557031
0.454658 0.588907 0.556146
0.433768 0.601114 0.553658
0.412924 0.611688 0.550118
0.391821 0.621592 0.546441
0.371389 0.631205 0.542809
0.352102 0.640879 0.53962
0.334096 0.651209 0.53727
0.31693 0.661921 0.535515
0.301106 0.673579 0.534844
0.286748 0.686473 0.535607
0.273564 0.700191 0.537453
0.260868 0.713787 0.539773
0.998016 0.234882 0.462989
0.982803 0.252323 0.469947
0.966842 0.269749 0.476616
0.949966 0.28719 0.482994
0.932464 0.304646 0.489143
0.914122 0.322225 0.495171
0.895048 0.340276 0.501244
0.874571 0.358144 0.507134
0.852827 0.376104 0.512932
0.82977 0.393774 0.518883
0.805768 0.411353 0.524727
0.78114 0.428946 0.53048
0.756085 0.446525 0.536278
0.730434 0.464317 0.542046
0.704067 0.482399 0.548012
0.677058 0.500481 0.553841
0.649195 0.518761 0.559747
0.620188 0.537163 0.565591
0.587762 0.556085 0.570672
0.561364 0.575799 0.574548
0.542916 0.593194 0.580713
0.520272 0.60856 0.58117
0.499718 0.621134 0.579248
0.479057 0.632013 0.576379
0.457923 0.641917 0.573098
0.436561 0.651209 0.569512
0.415732 0.660441 0.566186
0.394827 0.669551 0.562951
0.374929 0.678996 0.560159
0.356695 0.689082 0.558175
0.339895 0.700114 0.557229
0.325261 0.712276 0.557809
0.312413 0.72578 0.560006
1 0.258473 0.487358
1 0.276143 0.494209
1 0.293858 0.500954
0.991852 0.311574 0.507485
0.974853 0.329 0.513588
0.957565 0.346395 0.519615
0.939574 0.363897 0.525444
0.92105 0.381399 0.531182
0.901915 0.398459 0.536812
0.881758 0.415625 0.542184
0.860594 0.432822 0.54757
0.838697 0.45037 0.553155
0.814954 0.467643 0.558526
0.790509 0.485008 0.563821
0.765499 0.50248 0.569131
0.740124 0.519921 0.574487
0.714321 0.537438 0.579751
0.687953 0.555154 0.585245
0.66154 0.573343 0.591058
0.633722 0.591562 0.596551
0.604791 0.610483 0.600458
0.584558 0.62678 0.603479
0.565728 0.639979 0.602625
0.546151 0.651377 0.600961
0.525307 0.661738 0.598672
0.5037 0.671138 0.595773
0.481651 0.679728 0.592233
0.459815 0.688106 0.588586
0.438666 0.696498 0.585077
0.41799 0.705303 0.582116
0.398856 0.714961 0.58024
0.381262 0.725093 0.579217
0.365652 0.73637 0.579522
1 0.282826 0.510643
1 0.300847 0.517601
1 0.318563 0.524178
1 0.336248 0.530587
1 0.353765 0.536812
0.997635 0.371221 0.54284
0.980148 0.388449 0.548699
0.962432 0.40528 0.554421
0.944366 0.422354 0.560174
0.92575 0.439353 0.565667
0.906661 0.456062 0.570901
0.886717 0.472816 0.575967
0.865858 0.489616 0.580758
0.843931 0.506432 0.585504
0.821225 0.523354 0.590295
0.79704 0.540291 0.59498
0.77261 0.557549 0.59971
0.747677 0.574563 0.604196
0.722515 0.591531 0.608637
0.697292 0.608591 0.613169
0.67187 0.625895 0.61799
0.646372 0.643412 0.622934
0.63035 0.657832 0.623911
0.611734 0.670069 0.623407
0.591669 0.680766 0.621714
0.570565 0.690272 0.619181
0.548638 0.698878 0.616053
0.526314 0.706828 0.612512
0.504021 0.714565 0.609018
0.482216 0.722438 0.605798
0.461952 0.730495 0.603159
0.442741 0.739208 0.601221
0.424979 0.748638 0.600168
1 0.307057 0.532937
1 0.325231 0.539757
1 0.343282 0.546365
1 0.361089 0.552773
1 0.378775 0.559014
1 0.396124 0.56524
1 0.413108 0.571191
1 0.429969 0.576898
0.983536 0.446738 0.582467
0.965377 0.463279 0.587808
0.94696 0.479774 0.59292
0.928038 0.496239 0.597665
0.908598 0.512688 0.602075
0.888731 0.529046 0.606302
0.868406 0.545663 0.610559
0.847013 0.561944 0.614435
0.82472 0.578225 0.618402
0.801358 0.594629 0.622415
0.77705 0.611078 0.626596
0.752316 0.627512 0.630823
0.727138 0.644221 0.635233
0.701701 0.660899 0.640101
0.685573 0.675105 0.644175
0.672236 0.687587 0.645304
0.654597 0.69894 0.644465
0.634989 0.708843 0.642481
0.613993 0.717601 0.639673
0.592371 0.72575 0.636469
0.570108 0.733104 0.632746
0.548486 0.740154 0.629175
0.527184 0.747356 0.625925
0.506783 0.754742 0.623117
0.487282 0.7626 0.620905
1 0.331472 0.55494
1 0.34992 0.561654
1 0.3682 0.568185
1 0.386007 0.574456
1 0.403281 0.580621
1 0.420356 0.586618
1 0.437247 0.592294
1 0.454047 0.597711
1 0.470726 0.602838
1 0.487312 0.607752
0.984878 0.503838 0.612436
0.96643 0.520455 0.617182
0.947555 0.536522 0.621592
0.92845 0.552422 0.625834
0.909041 0.568246 0.629969
0.889097 0.583993 0.633921
0.868681 0.599634 0.63772
0.847517 0.615274 0.641413
0.825391 0.631174 0.645121
0.802426 0.64712 0.648997
0.777996 0.663035 0.65301
0.753582 0.678691 0.657313
0.733501 0.692958 0.661662
0.721965 0.705119 0.664347
0.710475 0.716197 0.665293
0.694453 0.726894 0.664897
0.675929 0.736171 0.662913
0.655909 0.74432 0.659983
0.635294 0.751705 0.656718
0.614069 0.758602 0.6533
0.593072 0.765118 0.64979
0.572549 0.771756 0.646632
0.552346 0.778546 0.643687
1 0.357259 0.577035
1 0.374563 0.583062
1 0.392142 0.589288
1 0.409644 0.595285
1 0.426856 0.600763
1 0.443915 0.605997
1 0.460853 0.611124
1 0.477729 0.616266
1 0.494789 0.621576
1 0.511345 0.626581
1 0.527718 0.631403
1 0.543862 0.636057
0.984405 0.559747 0.640467
0.96556 0.575326 0.644678
0.946426 0.590723 0.648707
0.927062 0.606043 0.652567
0.907576 0.621378 0.656413
0.887633 0.636667 0.660151
0.867094 0.651621 0.663661
0.845762 0.666636 0.667231
0.823453 0.681712 0.670771
0.800916 0.696559 0.674586
0.780972 0.71046 0.678538
0.769574 0.722393 0.680903
0.756619 0.734127 0.683925
0.747372 0.744015 0.684413
0.731563 0.753826 0.68423
0.714565 0.762402 0.68249
0.696574 0.770077 0.680079
0.677577 0.77702 0.677104
0.658259 0.783658 0.674083
0.638376 0.789837 0.670771
0.617945 0.795789 0.667338
1 0.386419 0.59997
1 0.403143 0.605264
1 0.41976 0.610346
1 0.436301 0.615305
1 0.452735 0.620371
1 0.469154 0.625437
1 0.485237 0.630259
1 0.501305 0.635019
1 0.517708 0.639902
1 0.534249 0.644785
1 0.550546 0.649561
1 0.566461 0.654063
1 0.582162 0.658427
1 0.59762 0.662623
0.982513 0.613108 0.666835
0.963302 0.628031 0.670619
0.943893 0.642771 0.674266
0.924453 0.65745 0.677897
0.904601 0.671962 0.681407
0.884337 0.68632 0.684855
0.863386 0.700648 0.688289
0.842802 0.714992 0.692073
0.823636 0.728511 0.695811
0.80827 0.741085 0.699306
0.801556 0.751934 0.701274
0.789303 0.76286 0.703075
0.781659 0.771023 0.703166
0.767529 0.779858 0.702953
0.752636 0.788006 0.701991
0.736492 0.795346 0.700099
0.719081 0.801923 0.697505
0.700755 0.808042 0.69453
0.681895 0.813733 0.691203
1 0.41445 0.620691
1 0.431189 0.626001
1 0.447745 0.631128
1 0.464088 0.636118
1 0.480323 0.641001
1 0.496498 0.645838
1 0.512596 0.650553
1 0.528603 0.65507
1 0.544457 0.659617
1 0.560296 0.664134
1 0.576028 0.668559
1 0.591791 0.672984
1 0.606973 0.677028
1 0.621958 0.681025
1 0.636805 0.684855
0.997223 0.651514 0.688655
0.977829 0.665965 0.692332
0.958297 0.68011 0.695811
0.938567 0.694224 0.699275
0.918669 0.708583 0.702937
0.898466 0.722652 0.706477
0.878492 0.736431 0.710109
0.860258 0.749599 0.713817
0.844953 0.761959 0.717433
0.839048 0.771862 0.718502
0.830213 0.782498 0.721523
0.819303 0.791714 0.722606
0.813428 0.797894 0.722225
0.803906 0.805447 0.721752
0.789425 0.812955 0.72105
0.774487 0.81973 0.719448
0.758648 0.826093 0.717235
0.741802 0.831983 0.714504
1 0.441306 0.641001
1 0.457771 0.646036
1 0.474174 0.651011
1 0.490471 0.655909
1 0.5066 0.660624
1 0.522591 0.665232
1 0.538506 0.669779
1 0.554543 0.674418
1 0.57055 0.678996
