luts/Mind Mirage.cube
TITLE "Generated by Resolve"
LUT_3D_SIZE 5
0.0506294 0.00946059 0.0215
0.0514229 0.051957 0.0644999
0.0412909 0.107149 0.0428321
0 0.193484 0.017792
0 0.300771 0
0.27689 0.0963302 0.214664
0.164187 0.196262 0.237568
0 0.285359 0.251545
0 0.400656 0.294713
0 0.515175 0.329351
0.849332 0.173098 0.389471
0.663462 0.316503 0.443091
0.427909 0.466499 0.485267
0.274128 0.580438 0.491218
0.170443 0.677882 0.491249
1 0.357259 0.577035
1 0.494789 0.621576
0.907576 0.621378 0.656413
0.756619 0.734127 0.683925
0.617945 0.795789 0.667338
1 0.560861 0.732372
1 0.683558 0.764675
1 0.799985 0.79588
1 0.892836 0.822217
0.988647 0.944793 0.831922
0.0509804 0.0105287 0.0227512
0.0502937 0.0674754 0.081117
0.0349432 0.131044 0.0560922
0 0.216938 0.0239567
0 0.323201 0
0.307286 0.106493 0.233646
0.176471 0.215106 0.256413
0 0.306828 0.26772
0 0.418677 0.304067
0 0.537224 0.348943
0.875334 0.194339 0.407919
0.690135 0.339635 0.461784
0.455299 0.489387 0.504967
0.297429 0.599573 0.506569
0.190631 0.699001 0.509133
1 0.38645 0.595422
1 0.519356 0.636027
0.918074 0.643946 0.669825
0.777249 0.75201 0.695979
0.645914 0.81062 0.680217
1 0.584085 0.745357
1 0.705501 0.777035
1 0.820752 0.808179
1 0.910246 0.834302
1 0.960311 0.842954
0.0517433 0.0137026 0.0264134
0.0480964 0.0830701 0.0973983
0.0189059 0.161654 0.0829938
0 0.239597 0.0312963
0 0.344625 0.00273136
0.33843 0.117617 0.252232
0.190326 0.234119 0.274754
0.0237278 0.330617 0.286458
0 0.436851 0.313237
0 0.558251 0.366064
0.897795 0.217273 0.427039
0.71519 0.36257 0.479988
0.48304 0.512352 0.524102
0.32166 0.618555 0.52166
0.210986 0.718593 0.526162
1 0.414328 0.611658
1 0.543847 0.650401
0.928435 0.666041 0.683024
0.796841 0.769848 0.707683
0.673136 0.825223 0.692851
1 0.60676 0.757992
1 0.727138 0.789273
1 0.841123 0.820417
1 0.927398 0.846281
1 0.975921 0.854017
0.0530556 0.0204166 0.034165
0.0442206 0.099321 0.113558
0 0.200565 0.134493
0 0.261067 0.0401617
0 0.364813 0.0147707
0.370855 0.129885 0.270558
0.205936 0.25362 0.292973
0.0972457 0.364034 0.314488
0 0.455833 0.323323
0 0.578607 0.381399
0.918257 0.241535 0.446815
0.73959 0.38616 0.498146
0.511193 0.53518 0.542641
0.346822 0.637217 0.536675
0.232136 0.736141 0.541619
1 0.441749 0.627588
1 0.57052 0.665461
0.936889 0.689189 0.696376
0.815198 0.788098 0.720104
0.699596 0.839628 0.705272
1 0.629084 0.770275
1 0.748486 0.801419
1 0.861173 0.832639
1 0.944198 0.858137
1 0.991485 0.864988
0.0548867 0.0307012 0.0460517
0.0389715 0.11664 0.129732
0 0.224521 0.157031
0 0.282231 0.0510414
0 0.382528 0.0299535
0.404028 0.143465 0.28838
0.223835 0.273304 0.311025
0.118029 0.388022 0.333822
0 0.474891 0.334112
0 0.598566 0.395422
0.936339 0.266423 0.46688
0.763104 0.409598 0.516106
0.538689 0.557488 0.560265
0.372747 0.655207 0.551247
0.255711 0.752377 0.556344
1 0.468879 0.643427
1 0.596567 0.680156
0.944488 0.713283 0.71017
0.833997 0.804868 0.731746
0.72549 0.854017 0.717571
1 0.650767 0.782238
1 0.769543 0.813489
1 0.880415 0.844755
1 0.960494 0.869535
1 1 0.876341
