luts/Mind Mirage.cube
TITLE "Generated by Resolve"
LUT_3D_SIZE 9
0.0506294 0.00946059 0.0215
0.0518807 0.0192111 0.0320897
0.0514229 0.051957 0.0644999
0.0358892 0.09131 0.0881361
0.0412909 0.107149 0.0428321
0.0206607 0.145754 0.031342
0 0.193484 0.017792
0 0.245609 0.00149538
0 0.300771 0
0.111437 0.0633097 0.103807
0.0637675 0.0677348 0.0888838
0.0463569 0.103975 0.121035
0.0227207 0.158999 0.164462
0 0.220798 0.198734
0 0.27808 0.205142
0 0.314443 0.166674
0 0.332815 0.0852979
0 0.379248 0.0752422
0.27689 0.0963302 0.214664
0.207477 0.14258 0.224155
0.164187 0.196262 0.237568
0.129168 0.249912 0.259419
0 0.285359 0.251545
0 0.34136 0.267781
0 0.400656 0.294713
0 0.459709 0.317296
0 0.515175 0.329351
0.576364 0.121523 0.307652
0.479164 0.182757 0.329763
0.358343 0.248478 0.343236
0.271458 0.323293 0.356451
0.218357 0.393469 0.386191
0.155352 0.443809 0.380118
0.0768902 0.481682 0.365774
0 0.523644 0.364843
0 0.583093 0.391257
0.849332 0.173098 0.389471
0.765743 0.243076 0.416403
0.663462 0.316503 0.443091
0.545144 0.38996 0.467979
0.427909 0.466499 0.485267
0.349981 0.534524 0.504097
0.274128 0.580438 0.491218
0.213535 0.628183 0.486717
0.170443 0.677882 0.491249
1 0.258473 0.487358
0.974853 0.329 0.513588
0.901915 0.398459 0.536812
0.814954 0.467643 0.558526
0.714321 0.537438 0.579751
0.604791 0.610483 0.600458
0.525307 0.661738 0.598672
0.438666 0.696498 0.585077
0.365652 0.73637 0.579522
1 0.357259 0.577035
1 0.426856 0.600763
1 0.494789 0.621576
0.984405 0.559747 0.640467
0.907576 0.621378 0.656413
0.823453 0.681712 0.670771
0.756619 0.734127 0.683925
0.696574 0.770077 0.680079
0.617945 0.795789 0.667338
1 0.467399 0.660777
1 0.532097 0.679728
1 0.594949 0.697246
1 0.656565 0.713726
1 0.71519 0.728725
0.963104 0.768246 0.742168
0.9037 0.813199 0.754833
0.877684 0.844526 0.760052
0.846479 0.868132 0.757321
1 0.560861 0.732372
1 0.622934 0.748837
1 0.683558 0.764675
1 0.743511 0.781018
1 0.799985 0.79588
1 0.852888 0.810346
1 0.892836 0.822217
1 0.920729 0.827955
0.988647 0.944793 0.831922
0.050782 0.00994888 0.0220645
0.0520943 0.0233158 0.036759
0.0510109 0.0596017 0.0727245
0.0339208 0.10193 0.0984054
0.0384375 0.119036 0.0490425
0.0178378 0.157259 0.0350195
0 0.20531 0.020737
0 0.257343 0.00445563
0 0.312078 0
0.116823 0.0673228 0.110903
0.071458 0.0796063 0.1028
0.0449378 0.112963 0.12958
0.0192874 0.168124 0.171069
0 0.230274 0.205402
0 0.288411 0.214145
0 0.32871 0.184298
0.00251774 0.343175 0.0941787
0 0.389059 0.0840467
0.29218 0.10135 0.224323
0.217838 0.149462 0.233829
0.170199 0.205585 0.246983
0.136095 0.261021 0.269459
0 0.295979 0.259495
0 0.350591 0.272831
0 0.409644 0.299504
0 0.469398 0.324041
0 0.526192 0.339376
0.591974 0.12929 0.315496
0.494011 0.191775 0.338216
0.371908 0.258625 0.352758
0.2822 0.334157 0.366262
0.226963 0.40441 0.395621
0.162463 0.455207 0.38938
0.0982376 0.494682 0.376379
0 0.534035 0.371969
0 0.592798 0.397009
0.862547 0.183658 0.398688
0.7785 0.254429 0.425589
0.676966 0.328008 0.452369
0.559808 0.401221 0.477607
0.441703 0.477958 0.495262
0.361837 0.545251 0.512261
0.285481 0.589837 0.498695
0.22414 0.637888 0.49482
0.180652 0.68864 0.500328
1 0.271565 0.496895
0.982162 0.34197 0.522744
0.909667 0.411139 0.545953
0.824491 0.479728 0.567025
0.724895 0.548943 0.587655
0.617975 0.620966 0.607569
0.539544 0.670649 0.60502
0.452232 0.704784 0.591989
0.37882 0.743557 0.586175
1 0.371969 0.58648
1 0.439521 0.608225
1 0.506935 0.628748
0.989975 0.571725 0.647562
0.912902 0.632807 0.663188
0.829618 0.692271 0.677546
0.767132 0.742931 0.689921
0.708995 0.777996 0.686305
0.632044 0.803204 0.673777
1 0.480415 0.66833
1 0.544686 0.686915
1 0.607202 0.704097
1 0.668528 0.720546
1 0.726787 0.735302
0.967346 0.77911 0.748669
0.913664 0.82182 0.760418
0.88629 0.852308 0.765606
0.856718 0.875654 0.763134
1 0.572519 0.738903
1 0.634318 0.755138
1 0.694545 0.770855
1 0.754299 0.787198
1 0.810391 0.802029
1 0.862593 0.816571
1 0.901564 0.828275
1 0.928725 0.833585
0.997299 0.952544 0.83743
0.0509804 0.0105287 0.0227512
0.0522469 0.0283207 0.0424201
0.0502937 0.0674754 0.081117
0.0315862 0.112718 0.108446
0.0349432 0.131044 0.0560922
0.0150912 0.168688 0.0389563
0 0.216938 0.0239567
0 0.268818 0.00781262
0 0.323201 0
0.122652 0.0719768 0.118791
0.0979019 0.0980392 0.12575
0.0440833 0.122179 0.138308
0.0158236 0.177325 0.177432
0 0.239948 0.211933
0 0.298543 0.222843
0 0.341741 0.19971
0.00735485 0.353811 0.104234
0 0.399054 0.0931106
0.307286 0.106493 0.233646
0.228412 0.156512 0.243473
0.176471 0.215106 0.256413
0.142885 0.271901 0.27924
0 0.306828 0.26772
0 0.359945 0.278309
0 0.418677 0.304067
0 0.479255 0.330663
0 0.537224 0.348943
0.607477 0.137438 0.3234
0.508583 0.201205 0.346761
0.385595 0.268681 0.362066
0.293141 0.34519 0.376211
0.236118 0.415518 0.405249
0.169802 0.466484 0.398627
0.111986 0.506539 0.385931
0 0.544747 0.379538
0 0.602609 0.403098
0.875334 0.194339 0.407919
0.790997 0.26598 0.434943
0.690135 0.339635 0.461784
0.574029 0.412665 0.487083
0.455299 0.489387 0.504967
0.374365 0.555871 0.520226
0.297429 0.599573 0.506569
0.235248 0.647349 0.50277
0.190631 0.699001 0.509133
1 0.284642 0.506233
0.989227 0.355261 0.531945
0.917098 0.423743 0.554833
0.833692 0.491554 0.57525
0.735592 0.560525 0.595438
0.631251 0.631327 0.614618
0.553384 0.679454 0.611261
0.465751 0.71284 0.598383
0.392264 0.750668 0.592721
1 0.38645 0.595422
1 0.452338 0.615686
1 0.519356 0.636027
0.995315 0.583642 0.654521
0.918074 0.643946 0.669825
0.835538 0.702525 0.684092
0.777249 0.75201 0.695979
0.721401 0.78584 0.6925
0.645914 0.81062 0.680217
1 0.492988 0.675547
1 0.556909 0.693812
1 0.619455 0.710933
1 0.680369 0.72723
1 0.73817 0.741802
0.971939 0.789792 0.755108
0.923964 0.830289 0.765774
0.895094 0.860288 0.771359
0.866865 0.883162 0.768948
1 0.584085 0.745357
1 0.645411 0.761303
1 0.705501 0.777035
1 0.76495 0.793347
1 0.820752 0.808179
1 0.872023 0.82266
1 0.910246 0.834302
1 0.93669 0.839216
1 0.960311 0.842954
0.0512856 0.0116732 0.0240787
0.0522164 0.0333257 0.0480201
0.0493324 0.0751812 0.0892348
0.0290532 0.123095 0.117983
0.0301213 0.143999 0.0650797
0.0124361 0.180072 0.043183
0 0.228428 0.0274815
0 0.280125 0.0115663
0 0.33402 0
0.128832 0.0777447 0.127855
0.106371 0.107836 0.137636
0.0438697 0.13164 0.147295
0.0124208 0.186679 0.183688
0 0.249241 0.217899
0 0.308782 0.231586
0 0.354101 0.214282
0.0104677 0.365057 0.116274
0.000244144 0.409201 0.102358
0.322713 0.111894 0.242939
0.239338 0.163745 0.25304
0.18323 0.224689 0.265721
0.149691 0.282719 0.28893
0.00708019 0.317906 0.276265
0 0.369451 0.284031
0 0.427741 0.308598
0 0.488975 0.336828
0 0.547936 0.357809
0.623255 0.145815 0.331441
0.523354 0.21091 0.355413
0.399817 0.279103 0.371618
0.304311 0.356237 0.386069
0.245533 0.426673 0.414771
0.177325 0.477775 0.407782
0.123278 0.518425 0.395407
0 0.555581 0.387366
0 0.612528 0.409384
0.886976 0.205615 0.417411
0.803067 0.277592 0.444205
0.702861 0.351034 0.470863
0.588281 0.424079 0.496284
0.469154 0.500893 0.514656
0.387152 0.566369 0.528099
0.309606 0.609155 0.514183
0.246677 0.656641 0.510552
0.200793 0.708858 0.517708
1 0.297948 0.515541
0.996109 0.368277 0.540841
0.924208 0.436515 0.563729
0.842283 0.503838 0.583734
0.745739 0.572122 0.602716
0.644205 0.641489 0.621683
0.567483 0.688319 0.617716
0.47924 0.720668 0.604471
0.405829 0.75758 0.59884
1 0.400519 0.6038
1 0.466102 0.623667
1 0.531594 0.643183
1 0.595346 0.661311
0.923339 0.655039 0.676463
0.84152 0.712779 0.690654
0.78706 0.760922 0.701793
0.733745 0.793622 0.698711
0.659663 0.81799 0.686595
1 0.505623 0.682795
1 0.569085 0.700679
1 0.63154 0.717708
1 0.692012 0.733822
1 0.749447 0.748287
0.976806 0.800229 0.761501
0.933364 0.838911 0.771115
0.903838 0.868223 0.77705
0.87686 0.890654 0.774701
1 0.595438 0.75172
1 0.656535 0.767468
1 0.716365 0.783169
1 0.77554 0.799481
1 0.831006 0.814298
1 0.881422 0.828809
1 0.918853 0.840299
1 0.944427 0.844648
1 0.968093 0.848478
0.0517433 0.0137026 0.0264134
0.0521096 0.0389105 0.0542153
0.0480964 0.0830701 0.0973983
0.0261387 0.133669 0.127535
0.0189059 0.161654 0.0829938
0.0101015 0.191485 0.0477607
0 0.239597 0.0312963
0 0.291173 0.0157015
0 0.344625 0.00273136
0.135317 0.0839704 0.137423
0.112795 0.116854 0.148455
0.043946 0.141421 0.156527
0.00915541 0.196155 0.189914
0 0.258671 0.223774
0 0.318578 0.239765
0 0.365972 0.227909
0.0110628 0.37792 0.132235
0.00656138 0.419211 0.111421
0.33843 0.117617 0.252232
0.250324 0.170932 0.262226
0.190326 0.234119 0.274754
0.156313 0.293584 0.298573
0.0237278 0.330617 0.286458
0 0.379095 0.289921
0 0.436851 0.313237
0 0.498558 0.342779
0 0.558251 0.366064
0.638849 0.154391 0.339605
0.537865 0.220905 0.364218
0.414542 0.289876 0.381445
0.315511 0.367422 0.395865
0.255238 0.437629 0.424186
0.184924 0.488823 0.416754
0.133349 0.530312 0.40499
0 0.566598 0.395331
0 0.622538 0.415946
0.897795 0.217273 0.427039
0.81474 0.289403 0.453712
0.71519 0.36257 0.479988
0.602472 0.435599 0.505455
0.48304 0.512352 0.524102
0.400244 0.576394 0.535424
0.32166 0.618555 0.52166
0.258274 0.665583 0.518029
0.210986 0.718593 0.526162
1 0.311223 0.524742
1 0.381628 0.549813
0.931151 0.449302 0.572503
0.850217 0.51603 0.592035
0.755169 0.58352 0.609628
0.656779 0.651423 0.628382
0.58143 0.697078 0.624247
0.493217 0.728603 0.610651
0.419242 0.764294 0.604623
1 0.414328 0.611658
1 0.479896 0.631647
1 0.543847 0.650401
1 0.606989 0.668086
0.928435 0.666041 0.683024
0.847303 0.723125 0.697246
0.796841 0.769848 0.707683
0.745953 0.801343 0.70489
0.673136 0.825223 0.692851
1 0.518273 0.690013
1 0.58117 0.707469
1 0.643381 0.724361
1 0.703548 0.740337
1 0.760357 0.754574
0.982208 0.810422 0.767819
0.941772 0.847608 0.776822
0.91252 0.876127 0.782727
0.886549 0.898161 0.780423
1 0.60676 0.757992
1 0.667536 0.773587
1 0.727138 0.789273
1 0.78587 0.805463
1 0.841123 0.820417
1 0.890745 0.835019
1 0.927398 0.846281
1 0.9523 0.850187
1 0.975921 0.854017
0.0523537 0.0168002 0.0299992
0.0518959 0.0450141 0.060914
0.0467536 0.0910811 0.105516
0.0228428 0.143801 0.136522
0 0.187152 0.120562
0.00758373 0.202686 0.0526436
0 0.250507 0.0354009
0 0.302052 0.0202487
0 0.354925 0.00849927
0.142031 0.0903334 0.147112
0.118837 0.125841 0.159121
0.0444495 0.151537 0.166003
0.00605783 0.205951 0.196323
0 0.267933 0.229221
0 0.328313 0.247761
0 0.377676 0.241093
0 0.402564 0.18056
0.0130312 0.429603 0.120912
0.354513 0.123583 0.261433
0.262196 0.178485 0.271595
0.197818 0.24387 0.283909
0.162936 0.304753 0.308461
0.0806592 0.350988 0.303929
0 0.388785 0.296223
0 0.446159 0.318074
0 0.508095 0.348409
0 0.568475 0.373892
0.654353 0.163287 0.347921
0.55198 0.230808 0.372732
0.429221 0.300847 0.391226
0.327291 0.378714 0.405859
0.265309 0.448737 0.433646
0.193072 0.49958 0.425391
0.142596 0.541756 0.414313
0 0.578103 0.404166
0 0.632532 0.422599
0.908431 0.229282 0.436896
0.826444 0.30135 0.463355
0.727657 0.374395 0.489158
0.616419 0.447044 0.514275
0.497047 0.523842 0.533455
0.413886 0.586679 0.543053
0.334249 0.627909 0.529198
0.270085 0.674403 0.525475
0.221592 0.727718 0.534142
1 0.324483 0.533745
1 0.394583 0.558694
0.937911 0.461906 0.581094
0.858091 0.528206 0.599878
0.764675 0.594965 0.616632
0.668421 0.661067 0.63476
0.594949 0.705715 0.630701
0.507393 0.736431 0.616922
0.432837 0.771176 0.610483
1 0.428031 0.619593
1 0.493568 0.639536
1 0.557321 0.658015
1 0.618433 0.674693
0.933242 0.677012 0.689509
0.852491 0.73434 0.704219
0.805692 0.779629 0.71426
0.757992 0.809033 0.710979
0.68632 0.832349 0.699001
1 0.530648 0.697063
1 0.59321 0.714244
1 0.655222 0.730999
1 0.7149 0.746761
1 0.771405 0.761013
0.98764 0.820478 0.774105
0.94966 0.856168 0.782498
0.921187 0.883986 0.788403
0.89601 0.905669 0.786191
1 0.61799 0.764187
1 0.678492 0.77969
1 0.73785 0.795361
1 0.796323 0.811551
1 0.851194 0.826535
1 0.899992 0.84123
1 0.935821 0.852277
1 0.960204 0.855726
1 0.983703 0.85951
0.0530556 0.0204166 0.034165
0.0515755 0.0512093 0.0675822
0.0442206 0.099321 0.113558
0.0194095 0.153841 0.145281
0 0.200565 0.134493
0.00733959 0.213764 0.0582132
0 0.261067 0.0401617
0 0.312261 0.025391
0 0.364813 0.0147707
0.148913 0.0968185 0.156878
0.124727 0.134752 0.169604
0.0456855 0.161929 0.175769
0.00315862 0.215946 0.20293
0 0.277226 0.234485
0 0.337789 0.255238
0 0.389044 0.253895
0 0.42565 0.222644
0.0184787 0.440513 0.131579
0.370855 0.129885 0.270558
0.274067 0.186343 0.280934
0.205936 0.25362 0.292973
0.169436 0.315862 0.318242
0.0972457 0.364034 0.314488
0 0.398611 0.302861
0 0.455833 0.323323
0 0.517571 0.353918
0 0.578607 0.381399
0.669688 0.172503 0.35642
0.566278 0.241108 0.381506
0.443931 0.311849 0.4009
0.339132 0.389792 0.415824
0.275212 0.459586 0.442817
0.201602 0.51043 0.434134
0.151431 0.553307 0.423728
0.00875868 0.589899 0.413321
0 0.64271 0.429725
0.918257 0.241535 0.446815
0.837491 0.313313 0.472831
0.73959 0.38616 0.498146
0.630137 0.458595 0.523125
0.511193 0.53518 0.542641
0.427802 0.596796 0.550423
0.346822 0.637217 0.536675
0.281865 0.682979 0.532677
0.232136 0.736141 0.541619
1 0.33785 0.542779
1 0.407416 0.56733
0.94435 0.474662 0.589624
0.865385 0.540429 0.607385
0.773678 0.606455 0.623743
0.680507 0.670848 0.641337
0.608301 0.714092 0.637003
0.521416 0.744137 0.62324
0.446464 0.77792 0.616327
1 0.441749 0.627588
1 0.506828 0.647105
1 0.57052 0.665461
1 0.631266 0.681773
0.936889 0.689189 0.696376
0.857862 0.745144 0.710994
0.815198 0.788098 0.720104
0.769802 0.816678 0.717021
0.699596 0.839628 0.705272
1 0.542809 0.704005
1 0.605127 0.720913
1 0.666743 0.737469
1 0.726177 0.753185
1 0.782269 0.767376
0.993652 0.830274 0.780377
0.957885 0.86479 0.788357
0.92987 0.891829 0.794018
0.905257 0.913008 0.791775
1 0.629084 0.770275
1 0.689342 0.785733
1 0.748486 0.801419
1 0.806729 0.817655
1 0.861173 0.832639
1 0.909178 0.84744
1 0.944198 0.858137
1 0.968109 0.86125
1 0.991485 0.864988
0.0539254 0.0253452 0.0398718
0.0511788 0.0578927 0.0747082
0.0419623 0.107927 0.121706
0.0166018 0.163745 0.153857
0 0.21268 0.146075
0.007187 0.224994 0.0643473
0 0.271626 0.0453803
0 0.322164 0.0311742
0 0.373663 0.0220645
0.156115 0.10338 0.16669
0.130495 0.143603 0.179889
0.048188 0.172763 0.186023
0.00047303 0.22591 0.209522
0 0.286824 0.239826
0 0.347051 0.262058
0 0.400031 0.266178
0 0.441321 0.2448
0.0219425 0.451911 0.143847
0.387304 0.136507 0.27953
0.286015 0.194553 0.290135
0.214862 0.263447 0.302007
0.175906 0.327138 0.328161
0.108492 0.376059 0.324056
0 0.408713 0.309804
0 0.465293 0.328649
0 0.527138 0.359426
0 0.588632 0.388602
0.684962 0.182025 0.365103
0.580621 0.251713 0.390356
0.458732 0.323095 0.410712
0.351232 0.4009 0.42591
0.285512 0.47042 0.452049
0.21091 0.521096 0.442802
0.160143 0.564721 0.433173
0.0316777 0.603204 0.424384
0 0.652995 0.437049
0.927306 0.253849 0.456779
0.848142 0.325322 0.482261
0.751614 0.397818 0.507195
0.643687 0.47013 0.531792
0.524681 0.546181 0.551354
0.441657 0.606592 0.55758
0.35967 0.64622 0.543938
0.293507 0.691173 0.53959
0.243534 0.744488 0.549157
1 0.351141 0.551583
1 0.420371 0.575998
0.9505 0.487022 0.597467
0.872282 0.55256 0.614725
0.782086 0.617884 0.630808
0.692302 0.680522 0.647822
0.62179 0.722576 0.643442
0.535058 0.751644 0.62948
0.459983 0.784634 0.622293
1 0.455375 0.635569
1 0.520134 0.654841
1 0.583673 0.672862
1 0.644114 0.688914
0.940795 0.701289 0.703319
0.8636 0.755688 0.717678
0.824704 0.796506 0.725917
0.781491 0.824277 0.723049
0.712642 0.846845 0.711452
1 0.554818 0.710765
1 0.617014 0.727535
1 0.678325 0.743984
1 0.737316 0.759548
1 0.792996 0.773724
1 0.839857 0.786618
0.966476 0.873243 0.794202
0.938521 0.899641 0.799603
0.914534 0.920455 0.797406
1 0.639857 0.776196
1 0.699931 0.791653
1 0.759045 0.807462
1 0.817044 0.823713
1 0.87097 0.838758
1 0.918288 0.853651
1 0.9523 0.863813
1 0.975982 0.866789
1 0.999344 0.870497
0.0548867 0.0307012 0.0460517
0.0507057 0.0650339 0.0821851
0.0389715 0.11664 0.129732
0.0137484 0.173846 0.162448
0 0.224521 0.157031
0.00688182 0.236088 0.0711986
0 0.282231 0.0510414
0 0.332036 0.0374304
0 0.382528 0.0299535
0.163806 0.110002 0.176547
0.136095 0.152239 0.189746
0.0531167 0.184512 0.197345
0 0.235859 0.216205
0 0.296071 0.244648
0 0.356283 0.268406
0 0.410697 0.276967
0 0.455741 0.263951
0.0230106 0.464332 0.158862
0.404028 0.143465 0.28838
0.297993 0.203082 0.299199
0.223835 0.273304 0.311025
0.182727 0.338537 0.338201
0.118029 0.388022 0.333822
0 0.419043 0.317082
0 0.474891 0.334112
0 0.536767 0.364904
0 0.598566 0.395422
0.699611 0.191592 0.373617
0.595178 0.262501 0.399268
0.473503 0.334508 0.42063
0.36379 0.41207 0.436057
0.295857 0.481483 0.461372
0.220966 0.531579 0.451316
0.168795 0.576181 0.442679
0.102861 0.62182 0.442588
0 0.663355 0.444755
0.936339 0.266423 0.46688
0.858747 0.337636 0.491707
0.763104 0.409598 0.516106
0.656596 0.481651 0.540246
0.538689 0.557488 0.560265
0.455802 0.616388 0.564828
0.372747 0.655207 0.551247
0.305364 0.699428 0.546578
0.255711 0.752377 0.556344
1 0.364172 0.560159
1 0.43331 0.584543
0.956619 0.499596 0.604974
0.878889 0.564477 0.622034
0.789944 0.628763 0.637537
0.70367 0.690028 0.6542
0.635096 0.730938 0.649805
0.54934 0.759304 0.635981
0.473503 0.791333 0.628275
1 0.468879 0.643427
1 0.533257 0.662333
1 0.596567 0.680156
1 0.65658 0.695827
0.944488 0.713283 0.71017
0.869551 0.766186 0.724376
0.833997 0.804868 0.731746
0.792767 0.831678 0.728893
0.72549 0.854017 0.717571
1 0.566812 0.71751
1 0.628748 0.734096
1 0.689693 0.750408
1 0.748241 0.765835
1 0.803601 0.780041
1 0.849271 0.792767
0.97528 0.881544 0.800046
0.947127 0.907423 0.805203
0.92369 0.927977 0.803082
1 0.650767 0.782238
1 0.710475 0.797543
1 0.769543 0.813489
1 0.827283 0.829786
1 0.880415 0.844755
1 0.927337 0.859846
1 0.960494 0.869535
1 0.983871 0.872297
1 1 0.876341
