luts/Nebula Flux.cube
TITLE "Generated by Resolve"
LUT_3D_SIZE 9
0 0 0
0.0797894 0 0
0.190799 0 0
0.274708 0 0
0.374487 0 0
0.476036 0 0
0.5785 0 0
0.681498 0 0
0.784863 0 0
0 0.0395514 0
0.090013 0.0478676 0
0.162631 0 0
0.230137 0 0
0.312398 0 0
0.404211 0 0
0.506111 0 0
0.609247 0 0
0.712795 0 0
0.13846 0.18851 0
0.138796 0.198245 0
0.203479 0.205982 0
0.261128 0.197787 0
0.329381 0.187243 0
0.406363 0.172259 0
0.489036 0.150927 0
0.574655 0.115938 0
0.660563 0 0
0.152834 0.303273 0
0.158877 0.313451 0
0.230274 0.321981 0
0.310369 0.329625 0
0.37142 0.322316 0
0.438071 0.315084 0
0.51043 0.307393 0
0.588052 0.298924 0
0.669703 0.289891 0
0.180682 0.418936 0
0.189334 0.429252 0
0.256931 0.438437 0
0.339025 0.446357 0
0.42237 0.454047 0
0.484443 0.446906 0
0.550286 0.440314 0
0.620111 0.434073 0
0.694057 0.427924 0
0.235172 0.535134 0
0.236103 0.545495 0
0.286885 0.555138 0
0.36701 0.563561 0
0.450996 0.571267 0
0.535439 0.579034 0
0.598077 0.571939 0
0.663462 0.565499 0
0.731929 0.559594 0
0.288396 0.651743 0
0.28864 0.662104 0
0.319783 0.672053 0
0.39498 0.680934 0
0.478477 0.688945 0
0.563516 0.69659 0
0.648707 0.704433 0
0.711803 0.697353 0
0.776944 0.690944 0
0.341115 0.768658 0
0.344305 0.778988 0
0.356664 0.789151 0
0.424033 0.798413 0
0.505653 0.806775 0
0.590677 0.814572 0
0.676402 0.822217 0
0.762127 0.830137 0
0.825589 0.823041 0
0.393576 0.885786 0
0.40145 0.896101 0
0.397848 0.906401 0
0.454978 0.915938 0
0.533211 0.924666 0
0.617426 0.932708 0
0.703304 0.940398 0
0.789517 0.948089 0
0.875654 0.956054 0
0 0 0
0.088014 0 0
0.220066 0 0
0.332708 0 0
0.443412 0 0
0.55108 0 0
0.657984 0 0
0.76466 0 0
0.871427 0 0
0.0140841 0.0246433 0
0.161303 0.0712139 0.0570077
0.256565 0.0552377 0
0.350301 0 0
0.449668 0 0
0.55108 0 0
0.653605 0 0
0.756832 0 0
0.860578 0 0
0.181231 0.174166 0
0.200458 0.19968 0
0.271824 0.207538 0.0260929
0.334524 0.199069 0
0.411002 0.187259 0
0.493309 0.172717 0
0.584573 0.153979 0
0.686046 0.128313 0
0.788937 0.088426 0
0.198047 0.289113 0
0.225284 0.315175 0
0.300267 0.323629 0
0.381338 0.331304 0
0.443732 0.323934 0
0.513756 0.316152 0
0.59089 0.307424 0
0.67306 0.297948 0
0.757961 0.288426 0
0.236286 0.404791 0
0.259663 0.431128 0
0.328542 0.440192 0
0.410422 0.448096 0
0.493721 0.455817 0
0.556405 0.448676 0
0.623941 0.441825 0
0.696468 0.435019 0
0.77377 0.428031 0
0.287327 0.521004 0
0.302251 0.547509 0
0.357885 0.557031 0
0.438239 0.565377 0
0.522194 0.573098 0
0.606668 0.580896 0
0.669703 0.573816 0
0.736171 0.567224 0
0.806271 0.561028 0
0.339391 0.637629 0
0.351415 0.664195 0
0.389899 0.674052 0
0.466026 0.682841 0
0.549615 0.690822 0
0.634668 0.698482 0
0.71989 0.706355 0
0.783246 0.699275 0
0.84918 0.692775 0
0.391608 0.754543 0
0.404837 0.78114 0
0.425544 0.791211 0
0.49482 0.800381 0
0.57673 0.808698 0
0.661799 0.81648 0
0.747524 0.824155 0
0.833295 0.83209 0
0.896925 0.82501 0
0.443763 0.871656 0
0.460639 0.898268 0
0.465202 0.908492 0
0.525338 0.917967 0
0.604181 0.926635 0
0.688502 0.934661 0
0.774411 0.942351 0
0.860639 0.950057 0
0.946807 0.958053 0
0.0122835 0 0.192798
0.11635 0 0.204288
0.201953 0 0.217456
0.290837 0 0.227268
0.436545 0 0.223041
0.573709 0 0.193683
0.696406 0 0.157702
0.811933 0 0.121279
0.92398 0 0.0860609
0.0607614 0 0.170214
0.191119 0.00868238 0.19704
0.262516 0.0529946 0.210224
0.380682 0 0.212985
0.508598 0 0.180041
0.620905 0 0.143511
0.729473 0 0.108095
0.836957 0 0.0737163
0.944015 0 0.0405127
0.220661 0.158511 0.148318
0.247669 0.184131 0.17554
0.342443 0.208179 0.20473
0.436637 0.193118 0.172061
0.533455 0.177401 0.140002
0.632441 0.160418 0.108278
0.733028 0.141558 0.0768902
0.834745 0.120211 0.0458991
0.93724 0.0951247 0.0156558
0.267384 0.274022 0.109377
0.283177 0.300038 0.136828
0.373999 0.324514 0.165942
0.453819 0.332555 0.180133
0.519234 0.324895 0.167391
0.596719 0.315267 0.148943
0.678859 0.305318 0.129702
0.76936 0.294682 0.101671
0.869825 0.282795 0.0658732
0.307088 0.390143 0.0640726
0.318059 0.416419 0.0930648
0.402701 0.441459 0.123217
0.482963 0.449516 0.137667
0.565667 0.457435 0.15317
0.629313 0.450294 0.145098
0.699962 0.442878 0.129381
0.777066 0.434852 0.11223
0.858763 0.426581 0.0960861
0.349233 0.5066 0.00712596
0.358083 0.533059 0.0409552
0.431342 0.558602 0.0742962
0.510582 0.566979 0.0893873
0.593973 0.574777 0.106111
0.678218 0.582696 0.123796
0.741711 0.575631 0.118639
0.809812 0.568811 0.107195
0.882551 0.56202 0.0932784
0.395117 0.623362 0
0.404425 0.649897 0
0.461967 0.675837 0.0141909
0.537957 0.684596 0.030869
0.62121 0.692592 0.0501564
0.706065 0.700313 0.0709392
0.791196 0.708247 0.0923476
0.854856 0.701198 0.0900587
0.921813 0.69456 0.0832837
0.443702 0.740353 0
0.455741 0.766918 0
0.495796 0.793149 0
0.566171 0.802258 0
0.648081 0.810559 0
0.733043 0.818357 0.00178531
0.818723 0.826078 0.0313726
0.904479 0.834043 0.0594644
0.968322 0.826993 0.0610666
0.493828 0.857527 0
0.510216 0.884108 0
0.533425 0.910552 0
0.595972 0.919951 0
0.675258 0.928573 0
0.75964 0.936584 0
0.845533 0.944289 0
0.931762 0.952026 0
1 0.960037 0.0263218
0.0347906 0 0.311498
0.0249943 0 0.322789
0.207752 0 0.335302
0.301366 0 0.349615
0.390417 0 0.358557
0.522622 0 0.368795
0.672999 0 0.358618
0.814511 0 0.331197
0.943999 0 0.297215
0.0704356 0 0.289143
0.0577401 0 0.316136
0.272435 0.00956741 0.328969
0.366735 0 0.34342
0.4663 0 0.353689
0.613581 0 0.348928
0.751766 0 0.319249
0.875151 0 0.283177
0.991165 0 0.246754
0.134417 0.127092 0.268086
0.242878 0.152987 0.295369
0.359289 0.177783 0.324224
0.443565 0.186206 0.338231
0.562615 0.161227 0.340383
0.690272 0.136217 0.306798
0.802014 0.114702 0.26981
0.910002 0.0919051 0.23415
1 0.0656748 0.199557
0.309133 0.258 0.247669
0.32607 0.284123 0.274876
0.418601 0.309133 0.303395
0.522026 0.333562 0.333196
0.61944 0.319188 0.300237
0.717678 0.305287 0.267781
0.816907 0.291905 0.235721
0.917128 0.279026 0.204013
1 0.266728 0.172656
0.366155 0.37464 0.210346
0.370764 0.400946 0.237598
0.451164 0.4262 0.265919
0.553017 0.450507 0.295537
0.635798 0.458808 0.309682
0.70309 0.451408 0.296681
0.781689 0.44213 0.277943
0.86424 0.432792 0.258427
0.95465 0.423087 0.229969
0.411566 0.491554 0.170947
0.413931 0.517983 0.198535
0.481819 0.543603 0.226932
0.581857 0.568109 0.256641
0.66482 0.576165 0.270817
0.748913 0.584329 0.285649
0.813703 0.577325 0.277287
0.885161 0.56997 0.261143
0.962707 0.561975 0.243381
0.45568 0.608621 0.128878
0.459922 0.635126 0.157183
0.513176 0.661067 0.186007
0.609781 0.685924 0.216098
0.69247 0.694057 0.23035
0.777035 0.701946 0.245472
0.862074 0.710048 0.261219
0.92636 0.70309 0.255512
0.995071 0.696239 0.243076
0.501137 0.725811 0.0834211
0.509621 0.752361 0.113008
0.54696 0.778561 0.142702
0.637995 0.803784 0.173556
0.719509 0.812131 0.187961
0.804181 0.820035 0.203464
0.889708 0.827863 0.219806
0.975387 0.83595 0.236713
1 0.828962 0.233066
0.548379 0.843122 0.0334478
0.562371 0.869688 0.0652628
0.584131 0.896101 0.0964675
0.667369 0.92163 0.128603
0.746624 0.930251 0.143252
0.830808 0.938323 0.159243
0.916564 0.946105 0.176318
1 0.953918 0.194186
1 0.962005 0.212604
0 0 0.432517
0 0 0.443702
0.1467 0 0.455879
0.311101 0 0.469657
0.409812 0 0.484306
0.495033 0 0.491295
0.613581 0 0.504906
0.758755 0 0.508843
0.91017 0 0.495644
0.0377813 0 0.410193
0.0132143 0 0.437385
0.243137 0 0.44979
0.376791 0 0.463554
0.473701 0 0.478141
0.564385 0 0.486778
0.698177 0 0.496681
0.84979 0 0.486183
0.992264 0 0.458457
0.106172 0.09691 0.389075
0.0922255 0.12285 0.416388
0.354284 0.147997 0.444877
0.455756 0.156603 0.458381
0.546319 0.16463 0.472724
0.645258 0.144778 0.482551
0.792325 0.11017 0.477348
0.930388 0.0783398 0.447257
1 0.0479744 0.410773
0.194949 0.226459 0.368841
0.222416 0.25272 0.396109
0.427756 0.278294 0.424369
0.538323 0.303365 0.453849
0.624384 0.312688 0.467887
0.74461 0.289662 0.469764
0.872679 0.268437 0.435843
0.984344 0.253056 0.398474
1 0.23946 0.362417
0.380911 0.358602 0.348455
0.399268 0.38497 0.375708
0.490013 0.410559 0.4038
0.594812 0.435386 0.433021
0.701762 0.460075 0.463127
0.800092 0.446296 0.429496
0.90071 0.432364 0.397299
1 0.419501 0.36495
1 0.407416 0.332906
0.454536 0.475883 0.31165
0.456703 0.502312 0.338933
0.525841 0.528084 0.366873
0.626368 0.552926 0.395895
0.732372 0.577295 0.425849
0.817075 0.585824 0.439979
0.885786 0.578561 0.426764
0.965408 0.56936 0.407736
1 0.560052 0.387869
0.50692 0.593317 0.273869
0.50869 0.619806 0.301289
0.560342 0.645808 0.329183
0.656168 0.670832 0.358129
0.761303 0.695186 0.388022
0.846067 0.703365 0.402152
0.931319 0.711727 0.41677
0.997101 0.704829 0.408072
1 0.69749 0.391531
0.554849 0.710811 0.234897
0.560494 0.737331 0.262592
0.595834 0.763546 0.290578
0.685557 0.788846 0.319554
0.789212 0.813367 0.349523
0.873869 0.821469 0.363638
0.959426 0.829496 0.378363
1 0.837766 0.393561
1 0.830884 0.38735
0.602106 0.828351 0.194568
0.613535 0.854887 0.22269
0.633738 0.881285 0.250904
0.715587 0.906859 0.280064
0.816831 0.931624 0.310201
0.900954 0.939803 0.324346
0.986648 0.947738 0.339208
1 0.955688 0.35465
1 0.963912 0.37052
0 0 0.554894
0 0 0.566094
0 0 0.577966
0.299641 0 0.591073
0.419623 0 0.605142
0.518441 0 0.619821
0.601694 0 0.625345
0.710872 0 0.638911
0.845594 0 0.649516
0.0263066 0 0.532677
0 0 0.55993
0.0276799 0 0.571878
0.368673 0 0.585016
0.483864 0 0.599069
0.581765 0 0.613703
0.668376 0 0.620508
0.788327 0 0.633921
0.934737 0 0.637629
0.0872358 0.0682994 0.511162
0.0634775 0.0942397 0.538491
0.162539 0.119448 0.566644
0.452888 0.127962 0.579675
0.556848 0.135698 0.593576
0.651072 0.143221 0.608087
0.741131 0.125521 0.616403
0.874861 0.0922103 0.626001
1 0.05243 0.615198
0.165545 0.195819 0.490608
0.147677 0.222065 0.517937
0.402213 0.248005 0.545983
0.543526 0.273594 0.575158
0.637324 0.28336 0.588815
0.727138 0.29337 0.603113
0.826001 0.277378 0.612696
0.97293 0.248936 0.607202
1 0.22623 0.576806
0.250965 0.327001 0.47039
0.248295 0.353414 0.497688
0.48867 0.37937 0.525612
0.606241 0.404746 0.554574
0.717525 0.429984 0.58439
0.804913 0.439536 0.598474
0.926177 0.416861 0.600183
1 0.396201 0.566049
1 0.381659 0.528435
0.364141 0.459861 0.450065
0.464134 0.486336 0.477348
0.556954 0.512306 0.505196
0.664057 0.53753 0.533989
0.772671 0.562371 0.563607
0.88159 0.587259 0.593881
0.981308 0.573571 0.560143
1 0.559701 0.527794
1 0.546883 0.495232
0.531746 0.577554 0.413504
0.539666 0.604059 0.440818
0.598077 0.630152 0.468559
0.6972 0.655436 0.497169
0.803677 0.68011 0.526635
0.91194 0.704616 0.556786
0.998001 0.713314 0.570916
1 0.706142 0.557534
1 0.696956 0.538293
0.594079 0.695338 0.376394
0.600931 0.721859 0.403815
0.637888 0.748119 0.431479
0.728985 0.773556 0.459983
0.833204 0.798306 0.489342
0.940917 0.82266 0.519417
1 0.830961 0.533532
1 0.839475 0.548028
1 0.83267 0.539117
0.647272 0.813138 0.338643
0.658381 0.839673 0.366201
0.678508 0.866072 0.393881
0.760678 0.891722 0.422354
0.862013 0.91664 0.451652
0.968917 0.941024 0.481712
1 0.949157 0.495796
1 0.957336 0.510353
1 0.965743 0.525261
0 0 0.67808
0 0 0.68925
0 0 0.700832
0.207034 0 0.71342
0.416266 0 0.726955
0.528161 0 0.741192
0.627207 0 0.755856
0.7093 0 0.760296
0.812207 0 0.7729
0.0182193 0 0.655833
0 0 0.683116
0 0 0.694743
0.310857 0 0.707378
0.482231 0 0.720928
0.591943 0 0.735134
0.690379 0 0.749798
0.774777 0 0.755199
0.885191 0 0.768627
0.0722972 0.0412146 0.633997
0.045594 0.0672465 0.661341
0.0619821 0.0924849 0.68925
0.417975 0.100801 0.701854
0.556481 0.108125 0.715328
0.661021 0.115114 0.729458
0.757351 0.122698 0.744045
0.843519 0.105867 0.750637
0.963577 0.0757305 0.763821
0.143984 0.166613 0.613062
0.120531 0.192767 0.640436
0.1579 0.218814 0.668299
0.528618 0.244678 0.697185
0.641047 0.254749 0.710491
0.738293 0.265003 0.724453
0.831006 0.275624 0.738888
0.920439 0.263874 0.747005
1 0.239185 0.756374
0.222614 0.295995 0.592691
0.203967 0.322393 0.62005
0.408759 0.348608 0.647852
0.60325 0.374441 0.67657
0.725917 0.400168 0.706127
0.818158 0.410163 0.71989
0.908003 0.420554 0.734157
1 0.405173 0.743603
1 0.377584 0.737911
0.304723 0.428214 0.572488
0.295888 0.454704 0.599832
0.538674 0.480903 0.627558
0.669551 0.506554 0.656123
0.784894 0.531868 0.685496
0.896956 0.557214 0.715541
0.985306 0.566873 0.729641
1 0.544228 0.731258
1 0.523629 0.696971
0.399802 0.561547 0.552209
0.503578 0.588083 0.579553
0.618418 0.614298 0.607233
0.7299 0.639857 0.635691
0.840818 0.664927 0.664912
0.951293 0.68983 0.694804
1 0.714885 0.7252
1 0.701244 0.691386
1 0.687373 0.658915
0.589609 0.679515 0.51577
0.618219 0.70605 0.543145
0.667277 0.732372 0.570748
0.765637 0.757992 0.599069
0.872786 0.783017 0.628153
0.981964 0.807691 0.657893
1 0.832319 0.688182
1 0.841138 0.702312
1 0.834043 0.688823
0.672175 0.797559 0.479026
0.689891 0.824094 0.506462
0.713878 0.850523 0.53402
0.800259 0.87628 0.562234
0.903487 0.901381 0.591196
1 0.926009 0.620829
1 0.950423 0.651057
1 0.958846 0.665156
1 0.967498 0.679576
0 0 0.801633
0 0 0.812818
0 0 0.824201
0 0 0.836408
0.388678 0 0.849485
0.528313 0 0.863279
0.636805 0 0.877607
0.73608 0 0.892287
0.817441 0 0.895872
0.0104829 0 0.7794
0 0 0.806714
0 0 0.818143
0.0304112 0 0.830396
0.460075 0 0.843503
0.593378 0 0.857298
0.700481 0 0.871595
0.799268 0 0.886259
0.882338 0 0.890623
0.0598459 0.016083 0.757336
0.0323644 0.0421454 0.78471
0.0265507 0.0674907 0.812421
0.125093 0.0756542 0.824704
0.53814 0.0826123 0.837781
0.662608 0.0890974 0.85153
0.767071 0.0961166 0.865797
0.864637 0.104768 0.88043
0.948806 0.0894942 0.885679
0.125719 0.139132 0.73608
0.100801 0.165118 0.763485
0.101717 0.191073 0.791211
0.456962 0.216968 0.819821
0.63035 0.227207 0.832807
0.741817 0.237583 0.846433
0.84123 0.24831 0.860578
0.936049 0.259602 0.875105
1 0.250492 0.881529
0.200473 0.266026 0.715434
0.178546 0.292378 0.742855
0.191501 0.318669 0.77055
0.570062 0.344808 0.799054
0.723201 0.370901 0.828367
0.824811 0.381292 0.84184
0.919615 0.392004 0.855833
1 0.403204 0.870222
1 0.392309 0.878218
0.27779 0.396994 0.69514
0.260334 0.423468 0.722545
0.299199 0.449836 0.750195
0.655558 0.475837 0.778592
0.788144 0.501595 0.807752
0.906813 0.527367 0.837568
0.998657 0.537423 0.851392
1 0.54789 0.86566
1 0.53254 0.874983
0.357259 0.52987 0.674952
0.347723 0.556405 0.702358
0.562432 0.582773 0.729961
0.727535 0.608652 0.758251
0.84889 0.634119 0.787274
0.963867 0.659434 0.816922
1 0.684871 0.847105
1 0.69456 0.861234
1 0.671901 0.862776
0.444923 0.663523 0.654734
0.458732 0.690089 0.682109
0.671443 0.716487 0.709697
0.792004 0.742306 0.737926
0.906233 0.767636 0.766827
1 0.79266 0.796353
1 0.817639 0.826413
1 0.842802 0.856886
1 0.828824 0.823529
0.541115 0.781704 0.618372
0.690166 0.808255 0.645792
0.732204 0.83473 0.67332
0.831388 0.860624 0.701442
0.939727 0.885939 0.730205
1 0.910842 0.759609
1 0.935546 0.789548
1 0.960311 0.819944
1 0.969223 0.834073
0 0 0.92546
0 0 0.936675
0 0 0.947921
0 0 0.959838
0.264027 0 0.972549
0.513863 0 0.985946
0.63888 0 0.999924
0.745556 0 1
0.845029 0 1
0.00285344 0 0.903258
0 0 0.930617
0 0 0.941909
0 0 0.953872
0.380697 0 0.966598
0.581872 0 0.980011
0.703685 0 0.993973
0.809308 0 1
0.908339 0 1
0.0489662 0 0.881056
0.0217136 0.0197757 0.908461
0.0039826 0.0450752 0.936034
0.0411078 0.053254 0.948043
0.478676 0.0600443 0.960784
0.652018 0.0661936 0.974182
0.770062 0.0728008 0.988128
0.874266 0.0810864 1
0.972595 0.0922255 1
0.109789 0.113451 0.859525
0.0847791 0.139208 0.886976
0.0704204 0.164996 0.91458
0.141955 0.190738 0.942946
0.592645 0.201038 0.955642
0.734524 0.211444 0.968963
0.845075 0.222187 0.982818
0.945785 0.233494 0.997086
1 0.245655 1
0.18088 0.237415 0.838621
0.158282 0.263645 0.866087
0.148623 0.289906 0.89369
0.27042 0.316152 0.921996
0.702068 0.342458 0.951064
0.822278 0.35314 0.964279
0.925429 0.364126 0.978012
1 0.37554 0.992157
1 0.387518 1
0.255802 0.366522 0.818143
0.236271 0.392981 0.845609
0.233753 0.419409 0.873182
0.587228 0.44564 0.901427
0.777249 0.471763 0.930373
0.909087 0.497917 0.959976
1 0.508339 0.973556
1 0.519127 0.987579
1 0.530404 1
0.331624 0.498497 0.797894
0.316533 0.525032 0.825345
0.326116 0.551507 0.852903
0.696529 0.577646 0.881056
0.84593 0.603479 0.909895
0.96997 0.629191 0.939345
1 0.655009 0.969329
1 0.665064 0.983215
1 0.675502 0.997482
0.409049 0.631815 0.777722
0.401099 0.658381 0.805158
0.439231 0.684871 0.8327
0.778576 0.710933 0.860792
0.90927 0.736584 0.889525
1 0.761959 0.918853
1 0.787305 0.948699
1 0.812802 0.978988
1 0.822538 0.993133
0.492378 0.765728 0.757534
0.499992 0.792309 0.784955
0.706386 0.81883 0.812482
0.84947 0.844862 0.840528
0.968811 0.870405 0.869169
1 0.895613 0.898405
1 0.920638 0.928145
1 0.945693 0.958328
1 0.970962 0.988876
