luts/Nebula Flux.cube
TITLE "Generated by Resolve"
LUT_3D_SIZE 5
0 0 0
0.190799 0 0
0.374487 0 0
0.5785 0 0
0.784863 0 0
0.13846 0.18851 0
0.203479 0.205982 0
0.329381 0.187243 0
0.489036 0.150927 0
0.660563 0 0
0.180682 0.418936 0
0.256931 0.438437 0
0.42237 0.454047 0
0.550286 0.440314 0
0.694057 0.427924 0
0.288396 0.651743 0
0.319783 0.672053 0
0.478477 0.688945 0
0.648707 0.704433 0
0.776944 0.690944 0
0.393576 0.885786 0
0.397848 0.906401 0
0.533211 0.924666 0
0.703304 0.940398 0
0.875654 0.956054 0
0.0122835 0 0.192798
0.201953 0 0.217456
0.436545 0 0.223041
0.696406 0 0.157702
0.92398 0 0.0860609
0.220661 0.158511 0.148318
0.342443 0.208179 0.20473
0.533455 0.177401 0.140002
0.733028 0.141558 0.0768902
0.93724 0.0951247 0.0156558
0.307088 0.390143 0.0640726
0.402701 0.441459 0.123217
0.565667 0.457435 0.15317
0.699962 0.442878 0.129381
0.858763 0.426581 0.0960861
0.395117 0.623362 0
0.461967 0.675837 0.0141909
0.62121 0.692592 0.0501564
0.791196 0.708247 0.0923476
0.921813 0.69456 0.0832837
0.493828 0.857527 0
0.533425 0.910552 0
0.675258 0.928573 0
0.845533 0.944289 0
1 0.960037 0.0263218
0 0 0.432517
0.1467 0 0.455879
0.409812 0 0.484306
0.613581 0 0.504906
0.91017 0 0.495644
0.106172 0.09691 0.389075
0.354284 0.147997 0.444877
0.546319 0.16463 0.472724
0.792325 0.11017 0.477348
1 0.0479744 0.410773
0.380911 0.358602 0.348455
0.490013 0.410559 0.4038
0.701762 0.460075 0.463127
0.90071 0.432364 0.397299
1 0.407416 0.332906
0.50692 0.593317 0.273869
0.560342 0.645808 0.329183
0.761303 0.695186 0.388022
0.931319 0.711727 0.41677
1 0.69749 0.391531
0.602106 0.828351 0.194568
0.633738 0.881285 0.250904
0.816831 0.931624 0.310201
0.986648 0.947738 0.339208
1 0.963912 0.37052
0 0 0.67808
0 0 0.700832
0.416266 0 0.726955
0.627207 0 0.755856
0.812207 0 0.7729
0.0722972 0.0412146 0.633997
0.0619821 0.0924849 0.68925
0.556481 0.108125 0.715328
0.757351 0.122698 0.744045
0.963577 0.0757305 0.763821
0.222614 0.295995 0.592691
0.408759 0.348608 0.647852
0.725917 0.400168 0.706127
0.908003 0.420554 0.734157
1 0.377584 0.737911
0.399802 0.561547 0.552209
0.618418 0.614298 0.607233
0.840818 0.664927 0.664912
1 0.714885 0.7252
1 0.687373 0.658915
0.672175 0.797559 0.479026
0.713878 0.850523 0.53402
0.903487 0.901381 0.591196
1 0.950423 0.651057
1 0.967498 0.679576
0 0 0.92546
0 0 0.947921
0.264027 0 0.972549
0.63888 0 0.999924
0.845029 0 1
0.0489662 0 0.881056
0.0039826 0.0450752 0.936034
0.478676 0.0600443 0.960784
0.770062 0.0728008 0.988128
0.972595 0.0922255 1
0.18088 0.237415 0.838621
0.148623 0.289906 0.89369
0.702068 0.342458 0.951064
0.925429 0.364126 0.978012
1 0.387518 1
0.331624 0.498497 0.797894
0.326116 0.551507 0.852903
0.84593 0.603479 0.909895
1 0.655009 0.969329
1 0.675502 0.997482
0.492378 0.765728 0.757534
0.706386 0.81883 0.812482
0.968811 0.870405 0.869169
1 0.920638 0.928145
1 0.970962 0.988876
