luts/Nebula Flux.cube
TITLE "Generated by Resolve"
LUT_3D_SIZE 33
0 0 0
0 0 0
0 0 0
0.0375525 0 0
0.0797894 0 0
0.110933 0 0
0.139254 0 0
0.166308 0 0
0.190799 0 0
0.209857 0 0
0.229206 0 0
0.250904 0 0
0.274708 0 0
0.299382 0 0
0.324269 0 0
0.34931 0 0
0.374487 0 0
0.399756 0 0
0.425116 0 0
0.450538 0 0
0.476036 0 0
0.501579 0 0
0.527184 0 0
0.552819 0 0
0.5785 0 0
0.604196 0 0
0.629938 0 0
0.655711 0 0
0.681498 0 0
0.707301 0 0
0.733135 0 0
0.758999 0 0
0.784863 0 0
0 0 0
0 0 0
0 0 0
0.0261997 0 0
0.0640421 0 0
0.0928054 0 0
0.120974 0 0
0.148043 0 0
0.172427 0 0
0.191348 0 0
0.210788 0 0
0.232685 0 0
0.256611 0 0
0.281224 0 0
0.30602 0 0
0.330983 0 0
0.356039 0 0
0.381201 0 0
0.406485 0 0
0.43183 0 0
0.457221 0 0
0.482643 0 0
0.508125 0 0
0.533623 0 0
0.559152 0 0
0.584741 0 0
0.610346 0 0
0.635966 0 0
0.661601 0 0
0.687266 0 0
0.712963 0 0
0.738659 0 0
0.764401 0 0
0 0 0
0 0 0
0 0 0
0.033753 0 0
0.067216 0 0
0.0925002 0 0
0.116121 0 0
0.13901 0 0
0.158953 0 0
0.174319 0 0
0.192767 0 0
0.214557 0 0
0.23856 0 0
0.263279 0 0
0.288182 0 0
0.313298 0 0
0.338476 0 0
0.36376 0 0
0.389105 0 0
0.414511 0 0
0.439979 0 0
0.465476 0 0
0.491035 0 0
0.516609 0 0
0.542229 0 0
0.567864 0 0
0.593545 0 0
0.619211 0 0
0.644923 0 0
0.670665 0 0
0.696391 0 0
0.722164 0 0
0.747921 0 0
0 0 0
0 0 0
0 0 0
0.0484321 0 0
0.0768139 0 0
0.0990311 0 0
0.12015 0 0
0.141222 0 0
0.159625 0 0
0.174121 0 0
0.190097 0 0
0.208316 0 0
0.228168 0 0
0.248631 0 0
0.271458 0 0
0.295476 0 0
0.320302 0 0
0.345495 0 0
0.37084 0 0
0.396323 0 0
0.421866 0 0
0.447425 0 0
0.473091 0 0
0.498756 0 0
0.524453 0 0
0.550164 0 0
0.575906 0 0
0.601678 0 0
0.62742 0 0
0.653208 0 0
0.679011 0 0
0.704829 0 0
0.730663 0 0
0 0.0395514 0
0 0.0421454 0
0 0.0445258 0
0.0573892 0.046479 0
0.090013 0.0478676 0
0.109697 0.0258946 0
0.128664 0 0
0.147463 0 0
0.162631 0 0
0.176104 0 0
0.192142 0 0
0.210452 0 0
0.230137 0 0
0.250401 0 0
0.270954 0 0
0.291615 0 0
0.312398 0 0
0.333288 0 0
0.355673 0 0
0.379751 0 0
0.404211 0 0
0.429389 0 0
0.454826 0 0
0.48043 0 0
0.506111 0 0
0.531868 0 0
0.557656 0 0
0.583474 0 0
0.609247 0 0
0.635142 0 0
0.661036 0 0
0.6869 0 0
0.712795 0 0
0 0.0964828 0
0 0.0990921 0
0 0.101656 0
0.0695964 0.104097 0
0.098558 0.106371 0
0.122759 0.108461 0
0.13991 0.104402 0
0.15552 0.101259 0
0.168246 0.101106 0
0.182239 0.100206 0
0.198291 0.0960098 0
0.215732 0.0889296 0
0.23415 0.079118 0
0.253361 0.0633402 0
0.273182 0 0
0.293523 0 0
0.314275 0 0
0.33521 0 0
0.356237 0 0
0.377264 0 0
0.398398 0 0
0.419516 0 0
0.441459 0 0
0.465171 0 0
0.489708 0 0
0.514412 0 0
0.539742 0 0
0.565286 0 0
0.591012 0 0
0.616815 0 0
0.642649 0 0
0.668559 0 0
0.694484 0 0
0.00935378 0.133898 0
0.00433356 0.136507 0
0.0458381 0.139071 0
0.0851606 0.141405 0
0.109621 0.143313 0
0.132586 0.144396 0
0.153735 0.144778 0
0.165835 0.142428 0
0.178576 0.140139 0
0.192615 0.137545 0
0.207752 0.134554 0
0.223941 0.131044 0
0.241093 0.126864 0
0.259098 0.121889 0
0.277836 0.115908 0
0.2972 0.108583 0
0.317067 0.099321 0
0.337407 0.0865644 0
0.358099 0.0633707 0
0.379095 0 0
0.400275 0 0
0.4215 0 0
0.442679 0 0
0.463981 0 0
0.485283 0 0
0.506569 0 0
0.528298 0 0
0.551507 0 0
0.575753 0 0
0.600488 0 0
0.625376 0 0
0.650813 0 0
0.676448 0 0
0.108904 0.161593 0
0.103761 0.164157 0
0.101579 0.166644 0
0.111803 0.168765 0
0.128222 0.170352 0
0.145785 0.171649 0
0.161624 0.173419 0
0.178332 0.175235 0
0.190906 0.17322 0
0.204425 0.17113 0
0.218875 0.168872 0
0.234211 0.166415 0
0.25034 0.163684 0
0.267262 0.160616 0
0.284932 0.157153 0
0.303258 0.153231 0
0.322179 0.148791 0
0.341634 0.143755 0
0.361532 0.138033 0
0.381796 0.131441 0
0.402441 0.12369 0
0.423346 0.11429 0
0.444511 0.102083 0
0.465827 0.0830396 0
0.48719 0.0116732 0
0.508583 0 0
0.5299 0 0
0.551308 0 0
0.572732 0 0
0.594125 0 0
0.615686 0 0
0.638453 0 0
0.662425 0 0
0.13846 0.18851 0
0.132326 0.191073 0
0.126162 0.193637 0
0.129198 0.196017 0
0.138796 0.198245 0
0.152407 0.200305 0
0.168276 0.202258 0
0.185458 0.204135 0
0.203479 0.205982 0
0.216846 0.204028 0
0.230884 0.202045 0
0.245655 0.199969 0
0.261128 0.197787 0
0.277256 0.195468 0
0.294011 0.19295 0
0.311391 0.190219 0
0.329381 0.187243 0
0.347936 0.183963 0
0.366979 0.180392 0
0.386481 0.176501 0
0.406363 0.172259 0
0.426612 0.167636 0
0.44715 0.162585 0
0.467979 0.157046 0
0.489036 0.150927 0
0.510307 0.144091 0
0.531716 0.136324 0
0.55317 0.12723 0
0.574655 0.115938 0
0.596094 0.0997482 0
0.617563 0.0340887 0
0.639048 0.00999466 0
0.660563 0 0
0.143679 0.217029 0
0.138781 0.219608 0
0.131716 0.222202 0
0.133944 0.224674 0
0.143862 0.226978 0
0.158083 0.229114 0
0.174533 0.231128 0
0.192187 0.233051 0
0.210575 0.234928 0
0.229465 0.236805 0
0.243397 0.234867 0
0.257816 0.232944 0
0.272801 0.230991 0
0.28838 0.228977 0
0.304494 0.226886 0
0.321141 0.224689 0
0.338323 0.22237 0
0.356054 0.219898 0
0.374273 0.217258 0
0.392966 0.21445 0
0.412085 0.211429 0
0.431617 0.208225 0
0.451499 0.204822 0
0.471687 0.201221 0
0.492149 0.197421 0
0.512901 0.193393 0
0.533867 0.189151 0
0.555047 0.184665 0
0.576394 0.179934 0
0.597864 0.17496 0
0.619379 0.169711 0
0.64094 0.164141 0
0.662501 0.158221 0
0.147066 0.245716 0
0.144274 0.24828 0
0.13669 0.250889 0
0.138582 0.253407 0
0.148791 0.255756 0
0.163531 0.257954 0
0.180484 0.260029 0
0.198611 0.261997 0
0.21738 0.263905 0
0.236561 0.265797 0
0.256046 0.267674 0
0.270359 0.265766 0
0.285054 0.26389 0
0.300221 0.262013 0
0.315877 0.260105 0
0.331991 0.258152 0
0.348577 0.256138 0
0.365606 0.254078 0
0.383093 0.251926 0
0.401053 0.249668 0
0.41944 0.247288 0
0.438239 0.2448 0
0.457435 0.242176 0
0.476967 0.239445 0
0.496834 0.236591 0
0.516991 0.233616 0
0.537408 0.230533 0
0.558053 0.227359 0
0.578943 0.224063 0
0.600015 0.220691 0
0.621271 0.217227 0
0.642695 0.213703 0
0.66421 0.210101 0
0.150118 0.274464 0
0.150011 0.277028 0
0.142077 0.279637 0
0.14342 0.282185 0
0.15375 0.284581 0
0.168872 0.286839 0
0.186267 0.28896 0
0.204791 0.29099 0
0.223926 0.292927 0
0.243412 0.294835 0
0.263142 0.296727 0
0.283055 0.298619 0
0.297658 0.296727 0
0.312566 0.294881 0
0.327855 0.29305 0
0.343572 0.291203 0
0.359686 0.289342 0
0.376226 0.287465 0
0.393149 0.285557 0
0.410468 0.283589 0
0.428183 0.281575 0
0.446326 0.279484 0
0.464851 0.277333 0
0.483742 0.27509 0
0.502968 0.272755 0
0.52253 0.270359 0
0.542367 0.267887 0
0.562478 0.265354 0
0.582849 0.26276 0
0.603418 0.260121 0
0.624231 0.257435 0
0.645228 0.254704 0
0.666392 0.251942 0
0.152834 0.303273 0
0.15613 0.305821 0
0.148104 0.308446 0
0.148653 0.311009 0
0.158877 0.313451 0
0.174228 0.315755 0
0.191959 0.317937 0
0.210819 0.319997 0
0.230274 0.321981 0
0.25005 0.323919 0
0.270024 0.325811 0
0.29015 0.327718 0
0.310369 0.329625 0
0.3252 0.327749 0
0.340276 0.325917 0
0.355673 0.324102 0
0.37142 0.322316 0
0.387549 0.320516 0
0.404044 0.318715 0
0.420874 0.316899 0
0.438071 0.315084 0
0.455604 0.313222 0
0.473518 0.31133 0
0.491798 0.309392 0
0.51043 0.307393 0
0.529381 0.305348 0
0.548653 0.303258 0
0.568215 0.301106 0
0.588052 0.298924 0
0.608133 0.296696 0
0.628458 0.294453 0
0.648997 0.29218 0
0.669703 0.289891 0
0.155245 0.332128 0
0.162814 0.334676 0
0.155001 0.337301 0
0.154482 0.339879 0
0.16434 0.342351 0
0.179751 0.344717 0
0.197681 0.346944 0
0.2168 0.34905 0
0.236515 0.35108 0
0.256535 0.353033 0
0.276753 0.354955 0
0.297078 0.356847 0
0.317494 0.358755 0
0.337972 0.360678 0
0.352972 0.358801 0
0.36817 0.356985 0
0.383642 0.3552 0
0.399435 0.353445 0
0.415564 0.35169 0
0.432013 0.349935 0
0.448783 0.348196 0
0.465873 0.346456 0
0.483284 0.344717 0
0.501015 0.342947 0
0.519081 0.341161 0
0.537484 0.33933 0
0.556191 0.337484 0
0.575204 0.335592 0
0.594507 0.333684 0
0.614084 0.331731 0
0.633906 0.329763 0
0.653956 0.327779 0
0.674235 0.325795 0
0.158694 0.361044 0
0.170886 0.363592 0
0.163638 0.366217 0
0.1617 0.368795 0
0.170703 0.371298 0
0.18584 0.373693 0
0.203769 0.375967 0
0.223011 0.378134 0
0.242893 0.380194 0
0.263127 0.382177 0
0.283543 0.384115 0
0.304067 0.386023 0
0.324651 0.38793 0
0.345281 0.389838 0
0.365957 0.39176 0
0.381064 0.389899 0
0.396338 0.388083 0
0.411856 0.386313 0
0.427665 0.384573 0
0.443778 0.382849 0
0.460197 0.38114 0
0.476905 0.379446 0
0.493919 0.377768 0
0.511193 0.376089 0
0.528771 0.374411 0
0.546654 0.372732 0
0.564858 0.371038 0
0.583337 0.369314 0
0.602106 0.36759 0
0.621149 0.365835 0
0.640467 0.364065 0
0.660029 0.362295 0
0.67982 0.36051 0
0.167269 0.389975 0
0.182025 0.392523 0
0.175479 0.395132 0
0.171756 0.397742 0
0.179065 0.400259 0
0.193256 0.402686 0
0.210758 0.405005 0
0.229847 0.407202 0
0.249729 0.409308 0
0.270008 0.411337 0
0.290532 0.413306 0
0.311162 0.415229 0
0.331868 0.417121 0
0.35259 0.419028 0
0.373358 0.420935 0
0.394141 0.422889 0
0.409339 0.421012 0
0.424674 0.419211 0
0.440238 0.417456 0
0.456046 0.415732 0
0.472145 0.414023 0
0.488518 0.412345 0
0.50515 0.410681 0
0.522057 0.409033 0
0.539254 0.407416 0
0.556695 0.405798 0
0.574411 0.404196 0
0.592401 0.402594 0
0.610681 0.400977 0
0.629252 0.399359 0
0.648066 0.397726 0
0.667155 0.396094 0
0.686473 0.394461 0
0.180682 0.418936 0
0.195575 0.421485 0
0.189792 0.424094 0
0.184298 0.426703 0
0.189334 0.429252 0
0.202014 0.431693 0
0.218662 0.434043 0
0.237278 0.436301 0
0.256931 0.438437 0
0.277119 0.440513 0
0.297612 0.442496 0
0.318273 0.44445 0
0.339025 0.446357 0
0.359823 0.448264 0
0.380652 0.450172 0
0.401511 0.452094 0
0.42237 0.454047 0
0.437629 0.452186 0
0.453025 0.450385 0
0.46862 0.448631 0
0.484443 0.446906 0
0.500526 0.445228 0
0.516854 0.443565 0
0.53344 0.441932 0
0.550286 0.440314 0
0.567361 0.438727 0
0.584695 0.437156 0
0.602274 0.435615 0
0.620111 0.434073 0
0.638209 0.432532 0
0.65658 0.430991 0
0.675196 0.42945 0
0.694057 0.427924 0
0.194522 0.447944 0
0.209339 0.450477 0
0.204379 0.453086 0
0.197513 0.455711 0
0.20032 0.458259 0
0.211276 0.460746 0
0.226886 0.463127 0
0.244907 0.4654 0
0.264225 0.467597 0
0.284245 0.469703 0
0.304677 0.471733 0
0.325322 0.473701 0
0.346105 0.475624 0
0.366949 0.477531 0
0.387839 0.479438 0
0.408743 0.481346 0
0.429679 0.483284 0
0.450614 0.485237 0
0.465934 0.483375 0
0.481392 0.48159 0
0.497017 0.479835 0
0.51284 0.478126 0
0.528908 0.476448 0
0.545205 0.4748 0
0.561746 0.473182 0
0.578531 0.471595 0
0.595529 0.470039 0
0.612772 0.468498 0
0.630243 0.466972 0
0.647944 0.465476 0
0.665888 0.463996 0
0.684077 0.462531 0
0.702525 0.461051 0
0.208179 0.476967 0
0.223011 0.479515 0
0.21886 0.482124 0
0.211048 0.484749 0
0.21181 0.487312 0
0.220981 0.489815 0
0.235401 0.492226 0
0.252735 0.49453 0
0.271626 0.496757 0
0.291417 0.498894 0
0.311727 0.500969 0
0.332326 0.502968 0
0.353109 0.504921 0
0.373983 0.506844 0
0.394919 0.508751 0
0.415885 0.510658 0
0.436881 0.512566 0
0.457862 0.514504 0
0.478874 0.516472 0
0.494255 0.514611 0
0.509758 0.512825 0
0.525414 0.51107 0
0.541253 0.509377 0
0.557305 0.507698 0
0.573587 0.506065 0
0.590082 0.504463 0
0.606821 0.502876 0
0.623758 0.501335 0
0.640909 0.499825 0
0.658289 0.498329 0
0.675868 0.496864 0
0.693675 0.49543 0
0.711711 0.493996 0
0.221714 0.506035 0
0.236622 0.508568 0
0.233249 0.511177 0
0.224842 0.513802 0
0.223743 0.516396 0
0.231098 0.518898 0
0.244266 0.52134 0
0.260777 0.52369 0
0.279179 0.525948 0
0.298665 0.528115 0
0.318807 0.530221 0
0.33933 0.53225 0
0.360067 0.534234 0
0.380957 0.536171 0
0.401923 0.538079 0
0.422934 0.539986 0
0.443976 0.541894 0
0.465019 0.543816 0
0.486091 0.545769 0
0.507149 0.547738 0
0.522591 0.545876 0
0.538125 0.544091 0
0.553811 0.542351 0
0.569665 0.540642 0
0.585718 0.538979 0
0.601984 0.537346 0
0.618448 0.53576 0
0.635126 0.534188 0
0.652003 0.532647 0
0.669093 0.531151 0
0.686381 0.529671 0
0.703868 0.528237 0
0.721569 0.526818 0
0.235172 0.535134 0
0.250172 0.537667 0
0.247532 0.540261 0
0.238849 0.542901 0
0.236103 0.545495 0
0.241672 0.548028 0
0.253452 0.550484 0
0.269062 0.55285 0
0.286885 0.555138 0
0.30602 0.557351 0
0.325933 0.559487 0
0.346319 0.561547 0
0.36701 0.563561 0
0.387884 0.565515 0
0.408865 0.567452 0
0.429908 0.56936 0
0.450996 0.571267 0
0.472099 0.573175 0
0.493202 0.575097 0
0.514321 0.57705 0
0.535439 0.579034 0
0.550927 0.577173 0
0.566506 0.575387 0
0.582223 0.573648 0
0.598077 0.571939 0
0.61413 0.570291 0
0.630365 0.568658 0
0.646815 0.567071 0
0.663462 0.565499 0
0.680293 0.563973 0
0.697322 0.562493 0
0.714519 0.561028 0
0.731929 0.559594 0
0.248539 0.564263 0
0.263676 0.566781 0
0.261723 0.569375 0
0.252995 0.572015 0
0.248814 0.574609 0
0.252644 0.577157 0
0.263005 0.579629 0
0.277607 0.58204 0
0.294774 0.58436 0
0.313481 0.586587 0
0.333135 0.588754 0
0.353353 0.59086 0
0.373968 0.592889 0
0.394797 0.594873 0
0.415763 0.596826 0
0.436835 0.598749 0
0.457938 0.600656 0
0.479088 0.602564 0
0.500237 0.604471 0
0.521401 0.606409 0
0.542565 0.608362 0
0.563745 0.610346 0
0.579278 0.608499 0
0.594888 0.606699 0
0.61062 0.604959 0
0.626505 0.603265 0
0.642557 0.601617 0
0.658778 0.599985 0
0.675196 0.598398 0
0.691814 0.596841 0
0.708598 0.595315 0
0.725567 0.593835 0
0.742718 0.592386 0
0.261875 0.593393 0
0.277134 0.595926 0
0.275837 0.59852 0
0.267262 0.601144 0
0.26183 0.603754 0
0.264012 0.606317 0
0.272908 0.608804 0
0.286442 0.611231 0
0.302876 0.613581 0
0.321096 0.615854 0
0.340429 0.618036 0
0.360449 0.620172 0
0.380926 0.622232 0
0.401679 0.624247 0
0.422629 0.626215 0
0.443702 0.628153 0
0.464836 0.63006 0
0.486 0.631968 0
0.507195 0.633875 0
0.528405 0.635798 0
0.54963 0.637736 0
0.57084 0.639689 0
0.59205 0.641688 0
0.60763 0.639841 0
0.623285 0.638041 0
0.639048 0.636301 0
0.654932 0.634607 0
0.670985 0.632959 0
0.687205 0.631327 0
0.703593 0.62974 0
0.72018 0.628183 0
0.736919 0.626673 0
0.753841 0.625193 0
0.275151 0.622568 0
0.290562 0.625086 0
0.289876 0.62768 0
0.281621 0.630304 0
0.27512 0.632929 0
0.275761 0.635493 0
0.283177 0.637995 0
0.295583 0.640436 0
0.311208 0.642817 0
0.328878 0.645106 0
0.347829 0.647334 0
0.367605 0.649485 0
0.38793 0.651576 0
0.408591 0.65362 0
0.429496 0.655619 0
0.450538 0.657572 0
0.471672 0.659495 0
0.492866 0.661402 0
0.514107 0.66331 0
0.535348 0.665217 0
0.556603 0.66714 0
0.577859 0.669093 0
0.599115 0.671046 0
0.620371 0.67306 0
0.635981 0.671199 0
0.651667 0.669413 0
0.66746 0.667674 0
0.68336 0.66598 0
0.699413 0.664317 0
0.715633 0.662699 0
0.732006 0.661112 0
0.748562 0.659556 0
0.765286 0.658045 0
0.288396 0.651743 0
0.303944 0.654276 0
0.303853 0.656855 0
0.296025 0.65948 0
0.28864 0.662104 0
0.287831 0.664683 0
0.293812 0.667201 0
0.305013 0.669673 0
0.319783 0.672053 0
0.336843 0.674388 0
0.355367 0.676631 0
0.374853 0.678813 0
0.39498 0.680934 0
0.415518 0.683009 0
0.436347 0.685023 0
0.457343 0.686992 0
0.478477 0.688945 0
0.499687 0.690852 0
0.520943 0.69276 0
0.542229 0.694682 0
0.563516 0.69659 0
0.584817 0.698512 0
0.606119 0.70045 0
0.62742 0.702434 0
0.648707 0.704433 0
0.664363 0.702586 0
0.680064 0.700786 0
0.695872 0.699046 0
0.711803 0.697353 0
0.727855 0.695705 0
0.744076 0.694072 0
0.760433 0.692485 0
0.776944 0.690944 0
0.30161 0.680949 0
0.317311 0.683482 0
0.317769 0.686061 0
0.310445 0.68867 0
0.302342 0.69131 0
0.300237 0.693889 0
0.304784 0.696422 0
0.314763 0.698909 0
0.328603 0.70132 0
0.344991 0.70367 0
0.363058 0.705943 0
0.382208 0.708156 0
0.402106 0.710307 0
0.422492 0.712398 0
0.443229 0.714427 0
0.464164 0.716426 0
0.485283 0.718395 0
0.506477 0.720317 0
0.527749 0.72224 0
0.54905 0.724147 0
0.570367 0.726055 0
0.591714 0.727962 0
0.613046 0.7299 0
0.634394 0.731853 0
0.655726 0.733822 0
0.677058 0.735836 0
0.692729 0.733989 0
0.708476 0.732189 0
0.7243 0.730449 0
0.740246 0.728756 0
0.756313 0.727092 0
0.772503 0.725475 0
0.788861 0.723888 0
0.314809 0.71017 0
0.330648 0.712703 0
0.331624 0.715267 0
0.324834 0.717891 0
0.316197 0.720516 0
0.312901 0.72311 0
0.316075 0.725658 0
0.324819 0.728161 0
0.337682 0.730587 0
0.353353 0.732952 0
0.370901 0.735256 0
0.389685 0.737499 0
0.409323 0.739666 0
0.429526 0.741787 0
0.450126 0.743847 0
0.471 0.745861 0
0.492058 0.747845 0
0.513252 0.749798 0
0.534508 0.75172 0
0.555825 0.753643 0
0.577188 0.755535 0
0.59855 0.757458 0
0.619928 0.759365 0
0.641291 0.761303 0
0.662669 0.763256 0
0.684031 0.76524 0
0.705409 0.767254 0
0.721126 0.765408 0
0.736889 0.763607 0
0.752728 0.761868 0
0.768688 0.760174 0
0.784756 0.758511 0
0.800961 0.756893 0
0.327962 0.739406 0
0.343954 0.741924 0
0.345434 0.744503 0
0.339162 0.747112 0
0.330205 0.749752 0
0.325826 0.752346 0
0.327672 0.75491 0
0.335195 0.757412 0
0.347036 0.759869 0
