luts/nomad_frames.cube
TITLE "Generated by Resolve"
LUT_3D_SIZE 9
0 0 0.0253758
0.0678569 0 0.0288396
0.176471 0.00128176 0.0328985
0.301778 0.00114443 0.0361944
0.430625 0 0.0393225
0.57615 0 0.0417029
0.715618 0 0.0446021
0.845731 0 0.0493629
0.967819 0 0.0521401
0 0.0868238 0.0439307
0.0756847 0.0872511 0.0409705
0.207492 0.0833143 0.0483558
0.331487 0.0826123 0.051194
0.464607 0.0802167 0.0516976
0.603449 0.0774853 0.0527199
0.735759 0.0767376 0.0537575
0.859113 0.0830091 0.0530404
0.975708 0.095613 0.0518502
0 0.223362 0.0601511
0.0575265 0.227283 0.0510872
0.217884 0.225162 0.0505074
0.360006 0.219791 0.0578622
0.50248 0.220142 0.0601663
0.636591 0.223804 0.0576028
0.759609 0.230365 0.0538796
0.874357 0.240009 0.0490425
0.983719 0.251545 0.0438239
0 0.390051 0.0541085
0.0184939 0.39295 0.044831
0.202258 0.393088 0.0369116
0.364889 0.388846 0.0366674
0.522713 0.381994 0.0403449
0.661402 0.37821 0.0434272
0.782956 0.378958 0.0447242
0.889464 0.384833 0.044831
0.994446 0.394263 0.0424506
0 0.554788 0.0359197
0 0.557931 0.0242466
0.180484 0.559319 0.0136416
0.368948 0.555886 0.00828565
0.530968 0.548379 0.0120546
0.674647 0.539376 0.0228275
0.795392 0.532067 0.0388647
0.900374 0.530007 0.055375
1 0.535073 0.0639811
0 0.709865 0.0569924
0 0.711849 0.045304
0.196002 0.713344 0.0292363
0.378744 0.712428 0.0171359
0.538201 0.7075 0.0167239
0.67837 0.69836 0.0274052
0.797787 0.687022 0.0513771
0.904082 0.678386 0.0833906
1 0.674067 0.109712
0 0.850019 0.138018
0.0732738 0.851026 0.129168
0.25388 0.851514 0.116732
0.407721 0.852079 0.101305
0.551949 0.850492 0.0908217
0.681544 0.845548 0.0925002
0.79675 0.835843 0.108995
0.90341 0.824384 0.133501
1 0.811582 0.167452
0.175448 0.965026 0.265278
0.258366 0.96527 0.260807
0.358251 0.966064 0.252949
0.472236 0.967041 0.241138
0.589532 0.966857 0.229862
0.700587 0.964889 0.223865
0.806897 0.960479 0.223301
0.907683 0.951995 0.22974
0.999771 0.937118 0.249928
0.418616 1 0.453346
0.457862 1 0.451347
0.513405 1 0.448417
0.585702 1 0.443336
0.668452 1 0.435416
0.758129 1 0.427726
0.847532 1 0.42089
0.928313 1 0.415656
1 1 0.407523
0 0 0.127947
0.0648051 0 0.130892
0.180041 0 0.134157
0.307424 0 0.137133
0.438804 0 0.139391
0.583917 0 0.140581
0.722499 0 0.141009
0.851682 0 0.141161
0.967605 0 0.135485
0 0.0800336 0.133761
0.0716259 0.0859388 0.136156
0.197528 0.0867933 0.138155
0.32311 0.0880598 0.13901
0.457908 0.0879072 0.138872
0.598352 0.0865797 0.137942
0.731945 0.087602 0.136736
0.856275 0.0945602 0.135805
0.973266 0.108446 0.136904
0 0.218662 0.142428
0.0563363 0.225559 0.140093
0.209827 0.227497 0.135332
0.345968 0.22565 0.140322
0.483803 0.230549 0.138476
0.617563 0.234531 0.137087
0.746151 0.24007 0.135531
0.864973 0.248859 0.134524
0.978225 0.257496 0.135134
0 0.380163 0.145449
0.0267338 0.384787 0.139635
0.191882 0.38793 0.129213
0.353918 0.384329 0.128328
0.512108 0.378378 0.137087
0.647288 0.377523 0.143084
0.767941 0.38143 0.144945
0.877775 0.388006 0.145296
0.986175 0.396597 0.146792
0 0.538323 0.157717
0 0.541283 0.150317
0.17322 0.545068 0.13814
0.357748 0.544671 0.129381
0.520897 0.537957 0.133394
0.664469 0.528893 0.146197
0.78529 0.525261 0.158556
0.891157 0.526909 0.167452
0.994827 0.533791 0.172808
0 0.693462 0.184848
0 0.695811 0.177356
0.189166 0.698009 0.165087
0.367849 0.698497 0.152972
0.528038 0.695079 0.149676
0.668696 0.687434 0.158282
0.790158 0.677867 0.173754
0.897246 0.67216 0.192447
0.999832 0.670787 0.206363
0 0.836149 0.238819
0.0767224 0.837552 0.233249
0.24596 0.839429 0.223453
0.394995 0.841398 0.209644
0.541207 0.840833 0.200778
0.673854 0.835782 0.198596
0.789883 0.827909 0.207858
0.898604 0.817014 0.225162
1 0.806928 0.247974
0.171237 0.956542 0.334646
0.25182 0.957321 0.330449
0.350072 0.958022 0.3234
0.462211 0.958373 0.313344
0.578988 0.958984 0.301839
0.691691 0.95845 0.293233
0.801205 0.954894 0.290929
0.904494 0.945724 0.296712
0.997864 0.93254 0.314214
0.412772 1 0.50219
0.451484 1 0.500862
0.507561 1 0.497963
0.579431 1 0.492897
0.661082 1 0.485023
0.751553 1 0.475959
0.842161 1 0.469261
0.925246 1 0.463493
0.999313 1 0.458564
0 0.00129702 0.212879
0.0664988 0.000289921 0.218173
0.1888 0 0.223041
0.314977 0 0.227649
0.448844 0 0.231952
0.591714 0 0.236088
0.726986 0 0.240864
0.854154 0 0.246418
0.972534 0 0.252857
0 0.0909285 0.214328
0.0746166 0.0920882 0.225467
0.202808 0.0922713 0.230121
0.328328 0.0936904 0.23389
0.463905 0.0929122 0.238483
0.604395 0.0937362 0.241428
0.736416 0.0945754 0.245136
0.859937 0.101091 0.249622
0.975586 0.114672 0.255985
0 0.223468 0.226719
0.0907149 0.226947 0.230854
0.206851 0.233799 0.233661
0.336202 0.236896 0.236805
0.475975 0.240284 0.238621
0.612711 0.243626 0.241032
0.742214 0.248417 0.243595
0.862623 0.253574 0.246891
0.97644 0.262592 0.251591
0 0.369024 0.24596
0.0635691 0.37435 0.249866
0.191791 0.380377 0.247044
0.346899 0.381598 0.241657
0.500298 0.377722 0.249729
0.630747 0.381262 0.252262
0.753826 0.385519 0.252705
0.86833 0.390799 0.256443
0.981094 0.397635 0.261646
0 0.520272 0.271656
0.0243687 0.524666 0.271366
0.182589 0.528786 0.264912
0.346807 0.532341 0.253895
0.510231 0.528237 0.254871
0.65362 0.520607 0.266148
0.774456 0.520516 0.274434
0.879545 0.526711 0.27657
0.986709 0.533989 0.278614
0 0.674601 0.300465
0.0119173 0.676387 0.297932
0.197665 0.679423 0.290181
0.35639 0.683391 0.277424
0.514626 0.682292 0.270008
0.658335 0.676417 0.274601
0.782452 0.667918 0.287419
0.88867 0.664775 0.300893
0.992966 0.668299 0.305592
0 0.820737 0.341207
0.0974899 0.821576 0.337957
0.247105 0.822553 0.33164
0.388128 0.825315 0.320439
0.527306 0.827298 0.308476
0.661982 0.825071 0.304601
0.781552 0.817395 0.309026
0.893248 0.807462 0.323796
0.995605 0.800732 0.340063
0.172808 0.944137 0.419165
0.251774 0.94461 0.41709
0.344213 0.945953 0.411704
0.451423 0.947814 0.402075
0.56585 0.949477 0.389517
0.680949 0.948714 0.380972
0.792233 0.945983 0.377584
0.898634 0.938735 0.380484
0.995193 0.925261 0.397589
0.407813 1 0.567941
0.445914 1 0.567147
0.500359 1 0.564858
0.572106 1 0.559518
0.652552 1 0.552972
0.741573 1 0.545235
0.834119 1 0.537118
0.920546 1 0.531868
0.997238 1 0.525933
0 0 0.332464
0.0680552 0 0.339422
0.197543 0 0.345327
0.323934 0 0.350469
0.457847 0 0.35584
0.599329 0 0.361425
0.733364 0 0.365957
0.856886 0 0.371801
0.973068 0 0.379431
0 0.0986801 0.332464
0.0720836 0.0959029 0.345373
0.205371 0.0971542 0.352224
0.331441 0.0993973 0.356329
0.468589 0.100511 0.361288
0.608255 0.102861 0.36524
0.739605 0.106264 0.369436
0.860853 0.115267 0.375113
0.97583 0.127459 0.38172
0 0.236896 0.335912
0.090425 0.240558 0.341619
0.208591 0.241856 0.356023
0.337896 0.244129 0.3608
0.48069 0.247318 0.364782
0.617441 0.249332 0.368551
0.746593 0.252689 0.372549
0.864561 0.256687 0.378073
0.978637 0.264042 0.384863
0 0.369772 0.353597
0.106569 0.371984 0.356802
0.223331 0.375692 0.362264
0.345418 0.382391 0.364385
0.491905 0.383459 0.366827
0.625101 0.386099 0.370321
0.750469 0.390051 0.372442
0.865736 0.394797 0.377295
0.978744 0.401587 0.381109
0 0.507073 0.37586
0.0901961 0.510948 0.379217
0.219577 0.51519 0.384421
0.34728 0.52343 0.379705
0.50425 0.52282 0.374121
0.643519 0.519661 0.38143
0.760281 0.524834 0.383551
0.86952 0.530114 0.385138
0.980819 0.536446 0.389303
0 0.655604 0.405249
0.0846723 0.659327 0.407752
0.226383 0.663432 0.406973
0.359884 0.668452 0.399619
0.503212 0.671794 0.387503
0.649638 0.667903 0.388479
0.773312 0.661173 0.400015
0.878904 0.662547 0.408316
0.984924 0.66862 0.409293
0.0125429 0.802136 0.445823
0.143221 0.804364 0.445731
0.261509 0.807416 0.443336
0.387915 0.809323 0.436011
0.517327 0.812909 0.42269
0.649958 0.813458 0.414038
0.772931 0.808225 0.417853
0.885618 0.798703 0.43212
0.98941 0.796048 0.445396
0.190127 0.930053 0.51519
0.260212 0.930816 0.513909
0.34699 0.932113 0.51104
0.447028 0.933516 0.505272
0.554284 0.936263 0.493935
0.666468 0.93753 0.483375
0.781323 0.935653 0.477195
0.891188 0.929244 0.481361
0.99147 0.917021 0.497383
0.407752 1 0.645579
0.444877 1 0.645274
0.496971 1 0.644358
0.565057 1 0.642344
0.644282 1 0.637369
0.731411 1 0.628321
0.824918 1 0.619501
0.914717 1 0.612772
0.994629 1 0.610025
0 0 0.457267
0.0669718 0 0.466499
0.203037 0 0.470848
0.330068 0 0.475166
0.467247 0 0.479683
0.606149 0 0.484047
0.738048 0 0.489097
0.859312 0 0.494453
0.974624 0.00677501 0.500969
0 0.115572 0.454917
0.0683146 0.11162 0.467185
0.205814 0.111711 0.475029
0.335058 0.115038 0.478248
0.474479 0.117906 0.482795
0.612482 0.120714 0.486885
0.74165 0.126452 0.491356
0.862425 0.132921 0.4963
0.976257 0.143969 0.503655
0 0.253925 0.450614
0.0826581 0.25507 0.461326
0.206516 0.252979 0.476738
0.341222 0.255512 0.481819
0.484382 0.256794 0.485771
0.619638 0.258793 0.490455
0.747463 0.261677 0.494026
0.865217 0.266224 0.499962
0.978058 0.273732 0.506218
0.0034638 0.381064 0.462333
0.112947 0.383505 0.465888
0.23035 0.386236 0.471092
0.354833 0.389395 0.48397
0.495476 0.388876 0.49015
0.628305 0.391608 0.493507
0.753048 0.394125 0.498375
0.866148 0.398047 0.503243
0.980011 0.404013 0.510658
0.0179751 0.509377 0.481239
0.135439 0.512032 0.482918
0.261295 0.514046 0.486809
0.386526 0.517845 0.492485
0.501152 0.524376 0.492958
0.635523 0.525917 0.496391
0.754971 0.528511 0.500587
0.864546 0.534539 0.503883
0.978988 0.539361 0.510262
0.0436713 0.645502 0.506081
0.161975 0.646906 0.509255
0.276143 0.650874 0.512139
0.389792 0.655772 0.517998
0.503685 0.662364 0.512108
0.642313 0.663432 0.506508
0.763058 0.66009 0.516945
0.868055 0.665629 0.517937
0.979263 0.670207 0.523156
0.102388 0.784848 0.54435
0.197482 0.787121 0.547601
0.297414 0.790692 0.55169
0.404547 0.793774 0.552697
0.515267 0.798581 0.544961
0.639338 0.803098 0.531579
0.762997 0.798856 0.53373
0.877668 0.792386 0.547189
0.982238 0.793729 0.554406
0.217456 0.913939 0.610452
0.280369 0.915221 0.612024
0.360296 0.916823 0.612619
0.452369 0.918791 0.611032
0.551507 0.92163 0.605554
0.6542 0.924483 0.593576
0.770169 0.925032 0.583398
0.884367 0.919203 0.58677
0.98735 0.909407 0.603128
0.41326 1 0.72166
0.448966 1 0.722515
0.499092 1 0.722972
0.565881 1 0.722972
0.640299 1 0.720806
0.723384 1 0.716487
0.815106 1 0.706752
0.908293 1 0.699229
0.992126 1 0.696727
0 0 0.583749
0.0637522 0 0.592233
0.204517 0 0.598352
0.334142 0 0.60174
0.476295 0.000564584 0.60647
0.612436 0.00231937 0.612085
0.741756 0.00981155 0.6159
0.860807 0.0142824 0.623011
0.97525 0.0315099 0.629038
0 0.138109 0.580301
0.0629587 0.134493 0.592309
0.20296 0.13164 0.600732
0.338262 0.135348 0.605249
0.481483 0.135775 0.609674
0.617227 0.138079 0.613413
0.744259 0.141161 0.619486
0.862638 0.149432 0.62417
0.976455 0.158221 0.632547
0 0.26923 0.576288
0.0750134 0.267338 0.587915
0.205905 0.265003 0.602426
0.346273 0.264302 0.608865
0.489219 0.266178 0.613535
0.622889 0.266773 0.618219
0.748745 0.269383 0.6224
0.864317 0.274907 0.628565
0.978164 0.280568 0.635431
0 0.393332 0.580194
0.109819 0.394324 0.586603
0.226429 0.396597 0.596536
0.35906 0.395209 0.612253
0.499001 0.3953 0.618921
0.629938 0.397604 0.622568
0.753048 0.400687 0.627115
0.864088 0.405097 0.633188
0.979095 0.409964 0.640131
0.0383307 0.518639 0.596704
0.156115 0.521035 0.598383
0.273671 0.523308 0.602899
0.393805 0.526085 0.609247
0.509255 0.528801 0.621576
0.636439 0.529351 0.627817
0.754803 0.532769 0.632639
0.865248 0.535454 0.639017
0.978668 0.541176 0.645777
0.118807 0.645624 0.616953
0.210651 0.646021 0.619364
0.314366 0.647959 0.622889
0.424048 0.651194 0.627756
0.535744 0.654398 0.632944
0.63682 0.661677 0.633539
0.754437 0.662806 0.63827
0.862455 0.666407 0.642771
0.976303 0.670741 0.648875
0.181994 0.773816 0.648585
0.252934 0.77499 0.649714
0.340078 0.776791 0.653605
0.437491 0.7794 0.659739
0.537118 0.785107 0.665003
0.634516 0.790494 0.659144
0.755917 0.791394 0.655131
0.868818 0.789349 0.663859
0.976181 0.793561 0.66775
0.256458 0.899046 0.698512
0.310597 0.900374 0.700465
0.384421 0.90219 0.70489
0.469581 0.904036 0.710155
0.559365 0.907347 0.710857
0.650828 0.910765 0.705653
0.757733 0.91426 0.693935
0.876661 0.910231 0.694438
0.983185 0.902907 0.707774
0.422385 1 0.787579
0.457252 1 0.789899
0.507988 1 0.793103
0.571008 1 0.795972
0.643183 1 0.796735
0.722042 1 0.795209
0.808103 1 0.789715
0.901793 1 0.780987
0.990051 1 0.779065
0 0.0212863 0.719966
0.0533455 0.0160983 0.728649
0.199039 0.0132753 0.735134
0.338659 0.0171817 0.738262
0.481498 0.0166018 0.742626
0.61735 0.0197757 0.746975
0.744472 0.0251621 0.751217
0.860243 0.035523 0.756527
0.975799 0.0497139 0.76289
0 0.153643 0.718288
0.055024 0.148745 0.727199
0.199634 0.144991 0.736797
0.34313 0.147127 0.740841
0.48603 0.148104 0.744503
0.620951 0.14847 0.748867
0.746609 0.152377 0.753185
0.862486 0.158846 0.758175
0.976242 0.168261 0.764706
0 0.275761 0.717113
0.0618906 0.274846 0.726192
0.204196 0.273732 0.736507
0.351156 0.271077 0.744747
0.492409 0.272831 0.748714
0.625879 0.274022 0.751217
0.749279 0.277623 0.756298
0.863081 0.283391 0.761166
0.976791 0.290791 0.767407
0 0.403021 0.715984
0.0922408 0.403967 0.723293
0.228077 0.40264 0.734737
0.364096 0.401434 0.746609
0.500282 0.401633 0.753155
0.63151 0.403754 0.755673
0.751537 0.406363 0.759915
0.862455 0.411276 0.765682
0.977646 0.417639 0.770596
0.0511788 0.528344 0.722972
0.162615 0.530068 0.726589
0.277165 0.532006 0.731945
0.39086 0.532586 0.743313
0.511482 0.533059 0.755383
0.636744 0.534051 0.759869
0.753292 0.537163 0.764385
0.862867 0.540825 0.76875
0.975875 0.547005 0.774868
0.153399 0.652155 0.73814
0.235462 0.65359 0.739681
0.330297 0.654704 0.742382
0.436377 0.656641 0.745693
0.541268 0.66067 0.751919
0.642466 0.663081 0.763058
0.752651 0.664851 0.769009
0.861265 0.668177 0.773434
0.97528 0.672358 0.779416
0.235584 0.772351 0.758862
0.296025 0.77351 0.759197
0.375113 0.775006 0.760616
0.468513 0.77586 0.764141
0.567132 0.77821 0.76849
0.661631 0.781262 0.773342
0.749142 0.788525 0.773816
0.862058 0.789425 0.77789
0.974166 0.792447 0.78204
0.307591 0.889799 0.786618
0.353201 0.890501 0.788113
0.417411 0.890974 0.790722
0.496498 0.892897 0.794507
0.582025 0.894987 0.799054
0.664988 0.899153 0.804044
0.754528 0.90367 0.799939
0.871138 0.903655 0.794827
0.979034 0.90071 0.802396
0.435904 0.997192 0.8477
0.46952 0.997482 0.849241
0.518212 0.997574 0.85272
0.580865 0.998123 0.857221
0.652308 0.998657 0.862425
0.729366 0.999649 0.865217
0.809018 1 0.864485
0.896513 1 0.857618
0.988769 0.999191 0.854795
0 0.040177 0.858549
0.038468 0.0380102 0.863874
0.196796 0.0343328 0.868803
0.346212 0.0372931 0.871183
0.488502 0.0386206 0.874128
0.621118 0.0482338 0.876249
0.745602 0.0555276 0.87895
0.860365 0.0685588 0.882368
0.975372 0.0875105 0.886061
0 0.163638 0.857786
0.0425879 0.160479 0.863905
0.200381 0.16022 0.869108
0.349996 0.16202 0.872572
0.492409 0.163195 0.874907
0.624033 0.168338 0.877043
0.748409 0.174914 0.879881
0.860517 0.183322 0.883146
0.976364 0.194476 0.88661
0 0.285527 0.85687
0.0513924 0.283589 0.862196
0.21146 0.282994 0.869108
0.358129 0.282109 0.873854
0.498192 0.285283 0.876112
0.629129 0.288258 0.878401
0.750072 0.292836 0.880705
0.861921 0.300862 0.883421
0.976577 0.308659 0.887175
0 0.412253 0.854704
0.0865949 0.412558 0.860288
0.232197 0.412055 0.867033
0.37116 0.410895 0.874266
0.504799 0.412634 0.877607
0.632639 0.415137 0.879484
0.750881 0.419394 0.882246
0.860746 0.424979 0.884337
0.975509 0.431571 0.888121
0.0488136 0.539727 0.853498
0.158389 0.539971 0.857267
0.27364 0.5402 0.863554
0.392157 0.540993 0.87068
0.514916 0.542763 0.876875
0.637232 0.543343 0.880796
0.750774 0.547799 0.882124
0.859785 0.551171 0.885054
0.974594 0.558129 0.888014
0.17232 0.662074 0.856245
0.244724 0.663035 0.858015
0.332692 0.664271 0.861036
0.43183 0.665904 0.865522
0.534966 0.668925 0.872175
0.642573 0.670008 0.87985
0.75082 0.672068 0.883528
0.860548 0.675715 0.885786
0.973373 0.6804 0.889357
0.268162 0.779034 0.864988
0.322774 0.77995 0.865873
0.394919 0.781384 0.866651
0.482002 0.782605 0.868879
0.572961 0.785046 0.87158
0.663005 0.788205 0.875227
0.754513 0.790875 0.883787
0.863188 0.792569 0.887404
0.973846 0.79585 0.891203
0.353506 0.888457 0.87866
0.393622 0.88896 0.879225
0.453956 0.889799 0.879744
0.526009 0.890196 0.881621
0.606577 0.891432 0.883986
0.689937 0.89366 0.886107
0.779187 0.895506 0.889876
0.867277 0.900649 0.891112
0.977478 0.901274 0.894804
0.464057 0.993011 0.911208
0.492988 0.99324 0.91165
0.537331 0.993545 0.913359
0.594415 0.993698 0.916152
0.664454 0.9944 0.919783
0.742138 0.995209 0.924712
0.820066 0.996201 0.930098
0.896864 0.997772 0.930053
0.987961 0.996887 0.926101
0 0.0847639 0.985336
0.0316167 0.0871748 0.987305
0.206546 0.0867018 0.989151
0.355077 0.0935378 0.99086
0.495781 0.0972763 0.992126
0.627146 0.108507 0.992477
0.748287 0.11693 0.994064
0.860594 0.133822 0.994965
0.97586 0.150622 0.996948
0 0.191745 0.985061
0.0373846 0.192813 0.986862
0.212299 0.192233 0.989456
0.360494 0.196567 0.990997
0.49836 0.200687 0.991669
0.627985 0.206302 0.992935
0.747784 0.213962 0.993851
0.859998 0.223941 0.995239
0.975174 0.23711 0.996445
0 0.305653 0.9841
0.0522927 0.305592 0.986404
0.220417 0.307256 0.988571
0.36762 0.307469 0.990906
0.503441 0.310414 0.991958
0.630442 0.315526 0.992645
0.749462 0.321065 0.993576
0.859648 0.329274 0.99472
0.974807 0.34023 0.995956
0 0.427893 0.983017
0.0936751 0.428748 0.985107
0.238453 0.430472 0.987121
0.378943 0.429786 0.989792
0.509194 0.432151 0.991394
0.634928 0.437079 0.992248
0.749676 0.440803 0.993118
0.859373 0.448356 0.993835
0.97435 0.455985 0.995102
0.0308843 0.552453 0.981033
0.151919 0.553445 0.982864
0.269764 0.555047 0.985031
0.39379 0.555657 0.987564
0.517861 0.557153 0.990158
0.63798 0.560006 0.991348
0.748806 0.564004 0.992065
0.858869 0.569162 0.992782
0.972778 0.574502 0.994247
0.149828 0.674983 0.978637
0.22768 0.675669 0.980011
0.318822 0.676371 0.982025
0.422141 0.678233 0.985046
0.533333 0.679286 0.987823
0.642313 0.681132 0.990066
0.749798 0.683375 0.991257
0.859678 0.687236 0.99202
0.972061 0.692775 0.992828
0.268254 0.789349 0.978302
0.31696 0.790188 0.979065
0.387213 0.79089 0.980499
0.468818 0.79263 0.98233
0.560006 0.794141 0.984848
0.653529 0.79617 0.98793
0.754238 0.797314 0.990417
0.863279 0.799939 0.991333
0.973465 0.803159 0.992248
0.383246 0.893568 0.982147
0.420249 0.894011 0.982437
0.471763 0.894911 0.982712
0.538369 0.895628 0.98352
0.611994 0.896956 0.984558
0.691127 0.898741 0.986343
0.776577 0.900771 0.988846
0.872724 0.90193 0.991821
0.978866 0.903746 0.992905
0.52166 0.990982 0.98938
0.547051 0.991058 0.989517
0.583719 0.991043 0.989746
0.637156 0.991196 0.989944
0.700801 0.991302 0.990448
0.769574 0.991516 0.990936
0.840848 0.991943 0.991547
0.913191 0.992432 0.99237
0.986053 0.993378 0.993286
