luts/nomad_frames.cube
TITLE "Generated by Resolve"
LUT_3D_SIZE 5
0 0 0.0253758
0.176471 0.00128176 0.0328985
0.430625 0 0.0393225
0.715618 0 0.0446021
0.967819 0 0.0521401
0 0.223362 0.0601511
0.217884 0.225162 0.0505074
0.50248 0.220142 0.0601663
0.759609 0.230365 0.0538796
0.983719 0.251545 0.0438239
0 0.554788 0.0359197
0.180484 0.559319 0.0136416
0.530968 0.548379 0.0120546
0.795392 0.532067 0.0388647
1 0.535073 0.0639811
0 0.850019 0.138018
0.25388 0.851514 0.116732
0.551949 0.850492 0.0908217
0.79675 0.835843 0.108995
1 0.811582 0.167452
0.418616 1 0.453346
0.513405 1 0.448417
0.668452 1 0.435416
0.847532 1 0.42089
1 1 0.407523
0 0.00129702 0.212879
0.1888 0 0.223041
0.448844 0 0.231952
0.726986 0 0.240864
0.972534 0 0.252857
0 0.223468 0.226719
0.206851 0.233799 0.233661
0.475975 0.240284 0.238621
0.742214 0.248417 0.243595
0.97644 0.262592 0.251591
0 0.520272 0.271656
0.182589 0.528786 0.264912
0.510231 0.528237 0.254871
0.774456 0.520516 0.274434
0.986709 0.533989 0.278614
0 0.820737 0.341207
0.247105 0.822553 0.33164
0.527306 0.827298 0.308476
0.781552 0.817395 0.309026
0.995605 0.800732 0.340063
0.407813 1 0.567941
0.500359 1 0.564858
0.652552 1 0.552972
0.834119 1 0.537118
0.997238 1 0.525933
0 0 0.457267
0.203037 0 0.470848
0.467247 0 0.479683
0.738048 0 0.489097
0.974624 0.00677501 0.500969
0 0.253925 0.450614
0.206516 0.252979 0.476738
0.484382 0.256794 0.485771
0.747463 0.261677 0.494026
0.978058 0.273732 0.506218
0.0179751 0.509377 0.481239
0.261295 0.514046 0.486809
0.501152 0.524376 0.492958
0.754971 0.528511 0.500587
0.978988 0.539361 0.510262
0.102388 0.784848 0.54435
0.297414 0.790692 0.55169
0.515267 0.798581 0.544961
0.762997 0.798856 0.53373
0.982238 0.793729 0.554406
0.41326 1 0.72166
0.499092 1 0.722972
0.640299 1 0.720806
0.815106 1 0.706752
0.992126 1 0.696727
0 0.0212863 0.719966
0.199039 0.0132753 0.735134
0.481498 0.0166018 0.742626
0.744472 0.0251621 0.751217
0.975799 0.0497139 0.76289
0 0.275761 0.717113
0.204196 0.273732 0.736507
0.492409 0.272831 0.748714
0.749279 0.277623 0.756298
0.976791 0.290791 0.767407
0.0511788 0.528344 0.722972
0.277165 0.532006 0.731945
0.511482 0.533059 0.755383
0.753292 0.537163 0.764385
0.975875 0.547005 0.774868
0.235584 0.772351 0.758862
0.375113 0.775006 0.760616
0.567132 0.77821 0.76849
0.749142 0.788525 0.773816
0.974166 0.792447 0.78204
0.435904 0.997192 0.8477
0.518212 0.997574 0.85272
0.652308 0.998657 0.862425
0.809018 1 0.864485
0.988769 0.999191 0.854795
0 0.0847639 0.985336
0.206546 0.0867018 0.989151
0.495781 0.0972763 0.992126
0.748287 0.11693 0.994064
0.97586 0.150622 0.996948
0 0.305653 0.9841
0.220417 0.307256 0.988571
0.503441 0.310414 0.991958
0.749462 0.321065 0.993576
0.974807 0.34023 0.995956
0.0308843 0.552453 0.981033
0.269764 0.555047 0.985031
0.517861 0.557153 0.990158
0.748806 0.564004 0.992065
0.972778 0.574502 0.994247
0.268254 0.789349 0.978302
0.387213 0.79089 0.980499
0.560006 0.794141 0.984848
0.754238 0.797314 0.990417
0.973465 0.803159 0.992248
0.52166 0.990982 0.98938
0.583719 0.991043 0.989746
0.700801 0.991302 0.990448
0.840848 0.991943 0.991547
0.986053 0.993378 0.993286
