luts/nomad_frames.cube
TITLE "Generated by Resolve"
LUT_3D_SIZE 33
0 0 0.0253758
0.00325017 0 0.0260777
0.0240177 0 0.026688
0.0457923 0 0.0276799
0.0678569 0 0.0288396
0.0924544 0 0.0301518
0.11809 0.000869764 0.0310216
0.14612 0.00169375 0.0317235
0.176471 0.00128176 0.0328985
0.207431 0.00164797 0.0334936
0.239567 0.00170901 0.0343938
0.270253 0.00125124 0.035111
0.301778 0.00114443 0.0361944
0.331945 0.000823987 0.0367132
0.363409 0.000274662 0.037705
0.395972 0 0.0384222
0.430625 0 0.0393225
0.466392 0 0.0398718
0.503166 0 0.0404517
0.53994 0 0.0410925
0.57615 0 0.0417029
0.611353 0 0.0422217
0.646418 0 0.0431983
0.681971 0 0.0433051
0.715618 0 0.0446021
0.749844 0 0.0450904
0.782589 0 0.0465553
0.814923 0 0.0475776
0.845731 0 0.0493629
0.876936 0 0.0503395
0.908156 0 0.0510872
0.937636 0 0.051194
0.967819 0 0.0521401
0 0.0209201 0.030396
0.00360113 0.0214542 0.0290379
0.0261997 0.0206912 0.0317235
0.046891 0.0213931 0.0323491
0.068986 0.0220493 0.0325322
0.0939803 0.0228733 0.0332341
0.12163 0.0227207 0.0341802
0.149874 0.0231479 0.0348821
0.180346 0.0234531 0.0357061
0.212268 0.02327 0.036759
0.244587 0.0225223 0.037171
0.276493 0.0223545 0.0380713
0.307927 0.021088 0.0390326
0.338399 0.0208133 0.0400854
0.370489 0.01944 0.0405432
0.403067 0.018204 0.0414893
0.438254 0.0159609 0.0422522
0.475257 0.0137484 0.0428779
0.51104 0.0112306 0.0434424
0.547768 0.00869764 0.0436866
0.582956 0.00544747 0.0448768
0.618555 0.00369268 0.0446326
0.653056 0.000534066 0.0456703
0.687358 0 0.0459754
0.721431 0 0.0469368
0.754482 0 0.0485389
0.786587 0 0.049134
0.819028 0 0.0505226
0.850034 0 0.0506752
0.879911 0 0.0519265
0.909422 0 0.0515755
0.938918 0 0.0527352
0.968887 0 0.0518654
0 0.0429999 0.0348058
0.00221256 0.0440833 0.0325322
0.0269474 0.0433204 0.03299
0.0491798 0.0420691 0.0357824
0.0728161 0.0417487 0.0379492
0.099733 0.0420539 0.038407
0.128115 0.0425269 0.0390021
0.157061 0.0425269 0.0396735
0.18793 0.0419623 0.0402686
0.220157 0.0417945 0.0410163
0.25185 0.0413214 0.0416114
0.283955 0.0401617 0.0420233
0.315267 0.0395209 0.0428168
0.346242 0.0391699 0.0435035
0.378286 0.0373541 0.044358
0.411719 0.0366369 0.0445716
0.446693 0.034165 0.0453956
0.482567 0.0328985 0.0456703
0.518746 0.0299229 0.0466468
0.554681 0.0286717 0.0462806
0.590448 0.0256046 0.047013
0.623926 0.0243534 0.047715
0.659281 0.0216983 0.0478065
0.692515 0.0205386 0.0488136
0.72578 0.0187533 0.0495613
0.759121 0.0180819 0.0503243
0.790936 0.0170901 0.0513466
0.822812 0.0157778 0.0517128
0.853788 0.0164797 0.0526589
0.883406 0.017319 0.0521248
0.912276 0.0197452 0.0528725
0.941222 0.0221714 0.0520485
0.971008 0.0235904 0.0527962
0 0.0624094 0.0393988
0.00259403 0.0634928 0.0369116
0.0269322 0.063386 0.035996
0.0492866 0.0627146 0.0371099
0.0757916 0.0614481 0.0394293
0.105882 0.0607767 0.0417182
0.136324 0.0604257 0.043595
0.167178 0.0598611 0.044358
0.197787 0.0594034 0.0449378
0.229435 0.0594644 0.0455024
0.260655 0.0591592 0.0458228
0.292561 0.0581369 0.0465705
0.322621 0.058381 0.0465705
0.353506 0.0575875 0.047303
0.385855 0.0568551 0.0474708
0.419364 0.0564736 0.0480659
0.454276 0.0541543 0.0488899
0.491188 0.0533303 0.0481422
0.52578 0.0516976 0.0488594
0.561578 0.0499428 0.0493019
0.596429 0.0488899 0.049073
0.630945 0.0470283 0.0500954
0.663935 0.0462348 0.0509957
0.697795 0.0451209 0.0512245
0.730404 0.0439307 0.0522774
0.763439 0.0439918 0.0523384
0.794842 0.0436103 0.0528267
0.825696 0.0441291 0.0534981
0.855955 0.0450752 0.052903
0.886107 0.0475471 0.0532845
0.915068 0.0501106 0.0523384
0.943786 0.0526436 0.0527504
0.973205 0.0576638 0.0515755
0 0.0868238 0.0439307
0.00332647 0.0878004 0.0419165
0.0258946 0.0881819 0.0402686
0.0476387 0.0879683 0.0401923
0.0756847 0.0872511 0.0409705
0.108721 0.0859693 0.0428931
0.14255 0.0845197 0.0451667
0.175326 0.0835126 0.0473793
0.207492 0.0833143 0.0483558
0.239307 0.0825513 0.0490425
0.271199 0.0821546 0.0499123
0.301656 0.0823682 0.0505684
0.331487 0.0826123 0.051194
0.362966 0.0821851 0.0511177
0.394965 0.0822003 0.0509957
0.429328 0.0817578 0.0514534
0.464607 0.0802167 0.0516976
0.499077 0.0802167 0.051606
0.534234 0.0787366 0.0517891
0.569039 0.0783093 0.0521248
0.603449 0.0774853 0.0527199
0.637476 0.0766766 0.0528725
0.670817 0.0766155 0.0535897
0.703258 0.0759289 0.0538796
0.735759 0.0767376 0.0537575
0.767803 0.0765698 0.05449
0.799115 0.0789044 0.0532082
0.829557 0.0797284 0.0537575
0.859113 0.0830091 0.0530404
0.888487 0.0856489 0.0528267
0.917479 0.0889296 0.0528267
0.946181 0.0930037 0.0518502
0.975708 0.095613 0.0518502
0 0.115602 0.0484932
0.00187686 0.117327 0.0460059
0.0224918 0.118044 0.0443122
0.0450141 0.11809 0.0431525
0.0735637 0.117617 0.0434119
0.10927 0.116533 0.0441444
0.144945 0.114992 0.0455787
0.180728 0.113146 0.048127
0.215228 0.11223 0.0503548
0.247333 0.111849 0.051606
0.280095 0.111589 0.0524453
0.310323 0.111833 0.0536507
0.340963 0.111437 0.0544442
0.372885 0.111666 0.055024
0.405798 0.112428 0.0545815
0.440238 0.111681 0.0552529
0.474052 0.111879 0.0554513
0.509041 0.111879 0.0555886
0.543526 0.111711 0.0554665
0.577783 0.111925 0.0557412
0.611261 0.111543 0.0564736
0.644556 0.112215 0.055375
0.677867 0.113405 0.0555734
0.709606 0.113252 0.0560769
0.741207 0.115908 0.0545205
0.772549 0.115801 0.0549783
0.803479 0.118898 0.054139
0.833661 0.12018 0.0534371
0.863264 0.123445 0.0529946
0.89163 0.125414 0.0522316
0.919234 0.130327 0.0517128
0.947601 0.132998 0.0508431
0.976364 0.13817 0.0499275
0 0.148074 0.0528267
0 0.149569 0.0501106
0.0174563 0.150683 0.0480659
0.0401923 0.151171 0.0466011
0.0700694 0.151202 0.0459449
0.107607 0.150713 0.0460822
0.144839 0.149645 0.0464942
0.182666 0.14818 0.0479744
0.218524 0.14696 0.0500191
0.252842 0.145129 0.0525978
0.285924 0.144472 0.053727
0.317128 0.144564 0.0554818
0.349203 0.144366 0.0569924
0.381872 0.144823 0.0578622
0.415824 0.144289 0.05832
0.450233 0.144625 0.0588388
0.4851 0.14551 0.0592813
0.519432 0.145205 0.0590524
0.552956 0.146212 0.0585184
0.586755 0.147433 0.0585184
0.61944 0.147799 0.0585794
0.652384 0.149294 0.0569619
0.684382 0.150256 0.0569009
0.715831 0.151324 0.0566567
0.747463 0.154101 0.0547036
0.777798 0.154849 0.0548714
0.807965 0.157748 0.0541085
0.837644 0.160189 0.0527199
0.865721 0.163088 0.0522621
0.894667 0.166186 0.0509346
0.922759 0.169406 0.05037
0.950668 0.173037 0.0498665
0.979263 0.176471 0.0482948
0 0.183917 0.0563668
0 0.185748 0.0534524
0.00991836 0.186969 0.0510567
0.0335546 0.187625 0.0493172
0.0648661 0.187869 0.048188
0.103548 0.187854 0.047364
0.143267 0.187304 0.0472572
0.182269 0.185824 0.0483711
0.219272 0.184497 0.0500649
0.256107 0.183001 0.0525521
0.289723 0.181506 0.0542611
0.32256 0.180926 0.0564279
0.356329 0.180865 0.0584726
0.389517 0.180743 0.0593271
0.424628 0.180804 0.0599832
0.458762 0.181384 0.0608072
0.49514 0.18143 0.0611276
0.528084 0.182223 0.0602731
0.563134 0.183246 0.0598611
0.595438 0.184085 0.0598306
0.627405 0.184878 0.0592813
0.659968 0.18674 0.0576333
0.691249 0.188586 0.0571603
0.722683 0.189868 0.0564889
0.753262 0.191867 0.0547646
0.783261 0.194354 0.0541085
0.812924 0.196887 0.0532692
0.841764 0.199527 0.0514534
0.870512 0.201938 0.05066
0.897475 0.204761 0.05037
0.924727 0.208545 0.0486458
0.953292 0.210819 0.0480201
0.981765 0.214786 0.0459297
0 0.223362 0.0601511
0 0.224979 0.0575723
0 0.226169 0.0551919
0.0240635 0.226993 0.0528725
0.0575265 0.227283 0.0510872
0.0981765 0.227131 0.0500191
0.140261 0.226902 0.0491188
0.179538 0.226276 0.0492409
0.217884 0.225162 0.0505074
0.255039 0.22388 0.0522774
0.289494 0.223072 0.0529946
0.325017 0.221576 0.0554513
0.360006 0.219791 0.0578622
0.395026 0.219486 0.0586862
0.431052 0.219684 0.0592966
0.468544 0.219974 0.0599985
0.50248 0.220142 0.0601663
0.537179 0.219959 0.0597848
0.570748 0.221378 0.059678
0.603632 0.222553 0.0591592
0.636591 0.223804 0.0576028
0.667384 0.225025 0.0573739
0.699123 0.22707 0.0562295
0.72929 0.228168 0.0553445
0.759609 0.230365 0.0538796
0.789242 0.232731 0.0527047
0.818112 0.234012 0.0523842
0.846433 0.237354 0.0501259
0.874357 0.240009 0.0490425
0.90161 0.242679 0.048188
0.928374 0.245945 0.0466011
0.955703 0.248859 0.045655
0.983719 0.251545 0.0438239
0 0.264637 0.0612955
0 0.266056 0.0588998
0 0.267247 0.0565805
0.0137942 0.268009 0.0551461
0.0475624 0.268605 0.053193
0.0908675 0.26894 0.0514382
0.134844 0.269108 0.0494698
0.17525 0.268711 0.0490578
0.214954 0.267414 0.0495003
0.252232 0.266484 0.0492561
0.288365 0.26479 0.05066
0.325612 0.263401 0.0524758
0.361028 0.262562 0.0540017
0.398688 0.261967 0.0544137
0.436027 0.260548 0.056199
0.47393 0.259861 0.0570687
0.508476 0.259678 0.0569619
0.544884 0.260151 0.0573281
0.577874 0.261112 0.0572366
0.611688 0.26096 0.0569162
0.643961 0.261799 0.0563363
0.675868 0.263706 0.0552834
0.706172 0.264225 0.0552682
0.736751 0.266621 0.0530098
0.766186 0.268406 0.0522469
0.795056 0.270466 0.0511788
0.823316 0.272526 0.0494392
0.851072 0.274861 0.0483711
0.878553 0.276402 0.0476844
0.90425 0.280232 0.0454108
0.931548 0.282383 0.0445563
0.959014 0.284962 0.0437018
0.986618 0.288426 0.0413214
0 0.306523 0.0606851
0 0.307774 0.0582742
0 0.308888 0.0557565
0.00270085 0.309804 0.0533608
0.0377813 0.310536 0.0508736
0.0807965 0.311055 0.0487068
0.129 0.311162 0.0470283
0.171206 0.310689 0.0461585
0.211246 0.309789 0.0456397
0.248737 0.30898 0.0456703
0.28632 0.30779 0.0466621
0.324208 0.306523 0.0476844
0.362249 0.304723 0.0482948
0.401938 0.30341 0.0499428
0.441367 0.302373 0.0510567
0.477409 0.30193 0.0519112
0.515724 0.30042 0.0525978
0.550195 0.299397 0.0535897
0.585 0.299718 0.0540932
0.618143 0.300603 0.0529946
0.650797 0.301671 0.0527199
0.681895 0.300801 0.0533913
0.713954 0.30222 0.0516518
0.742794 0.304265 0.0509804
0.772549 0.305867 0.0499275
0.800809 0.306538 0.0492866
0.828565 0.309316 0.0474556
0.855879 0.311727 0.0461738
0.881819 0.312901 0.0462501
0.908324 0.31632 0.0437018
0.93489 0.319081 0.0425727
0.961501 0.32079 0.0426795
0.988861 0.324178 0.0403906
0 0.349111 0.0574502
0 0.350164 0.0548714
0 0.35053 0.0527962
0 0.351247 0.0505989
0.028748 0.351934 0.0484016
0.0725414 0.352239 0.0468299
0.121202 0.35227 0.0451209
0.166629 0.352041 0.0433356
0.206958 0.351553 0.0422065
0.245502 0.350423 0.0421759
0.284642 0.349493 0.0414282
0.323003 0.348211 0.0422827
0.364279 0.346746 0.0429847
0.403784 0.345357 0.0440375
0.443275 0.343938 0.0454108
0.481712 0.342916 0.0455024
0.519661 0.340459 0.0475319
0.55494 0.340108 0.048249
0.589929 0.339834 0.0478523
0.623713 0.339162 0.0489357
0.656779 0.339284 0.0490883
0.687785 0.339391 0.0486152
0.718868 0.340444 0.0483253
0.748959 0.341955 0.0476081
0.777539 0.342031 0.0478676
0.80647 0.344137 0.046067
0.833585 0.345739 0.0454108
0.860029 0.347784 0.0452277
0.886244 0.349416 0.0438392
0.911681 0.351583 0.0437781
0.937438 0.354696 0.0427558
0.964599 0.356161 0.0419013
0.991958 0.358892 0.0411383
0 0.390051 0.0541085
0 0.391043 0.0520638
0 0.39176 0.0497139
0 0.39234 0.0475319
0.0184939 0.39295 0.044831
0.0647593 0.393591 0.0421912
0.113756 0.393912 0.0400397
0.15938 0.393637 0.0381781
0.202258 0.393088 0.0369116
0.242039 0.392538 0.0359503
0.282017 0.391608 0.035874
0.322805 0.390463 0.0358434
0.364889 0.388846 0.0366674
0.406439 0.387045 0.0370947
0.445243 0.385016 0.0378576
0.485801 0.383307 0.0391699
0.522713 0.381994 0.0403449
0.560006 0.380102 0.0408331
0.594476 0.379355 0.0422065
0.629191 0.378943 0.0428168
0.661402 0.37821 0.0434272
0.694041 0.378485 0.0435645
0.724132 0.378363 0.0442817
0.754223 0.378164 0.0455634
0.782956 0.378958 0.0447242
0.810346 0.380514 0.045304
0.837324 0.382513 0.0449378
0.863935 0.382986 0.0443885
0.889464 0.384833 0.044831
0.915221 0.387686 0.0440528
0.941482 0.38996 0.0430152
0.96762 0.391073 0.0429694
0.994446 0.394263 0.0424506
0 0.431067 0.0487221
0 0.43212 0.0461738
0 0.433005 0.0436713
0 0.43357 0.0414435
0.00843824 0.43415 0.0390173
0.0542 0.434684 0.0361639
0.105898 0.434989 0.0337835
0.151293 0.435218 0.032105
0.197223 0.435126 0.0303807
0.238193 0.434791 0.0290532
0.28011 0.434089 0.0278019
0.323735 0.432822 0.0277104
0.365377 0.431144 0.0280156
0.407248 0.428962 0.0291447
0.448203 0.427237 0.0299992
0.48719 0.425544 0.0310521
0.526772 0.423743 0.0316014
0.56228 0.422004 0.0332647
0.599191 0.420111 0.0350042
0.632563 0.41883 0.0371405
0.666621 0.417899 0.0375219
0.698009 0.416739 0.0400244
0.729397 0.416602 0.0412604
0.758511 0.416693 0.041413
0.787442 0.416464 0.0434424
0.814832 0.417716 0.044007
0.841443 0.41944 0.0430915
0.867445 0.42005 0.0446784
0.892943 0.42121 0.0457465
0.918776 0.423148 0.0445716
0.943709 0.425879 0.0440223
0.969451 0.427466 0.044831
0.996338 0.428733 0.0451209
0 0.473716 0.0424659
0 0.474708 0.0397955
0 0.475517 0.0379492
0 0.476081 0.0360113
0 0.476432 0.0335393
0.0416876 0.476509 0.0311131
0.0930037 0.476524 0.0284886
0.144198 0.476875 0.025742
0.190631 0.47689 0.0237125
0.235294 0.476402 0.021973
0.27895 0.475334 0.0214084
0.32462 0.474205 0.0206302
0.367666 0.472724 0.0209812
0.408499 0.47126 0.0213779
0.450599 0.469352 0.0214237
0.489464 0.467475 0.0226444
0.528069 0.465583 0.0242313
0.564309 0.463584 0.0266575
0.601633 0.461753 0.0278477
0.635431 0.459632 0.030045
0.669703 0.457115 0.0335241
0.702373 0.456199 0.0356146
0.732006 0.455894 0.0363012
0.762875 0.455497 0.0387732
0.790997 0.45568 0.04094
0.818631 0.454856 0.0418097
0.84506 0.455772 0.0437018
0.870695 0.455894 0.0464942
0.896071 0.457679 0.0467689
0.920958 0.458671 0.0473182
0.94638 0.460426 0.0488441
0.972839 0.462791 0.0497444
0.999161 0.464408 0.0477913
0 0.514122 0.0400397
0 0.514992 0.0369421
0 0.515877 0.0339513
0 0.516609 0.031342
0 0.517372 0.0285496
0.0257572 0.518105 0.0256199
0.0802319 0.518715 0.0225376
0.13637 0.519081 0.0196384
0.18378 0.519097 0.016846
0.232532 0.518364 0.0152285
0.278477 0.517342 0.0137789
0.324819 0.515923 0.0135042
0.368322 0.514672 0.0130922
0.410269 0.513024 0.0140078
0.45156 0.511238 0.0148165
0.492393 0.509133 0.0162203
0.529519 0.507073 0.017792
0.567864 0.504784 0.0195926
0.602762 0.502846 0.0216678
0.639048 0.500664 0.0245212
0.671962 0.497719 0.0278477
0.704616 0.495689 0.0306401
0.735515 0.494606 0.0335851
0.764736 0.493935 0.0373083
0.793057 0.493751 0.0384375
0.820523 0.493645 0.0415198
0.846967 0.492973 0.0457923
0.87306 0.492927 0.047715
0.898054 0.493584 0.049836
0.923842 0.495003 0.0524758
0.949248 0.496269 0.054551
0.975036 0.497704 0.0542306
1 0.49958 0.0552682
0 0.554788 0.0359197
0 0.555642 0.0330816
0 0.556405 0.0304112
0 0.557137 0.0275273
0 0.557931 0.0242466
0.0162966 0.558694 0.0208591
0.0691386 0.559167 0.0184482
0.12871 0.55938 0.0160983
0.180484 0.559319 0.0136416
0.230945 0.55903 0.0110323
0.278645 0.558511 0.00939956
0.32488 0.557519 0.00819409
0.368948 0.555886 0.00828565
0.412467 0.554116 0.00784314
0.452399 0.552529 0.00834669
0.493462 0.550576 0.00953689
0.530968 0.548379 0.0120546
0.569604 0.54612 0.0140078
0.605493 0.543908 0.0166781
0.639902 0.541634 0.0191806
0.674647 0.539376 0.0228275
0.705928 0.536965 0.0267491
0.737652 0.534936 0.0317082
0.767239 0.532586 0.0357824
0.795392 0.532067 0.0388647
0.822614 0.53138 0.0438392
0.848783 0.531319 0.0467079
0.874662 0.530098 0.0509499
0.900374 0.530007 0.055375
0.92604 0.530373 0.0578317
0.950957 0.531853 0.0600748
0.97644 0.533104 0.0619059
1 0.535073 0.0639811
0 0.594797 0.0361791
0 0.595514 0.0340887
0 0.596216 0.0314794
0 0.596857 0.0286107
0 0.597543 0.025391
0.00677501 0.598245 0.0220493
0.0627604 0.598871 0.0185855
0.124331 0.599451 0.0146487
0.180133 0.59971 0.0113069
0.231052 0.599512 0.00816358
0.280964 0.598688 0.00645457
0.325933 0.59765 0.00584421
0.370092 0.596384 0.00560006
0.414466 0.595102 0.00502022
0.454536 0.593683 0.00537118
0.494087 0.591943 0.00714122
0.534157 0.589227 0.00953689
0.570214 0.587091 0.00968948
0.60763 0.584512 0.0132753
0.64123 0.582055 0.0176852
0.675013 0.579797 0.02121
0.707424 0.577493 0.0248722
0.738643 0.574456 0.0304723
0.768719 0.57261 0.035462
0.797131 0.570947 0.0405432
0.824216 0.569253 0.045304
0.850355 0.568612 0.0503243
0.876143 0.56846 0.0548409
0.902266 0.56701 0.0604715
0.926986 0.567071 0.0640116
0.952331 0.567086 0.0685435
0.978119 0.568368 0.0717174
1 0.570336 0.071519
0 0.63386 0.04065
0 0.634562 0.0376287
0 0.635279 0.0341039
0 0.635935 0.0310826
0 0.636606 0.0278172
0 0.636805 0.0246586
0.0624094 0.636896 0.0213931
0.126741 0.637339 0.0171664
0.182498 0.637629 0.0136263
0.234638 0.637644 0.0105898
0.283665 0.637308 0.00825513
0.328954 0.636439 0.0071107
0.372412 0.635462 0.00552377
0.416251 0.634165 0.00474556
0.457938 0.632639 0.00555428
0.496712 0.630869 0.00726329
0.535424 0.629068 0.00866712
0.571923 0.626978 0.0106966
0.608469 0.623941 0.0148623
0.644144 0.621469 0.0170291
0.676219 0.619455 0.0200961
0.708644 0.617197 0.0254063
0.739071 0.614816 0.0314641
0.768368 0.612787 0.0367437
0.797299 0.609934 0.0417029
0.824933 0.60824 0.0480049
0.850202 0.607141 0.0549783
0.877501 0.605432 0.0593576
0.902678 0.604181 0.0657359
0.928344 0.60354 0.0725261
0.954528 0.603113 0.0776837
0.979812 0.60415 0.0791485
1 0.604395 0.0845502
0 0.673442 0.0440833
0 0.673884 0.0409247
0 0.674098 0.0384833
0 0.67422 0.0359655
0 0.67425 0.0340124
0.00442512 0.674357 0.0318761
0.0670787 0.674922 0.0280919
0.132525 0.67538 0.0242008
0.188128 0.675685 0.0205234
0.239017 0.675761 0.0172274
0.287373 0.675578 0.0145113
0.332021 0.675364 0.011368
0.375357 0.674769 0.00935378
0.417578 0.673732 0.00910964
0.459648 0.672343 0.00956741
0.497978 0.670527 0.0102998
0.537148 0.668452 0.0108797
0.574441 0.666423 0.0125124
0.609552 0.664057 0.0161593
0.644114 0.661692 0.0195773
0.677058 0.659236 0.0234073
0.709194 0.656367 0.0294041
0.740032 0.653895 0.0325475
0.769299 0.651743 0.0381628
0.797177 0.6495 0.0456703
0.824475 0.646555 0.053254
0.851072 0.644739 0.0592508
0.87744 0.643503 0.065507
0.902449 0.642329 0.073167
0.929808 0.640391 0.0797589
0.955367 0.639445 0.086244
0.980545 0.638911 0.0921492
1 0.639567 0.097612
0 0.709865 0.0569924
0 0.710384 0.0541238
0 0.710887 0.0512551
0 0.711345 0.0483711
0 0.711849 0.045304
0.0124514 0.712367 0.0415808
0.0805219 0.71284 0.0375525
0.142748 0.713085 0.0337072
0.196002 0.713344 0.0292363
0.245533 0.713359 0.025452
0.292973 0.713222 0.0216526
0.337346 0.712993 0.0185855
0.378744 0.712428 0.0171359
0.420798 0.711574 0.0163119
0.461753 0.710491 0.0158846
0.500298 0.709224 0.0160678
0.538201 0.7075 0.0167239
0.576226 0.705028 0.01944
0.611017 0.703014 0.0217899
0.644541 0.700771 0.0247349
0.67837 0.69836 0.0274052
0.709453 0.695842 0.0320134
0.739361 0.693172 0.0387274
0.768887 0.690318 0.0456703
0.797787 0.687022 0.0513771
0.823697 0.684611 0.0586862
0.851698 0.682368 0.0674144
0.877195 0.680232 0.0743877
0.904082 0.678386 0.0833906
0.930144 0.676722 0.0910506
0.955413 0.675914 0.0968795
0.980591 0.674647 0.104952
1 0.674067 0.109712
0 0.74638 0.0718395
0 0.746868 0.0688792
0 0.747295 0.0657816
0 0.747768 0.0625772
0 0.748272 0.0587472
0.0294499 0.748806 0.0549783
0.0958572 0.74931 0.0507515
0.153307 0.749722 0.0467384
0.205188 0.750195 0.041886
0.252461 0.75053 0.0372473
0.298741 0.750561 0.0336156
0.340887 0.750393 0.0306096
0.382544 0.749996 0.0284276
0.424643 0.749508 0.0256199
0.465232 0.748562 0.0248875
0.502983 0.747387 0.0242008
0.540536 0.745586 0.025391
0.577096 0.74377 0.0265202
0.612955 0.741756 0.0293736
0.646326 0.739254 0.0335088
0.678431 0.73669 0.0368658
0.709407 0.734188 0.0416724
0.740124 0.73138 0.0481575
0.768521 0.728832 0.0523995
0.796262 0.726223 0.0587015
0.824109 0.723339 0.0678721
0.850752 0.720424 0.0777142
0.877134 0.717708 0.0834821
0.904341 0.715114 0.0933547
0.929961 0.713329 0.101884
0.955276 0.711727 0.109682
0.980362 0.710307 0.116014
1 0.709682 0.122286
0 0.78204 0.0903029
0 0.782437 0.0874037
0 0.782818 0.0844892
0 0.783169 0.0817273
0.00178531 0.783658 0.0774701
0.0582437 0.7841 0.0744793
0.116106 0.784588 0.0713817
0.170489 0.785 0.067277
0.218235 0.785367 0.0628977
0.26276 0.785641 0.0586252
0.305776 0.785779 0.054612
0.348135 0.785901 0.0496986
0.38912 0.785641 0.0467994
0.429236 0.785168 0.0446021
0.469017 0.78439 0.0432441
0.506981 0.783581 0.0417334
0.54284 0.782635 0.04065
0.579156 0.78114 0.0421607
0.613962 0.779095 0.0447089
0.646799 0.77673 0.0460822
0.679774 0.774563 0.0475776
0.710079 0.771695 0.0535134
0.739376 0.769039 0.0598154
0.768856 0.766522 0.0643931
0.795117 0.763821 0.0724498
0.823804 0.760769 0.0798505
0.84976 0.758083 0.0875715
0.877806 0.755199 0.0959335
0.90396 0.751949 0.10634
0.929656 0.749355 0.113939
0.955154 0.746792 0.121218
0.980056 0.745083 0.130144
1 0.744045 0.137026
0 0.816571 0.114015
0 0.8168 0.112093
0 0.817136 0.109697
0 0.817517 0.106813
0.0324559 0.817899 0.103899
0.0897993 0.818311 0.100313
0.139559 0.818723 0.0967575
0.189563 0.819196 0.0920272
0.235019 0.819623 0.0869306
0.27628 0.819928 0.0825513
0.317357 0.819928 0.0781872
0.358083 0.819623 0.074464
0.397986 0.819211 0.0712444
0.436851 0.818692 0.0686198
0.474845 0.818143 0.0666209
0.512764 0.817609 0.0632944
0.547585 0.81677 0.0621347
0.583078 0.815503 0.0629587
0.616159 0.814054 0.0651408
0.648539 0.812512 0.0664225
0.680278 0.810864 0.0684062
0.711086 0.809064 0.0726177
0.738552 0.806378 0.0770275
0.768063 0.803342 0.0798657
0.795804 0.80058 0.0875715
0.823056 0.797635 0.0957809
0.849622 0.794675 0.103258
0.877363 0.791669 0.110872
0.903441 0.788617 0.119341
0.929381 0.78584 0.126497
0.955016 0.782605 0.135363
0.979706 0.779751 0.143954
1 0.777966 0.150805
0 0.850019 0.138018
0 0.850187 0.135988
0 0.850462 0.133577
0.0320439 0.850706 0.131258
0.0732738 0.851026 0.129168
0.127459 0.851331 0.126177
0.169757 0.85153 0.123247
0.21062 0.851575 0.120165
0.25388 0.851514 0.116732
0.293904 0.851743 0.112764
0.332097 0.851972 0.108843
0.369985 0.852094 0.104921
0.407721 0.852079 0.101305
0.445365 0.851865 0.0985428
0.481575 0.85182 0.0946212
0.517617 0.85127 0.0923476
0.551949 0.850492 0.0908217
0.586847 0.8495 0.0897383
0.620005 0.84831 0.0902571
0.650721 0.847166 0.0903639
0.681544 0.845548 0.0925002
0.712001 0.84358 0.0961013
0.73962 0.841489 0.0995193
0.768124 0.838148 0.105272
0.79675 0.835843 0.108995
0.82269 0.833432 0.115328
0.850477 0.830503 0.120516
0.877195 0.827543 0.125811
0.90341 0.824384 0.133501
0.929381 0.821012 0.142794
0.954391 0.818051 0.151019
0.978866 0.814832 0.157733
1 0.811582 0.167452
0 0.881483 0.166003
0.00352483 0.881559 0.164324
0.0422675 0.881621 0.162448
0.0792554 0.881743 0.160998
0.125689 0.881865 0.158724
0.16228 0.882063 0.156329
0.201282 0.882368 0.153536
0.237018 0.882689 0.150668
0.273793 0.882979 0.147906
0.309545 0.883268 0.145434
0.348287 0.883452 0.142473
0.383902 0.883696 0.138491
0.419776 0.883864 0.13431
0.455528 0.883909 0.130266
0.490852 0.883787 0.126787
0.523232 0.883421 0.124773
0.557656 0.882826 0.123232
0.591272 0.882033 0.122347
0.62388 0.881224 0.121035
0.6542 0.880034 0.121874
0.683375 0.878889 0.122316
0.713115 0.877226 0.12401
0.741024 0.875578 0.124361
0.768551 0.873396 0.127977
0.797253 0.870497 0.131151
0.823987 0.867414 0.135531
0.851133 0.864332 0.14168
0.877729 0.861372 0.147326
0.903807 0.858122 0.153796
0.92929 0.85539 0.159777
0.953964 0.852277 0.166674
0.978195 0.848814 0.175357
1 0.844846 0.185229
0.0289921 0.911437 0.196719
0.066865 0.911559 0.195621
0.105867 0.91165 0.194629
0.133974 0.911742 0.193606
0.168414 0.911849 0.191653
0.200153 0.911955 0.189746
0.23209 0.91223 0.187121
0.264897 0.912581 0.18407
0.299397 0.912932 0.180575
0.331487 0.913222 0.177584
0.365759 0.913252 0.174395
0.399344 0.913115 0.17142
0.433402 0.912993 0.168368
0.46656 0.91313 0.164645
0.500298 0.913146 0.161028
0.533654 0.912886 0.158495
0.565606 0.91249 0.15671
0.597848 0.912047 0.154406
0.629541 0.91133 0.153292
0.659083 0.910414 0.153185
0.687892 0.909483 0.152697
0.716091 0.908202 0.153796
0.743832 0.906477 0.155138
0.771878 0.904219 0.157885
0.798672 0.902037 0.160159
0.825742 0.900038 0.162493
0.85211 0.897429 0.167147
0.878813 0.894682 0.169497
0.904707 0.891554 0.174044
0.929519 0.888075 0.181262
0.954101 0.88452 0.188174
0.977661 0.881086 0.195651
1 0.877165 0.203525
0.109651 0.938643 0.230396
0.137316 0.938872 0.228977
