luts/Rainbow Glow.cube
TITLE "Generated by Resolve"
LUT_3D_SIZE 33
0 0 0
0 0 0
0 0 0
0 0 0
0 0 0
0 0 0
0 0 0
0 0 0
0 0 0
0 0.0084535 0
0 0.0303044 0
0 0.0489509 0
0 0.0600443 0
0 0.067689 0
0 0.0755322 0
0 0.0835279 0
0 0.0916915 0
0 0.0999924 0
0 0.108446 0
0 0.117021 0
0 0.125734 0
0 0.134569 0
0 0.143511 0
0 0.152575 0
0 0.16173 0
0 0.171008 0
0 0.180377 0
0 0.189837 0
0 0.19939 0
0 0.209033 0
0 0.218769 0
0 0.22858 0
0 0.238483 0
0 0 0
0 0 0
0 0 0
0 0 0
0 0 0
0 0 0
0 0 0
0 0 0
0 0 0
0 0.0112001 0
0 0.0345006 0
0 0.0536507 0
0 0.0646677 0
0 0.0730907 0
0 0.0816663 0
0 0.0903944 0
0 0.0992752 0
0 0.108278 0
0 0.117403 0
0 0.12665 0
0 0.136034 0
0 0.14551 0
0 0.155108 0
0 0.164828 0
0 0.174624 0
0 0.184527 0
0 0.194522 0
0 0.204608 0
0 0.214801 0
0 0.225071 0
0 0.235416 0
0 0.245853 0
0 0.256367 0
0 0 0
0 0 0
0 0 0
0 0 0
0 0 0
0 0 0
0 0 0
0 0 0
0 0 0
0 0.0109102 0
0 0.0339666 0
0 0.0526131 0
0 0.0633402 0
0 0.0718547 0
0 0.080705 0
0 0.0898146 0
0 0.0992142 0
0 0.108843 0
0 0.118624 0
0 0.128542 0
0 0.138582 0
0 0.14876 0
0 0.15903 0
0 0.169421 0
0 0.179904 0
0 0.190494 0
0 0.201175 0
0 0.211963 0
0 0.222827 0
0 0.233783 0
0 0.244831 0
0 0.255955 0
0 0.26717 0
0 0 0
0 0 0
0 0 0
0 0 0
0 0 0
0 0 0
0 0 0
0 0 0
0 0 0
0 0.0179294 0
0 0.0403601 0
0 0.0568246 0
0 0.0657664 0
0 0.0738537 0
0 0.0819867 0
0 0.0904097 0
0 0.0990921 0
0 0.10811 0
0 0.117464 0
0 0.127108 0
0 0.137057 0
0 0.147295 0
0 0.157748 0
0 0.16846 0
0 0.179385 0
0 0.190509 0
0 0.201785 0
0 0.213169 0
0 0.224689 0
0 0.236301 0
0 0.248035 0
0 0.259876 0
0 0.271794 0
0.0166629 0.0156863 0
0 0.030457 0
0 0.0450141 0
0 0.0591592 0
0 0.0727245 0
0 0.0625315 0
0 0.0178683 0
0 0.0178225 0
0 0.0307469 0
0 0.0546883 0
0 0.0733806 0
0 0.0789502 0
0 0.0805524 0
0 0.0846723 0
0 0.0903487 0
0 0.0971389 0
0 0.104799 0
0 0.11313 0
0 0.121736 0
0 0.13048 0
0 0.139605 0
0 0.148989 0
0 0.158694 0
0 0.168704 0
0 0.179019 0
0 0.189624 0
0 0.200519 0
0 0.211673 0
0 0.223102 0
0 0.23473 0
0 0.246616 0
0 0.258732 0
0 0.271077 0
0.0445563 0.0666361 0
0.00260929 0.0814374 0
0 0.0961776 0
0.0235904 0.110811 0
0.0179904 0.125277 0
0.00762951 0.139544 0
0 0.147265 0
0 0.155901 0
0 0.167529 0
0 0.178408 0
0 0.185992 0
0 0.190692 0
0 0.192676 0
0 0.188663 0
0 0.134676 0
0 0.125887 0
0 0.126177 0
0 0.129686 0
0 0.135042 0
0 0.14168 0
0 0.149264 0
0 0.157626 0
0 0.166461 0
0 0.175433 0
0 0.184726 0
0 0.19443 0
0 0.204395 0
0 0.214679 0
0 0.225269 0
0 0.236179 0
0 0.247395 0
0 0.2589 0
0 0.27068 0
0.0785077 0.098085 0.000747692
0.0389563 0.112871 0
0.0459144 0.127611 0
0.0506752 0.142138 0
0.0405737 0.156237 0
0.0289921 0.169512 0
0.0155795 0.182086 0
0 0.191501 0
0 0.201007 0
0 0.210193 0
0 0.218982 0
0 0.227253 0
0 0.234852 0
0 0.241657 0
0 0.24744 0
0 0.251911 0
0 0.254414 0
0 0.253452 0
0 0.242039 0
0 0.185153 0
0 0.180774 0
0 0.18233 0
0 0.186603 0
0 0.192569 0
0 0.199725 0
0 0.207828 0
0 0.216571 0
0 0.22562 0
0 0.235004 0
0 0.24477 0
0 0.254963 0
0 0.265431 0
0 0.276249 0
0.189593 0.119814 0.0217441
0.14992 0.134554 0.00555428
0.113176 0.149233 0
0.0888533 0.163531 0
0.0706951 0.17731 0
0.0537118 0.190799 0
0.0349889 0.204746 0
0.0171511 0.218753 0
0 0.228519 0
0 0.238209 0
0 0.24773 0
0 0.257053 0
0 0.266102 0
0 0.274815 0
0 0.283131 0
0 0.29099 0
0 0.298329 0
0 0.305074 0
0 0.311131 0
0 0.31632 0
0 0.320348 0
0 0.322744 0
0 0.322301 0
0 0.315038 0
0 0.255451 0
0 0.247562 0
0 0.248203 0
0 0.252155 0
0 0.258045 0
0 0.265293 0
0 0.273533 0
0 0.282338 0
0 0.291539 0
0.230686 0.140764 0.0430152
0.190005 0.155505 0.0268406
0.149279 0.17026 0.0106661
0.117769 0.184817 0
0.0928054 0.199222 0
0.0718547 0.213489 0
0.0531777 0.227619 0
0.0357977 0.241688 0
0.0192569 0.255726 0
0 0.265538 0
0 0.275334 0
0 0.285054 0
0 0.294652 0
0 0.304097 0
0 0.313375 0
0 0.322423 0
0 0.331212 0
0 0.339727 0
0 0.347936 0
0 0.355825 0
0 0.363348 0
0 0.370504 0
0 0.377249 0
0 0.383474 0
0 0.389136 0
0 0.39408 0
0 0.398093 0
0 0.400793 0
0 0.401266 0
0 0.396872 0
0 0.342977 0
0 0.330678 0
0 0.330968 0
0.247425 0.163302 0.0638895
0.20798 0.178058 0.0477302
0.166369 0.192844 0.0315404
0.134035 0.207507 0.0155032
0.109392 0.222004 0
0.0890669 0.236316 0
0.0709544 0.250523 0
0.0540627 0.264637 0
0.0379034 0.278691 0
0.0222324 0.29276 0
0.00311284 0.302602 0
0 0.312459 0
0 0.322286 0
0 0.332052 0
0 0.341741 0
0 0.351324 0
0 0.360784 0
0 0.370092 0
0 0.379232 0
0 0.388205 0
0 0.396963 0
0 0.405539 0
0 0.413916 0
0 0.422095 0
0 0.430076 0
0 0.437827 0
0 0.445365 0
0 0.452659 0
0 0.459709 0
0 0.466514 0
0 0.473045 0
0 0.479255 0
0 0.485115 0
0.262348 0.186023 0.0843977
0.22501 0.200763 0.0682383
0.182864 0.215564 0.0520333
0.15021 0.230259 0.0359503
0.125856 0.2448 0.0200809
0.106035 0.25919 0.00442512
0.0884413 0.273457 0
0.0720073 0.287602 0
0.0562295 0.301701 0
0.0408484 0.31577 0
0.0257725 0.329854 0
0.00704967 0.339727 0
0 0.34963 0
0 0.359518 0
0 0.36939 0
0 0.379217 0
0 0.388998 0
0 0.398703 0
0 0.408331 0
0 0.417853 0
0 0.427253 0
0 0.436545 0
0 0.445716 0
0 0.454749 0
0 0.463676 0
0 0.47248 0
0 0.481193 0
0 0.489784 0
0 0.498283 0
0 0.506691 0
0 0.515007 0
0 0.523247 0
0 0.531426 0
0.276921 0.208789 0.104479
0.242267 0.223545 0.0883345
0.199786 0.238346 0.0721141
0.166567 0.253071 0.0560006
0.142351 0.267659 0.0400702
0.122911 0.282109 0.0243534
0.105745 0.296422 0.00885023
0.0897231 0.310628 0
0.0742962 0.324758 0
0.0592203 0.338842 0
0.0444038 0.352926 0
0.0297551 0.36701 0
0.0113222 0.376898 0
0 0.386831 0
0 0.39678 0
0 0.406714 0
0 0.416632 0
0 0.426535 0
0 0.436393 0
0 0.44622 0
0 0.455985 0
0 0.465675 0
0 0.475303 0
0 0.484825 0
0 0.494285 0
0 0.50367 0
0 0.512978 0
0 0.522225 0
0 0.531411 0
0 0.540551 0
0 0.549645 0
0 0.558694 0
0 0.567712 0
0.291173 0.231632 0.124086
0.259922 0.246372 0.107958
0.217334 0.261189 0.0917372
0.183337 0.275929 0.0755932
0.158999 0.290562 0.0596323
0.139803 0.305058 0.0438392
0.122972 0.319417 0.0282597
0.107286 0.333669 0.0128786
0.0921798 0.347845 0
0.0773938 0.361959 0
0.0628214 0.376043 0
0.0483711 0.390127 0
0.0340429 0.404242 0
0.0158389 0.41413 0
0 0.424079 0
0 0.434058 0
0 0.444038 0
0 0.454017 0
0 0.463996 0
0 0.473976 0
0 0.483925 0
0 0.493858 0
0 0.503746 0
0 0.513573 0
0 0.523369 0
0 0.533104 0
0 0.542779 0
0 0.552422 0
0 0.56202 0
0 0.571572 0
0 0.581094 0
0 0.5906 0
0 0.600107 0
0.305104 0.25452 0.143236
0.278126 0.269261 0.127108
0.235767 0.284077 0.110887
0.200687 0.298833 0.094728
0.175998 0.313497 0.078706
0.156847 0.328038 0.0628672
0.140215 0.342458 0.0472267
0.124773 0.356756 0.0317693
0.109941 0.370962 0.0165103
0.0954147 0.385107 0.00140383
0.0810712 0.399222 0
0.0668498 0.413306 0
0.0527047 0.42739 0
0.0386358 0.441505 0
0.0205844 0.451408 0
0.00273136 0.461372 0
0 0.471366 0
0 0.481376 0
0 0.491402 0
0 0.501442 0
0 0.511482 0
0 0.521523 0
0 0.531563 0
0 0.541573 0
0 0.551568 0
0 0.561517 0
0 0.57145 0
0 0.581338 0
0 0.591211 0
0 0.601038 0
0 0.610849 0
0 0.620645 0
0 0.630442 0
0.320073 0.277455 0.161303
0.297734 0.292195 0.145174
0.255924 0.306996 0.128939
0.21944 0.321782 0.112749
0.193881 0.336461 0.0966812
0.174456 0.351049 0.0807507
0.157839 0.365499 0.0649729
0.142519 0.379858 0.0493477
0.127855 0.39411 0.0338598
0.113527 0.408286 0.0184939
0.099382 0.422415 0.00323491
0.0853437 0.4365 0
0.0713817 0.450584 0
0.0574502 0.464683 0
0.0435798 0.478813 0
0.0256352 0.488716 0
0.00787366 0.498695 0
0 0.508705 0
0 0.51873 0
0 0.528786 0
0 0.538857 0
0 0.548943 0
0 0.559045 0
0 0.569146 0
0 0.579263 0
0 0.589364 0
0 0.599435 0
0 0.609506 0
0 0.619547 0
0 0.629572 0
0 0.639597 0
0 0.649592 0
0 0.659586 0
0.340185 0.30042 0.176989
0.320409 0.31516 0.160845
0.279301 0.329961 0.144625
0.241032 0.344747 0.12842
0.213764 0.359457 0.112291
0.193408 0.374075 0.0962692
0.176364 0.388571 0.0803693
0.160891 0.40296 0.0645762
0.146212 0.417258 0.0489052
0.131945 0.431479 0.0333104
0.117906 0.445624 0.017792
0.103975 0.459739 0.00231937
0.0901198 0.473823 0
0.0763104 0.487907 0
0.0625162 0.502007 0
0.0487373 0.516136 0
0.0308843 0.526055 0
0.0131838 0.536034 0
0 0.546059 0
0 0.5561 0
0 0.566186 0
0 0.576288 0
0 0.586404 0
0 0.596536 0
0 0.606699 0
0 0.616861 0
0 0.627039 0
0 0.637217 0
0 0.647379 0
0 0.657542 0
0 0.667689 0
0 0.677836 0
0 0.687984 0
0.365133 0.323415 0.190799
0.34548 0.33814 0.174655
0.305135 0.352941 0.158419
0.265095 0.367742 0.142199
0.235569 0.382483 0.126055
0.213687 0.397116 0.110002
0.195773 0.411658 0.0940414
0.179858 0.426078 0.0781872
0.164935 0.440421 0.0624552
0.150576 0.454673 0.0468147
0.136522 0.468849 0.031281
0.122621 0.482994 0.0158236
0.108812 0.497093 0.000442512
0.0950637 0.511177 0
0.0813306 0.525277 0
0.067628 0.539376 0
0.0539406 0.553521 0
0.0361486 0.563439 0
0.0185092 0.573419 0
0.00105287 0.583444 0
0 0.593515 0
0 0.603601 0
0 0.613718 0
0 0.623865 0
0 0.634028 0
0 0.644221 0
0 0.654429 0
0 0.664668 0
0 0.674907 0
0 0.685145 0
0 0.695384 0
0 0.705638 0
0 0.715877 0
0.390478 0.346456 0.204471
0.370764 0.361181 0.188327
0.331258 0.375967 0.172122
0.28983 0.390784 0.155886
0.258091 0.405524 0.139727
0.234485 0.420188 0.123659
0.215534 0.43476 0.107683
0.199008 0.449226 0.0918135
0.183764 0.4636 0.0760662
0.169238 0.477897 0.0604257
0.155093 0.492103 0.0448768
0.141192 0.506264 0.0294347
0.127413 0.520394 0.0140841
0.11371 0.534478 0
0.100038 0.548577 0
0.0863966 0.562676 0
0.0727703 0.576791 0
0.0591592 0.590936 0
0.0414282 0.600855 0
0.0238346 0.610834 0
0.00640879 0.620874 0
0 0.630945 0
0 0.641047 0
0 0.651179 0
0 0.661341 0
0 0.671534 0
0 0.681743 0
0 0.691997 0
0 0.702251 0
0 0.712535 0
0 0.722835 0
0 0.73315 0
0 0.74345 0
0.415671 0.369512 0.21828
0.395972 0.384237 0.202152
0.357259 0.399023 0.185946
0.314885 0.41384 0.169711
0.281102 0.428595 0.153536
0.255711 0.44329 0.137453
0.235584 0.457877 0.121462
0.218357 0.472389 0.105577
0.202701 0.486793 0.0898146
0.18793 0.501122 0.0741436
0.173678 0.515373 0.0585946
0.159731 0.529564 0.0431525
0.145953 0.543709 0.0278019
0.13228 0.557824 0.0125277
0.118654 0.571908 0
0.105074 0.586007 0
0.0914931 0.600107 0
0.0779431 0.614237 0
0.0643931 0.628382 0
0.0467231 0.638315 0
0.0291752 0.648295 0
0.01178 0.658335 0
0 0.668406 0
0 0.678523 0
0 0.688655 0
0 0.698833 0
0 0.709041 0
0 0.719265 0
0 0.729534 0
0 0.739818 0
0 0.750134 0
0 0.760479 0
0 0.770825 0
0.440742 0.392615 0.232212
0.421103 0.407324 0.216083
0.383169 0.422126 0.199893
0.340215 0.436942 0.183658
0.30457 0.451713 0.167468
0.277363 0.466407 0.151369
0.25597 0.481025 0.135363
0.237919 0.495567 0.119463
0.221775 0.510018 0.10367
0.206714 0.524376 0.0879988
0.192294 0.538659 0.0724346
0.178256 0.55288 0.0569772
0.164446 0.567056 0.0416266
0.150774 0.58117 0.0263523
0.137194 0.595285 0.0111849
0.123644 0.609369 0
0.110124 0.623468 0
0.0966201 0.637568 0
0.0831311 0.651698 0
0.0696422 0.665873 0
0.0520333 0.675792 0
0.0345159 0.685771 0
0.0171511 0.695811 0
0 0.705898 0
0 0.716014 0
0 0.726162 0
0 0.736339 0
0 0.746563 0
0 0.756802 0
0 0.767086 0
0 0.777386 0
0 0.787732 0
0 0.798093 0
0.465721 0.415747 0.24625
0.446189 0.430457 0.230137
0.408988 0.445243 0.213947
0.365743 0.46006 0.197711
0.32845 0.47483 0.181521
0.299458 0.489555 0.165408
0.276692 0.504204 0.149386
0.25774 0.518761 0.133455
0.241001 0.533242 0.117647
0.225589 0.547631 0.101961
0.210941 0.561959 0.0863661
0.19678 0.576211 0.0708934
0.18291 0.590402 0.0555428
0.169238 0.604547 0.0402686
0.155657 0.618662 0.0251011
0.142153 0.632761 0.0100252
0.128679 0.64686 0
0.115221 0.66096 0
0.101778 0.675074 0
0.0883345 0.689204 0
0.0748913 0.70338 0
0.0573434 0.713298 0
0.0398718 0.723293 0
0.0225376 0.733333 0
0.00535592 0.74342 0
0 0.753536 0
0 0.763684 0
0 0.773877 0
0 0.7841 0
0 0.794354 0
0 0.804639 0
0 0.814954 0
0 0.825315 0
0.490623 0.438895 0.260395
0.471214 0.453605 0.244297
0.434714 0.468376 0.228107
0.391424 0.483207 0.211872
0.352682 0.497993 0.195666
0.321965 0.512718 0.179538
0.297765 0.527382 0.1635
0.277821 0.54197 0.14757
0.260426 0.556481 0.131731
0.244572 0.570916 0.116014
0.229664 0.58526 0.10042
0.215351 0.599542 0.0849317
0.201389 0.613764 0.0695506
0.187671 0.627939 0.0542763
0.174075 0.642069 0.0390936
0.160586 0.656184 0.0240177
0.147143 0.670283 0.00903334
0.13373 0.684367 0
0.120333 0.698482 0
0.10695 0.712596 0
0.0935531 0.726741 0
0.0801709 0.740917 0
0.0626535 0.750835 0
0.0452277 0.76083 0
0.0279088 0.770871 0
0.0107424 0.780957 0
0 0.791074 0
0 0.801236 0
0 0.811429 0
0 0.821653 0
0 0.831907 0
0 0.842191 0
0 0.852522 0
0.51548 0.462058 0.274647
0.496208 0.476768 0.258549
0.460349 0.491554 0.242374
0.417227 0.506371 0.226139
0.377234 0.521172 0.209918
0.344869 0.535912 0.19379
0.319203 0.550591 0.177737
0.298177 0.565209 0.161776
0.280064 0.579736 0.145922
0.263722 0.594186 0.13019
0.248493 0.608576 0.114565
0.233951 0.622889 0.0990463
0.219883 0.63714 0.08365
0.206088 0.651347 0.0683604
0.192477 0.665492 0.0531777
0.178988 0.679622 0.0380865
0.16556 0.693721 0.0231022
0.152178 0.70782 0.00820935
0.138827 0.72192 0
0.125475 0.736019 0
0.112139 0.750134 0
0.0988022 0.764294 0
0.0854505 0.77847 0
0.0679789 0.788403 0
0.0505837 0.798383 0
0.0333104 0.808423 0
0.016144 0.818509 0
0 0.828641 0
0 0.838788 0
0 0.848997 0
0 0.85922 0
0 0.869474 0
0 0.879774 0
0.540291 0.485267 0.288975
0.521157 0.499962 0.272892
0.485924 0.514748 0.256718
0.443107 0.529549 0.240482
0.402045 0.544366 0.224277
0.368124 0.559121 0.208118
0.341009 0.573816 0.19205
0.318837 0.588449 0.176074
0.299916 0.603006 0.160204
0.283024 0.617487 0.144442
0.26743 0.631891 0.128801
0.252644 0.646235 0.113268
0.238407 0.660517 0.0978408
0.224521 0.674754 0.082536
0.210864 0.68893 0.0673381
0.19736 0.703059 0.0522469
0.183932 0.717189 0.0372473
0.170581 0.731289 0.0223545
0.157244 0.745373 0.00755322
0.143954 0.759472 0
0.130648 0.773587 0
0.117342 0.787717 0
0.104051 0.801862 0
0.0907454 0.816052 0
0.0733196 0.825986 0
0.0559548 0.835966 0
0.0386969 0.846006 0
0.0215457 0.856092 0
0.00456245 0.866224 0
0 0.876371 0
0 0.886564 0
0 0.896803 0
0 0.907057 0
0.565057 0.508476 0.30341
0.546075 0.523186 0.287327
0.511421 0.537957 0.271168
0.469032 0.552758 0.254932
0.427085 0.567575 0.238712
0.391745 0.582345 0.222553
0.363165 0.597055 0.20647
0.339803 0.611704 0.190478
0.320012 0.626276 0.174578
0.30251 0.640787 0.158801
0.286488 0.655222 0.14313
0.271427 0.669596 0.127565
0.256992 0.683909 0.112123
0.242969 0.698161 0.0968032
0.229252 0.712367 0.0815747
0.215702 0.726528 0.0664683
0.202274 0.740658 0.0514687
0.188922 0.754757 0.0365606
0.175631 0.768856 0.0217441
0.162356 0.782956 0.00703441
0.149081 0.797055 0
0.135836 0.81117 0
0.122576 0.825299 0
0.109316 0.83946 0
0.0960555 0.853651 0
0.0786603 0.863584 0
0.061326 0.873564 0
0.0440833 0.883604 0
0.0269627 0.89369 0
0.0099794 0.903822 0
0 0.91397 0
0 0.924163 0
0 0.934401 0
0.589807 0.531716 0.317906
0.570962 0.54641 0.301839
0.536858 0.561181 0.285679
0.494987 0.575982 0.269459
0.452323 0.590799 0.253239
0.415656 0.605585 0.237064
0.385657 0.620295 0.220966
0.361089 0.634974 0.204959
0.340368 0.649561 0.189044
0.322194 0.664103 0.173236
0.305699 0.678569 0.157549
0.290303 0.692958 0.14197
0.275639 0.707301 0.126497
0.261479 0.721584 0.111147
0.247654 0.735805 0.0959029
0.234043 0.749996 0.080766
0.2206 0.764141 0.0657511
0.207233 0.778256 0.0508278
0.193957 0.792355 0.0360113
0.180697 0.806455 0.0212863
0.167468 0.820554 0.00666819
0.154253 0.834653 0
0.141024 0.848768 0
0.12781 0.862913 0
0.114595 0.877073 0
0.101366 0.891279 0
0.0840009 0.901198 0
0.0666972 0.911192 0
0.049485 0.921233 0
0.0323796 0.931304 0
0.0153964 0.941436 0
0 0.951598 0
0 0.961791 0
0.614527 0.554955 0.332494
0.595819 0.569665 0.316442
0.562249 0.584421 0.300282
0.520897 0.599237 0.284062
0.477714 0.614054 0.267826
0.439857 0.628824 0.251652
0.408469 0.643565 0.235538
0.382666 0.658244 0.219516
0.360983 0.672862 0.203586
0.342092 0.687419 0.187762
0.325078 0.701915 0.172045
0.3093 0.716335 0.156435
0.294392 0.730694 0.140948
0.280034 0.744991 0.125566
0.266072 0.759258 0.110292
0.252399 0.773465 0.09514
0.238895 0.787625 0.0801099
0.225528 0.801755 0.0651713
0.212238 0.815885 0.0503395
0.199008 0.829984 0.0356146
0.185809 0.844068 0.0209812
0.172625 0.858167 0.00645457
0.159442 0.872267 0
0.146258 0.886397 0
0.133074 0.900542 0
0.11989 0.914702 0
0.106691 0.928908 0
0.0893568 0.938842 0
0.0720836 0.948821 0
0.0548867 0.958862 0
0.0377966 0.968948 0
0.0208133 0.979065 0
0.00396735 0.989227 0
0.639216 0.578225 0.347158
0.620661 0.59292 0.33109
0.587594 0.607691 0.314946
0.546761 0.622492 0.298741
0.503243 0.637308 0.282506
0.464317 0.652094 0.266316
0.431601 0.66685 0.250187
0.404562 0.681544 0.23415
0.381857 0.696178 0.218204
