luts/Rainbow Glow.cube
TITLE "Generated by Resolve"
LUT_3D_SIZE 9
0 0 0
0 0 0
0 0 0
0 0.0600443 0
0 0.0916915 0
0 0.125734 0
0 0.16173 0
0 0.19939 0
0 0.238483 0
0.0166629 0.0156863 0
0 0.0727245 0
0 0.0307469 0
0 0.0805524 0
0 0.104799 0
0 0.139605 0
0 0.179019 0
0 0.223102 0
0 0.271077 0
0.230686 0.140764 0.0430152
0.0928054 0.199222 0
0.0192569 0.255726 0
0 0.294652 0
0 0.331212 0
0 0.363348 0
0 0.389136 0
0 0.401266 0
0 0.330968 0
0.291173 0.231632 0.124086
0.158999 0.290562 0.0596323
0.0921798 0.347845 0
0.0340429 0.404242 0
0 0.444038 0
0 0.483925 0
0 0.523369 0
0 0.56202 0
0 0.600107 0
0.365133 0.323415 0.190799
0.235569 0.382483 0.126055
0.164935 0.440421 0.0624552
0.108812 0.497093 0.000442512
0.0539406 0.553521 0
0 0.593515 0
0 0.634028 0
0 0.674907 0
0 0.715877 0
0.465721 0.415747 0.24625
0.32845 0.47483 0.181521
0.241001 0.533242 0.117647
0.18291 0.590402 0.0555428
0.128679 0.64686 0
0.0748913 0.70338 0
0.00535592 0.74342 0
0 0.7841 0
0 0.825315 0
0.565057 0.508476 0.30341
0.427085 0.567575 0.238712
0.320012 0.626276 0.174578
0.256992 0.683909 0.112123
0.202274 0.740658 0.0514687
0.149081 0.797055 0
0.0960555 0.853651 0
0.0269627 0.89369 0
0 0.934401 0
0.66389 0.601511 0.361883
0.528878 0.660578 0.297246
0.403006 0.719493 0.232898
0.332158 0.777493 0.170062
0.275547 0.834607 0.109026
0.222354 0.891157 0.0497597
0.169848 0.947555 0
0.117357 1 0
0.0486305 1 0
0.762463 0.694759 0.421424
0.632136 0.753811 0.356878
0.490318 0.812848 0.292332
0.409216 0.871153 0.22916
0.349233 0.928618 0.167697
0.295216 0.985412 0.108019
0.242878 1 0.0501106
0.19086 1 0
0.138781 1 0
0.0196536 0 0
0.00491341 0 0
0.00477607 0 0
0 0.0229191 0
0 0.051957 0
0 0.0846418 0
0 0.119661 0
0 0.156497 0
0 0.194766 0
0.109255 0 0.0210575
0.112093 0.0845045 0.0702983
0.0751659 0.115648 0
0.0367285 0.0641184 0
0.00390631 0.0697185 0
0 0.0982223 0
0 0.13489 0
0 0.177005 0
0 0.223484 0
0.322515 0.113161 0.0741741
0.19736 0.18909 0.109422
0.130495 0.245701 0.0642557
0.0610208 0.284352 0
0.00531014 0.319646 0
0 0.352224 0
0 0.380606 0
0 0.402075 0
0 0.409308 0
0.385443 0.204227 0.142016
0.268299 0.280705 0.0962387
0.205051 0.337911 0.0374304
0.147906 0.394339 0
0.0781109 0.434073 0
0.0159457 0.473426 0
0 0.511803 0
0 0.549462 0
0 0.587045 0
0.469795 0.296025 0.194018
0.348791 0.372778 0.133928
0.279454 0.430594 0.0714427
0.223102 0.487251 0.0116426
0.168185 0.543725 0
0.0986801 0.583688 0
0.0340276 0.623972 0
0 0.664271 0
0 0.704402 0
0.566949 0.388373 0.247852
0.437476 0.465278 0.184817
0.35491 0.523552 0.121584
0.297032 0.580652 0.0607156
0.242771 0.63711 0.00216678
0.189014 0.69366 0
0.11986 0.7337 0
0.0541543 0.774227 0
0 0.815152 0
0.665125 0.481102 0.306798
0.532753 0.558083 0.242161
0.433036 0.616693 0.17847
0.370932 0.674235 0.116945
0.316304 0.730953 0.0577554
0.263127 0.787366 0.000839246
0.210132 0.843992 0
0.141299 0.884031 0
0.0750439 0.924651 0
0.763455 0.574136 0.369207
0.632303 0.651148 0.303593
0.514778 0.709972 0.239582
0.445838 0.767895 0.177554
0.389517 0.824964 0.1178
0.33637 0.881498 0.0604257
0.283879 0.937911 0.00547799
0.231418 0.994598 0
0.162875 1 0
0.861708 0.667384 0.434119
0.734218 0.744396 0.368002
0.600549 0.803372 0.303746
0.522469 0.861601 0.241276
0.463081 0.919005 0.181033
0.409186 0.975784 0.123171
0.356878 1 0.0678264
0.304875 1 0.0152743
0.252827 1 0
0.122499 0 0.163027
0.088365 0 0.0986343
0.0357519 0 0.0359045
0 0.0161288 0
0.00596628 0.0325322 0
0.0109255 0.05626 0
0.00144961 0.0869154 0
0 0.121477 0
0 0.158511 0
0.211048 0 0.242847
0.197024 0.00709545 0.195438
0.13019 0.100145 0.132738
0.116167 0.0297856 0.057969
0.11191 0.0308995 0
0.0920272 0.0573892 0
0.0684062 0.092958 0
0.0437171 0.134295 0
0.0185855 0.180255 0
0.411017 0.0842603 0.323354
0.293645 0.160281 0.276356
0.244022 0.23476 0.231296
0.206043 0.266819 0.121111
0.170672 0.298222 0.0115206
0.137453 0.328344 0
0.105867 0.356603 0
0.0753948 0.382391 0
0.0457008 0.40441 0
0.503853 0.175891 0.385183
0.375265 0.252323 0.338399
0.321691 0.327214 0.293278
0.263279 0.384009 0.231571
0.196506 0.423468 0.141314
0.141817 0.460945 0.0453193
0.0917678 0.498116 0
0.0500954 0.5346 0
0.0183566 0.569833 0
0.58967 0.268116 0.440635
0.45626 0.344823 0.395407
0.396506 0.420279 0.351339
0.338537 0.477089 0.289876
0.28304 0.533745 0.22948
0.214481 0.573724 0.143877
0.152941 0.613428 0.0506294
0.0978714 0.652522 0
0.0473793 0.691371 0
0.677928 0.360708 0.484459
0.542397 0.437568 0.444068
0.47126 0.513527 0.403174
0.412268 0.570657 0.342367
0.357443 0.627222 0.283192
0.303456 0.683879 0.224979
0.234775 0.723934 0.14229
0.170687 0.764233 0.0533303
0.111238 0.804562 0
0.769924 0.45359 0.467826
0.634852 0.530526 0.473686
0.547997 0.606882 0.443839
0.485771 0.664393 0.384619
0.430777 0.721141 0.328008
0.377417 0.777615 0.272892
0.324331 0.834302 0.218402
0.255802 0.874372 0.138582
0.190585 0.914855 0.0542763
0.864622 0.5467 0.415763
0.73228 0.623682 0.377371
0.627924 0.700328 0.435218
0.560098 0.758175 0.392523
0.503777 0.815229 0.349218
0.450523 0.871778 0.304509
0.397971 0.928252 0.258198
0.34551 0.98497 0.210391
0.277165 1 0.134463
0.960861 0.639994 0.457572
0.832868 0.716991 0.406546
0.711666 0.793851 0.362295
0.636011 0.851987 0.303227
0.577066 0.909361 0.249912
0.523217 0.966125 0.205768
0.470893 1 0.196185
0.418891 1 0.236088
0.366857 1 0.202106
0.200122 0 0.26685
0.0521096 0 0.202258
0.0966506 0 0.138872
0.0520485 0 0.0772869
0.00891127 0.030457 0.00869764
0.00892653 0.0525673 0
0.0271305 0.0728771 0
0.0364538 0.0990616 0
0.0337377 0.130922 0
0.275822 0 0.346883
0.118761 0 0.299657
0.195224 0.0418555 0.236591
0.151308 0.0134279 0.175158
0.118685 0.0233616 0.107897
0.133776 0.0374609 0.0256046
0.139773 0.0641947 0
0.130983 0.101274 0
0.114809 0.145022 0
0.379889 0.0379644 0.428229
0.343969 0.11426 0.381292
0.315969 0.189471 0.335912
0.262028 0.246662 0.274022
0.248905 0.268788 0.198642
0.244373 0.290898 0.087541
0.223926 0.316503 0
0.199741 0.340826 0
0.174533 0.361715 0
0.594675 0.146609 0.510216
0.467231 0.223148 0.463203
0.415366 0.298589 0.417487
0.374395 0.373419 0.373053
0.33962 0.406165 0.262562
0.305669 0.439384 0.15259
0.272725 0.473121 0.0429999
0.240757 0.507362 0
0.209644 0.542184 0
0.69781 0.239384 0.573648
0.558038 0.316091 0.52668
0.494041 0.39176 0.480766
0.451499 0.466484 0.436164
0.396048 0.523537 0.374426
0.331151 0.563272 0.283894
0.277562 0.601099 0.18761
0.227939 0.63888 0.0905623
0.18616 0.676295 0
0.789334 0.332418 0.635035
0.647318 0.409247 0.588403
0.570809 0.485283 0.542565
0.526436 0.560204 0.498039
0.471183 0.617029 0.436316
0.41706 0.67393 0.37525
0.34966 0.714046 0.289357
0.28893 0.753811 0.195697
0.234287 0.792935 0.100404
0.879561 0.425605 0.693736
0.739422 0.50251 0.647807
0.64828 0.578866 0.602411
0.600488 0.654139 0.558267
0.544945 0.711025 0.49662
0.491295 0.767681 0.435843
0.438117 0.824521 0.375692
0.370214 0.864683 0.292454
0.306737 0.904952 0.202502
0.97113 0.518914 0.74905
0.835218 0.595865 0.704402
0.728176 0.672496 0.659876
0.6748 0.748119 0.616495
0.618097 0.805219 0.555001
0.564538 0.861875 0.494606
0.511849 0.918456 0.435035
0.459312 0.975296 0.376059
0.391348 1 0.294881
1 0.612345 0.799847
0.934096 0.689311 0.757427
0.81146 0.76614 0.714397
0.750301 0.8421 0.672312
0.691325 0.899474 0.611048
0.637278 0.956283 0.551156
0.584817 1 0.492332
0.532738 1 0.434302
0.480674 1 0.376806
0.215564 0 0.372992
0.0481117 0 0.308293
0.0907149 0 0.244572
0.116884 0 0.182452
0.0773785 0.0093843 0.121202
0.0304265 0.0472725 0.05066
0.0167697 0.0753643 0
0.0297704 0.097673 0
0.0489967 0.12108 0
0.298283 0 0.453056
0.129351 0 0.406027
0.221042 0 0.34255
0.21648 0 0.2804
0.175158 0.00639353 0.219089
0.133669 0.0373388 0.150195
0.135256 0.0620737 0.0825666
0.154696 0.0885481 0
0.164981 0.123766 0
0.406744 0 0.53434
0.248432 0.0692454 0.487434
0.366094 0.144808 0.441688
0.329335 0.202167 0.379294
0.281666 0.258946 0.317739
0.248432 0.286213 0.25005
0.26331 0.298726 0.1673
0.269184 0.314015 0.059678
0.260319 0.33077 0
0.535607 0.100206 0.61651
0.418692 0.176867 0.569543
0.479622 0.252857 0.523583
0.445808 0.328359 0.478828
0.393637 0.386419 0.416983
0.381674 0.410513 0.341314
0.377554 0.436408 0.229862
0.357046 0.468132 0.114977
0.33254 0.501671 0.00138857
0.761639 0.210086 0.698528
0.635615 0.28687 0.651545
0.581964 0.362875 0.605417
0.542367 0.438117 0.560403
0.504906 0.513237 0.516274
0.471061 0.546563 0.405112
0.43949 0.579751 0.295399
0.407218 0.614008 0.185519
0.375448 0.649042 0.0759442
0.881376 0.303487 0.762493
0.739162 0.380331 0.715541
0.663905 0.456519 0.669245
0.62002 0.531777 0.624048
0.581643 0.606561 0.579767
0.528115 0.663844 0.517998
0.464637 0.7037 0.427253
0.412085 0.741619 0.330694
0.363088 0.779431 0.23331
0.979873 0.39704 0.825467
0.837263 0.473945 0.778668
0.744518 0.550362 0.732341
0.695949 0.625818 0.687053
0.656672 0.700587 0.64271
0.60322 0.757504 0.580941
0.55024 0.814618 0.519661
0.483833 0.854841 0.433433
0.423896 0.894606 0.339361
1 0.490654 0.887266
0.93518 0.56759 0.840742
0.826123 0.644221 0.794491
0.771435 0.719951 0.749249
0.730694 0.794888 0.704967
0.677134 0.851728 0.643198
0.624475 0.908507 0.582025
0.57203 0.96553 0.521309
0.504845 1 0.437583
1 0.584314 0.947707
1 0.661265 0.90161
0.91014 0.738079 0.855604
0.847593 0.814069 0.810529
0.804425 0.889265 0.76643
0.750332 0.946181 0.704662
0.697795 1 0.643626
0.645731 1 0.583169
0.593713 1 0.523156
0.256428 0 0.480507
0.0876783 0 0.415808
0 0 0.351781
0.16054 0 0.288991
0.14229 0 0.227161
0.102892 0.0263828 0.165942
0.0539559 0.0668345 0.0939345
0.0309453 0.0994125 0.0299687
0.0334936 0.125673 0
0.341924 0 0.560662
0.16968 0 0.513695
0.0607004 0 0.449744
0.263462 0 0.386984
0.240436 0 0.325139
0.200122 0.0194247 0.263874
0.154528 0.0593576 0.193149
0.142306 0.0933394 0.12903
0.156527 0.124544 0.0552071
0.442939 0 0.641535
0.2748 0.0257572 0.594644
0.22945 0.101381 0.548577
0.381582 0.158648 0.48571
0.347311 0.215122 0.423713
0.303319 0.271397 0.362325
0.261189 0.300832 0.293126
0.262745 0.314626 0.225193
0.282307 0.321965 0.136858
0.561318 0.0546731 0.723384
0.399054 0.131334 0.676493
0.509194 0.207691 0.63032
0.506111 0.283696 0.58526
0.461692 0.342214 0.523018
0.413275 0.400977 0.461418
0.37995 0.432105 0.393484
0.394705 0.450767 0.31046
0.400397 0.475196 0.202533
0.686809 0.163607 0.80557
0.539757 0.240421 0.758648
0.635737 0.316808 0.712352
0.608911 0.392599 0.667063
0.575799 0.468254 0.62266
0.524956 0.526558 0.560845
0.514046 0.551003 0.485023
0.510552 0.577462 0.373358
0.490303 0.61004 0.258228
0.840055 0.27422 0.887648
0.795666 0.35111 0.840711
0.744091 0.427497 0.794324
0.706798 0.503136 0.748882
0.671016 0.578378 0.70428
0.635523 0.653696 0.660319
0.603067 0.687129 0.54905
0.572534 0.720378 0.43917
0.540978 0.754681 0.329091
1 0.368017 0.951858
0.917311 0.444938 0.904952
0.831327 0.521462 0.858457
0.786053 0.597147 0.812833
0.748135 0.672251 0.768063
0.711986 0.747173 0.72398
0.659831 0.804623 0.662226
0.597436 0.844572 0.571313
0.545754 0.88249 0.474556
1 0.461936 1
1 0.538857 0.968704
0.91725 0.615534 0.922148
0.863951 0.691402 0.876417
0.823774 0.766567 0.83154
0.787076 0.841337 0.787396
0.734905 0.89839 0.725597
0.682872 0.955657 0.664195
0.617304 0.995972 0.577752
1 0.555856 1
1 0.632792 1
1 0.709621 0.985321
0.941741 0.785687 0.939559
0.89868 0.861021 0.894621
0.861189 0.935821 0.850446
0.808972 0.992706 0.788632
0.757137 1 0.727291
0.705348 1 0.666316
0.303655 0 0.5888
0.134768 0 0.524086
0 0 0.459754
0.123033 0 0.396445
0.194049 0 0.334096
0.167727 0 0.272419
0.128542 0.0468605 0.2112
0.0784619 0.089128 0.138094
0.0491798 0.125017 0.0731975
0.388937 0 0.66894
0.214908 0 0.622003
0.0757916 0 0.557733
0.260761 0 0.494469
0.293904 0 0.43212
0.2654 0 0.370428
0.22562 0.0422217 0.309194
0.177829 0.0882124 0.237064
0.156054 0.12961 0.172976
0.483101 0 0.749493
0.312016 0 0.702617
0.184009 0.0595407 0.656291
0.401785 0.116609 0.593011
0.40206 0.172671 0.530587
0.368383 0.228428 0.468818
0.326482 0.284749 0.407507
0.280476 0.315038 0.336568
0.26833 0.332036 0.272221
0.594858 0.0105898 0.830961
0.427024 0.0871595 0.784115
0.319997 0.163622 0.737758
0.546319 0.239902 0.692409
0.520516 0.298726 0.629816
0.479545 0.357717 0.56788
0.434028 0.417105 0.506416
0.391287 0.452461 0.437003
0.392523 0.474907 0.368841
0.713573 0.117723 0.912993
0.55053 0.194537 0.866133
0.610941 0.271153 0.819699
0.661021 0.347417 0.774182
0.639307 0.42356 0.729519
0.593301 0.482307 0.667384
0.54493 0.541451 0.605753
0.511849 0.573175 0.537667
0.526726 0.592706 0.454444
0.835752 0.227695 0.995193
0.682536 0.304601 0.948302
0.780911 0.381216 0.901808
0.767391 0.457267 0.856153
0.738338 0.533013 0.811292
0.70602 0.608774 0.767102
0.656123 0.66717 0.705303
0.646067 0.691661 0.629374
0.643214 0.718166 0.517571
0.970901 0.338766 1
0.930297 0.415717 1
0.90074 0.492348 0.983886
0.867826 0.568338 0.938109
0.834333 0.643824 0.893111
0.800427 0.719142 0.848753
0.766232 0.794614 0.804913
0.734768 0.828092 0.693584
0.705089 0.861326 0.583581
1 0.432853 1
1 0.509804 1
0.995712 0.586542 1
0.949676 0.662593 1
0.912413 0.738018 0.957107
0.877195 0.813107 0.912627
0.842481 0.888167 0.868681
0.791333 0.945739 0.806912
0.729809 0.985748 0.715892
1 0.527016 1
1 0.603967 1
1 0.680812 1
1 0.757 1
0.989242 0.832502 1
0.952697 0.907546 0.976333
0.917601 0.982391 0.932311
0.866407 1 0.870527
0.815137 1 0.809049
0.350713 0 0.697475
0.18262 0 0.632776
0.0241398 0 0.568246
0 0 0.504555
0.221576 0 0.441733
0.22298 0 0.379644
0.193256 0.0165103 0.318059
0.154314 0.0705425 0.256855
0.103487 0.114168 0.18291
0.436316 0 0.77763
0.262165 0 0.730724
0.108812 0 0.666255
0.0354314 0 0.602609
0.326863 0 0.539803
0.32195 0 0.477699
0.290837 0.0197604 0.416114
0.251392 0.0731975 0.354879
0.202274 0.124224 0.281712
0.52575 0 0.857969
0.353887 0 0.811124
0.203693 0.0196689 0.764599
0.164004 0.0765698 0.700969
0.438819 0.13228 0.638163
0.425071 0.187518 0.576013
0.391318 0.24329 0.514382
0.350668 0.300694 0.453101
0.302647 0.33254 0.380835
0.631693 0 0.939101
0.462409 0.0446174 0.892302
0.318929 0.121004 0.845777
0.529778 0.197299 0.800153
0.564935 0.256306 0.73724
0.538186 0.315435 0.674983
0.499367 0.374899 0.61323
0.45597 0.434943 0.551843
0.409232 0.472953 0.480751
0.746532 0.0728771 1
0.580224 0.14963 0.97406
0.448783 0.226352 0.92752
0.682948 0.302892 0.881788
0.691691 0.379416 0.836881
0.65507 0.438544 0.774456
0.611658 0.498009 0.712551
0.565469 0.557961 0.651041
0.522438 0.594186 0.581491
0.863935 0.181582 1
0.702083 0.258488 1
0.596551 0.335256 1
0.80853 0.411673 0.963729
0.796704 0.487846 0.918654
0.770977 0.56405 0.874235
0.724605 0.622843 0.812161
0.676478 0.682063 0.75053
0.643732 0.713832 0.682338
0.983474 0.29221 1
0.829557 0.369162 1
0.899855 0.445945 1
0.920577 0.52224 1
0.89752 0.598123 1
0.868101 0.673854 0.955993
0.836393 0.749706 0.911955
0.787228 0.808164 0.850187
0.777859 0.832609 0.774182
1 0.403616 1
0.980636 0.480598 1
1 0.557412 1
1 0.633646 1
0.994949 0.709392 1
0.963043 0.784833 1
0.930282 0.860227 0.993652
0.896986 0.935821 0.949905
0.867369 0.968963 0.839017
1 0.497917 1
1 0.574884 1
1 0.651774 1
1 0.728084 1
1 0.803815 1
1 0.879133 1
1 0.954269 1
0.973083 1 1
0.922713 1 0.951949
0.397635 0 0.806424
0.230762 0 0.741756
0.0652018 0 0.677104
0 0 0.613123
0.152041 0 0.54992
0.263661 0 0.487434
0.250446 0 0.425498
0.218891 0.040528 0.363989
0.180148 0.097322 0.30277
0.483803 0 0.886595
0.310369 0 0.839734
0.148531 0 0.775128
0.0363317 0 0.711192
0.302602 0 0.648035
0.365545 0 0.58555
0.349142 0.00271611 0.523613
0.316533 0.0558633 0.462074
0.277348 0.11313 0.400854
0.570001 0 0.966796
0.398367 0 0.919982
0.236225 0 0.873335
0.135134 0.039292 0.80943
0.434485 0.0948348 0.746273
0.469596 0.149737 0.683787
0.449424 0.205097 0.62182
0.415396 0.262135 0.560281
0.375509 0.322026 0.499016
0.670878 0 1
0.501503 0.00383001 1
0.342748 0.0800336 0.954269
0.269871 0.156207 0.9084
0.582345 0.215244 0.845197
0.585992 0.274403 0.782635
0.558328 0.333898 0.720577
0.520821 0.393957 0.658946
0.47892 0.454871 0.59762
0.782055 0.0293736 1
0.615076 0.10602 1
0.461006 0.182696 1
0.438422 0.259358 0.989853
0.725673 0.336095 0.944701
0.707652 0.395514 0.882017
0.672587 0.455253 0.819837
0.631159 0.515419 0.758099
0.586786 0.57615 0.696666
0.897063 0.136233 1
0.73315 0.213107 1
0.586221 0.289952 1
0.7953 0.366613 1
0.840925 0.443137 1
0.828367 0.519722 0.981765
0.787976 0.578882 0.919463
0.743511 0.638422 0.857572
0.697063 0.698451 0.796048
1 0.24596 1
0.853468 0.322911 1
0.718654 0.399802 1
0.944671 0.476356 1
0.949676 0.552605 1
0.92932 0.628733 1
0.902174 0.704967 1
0.855756 0.763775 0.95729
0.807919 0.822965 0.895644
1 0.357031 1
0.978103 0.434012 1
0.871839 0.510918 1
1 0.587396 1
1 0.663462 1
1 0.739269 1
0.998123 0.81503 1
0.966903 0.890944 1
0.918303 0.949416 0.995377
1 0.468681 1
1 0.545693 1
1 0.622614 1
1 0.699077 1
1 0.775036 1
1 0.85066 1
1 0.926101 1
1 1 1
1 1 1
