luts/Rainbow Glow.cube
TITLE "Generated by Resolve"
LUT_3D_SIZE 5
0 0 0
0 0 0
0 0.0916915 0
0 0.16173 0
0 0.238483 0
0.230686 0.140764 0.0430152
0.0192569 0.255726 0
0 0.331212 0
0 0.389136 0
0 0.330968 0
0.365133 0.323415 0.190799
0.164935 0.440421 0.0624552
0.0539406 0.553521 0
0 0.634028 0
0 0.715877 0
0.565057 0.508476 0.30341
0.320012 0.626276 0.174578
0.202274 0.740658 0.0514687
0.0960555 0.853651 0
0 0.934401 0
0.762463 0.694759 0.421424
0.490318 0.812848 0.292332
0.349233 0.928618 0.167697
0.242878 1 0.0501106
0.138781 1 0
0.122499 0 0.163027
0.0357519 0 0.0359045
0.00596628 0.0325322 0
0.00144961 0.0869154 0
0 0.158511 0
0.411017 0.0842603 0.323354
0.244022 0.23476 0.231296
0.170672 0.298222 0.0115206
0.105867 0.356603 0
0.0457008 0.40441 0
0.58967 0.268116 0.440635
0.396506 0.420279 0.351339
0.28304 0.533745 0.22948
0.152941 0.613428 0.0506294
0.0473793 0.691371 0
0.769924 0.45359 0.467826
0.547997 0.606882 0.443839
0.430777 0.721141 0.328008
0.324331 0.834302 0.218402
0.190585 0.914855 0.0542763
0.960861 0.639994 0.457572
0.711666 0.793851 0.362295
0.577066 0.909361 0.249912
0.470893 1 0.196185
0.366857 1 0.202106
0.215564 0 0.372992
0.0907149 0 0.244572
0.0773785 0.0093843 0.121202
0.0167697 0.0753643 0
0.0489967 0.12108 0
0.406744 0 0.53434
0.366094 0.144808 0.441688
0.281666 0.258946 0.317739
0.26331 0.298726 0.1673
0.260319 0.33077 0
0.761639 0.210086 0.698528
0.581964 0.362875 0.605417
0.504906 0.513237 0.516274
0.43949 0.579751 0.295399
0.375448 0.649042 0.0759442
0.979873 0.39704 0.825467
0.744518 0.550362 0.732341
0.656672 0.700587 0.64271
0.55024 0.814618 0.519661
0.423896 0.894606 0.339361
1 0.584314 0.947707
0.91014 0.738079 0.855604
0.804425 0.889265 0.76643
0.697795 1 0.643626
0.593713 1 0.523156
0.303655 0 0.5888
0 0 0.459754
0.194049 0 0.334096
0.128542 0.0468605 0.2112
0.0491798 0.125017 0.0731975
0.483101 0 0.749493
0.184009 0.0595407 0.656291
0.40206 0.172671 0.530587
0.326482 0.284749 0.407507
0.26833 0.332036 0.272221
0.713573 0.117723 0.912993
0.610941 0.271153 0.819699
0.639307 0.42356 0.729519
0.54493 0.541451 0.605753
0.526726 0.592706 0.454444
0.970901 0.338766 1
0.90074 0.492348 0.983886
0.834333 0.643824 0.893111
0.766232 0.794614 0.804913
0.705089 0.861326 0.583581
1 0.527016 1
1 0.680812 1
0.989242 0.832502 1
0.917601 0.982391 0.932311
0.815137 1 0.809049
0.397635 0 0.806424
0.0652018 0 0.677104
0.152041 0 0.54992
0.250446 0 0.425498
0.180148 0.097322 0.30277
0.570001 0 0.966796
0.236225 0 0.873335
0.434485 0.0948348 0.746273
0.449424 0.205097 0.62182
0.375509 0.322026 0.499016
0.782055 0.0293736 1
0.461006 0.182696 1
0.725673 0.336095 0.944701
0.672587 0.455253 0.819837
0.586786 0.57615 0.696666
1 0.24596 1
0.718654 0.399802 1
0.949676 0.552605 1
0.902174 0.704967 1
0.807919 0.822965 0.895644
1 0.468681 1
1 0.622614 1
1 0.775036 1
1 0.926101 1
1 1 1
