luts/SKINTONE_01.cube
TITLE "Generated by Resolve"
LUT_3D_SIZE 33
0.0103151 0.0103151 0.0103151
0.0332799 0.01149 0.01149
0.0572366 0.0130617 0.0130617
0.0816663 0.0147707 0.0147707
0.106126 0.0162051 0.0162051
0.13109 0.0177768 0.0177768
0.156268 0.0192264 0.0192264
0.181582 0.0204776 0.0204776
0.207218 0.0216831 0.0216831
0.233539 0.0231022 0.0231022
0.259846 0.0241855 0.0241855
0.286641 0.0253147 0.0253147
0.313832 0.0263981 0.0263981
0.341161 0.0272374 0.0272374
0.368841 0.027985 0.027985
0.397314 0.0289311 0.0289311
0.425742 0.0295109 0.0295109
0.454673 0.0300603 0.0300603
0.484245 0.0306706 0.0306706
0.513863 0.0309606 0.0309606
0.543862 0.0311284 0.0311284
0.574762 0.0314641 0.0314641
0.605585 0.0314336 0.0314336
0.63682 0.0312963 0.0312963
0.668971 0.0312963 0.0312963
0.700954 0.0309453 0.0309453
0.733394 0.0304723 0.0304723
0.766751 0.0301213 0.0301213
0.799649 0.0295109 0.0295109
0.83328 0.028687 0.028687
0.867796 0.0280003 0.0280003
0.902068 0.026978 0.026978
0.93666 0.025864 0.025864
0.0163729 0.0373693 0.0163729
0.040177 0.0390173 0.0178683
0.0644999 0.0405432 0.0192569
0.0894179 0.0423133 0.0208591
0.11429 0.0437171 0.0221103
0.139452 0.0450599 0.0232853
0.165286 0.0466468 0.0246891
0.191104 0.0478828 0.0257572
0.217243 0.0490425 0.0267491
0.244038 0.05037 0.0278935
0.270893 0.0514076 0.028748
0.298054 0.0523232 0.0294804
0.325963 0.0534524 0.0304112
0.353857 0.0542 0.0309606
0.382132 0.0548562 0.0314183
0.411063 0.0556039 0.0319677
0.440238 0.0561685 0.0323186
0.469657 0.0565194 0.0324712
0.499931 0.0570382 0.0327611
0.530159 0.0571908 0.0327001
0.560784 0.0572366 0.0325322
0.591959 0.0573129 0.0323949
0.623636 0.0572671 0.0321202
0.655451 0.0569772 0.0316167
0.68806 0.0568093 0.03122
0.720668 0.0563363 0.030518
0.753536 0.0557259 0.0296941
0.786908 0.0550851 0.0288243
0.820523 0.054551 0.0280766
0.854475 0.0536202 0.0269322
0.888991 0.0527657 0.025864
0.923568 0.0517433 0.0246281
0.958206 0.0505531 0.0232395
0.021912 0.0652628 0.021912
0.0463569 0.0671702 0.0234989
0.0710613 0.0686656 0.0246586
0.0960861 0.0701152 0.0257725
0.121721 0.071809 0.0271
0.147356 0.0731212 0.0280613
0.173312 0.0743725 0.0289464
0.199939 0.0758221 0.0300145
0.226566 0.0769055 0.0307317
0.253544 0.0779126 0.031342
0.281254 0.0791333 0.0321508
0.308965 0.0799725 0.0325933
0.337041 0.080705 0.032929
0.365881 0.0816358 0.0334173
0.394705 0.0821698 0.0335393
0.423926 0.0826123 0.0335546
0.453956 0.0832227 0.0337224
0.483955 0.0834516 0.0335088
0.514305 0.0835889 0.0332189
0.54551 0.0838483 0.0330205
0.576699 0.083772 0.0325017
0.608225 0.0835737 0.0318456
0.640574 0.0835126 0.0313268
0.672801 0.0831006 0.0304723
0.705379 0.0825971 0.0295262
0.738628 0.0821698 0.0286564
0.771939 0.081529 0.0275883
0.805371 0.0807202 0.0263523
0.839246 0.0801556 0.0253605
0.873243 0.0791638 0.0239719
0.907469 0.0780957 0.0225071
0.942138 0.0771038 0.0211185
0.976913 0.0760052 0.0196536
0.0270695 0.0939498 0.0270695
0.0516213 0.0955673 0.0281529
0.0770428 0.0973526 0.0293736
0.10248 0.0987411 0.0302434
0.128222 0.100069 0.0310063
0.15462 0.101625 0.0319677
0.181048 0.102815 0.0325628
0.207828 0.103914 0.0330663
0.235309 0.105226 0.033753
0.262791 0.106142 0.0340429
0.290639 0.106966 0.0342412
0.319234 0.107973 0.0345922
0.347845 0.108598 0.0345922
0.376822 0.109117 0.0344549
0.406607 0.109834 0.0344854
0.436347 0.110155 0.0341497
0.466468 0.110353 0.0336919
0.497414 0.110735 0.0333715
0.528283 0.110719 0.0326848
0.559503 0.110597 0.0319066
0.591531 0.110643 0.0312505
0.623453 0.110323 0.0302892
0.65568 0.109911 0.029221
0.68867 0.109651 0.0282902
0.721462 0.109026 0.027039
0.754482 0.108309 0.0257115
0.788251 0.10779 0.0245518
0.821775 0.10692 0.0231174
0.855177 0.106081 0.0216983
0.889586 0.105287 0.020325
0.923568 0.104189 0.0187228
0.957702 0.103014 0.0170443
0.992447 0.102052 0.0155795
0.0314488 0.123186 0.0314488
0.0563821 0.124758 0.0322576
0.0821393 0.126421 0.0331426
0.10808 0.127855 0.0337835
0.134279 0.129137 0.0342565
0.160876 0.130358 0.0346685
0.188052 0.131716 0.035172
0.215305 0.132723 0.0353399
0.243107 0.133806 0.0355383
0.271244 0.134737 0.0355993
0.299611 0.135454 0.0354467
0.328328 0.13608 0.0352026
0.357824 0.136873 0.0350805
0.38732 0.13727 0.0345922
0.417304 0.137667 0.0340734
0.447791 0.138018 0.0335088
0.478355 0.138094 0.0327001
0.509285 0.138064 0.0317998
0.540978 0.138216 0.0310369
0.572564 0.137987 0.0299382
0.604501 0.137697 0.0287938
0.637018 0.137484 0.0277104
0.669429 0.13695 0.0263676
0.702113 0.136339 0.024979
0.73547 0.135927 0.023743
0.768566 0.135164 0.0222324
0.801816 0.134295 0.0206455
0.835599 0.133639 0.0192721
0.868788 0.132738 0.0177157
0.902525 0.131685 0.016022
0.936797 0.130831 0.0145418
0.970672 0.129671 0.0127871
1 0.128435 0.011017
0.0349126 0.152972 0.0349126
0.0602426 0.154498 0.0354162
0.0861982 0.155856 0.0357671
0.112673 0.157336 0.0361791
0.139437 0.158648 0.036408
0.16643 0.159747 0.0364385
0.19411 0.161044 0.0366217
0.221851 0.161959 0.0364385
0.249943 0.162768 0.0361639
0.278553 0.163577 0.0358434
0.307607 0.16434 0.035462
0.336812 0.164828 0.0348363
0.366674 0.165438 0.034287
0.396674 0.165759 0.0334936
0.426963 0.165927 0.0325628
0.457664 0.166049 0.0315862
0.488914 0.166232 0.0306554
0.520134 0.166064 0.0294499
0.551919 0.165972 0.0283055
0.583871 0.165728 0.0270237
0.615946 0.165301 0.0256199
0.648264 0.164797 0.024155
0.681193 0.164446 0.0228428
0.713863 0.163745 0.0212558
0.746822 0.163104 0.0197452
0.780056 0.162417 0.0182345
0.813184 0.161532 0.016556
0.846418 0.160586 0.0148623
0.879805 0.15993 0.0134585
0.913237 0.158816 0.0116732
0.946792 0.157702 0.00991836
0.980652 0.15671 0.00831617
1 0.155489 0.0065156
0.0370489 0.18294 0.0370489
0.0630503 0.18471 0.0374914
0.0894331 0.186007 0.0374914
0.116167 0.187198 0.0373693
0.143557 0.188617 0.0374304
0.171023 0.189609 0.0370947
0.19884 0.190494 0.0366522
0.227359 0.191577 0.036347
0.255909 0.192248 0.0356756
0.284825 0.192813 0.0349126
0.314458 0.193576 0.034287
0.344091 0.193942 0.033341
0.374075 0.194186 0.0322881
0.40473 0.194614 0.0313725
0.43534 0.194629 0.0301366
0.466239 0.194553 0.0288243
0.497826 0.194675 0.0276951
0.529305 0.194415 0.0262608
0.561028 0.194064 0.0247807
0.593347 0.193881 0.0234531
0.625437 0.193347 0.0218814
0.657725 0.192721 0.0202487
0.690532 0.192264 0.0187991
0.723217 0.191562 0.0171664
0.755962 0.190753 0.0154574
0.789181 0.190112 0.013962
0.822065 0.189151 0.0122072
0.855024 0.188128 0.0104372
0.887984 0.187335 0.00891127
0.921294 0.186313 0.00720226
0.954498 0.185138 0.00540169
0.988052 0.184161 0.0037995
1 0.182864 0.00195315
0.0383001 0.213733 0.0383001
0.0644694 0.215091 0.0381476
0.0915541 0.216617 0.0380255
0.11873 0.2177 0.0375525
0.146258 0.218662 0.0369726
0.174456 0.219837 0.0365148
0.202731 0.2206 0.0357214
0.231373 0.221256 0.0348363
0.260685 0.22211 0.0340887
0.290028 0.222538 0.0330053
0.319692 0.222843 0.0318456
0.350011 0.223346 0.0308232
0.380316 0.223453 0.0294957
0.410925 0.223453 0.0281224
0.442176 0.223651 0.0269017
0.47332 0.223453 0.0254063
0.504692 0.223163 0.0238499
0.536599 0.223041 0.0224918
0.568383 0.222568 0.0208591
0.600351 0.222034 0.0192111
0.632868 0.221698 0.0177615
0.665141 0.220996 0.0160525
0.69749 0.220218 0.014313
0.730327 0.219638 0.0127871
0.762875 0.218738 0.0110323
0.795529 0.217792 0.00926223
0.828611 0.21706 0.00773632
0.861341 0.215991 0.00595102
0.893751 0.214954 0.00424201
0.92694 0.214008 0.00263981
0.959792 0.212757 0.000793469
0.99266 0.211475 0
1 0.210422 0
0.0383612 0.244968 0.0383612
0.0649424 0.246204 0.0378271
0.0922866 0.247364 0.037171
0.120104 0.248539 0.0365301
0.148104 0.249393 0.0356146
0.176455 0.250126 0.0346075
0.205447 0.251041 0.0337377
0.234501 0.25153 0.0325475
0.263905 0.251942 0.0312963
0.293889 0.252491 0.0301671
0.323919 0.252659 0.0287633
0.354238 0.252735 0.0273136
0.385153 0.252995 0.0260319
0.415976 0.252827 0.024445
0.447013 0.252583 0.0228733
0.47863 0.252552 0.0214542
0.510124 0.25214 0.0198062
0.541787 0.251652 0.0181277
0.573953 0.251362 0.0166476
0.605875 0.25069 0.0149081
0.637919 0.249943 0.0131533
0.670436 0.249424 0.0116274
0.702708 0.248585 0.00987259
0.735058 0.247669 0.00810254
0.767788 0.246952 0.00654612
0.800198 0.245899 0.00474556
0.832624 0.244785 0.00292973
0.865446 0.243915 0.00137331
0.897612 0.242832 0
0.93022 0.241581 0
0.963119 0.240543 0
0.995636 0.23917 0
1 0.237751 0
0.037171 0.276478 0.037171
0.0643015 0.277684 0.0363928
0.0920272 0.278599 0.0353399
0.120363 0.279698 0.0344549
0.148806 0.280369 0.0332341
0.177584 0.280903 0.0319524
0.206867 0.281529 0.0307317
0.236439 0.282017 0.0294194
0.266194 0.282246 0.0279545
0.296513 0.282628 0.026627
0.326818 0.282628 0.0250858
0.357366 0.282536 0.0234684
0.388266 0.282445 0.021912
0.419501 0.282368 0.0204166
0.450706 0.282002 0.0187228
0.482322 0.281743 0.0171817
0.513909 0.281254 0.0155032
0.545556 0.280613 0.0137484
0.577417 0.279957 0.0120241
0.609613 0.279454 0.0104677
0.641611 0.27863 0.0087129
0.673838 0.277867 0.00704967
0.706065 0.277012 0.00534066
0.738216 0.275975 0.00354009
0.770428 0.274907 0.00173953
0.802991 0.274067 0.000198367
0.835248 0.272892 0
0.867582 0.271748 0
0.899641 0.27071 0
0.93193 0.269337 0
0.964233 0.267948 0
0.996811 0.266789 0
1 0.265324 0
0.0348363 0.308095 0.0348363
0.0625925 0.309331 0.0339208
0.0907912 0.310063 0.0326238
0.119341 0.310674 0.0312657
0.148486 0.311498 0.0300603
0.177691 0.311864 0.0285801
0.207187 0.312123 0.027039
0.237263 0.312551 0.0256962
0.267323 0.312596 0.0240787
0.297642 0.312535 0.022446
0.32845 0.312627 0.0209659
0.359274 0.312428 0.0193332
0.390219 0.312078 0.0176089
0.421622 0.311894 0.016083
0.452903 0.31136 0.0143435
0.484352 0.31078 0.0125887
0.516106 0.310292 0.0109865
0.54789 0.309651 0.009308
0.579614 0.308812 0.00750744
0.611719 0.308171 0.00593576
0.643595 0.30721 0.00415045
0.675547 0.306218 0.00236515
0.707668 0.305272 0.000671397
0.739849 0.304295 0
0.771847 0.303105 0
0.804074 0.302052 0
0.836133 0.300816 0
0.868162 0.299504 0
0.899886 0.298283 0
0.932189 0.297047 0
0.964187 0.295537 0
0.996307 0.294133 0
1 0.292653 0
0.0318303 0.340047 0.0318303
0.0598306 0.34078 0.0304723
0.0887465 0.341634 0.0292058
0.117739 0.342016 0.0276646
0.147021 0.342275 0.0260777
0.176883 0.342763 0.0246891
0.206744 0.34284 0.0230564
0.236866 0.342809 0.0213931
0.267491 0.342962 0.0199283
0.298009 0.342702 0.018204
0.32874 0.342336 0.0164492
0.35996 0.342214 0.0149386
0.391058 0.341711 0.0131991
0.422278 0.341131 0.0114443
0.453925 0.340734 0.0099031
0.485344 0.339956 0.0081178
0.516854 0.339117 0.00630198
0.548775 0.338506 0.00476081
0.580468 0.337575 0.00297551
0.612222 0.336568 0.0011902
0.644282 0.33576 0
0.676066 0.3346 0
0.707851 0.333379 0
0.739971 0.332403 0
0.771832 0.331121 0
0.803662 0.329793 0
0.835737 0.328649 0
0.867491 0.327184 0
0.898878 0.325765 0
0.930968 0.324468 0
0.962768 0.322896 0
0.994522 0.321279 0
1 0.31986 0
0.0281987 0.371939 0.0281987
0.056672 0.372427 0.026688
0.0858015 0.372747 0.0250858
0.11548 0.373251 0.0236667
0.145174 0.373327 0.0220035
0.175158 0.373358 0.0203555
0.205509 0.373419 0.0187991
0.235859 0.373159 0.0170443
0.266438 0.372839 0.0153201
0.297475 0.372717 0.0138094
0.328389 0.372213 0.0120546
0.359426 0.371618 0.0102846
0.390829 0.371176 0.0087129
0.42208 0.370398 0.00691234
0.453452 0.369589 0.00512703
0.485206 0.368978 0.00360113
0.516716 0.368017 0.00180056
0.548257 0.366979 0
0.580118 0.366125 0
0.611734 0.36495 0
0.643397 0.36376 0
0.675364 0.362768 0
0.707042 0.361456 0
0.738674 0.360067 0
0.770581 0.358877 0
0.802167 0.357397 0
0.833783 0.355901 0
0.86566 0.35462 0
0.896864 0.353124 0
0.92845 0.351461 0
0.96025 0.349996 0
0.991745 0.348257 0
1 0.346517 0
0.024033 0.403449 0.024033
0.0531319 0.403937 0.0225986
0.0826581 0.403998 0.0208896
0.112596 0.404135 0.0193179
0.142687 0.404074 0.0176547
0.17293 0.40383 0.0159304
0.203403 0.40354 0.0142061
0.234241 0.403357 0.012665
0.264973 0.402808 0.0108797
0.295964 0.402319 0.00920119
0.327108 0.401755 0.0075227
0.358251 0.400992 0.00575265
0.389471 0.400168 0.0039826
0.421042 0.399512 0.00242618
0.452369 0.398505 0.000595102
0.483833 0.397498 0
0.51548 0.396567 0
0.546975 0.395407 0
0.5785 0.394186 0
0.6103 0.393149 0
0.641794 0.391775 0
0.67332 0.390372 0
0.705058 0.389151 0
0.736568 0.387655 0
0.768063 0.386145 0
0.799771 0.384817 0
0.831174 0.383169 0
0.862531 0.381491 0
0.893782 0.380133 0
0.9252 0.378393 0
0.956588 0.376638 0
0.988174 0.375097 0
1 0.373281 0
0.0196689 0.43473 0.0196689
0.0492409 0.435065 0.018265
0.0791638 0.434913 0.0165408
0.109285 0.434653 0.0148013
0.139849 0.434577 0.0132753
0.170306 0.434073 0.0114748
0.2009 0.433494 0.00968948
0.231922 0.433143 0.00813306
0.262852 0.432456 0.00637827
0.293858 0.431662 0.00459297
0.3252 0.431052 0.00302129
0.356329 0.430076 0.00120546
0.387549 0.429023 0
0.419028 0.428138 0
0.450446 0.427085 0
0.481819 0.425879 0
0.513466 0.424857 0
0.544823 0.423499 0
0.576196 0.42208 0
0.607736 0.420798 0
0.639277 0.41944 0
0.670665 0.417929 0
0.702266 0.416587 0
0.733593 0.414954 0
0.764889 0.413291 0
0.796262 0.411688 0
0.827695 0.410147 0
0.85893 0.408423 0
0.889967 0.406928 0
0.921263 0.405158 0
0.952468 0.403311 0
0.983673 0.401495 0
1 0.399863 0
0.0153201 0.465766 0.0153201
0.0449836 0.465537 0.0136263
0.0754101 0.465415 0.0120851
0.105776 0.464897 0.0102998
0.136324 0.464317 0.00852979
0.167269 0.463951 0.00698863
0.198062 0.463188 0.00521859
0.228931 0.462333 0.00340276
0.260151 0.461677 0.00181582
0.291188 0.46067 0
0.322332 0.459617 0
0.353796 0.458793 0
0.385016 0.457603 0
0.416251 0.456321 0
0.447745 0.455238 0
0.479026 0.453849 0
0.510323 0.45243 0
0.541909 0.45124 0
0.573205 0.449729 0
0.604486 0.448142 0
0.635981 0.446754 0
0.667216 0.44509 0
0.698451 0.443412 0
0.72987 0.441917 0
0.761105 0.440238 0
0.792248 0.438453 0
0.823606 0.436896 0
0.854673 0.43508 0
0.88539 0.433356 0
0.916655 0.431632 0
0.947829 0.429847 0
0.978866 0.427924 0
1 0.42623 0
0.0108186 0.496239 0.0108186
0.0407874 0.495811 0.00914015
0.0712596 0.495201 0.00738537
0.102098 0.494774 0.00582895
0.132784 0.493935 0.00401312
0.163577 0.493019 0.00218204
0.19472 0.492348 0.000610361
0.225711 0.491325 0
0.256764 0.490242 0
0.288106 0.489342 0
0.319203 0.488075 0
0.350347 0.486748 0
0.381781 0.485634 0
0.412985 0.484245 0
0.444221 0.48278 0
0.475685 0.481529 0
0.506889 0.479942 0
0.538064 0.478309 0
0.569497 0.476905 0
0.600687 0.475242 0
0.631861 0.473533 0
0.663264 0.472038 0
0.694362 0.470268 0
0.725444 0.468452 0
0.756741 0.46688 0
0.787793 0.465064 0
0.818799 0.463218 0
0.850004 0.461585 0
0.880583 0.45977 0
0.911574 0.457832 0
0.942763 0.456123 0
0.973693 0.454154 0
1 0.452201 0
0.00630198 0.526238 0.00630198
0.0364996 0.525582 0.00462348
0.0671244 0.524697 0.0027924
0.0979324 0.523842 0.00105287
0.128969 0.523064 0
0.159884 0.521996 0
0.190997 0.520989 0
0.22208 0.519844 0
0.253117 0.518532 0
0.284215 0.517189 0
0.315587 0.51606 0
0.346731 0.514611 0
0.377966 0.513191 0
0.409232 0.511757 0
0.44036 0.510124 0
0.471504 0.508476 0
0.502892 0.507057 0
0.534035 0.505364 0
0.565194 0.50367 0
0.59646 0.502068 0
0.627512 0.500252 0
0.658564 0.498451 0
0.689845 0.496864 0
0.720836 0.495003 0
0.751797 0.493126 0
0.78294 0.491447 0
0.813825 0.489525 0
0.844694 0.487587 0
0.875425 0.485985 0
0.906325 0.484001 0
0.937163 0.482002 0
0.968185 0.480217 0
0.998917 0.478187 0
0.0015259 0.555413 0.0015259
0.0320439 0.554742 0
0.0629129 0.553765 0
0.0937362 0.55259 0
0.124865 0.551629 0
0.15581 0.550332 0
0.186816 0.549004 0
0.21799 0.547753 0
0.24918 0.546426 0
0.280232 0.5449 0
0.311513 0.543542 0
0.342626 0.541955 0
0.373724 0.540307 0
0.404898 0.53872 0
0.436179 0.537179 0
0.467247 0.535424 0
0.498466 0.533791 0
0.52958 0.532067 0
0.560632 0.530251 0
0.591669 0.528435 0
0.622873 0.526787 0
0.653819 0.52488 0
0.684855 0.523079 0
0.715877 0.521263 0
0.746746 0.519341 0
0.777584 0.517388 0
0.808621 0.515663 0
0.839368 0.513664 0
0.869795 0.511803 0
0.900725 0.509941 0
0.931456 0.507897 0
0.962142 0.505852 0
0.992981 0.504036 0
0 0.584283 0
0.0273289 0.583154 0
0.0584421 0.582147 0
0.0893721 0.580835 0
0.120333 0.579446 0
0.151568 0.578256 0
0.182559 0.576715 0
0.213565 0.575143 0
0.244846 0.573785 0
0.275914 0.572137 0
0.306981 0.570474 0
0.338293 0.568994 0
0.369329 0.567239 0
0.400366 0.565438 0
0.431647 0.563867 0
0.462684 0.562051 0
0.49369 0.560204 0
0.52491 0.558556 0
0.555856 0.556649 0
0.58677 0.554711 0
0.617899 0.553002 0
0.648798 0.55108 0
0.679652 0.549111 0
0.710689 0.547356 0
0.741451 0.545357 0
0.772168 0.543328 0
0.803021 0.541482 0
0.833738 0.539513 0
0.864012 0.537575 0
0.894881 0.535729 0
0.925475 0.533639 0
0.956008 0.531533 0
0.986603 0.529564 0
0 0.612589 0
0.0227512 0.611292 0
0.053666 0.609827 0
0.0848402 0.608545 0
0.115801 0.606973 0
0.146807 0.605371 0
0.178073 0.603983 0
0.20911 0.602304 0
0.240146 0.600565 0
0.271397 0.599039 0
0.302434 0.597238 0
0.333455 0.595422 0
0.364736 0.593851 0
0.395743 0.591989 0
0.426719 0.590082 0
0.457893 0.588403 0
0.488823 0.586465 0
0.519738 0.584527 0
0.550866 0.582803 0
0.58172 0.580835 0
0.612543 0.57882 0
0.643549 0.577035 0
0.674296 0.57499 0
0.705013 0.572961 0
0.735927 0.57116 0
0.766552 0.5691 0
0.797131 0.567041 0
0.827878 0.565179 0
0.85803 0.56318 0
0.888548 0.561074 0
0.919249 0.559197 0
0.949645 0.557076 0
0.97998 0.554955 0
0 0.640131 0
0.0180056 0.638804 0
0.0489662 0.637217 0
0.0799725 0.635569 0
0.111223 0.634134 0
0.142214 0.63238 0
0.173266 0.630655 0
0.204486 0.629053 0
0.235523 0.627237 0
0.266545 0.625391 0
0.29778 0.623758 0
0.328756 0.621851 0
0.359701 0.619913 0
0.390875 0.618204 0
0.421805 0.616251 0
0.452705 0.614298 0
0.483818 0.612528 0
0.514641 0.610513 0
0.545434 0.608469 0
0.57644 0.606653 0
0.607187 0.604608 0
0.637903 0.602548 0
0.668788 0.600717 0
0.699413 0.598611 0
0.729976 0.596506 0
0.760723 0.594644 0
0.791196 0.592538 0
0.821622 0.590433 0
0.851865 0.588647 0
0.882246 0.586496 0
0.912566 0.584344 0
0.943038 0.582422 0
0.973236 0.580301 0
0 0.667308 0
0.0133059 0.665949 0
0.0442817 0.664195 0
0.075288 0.662425 0
0.106462 0.660761 0
0.137575 0.659022 0
0.168597 0.657176 0
0.199832 0.655528 0
0.230793 0.653605 0
0.261753 0.651667 0
0.292805 0.649805 0
0.323873 0.64799 0
0.354803 0.646006 0
0.38587 0.64419 0
0.416754 0.642191 0
0.447578 0.640131 0
0.478431 0.638132 0
0.509392 0.636255 0
0.540139 0.634165 0
0.570977 0.632212 0
0.601709 0.630182 0
0.632319 0.628061 0
0.662898 0.625956 0
0.693645 0.624048 0
0.724117 0.621927 0
0.75462 0.619883 0
0.785092 0.617868 0
0.815381 0.615717 0
0.845273 0.613657 0
0.875761 0.611734 0
0.905959 0.609567 0
0.936095 0.607462 0
0.966278 0.605478 0
0 0.694133 0
0.00836194 0.692424 0
0.0396277 0.690822 0
0.0706493 0.68896 0
0.10164 0.687053 0
0.132845 0.685359 0
0.163806 0.683406 0
0.194781 0.681453 0
0.22594 0.679683 0
0.256901 0.677714 0
0.2878 0.675669 0
0.318898 0.673854 0
0.349752 0.671794 0
0.380591 0.669718 0
0.411551 0.667796 0
0.442405 0.665766 0
0.473136 0.663645 0
0.504051 0.661738 0
0.534707 0.659602 0
0.565332 0.657465 0
0.596017 0.655436 0
0.626673 0.653391 0
0.657145 0.651225 0
0.687755 0.649241 0
0.718135 0.647105 0
0.74844 0.644938 0
0.778744 0.642832 0
0.809064 0.640833 0
0.838819 0.638758 0
0.869062 0.636713 0
0.899153 0.634607 0
0.929107 0.632441 0
0.958984 0.630289 0
0 0.720638 0
0.00367742 0.718807 0
0.0346685 0.716869 0
0.0658885 0.715145 0
0.0968643 0.713176 0
0.12784 0.711192 0
0.159014 0.709407 0
0.189929 0.707347 0
0.220829 0.705287 0
0.251942 0.703441 0
0.282811 0.70135 0
0.313664 0.69926 0
0.344701 0.697353 0
0.375463 0.695216 0
0.40621 0.693065 0
0.43714 0.691127 0
0.467826 0.688975 0
0.498451 0.686793 0
0.529274 0.68484 0
0.559808 0.682643 0
0.59028 0.680446 0
0.620935 0.678462 0
0.651316 0.67628 0
0.681651 0.674083 0
0.712108 0.672099 0
0.74229 0.669902 0
0.772381 0.667704 0
0.802625 0.665736 0
0.832258 0.663645 0
0.862211 0.661448 0
0.892287 0.65948 0
0.922057 0.657298 0
0.95172 0.655131 0
0 0.746548 0
0 0.7449 0
0.0299535 0.742885 0
0.0609903 0.740932 0
0.0920882 0.739025 0
0.123018 0.736934 0
0.153933 0.734844 0
0.185077 0.732967 0
0.215961 0.730846 0
0.24683 0.728725 0
0.277836 0.726757 0
0.308629 0.72459 0
0.339391 0.722408 0
0.370367 0.720455 0
0.401053 0.718257 0
0.431693 0.716045 0
0.462531 0.714046 0
0.49308 0.711818 0
0.523598 0.70959 0
0.554284 0.707591 0
0.58468 0.705364 0
0.615015 0.703136 0
0.645502 0.701106 0
0.6757 0.698878 0
0.705837 0.696651 0
0.736126 0.694667 0
0.766094 0.692454 0
0.795972 0.690242 0
0.82565 0.68835 0
0.855451 0.686137 0
0.885145 0.683955 0
0.914946 0.681987 0
0.944427 0.679835 0
0 0.772427 0
0 0.770611 0
0.0252232 0.768566 0
0.0561837 0.766476 0
0.0871595 0.764385 0
0.118273 0.762432 0
0.149157 0.760266 0
0.180163 0.758206 0
0.211093 0.7561 0
0.241917 0.753902 0
0.272709 0.751705 0
0.3037 0.749691 0
0.334401 0.747463 0
0.365164 0.745281 0
0.395941 0.743175 0
0.426535 0.740917 0
0.457069 0.738659 0
0.4878 0.736629 0
0.518227 0.734356 0
0.548623 0.732113 0
0.57911 0.730022 0
0.609354 0.727764 0
0.639521 0.725521 0
0.669841 0.723476 0
0.69984 0.721233 0
0.729763 0.71899 0
0.759808 0.716976 0
0.789548 0.714763 0
0.81886 0.712657 0
0.848707 0.710658 0
0.878218 0.708461 0
0.907622 0.706279 0
0.937087 0.704341 0
0 0.797986 0
0 0.795941 0
0.0206455 0.794003 0
0.0515755 0.791806 0
0.082475 0.789593 0
0.113619 0.78761 0
0.144488 0.785382 0
0.175341 0.783154 0
0.206394 0.781125 0
