luts/SKINTONE_01.cube
TITLE "Generated by Resolve"
LUT_3D_SIZE 5
0.0103151 0.0103151 0.0103151
0.207218 0.0216831 0.0216831
0.425742 0.0295109 0.0295109
0.668971 0.0312963 0.0312963
0.93666 0.025864 0.025864
0.0383612 0.244968 0.0383612
0.263905 0.251942 0.0312963
0.510124 0.25214 0.0198062
0.767788 0.246952 0.00654612
1 0.237751 0
0.0108186 0.496239 0.0108186
0.256764 0.490242 0
0.506889 0.479942 0
0.756741 0.46688 0
1 0.452201 0
0 0.720638 0
0.220829 0.705287 0
0.467826 0.688975 0
0.712108 0.672099 0
0.95172 0.655131 0
0 0.92076 0
0.186786 0.901106 0
0.430701 0.881712 0
0.668009 0.863386 0
0.896223 0.846693 0
0.0146029 0.0146029 0.187991
0.215091 0.0255283 0.209613
0.43682 0.0312505 0.228
0.683787 0.0307164 0.241856
0.954025 0.0233768 0.248981
0.0371099 0.2486 0.253635
0.265675 0.253468 0.258808
0.51281 0.251362 0.256947
0.769787 0.244739 0.250492
1 0.234699 0.240558
0.00674449 0.495384 0.256626
0.253605 0.487892 0.246067
0.503197 0.476219 0.233036
0.752483 0.462638 0.219196
0.999634 0.447654 0.204578
0 0.716121 0.223484
0.216449 0.70042 0.208881
0.463066 0.683787 0.194614
0.706752 0.666865 0.181613
0.945373 0.650126 0.170657
0 0.914672 0.186831
0.184375 0.895018 0.177035
0.427863 0.875822 0.170962
0.664317 0.858106 0.169131
0.891356 0.842268 0.170336
0.019028 0.019028 0.3729
0.222293 0.0285344 0.405188
0.447822 0.0323949 0.435813
0.697856 0.0292973 0.461997
0.969177 0.0201267 0.48069
0.0351415 0.251438 0.478416
0.266316 0.253895 0.494194
0.514458 0.249989 0.499931
0.770779 0.242191 0.498222
1 0.231403 0.490776
0.00251774 0.493751 0.505409
0.249973 0.484855 0.49662
0.49926 0.472267 0.484077
0.747936 0.458152 0.469978
0.994537 0.443122 0.454917
0 0.711452 0.474113
0.212192 0.695506 0.4589
0.458305 0.678508 0.443275
0.701396 0.661646 0.428595
0.939162 0.645457 0.415534
0 0.908476 0.432975
0.182483 0.889021 0.420752
0.425345 0.870054 0.411032
0.660517 0.852735 0.404456
0.886915 0.838254 0.401373
0.0230106 0.0230106 0.564828
0.229114 0.0309148 0.609018
0.458198 0.0326543 0.65272
0.710994 0.0272068 0.691234
0.982315 0.016495 0.719768
0.0325017 0.253407 0.711742
0.2663 0.253681 0.736171
0.515541 0.248463 0.747555
0.770687 0.239246 0.748241
1 0.22771 0.741939
0 0.491676 0.75613
0.246098 0.481407 0.74789
0.495277 0.468284 0.735378
0.743267 0.453635 0.720516
0.98909 0.438376 0.704463
0 0.706584 0.724285
0.207828 0.690349 0.707973
0.453849 0.673442 0.690959
0.696071 0.656504 0.673823
0.932784 0.640726 0.657801
0 0.902281 0.677195
0.180835 0.882979 0.661662
0.423194 0.864485 0.647852
0.65742 0.847974 0.636622
0.882719 0.834485 0.62855
0.0268559 0.0268559 0.765057
0.235492 0.0326085 0.821698
0.467872 0.0320287 0.878874
0.723018 0.0245212 0.92903
0.993515 0.0126192 0.965072
0.0294652 0.254688 0.953002
0.265629 0.252857 0.983429
0.515419 0.246204 0.997925
0.769848 0.236103 0.999954
1 0.223819 0.993637
0 0.489082 1
0.242039 0.477653 0.999435
0.491035 0.464042 0.986328
0.738384 0.448981 0.970489
0.983459 0.433646 0.95314
0 0.701625 0.973861
0.20354 0.685115 0.956039
0.449287 0.668193 0.936919
0.690867 0.651469 0.916976
0.926467 0.636225 0.897307
0 0.896101 0.919066
0.17969 0.877058 0.89958
0.421683 0.859342 0.881376
0.654612 0.843534 0.865003
0.878782 0.830976 0.851896
