luts/SKINTONE_01.cube
TITLE "Generated by Resolve"
LUT_3D_SIZE 9
0.0103151 0.0103151 0.0103151
0.106126 0.0162051 0.0162051
0.207218 0.0216831 0.0216831
0.313832 0.0263981 0.0263981
0.425742 0.0295109 0.0295109
0.543862 0.0311284 0.0311284
0.668971 0.0312963 0.0312963
0.799649 0.0295109 0.0295109
0.93666 0.025864 0.025864
0.0314488 0.123186 0.0314488
0.134279 0.129137 0.0342565
0.243107 0.133806 0.0355383
0.357824 0.136873 0.0350805
0.478355 0.138094 0.0327001
0.604501 0.137697 0.0287938
0.73547 0.135927 0.023743
0.868788 0.132738 0.0177157
1 0.128435 0.011017
0.0383612 0.244968 0.0383612
0.148104 0.249393 0.0356146
0.263905 0.251942 0.0312963
0.385153 0.252995 0.0260319
0.510124 0.25214 0.0198062
0.637919 0.249943 0.0131533
0.767788 0.246952 0.00654612
0.897612 0.242832 0
1 0.237751 0
0.0281987 0.371939 0.0281987
0.145174 0.373327 0.0220035
0.266438 0.372839 0.0153201
0.390829 0.371176 0.0087129
0.516716 0.368017 0.00180056
0.643397 0.36376 0
0.770581 0.358877 0
0.896864 0.353124 0
1 0.346517 0
0.0108186 0.496239 0.0108186
0.132784 0.493935 0.00401312
0.256764 0.490242 0
0.381781 0.485634 0
0.506889 0.479942 0
0.631861 0.473533 0
0.756741 0.46688 0
0.880583 0.45977 0
1 0.452201 0
0 0.612589 0
0.115801 0.606973 0
0.240146 0.600565 0
0.364736 0.593851 0
0.488823 0.586465 0
0.612543 0.57882 0
0.735927 0.57116 0
0.85803 0.56318 0
0.97998 0.554955 0
0 0.720638 0
0.0968643 0.713176 0
0.220829 0.705287 0
0.344701 0.697353 0
0.467826 0.688975 0
0.59028 0.680446 0
0.712108 0.672099 0
0.832258 0.663645 0
0.95172 0.655131 0
0 0.82324 0
0.0780346 0.814588 0
0.201617 0.8056 0
0.32488 0.796719 0
0.447089 0.787564 0
0.568215 0.778439 0
0.688212 0.76968 0
0.805982 0.761059 0
0.922484 0.75259 0
0 0.92076 0
0.0632944 0.911009 0
0.186786 0.901106 0
0.309529 0.891432 0
0.430701 0.881712 0
0.55024 0.872267 0
0.668009 0.863386 0
0.783093 0.854978 0
0.896223 0.846693 0
0.0122988 0.0122988 0.098024
0.109209 0.0184024 0.106584
0.211368 0.0238193 0.114717
0.318471 0.0278477 0.121691
0.431327 0.0304875 0.127535
0.550896 0.0317998 0.132326
0.676432 0.0311284 0.135256
0.807904 0.0287327 0.136538
0.945663 0.0247501 0.136187
0.0327764 0.125551 0.127764
0.136278 0.131075 0.133349
0.246006 0.135363 0.137728
0.361349 0.137743 0.1402
0.482567 0.138399 0.140932
0.609323 0.137575 0.140185
0.74023 0.135225 0.137926
0.87332 0.131701 0.134463
1 0.127169 0.129976
0.0378424 0.246906 0.144656
0.148302 0.250736 0.145022
0.264912 0.252811 0.143816
0.386419 0.253147 0.141207
0.511635 0.25185 0.137438
0.639429 0.249287 0.132845
0.768933 0.245899 0.12784
0.898436 0.24155 0.122255
1 0.236225 0.116014
0.0263981 0.372869 0.14435
0.144015 0.373632 0.140414
0.265751 0.372702 0.135683
0.390249 0.37052 0.130526
0.516091 0.366979 0.124743
0.642664 0.362448 0.118563
0.769512 0.357259 0.112215
0.895491 0.351278 0.105486
1 0.344549 0.0983139
0.00880446 0.495918 0.133135
0.131029 0.493095 0.127291
0.255299 0.489204 0.121187
0.380133 0.484123 0.114611
0.505074 0.478111 0.107652
0.629999 0.471626 0.100664
0.754665 0.46479 0.0937057
0.878294 0.457557 0.0865797
1 0.449912 0.0792401
0 0.611078 0.116869
0.113725 0.605173 0.109941
0.238102 0.598596 0.102892
0.3626 0.591699 0.095964
0.486595 0.584207 0.088716
0.610162 0.576455 0.0814527
0.73341 0.56875 0.0745403
0.855329 0.560739 0.0676432
0.97705 0.552499 0.0608682
0 0.71841 0.0980697
0.094728 0.710857 0.0909285
0.218616 0.702846 0.0836805
0.342412 0.694835 0.0767987
0.465461 0.686397 0.0699168
0.587793 0.677836 0.0633555
0.709438 0.66949 0.0575723
0.829374 0.661082 0.0522774
0.948562 0.652628 0.0475471
0 0.8206 0.0789807
0.0760662 0.811856 0.0722972
0.199649 0.802838 0.0659037
0.322835 0.793912 0.0603037
0.444953 0.784756 0.0551614
0.565942 0.775677 0.0508431
0.68574 0.766979 0.0478065
0.803265 0.758465 0.0456703
0.919432 0.750149 0.0445563
0 0.917739 0.0631113
0.0620127 0.907942 0.0583047
0.185504 0.898039 0.0543221
0.308202 0.888411 0.0516365
0.429252 0.878767 0.0497902
0.548592 0.869444 0.0491646
0.666163 0.860746 0.049958
0.780606 0.852201 0.0511025
0.893767 0.84445 0.0535286
0.0146029 0.0146029 0.187991
0.112184 0.0204623 0.198917
0.215091 0.0255283 0.209613
0.323018 0.0291142 0.219272
0.43682 0.0312505 0.228
0.557336 0.0319982 0.235843
0.683787 0.0307164 0.241856
0.8159 0.0277714 0.246265
0.954025 0.0233768 0.248981
0.0339055 0.127764 0.226413
0.138094 0.132815 0.234928
0.248554 0.136584 0.242405
0.364645 0.138384 0.247974
0.486503 0.138491 0.25182
0.613779 0.13724 0.254108
0.744503 0.134371 0.254383
0.877379 0.130556 0.253239
1 0.125887 0.250782
0.0371099 0.2486 0.253635
0.148302 0.25182 0.257008
0.265675 0.253468 0.258808
0.387442 0.253101 0.258579
0.51281 0.251362 0.256947
0.640742 0.2486 0.254292
0.769787 0.244739 0.250492
0.898894 0.240131 0.245945
1 0.234699 0.240558
0.0245212 0.373571 0.262608
0.142733 0.373709 0.260639
0.26511 0.372549 0.257771
0.389517 0.369726 0.253651
0.515282 0.365789 0.248722
0.641978 0.361242 0.243473
0.768322 0.355566 0.237308
0.893935 0.349325 0.230762
1 0.342702 0.223972
0.00674449 0.495384 0.256626
0.129229 0.492119 0.251591
0.253605 0.487892 0.246067
0.378378 0.482475 0.239796
0.503197 0.476219 0.233036
0.628077 0.469657 0.226246
0.752483 0.462638 0.219196
0.875959 0.455314 0.211978
0.999634 0.447654 0.204578
0 0.6094 0.242115
0.11162 0.603281 0.235386
0.236088 0.596628 0.228504
0.360388 0.589456 0.221393
0.484306 0.581903 0.214069
0.607813 0.574121 0.206729
0.730831 0.566278 0.199557
0.852583 0.558267 0.192462
0.974075 0.550011 0.185397
0 0.716121 0.223484
0.0925307 0.708446 0.21622
0.216449 0.70042 0.208881
0.340108 0.692256 0.20174
0.463066 0.683787 0.194614
0.585275 0.675212 0.187778
0.706752 0.666865 0.181613
0.826459 0.658488 0.175875
0.945373 0.650126 0.170657
0 0.817899 0.203845
0.0740978 0.809079 0.196872
0.197864 0.800183 0.190372
0.320821 0.791074 0.184192
0.442832 0.781933 0.178561
0.563775 0.772976 0.173831
0.683284 0.764294 0.170047
0.800534 0.755886 0.167147
0.916396 0.747738 0.165164
0 0.914672 0.186831
0.0608072 0.904845 0.181537
0.184375 0.895018 0.177035
0.30695 0.885374 0.173587
0.427863 0.875822 0.170962
0.547005 0.866621 0.16939
0.664317 0.858106 0.169131
0.7785 0.84979 0.169192
0.891356 0.842268 0.170336
0.0168612 0.0168612 0.279591
0.115053 0.0224002 0.292988
0.218753 0.0271153 0.306416
0.327504 0.0302281 0.318914
0.442222 0.0318303 0.330632
0.563668 0.0319829 0.341634
0.690929 0.0301061 0.350774
0.82359 0.026627 0.358236
0.961807 0.0218051 0.363836
0.0348821 0.129824 0.327184
0.139788 0.134447 0.338811
0.25095 0.137636 0.349401
0.367742 0.138842 0.358083
0.490166 0.138384 0.364889
0.617777 0.13666 0.369985
0.748409 0.133379 0.372595
0.880964 0.129274 0.373465
1 0.124498 0.372747
0.0362097 0.250126 0.364904
0.148104 0.252705 0.37116
0.266102 0.253788 0.375616
0.388281 0.252934 0.377646
0.513741 0.250721 0.377813
0.641718 0.24773 0.376761
0.770413 0.243503 0.373999
0.899062 0.238605 0.370214
1 0.233188 0.365606
0.0225986 0.37406 0.382406
0.141405 0.373648 0.382147
0.264088 0.371984 0.380591
0.388663 0.368811 0.377508
0.514366 0.364523 0.373281
0.640833 0.35964 0.368444
0.766979 0.35378 0.362615
0.892287 0.347356 0.356222
1 0.340642 0.349508
0.00463874 0.494636 0.380743
0.127398 0.49102 0.376364
0.251804 0.486397 0.371206
0.376516 0.48069 0.365148
0.501259 0.474281 0.358541
0.626047 0.467613 0.351812
0.75024 0.46041 0.344625
0.873564 0.45304 0.337316
0.997147 0.445426 0.329839
0 0.60763 0.367514
0.109483 0.601312 0.360891
0.234043 0.594583 0.354086
0.35816 0.587198 0.346777
0.481987 0.579538 0.33933
0.605493 0.571817 0.331945
0.728222 0.563806 0.324407
0.84979 0.555779 0.317037
0.97113 0.547631 0.309743
0 0.713802 0.348837
0.0903334 0.706004 0.341405
0.21442 0.69807 0.334081
0.337835 0.689677 0.326513
0.46067 0.681147 0.319066
0.583001 0.672801 0.312123
0.704067 0.664256 0.305303
0.823529 0.655924 0.299046
0.942351 0.647868 0.293477
0 0.815183 0.328511
0.0722057 0.806287 0.321218
0.196002 0.797391 0.314366
0.318868 0.788251 0.307698
0.440772 0.77911 0.301534
0.561685 0.770321 0.296284
0.680873 0.761639 0.291646
0.797848 0.753368 0.287938
0.913497 0.74548 0.2851
0 0.911574 0.310124
0.0597238 0.901762 0.30428
0.183413 0.892042 0.299245
0.30576 0.882368 0.294865
0.426566 0.872923 0.291386
0.545586 0.863951 0.28893
0.662547 0.855543 0.287434
0.776455 0.84744 0.286351
0.889067 0.840192 0.28629
0.019028 0.019028 0.3729
0.118181 0.024506 0.389319
0.222293 0.0285344 0.405188
0.331914 0.0311742 0.420691
0.447822 0.0323949 0.435813
0.569848 0.0317845 0.449714
0.697856 0.0292973 0.461997
0.831067 0.025391 0.472511
0.969177 0.0201267 0.48069
0.0356756 0.131731 0.430121
0.14139 0.135988 0.445106
0.253147 0.138476 0.458701
0.370642 0.139116 0.470466
0.493645 0.13817 0.480186
0.621408 0.135927 0.487739
0.75198 0.132326 0.49247
0.884092 0.127916 0.494972
1 0.122972 0.495644
0.0351415 0.251438 0.478416
0.147814 0.253468 0.487449
0.266316 0.253895 0.494194
0.388891 0.252598 0.498207
0.514458 0.249989 0.499931
0.642283 0.246632 0.500038
0.770779 0.242191 0.498222
0.899046 0.237064 0.495033
1 0.231403 0.490776
0.0206302 0.374334 0.503578
0.140017 0.373434 0.504768
0.262974 0.371283 0.504265
0.38764 0.367727 0.501945
0.513329 0.36318 0.498299
0.639551 0.357977 0.493736
0.765454 0.351904 0.488075
0.890547 0.345357 0.481773
1 0.338521 0.475029
0.00251774 0.493751 0.505409
0.125551 0.48983 0.501564
0.249973 0.484855 0.49662
0.374578 0.478828 0.490623
0.49926 0.472267 0.484077
0.623926 0.465492 0.477317
0.747936 0.458152 0.469978
0.871107 0.450721 0.462531
0.994537 0.443122 0.454917
0 0.605798 0.493065
0.107332 0.599252 0.486397
0.231876 0.592401 0.479545
0.355932 0.584909 0.472114
0.479622 0.577142 0.464469
0.603082 0.569436 0.456931
0.725612 0.561334 0.449088
0.846967 0.553277 0.441367
0.968215 0.545327 0.433845
0 0.711452 0.474113
0.0881514 0.703532 0.466484
0.212192 0.695506 0.4589
0.335561 0.687068 0.451057
0.458305 0.678508 0.443275
0.580484 0.670161 0.435904
0.701396 0.661646 0.428595
0.82063 0.653391 0.421775
0.939162 0.645457 0.415534
0 0.812421 0.452934
0.0703746 0.803494 0.445289
0.194141 0.794553 0.437964
0.31696 0.785397 0.430762
0.438788 0.776318 0.424018
0.559564 0.76762 0.418067
0.678508 0.759014 0.412573
0.795224 0.750896 0.407965
0.910643 0.743297 0.404227
0 0.908476 0.432975
0.0587472 0.898665 0.42649
0.182483 0.889021 0.420752
0.304692 0.879377 0.415488
0.425345 0.870054 0.411032
0.544289 0.861341 0.40763
0.660517 0.852735 0.404456
0.774502 0.845182 0.402594
0.886915 0.838254 0.401373
0.021088 0.021088 0.467964
0.120897 0.0262303 0.487205
0.225742 0.0298009 0.50602
0.336217 0.0319371 0.524651
0.453147 0.0326543 0.543175
0.575906 0.0313725 0.560159
0.70457 0.028336 0.575525
0.838285 0.0240635 0.588998
0.976043 0.0183566 0.599405
0.036286 0.133486 0.535302
0.142794 0.137331 0.553674
0.255146 0.139116 0.570321
0.373312 0.139208 0.585077
0.496956 0.137865 0.597635
0.624659 0.135073 0.607202
0.755154 0.131167 0.613794
0.887007 0.126589 0.617807
1 0.121355 0.61941
0.0338903 0.252522 0.594049
0.147463 0.254124 0.605829
0.266377 0.253864 0.61442
0.389258 0.252094 0.620081
0.515038 0.249226 0.623209
0.642634 0.245472 0.62414
0.770855 0.240772 0.622995
0.898817 0.235462 0.620295
1 0.229572 0.616236
0.018616 0.374411 0.625971
0.138796 0.373312 0.628656
0.261799 0.370489 0.628702
0.386481 0.366522 0.626886
0.512337 0.361913 0.623865
0.638209 0.356283 0.619303
0.763806 0.34995 0.613642
0.888777 0.343404 0.607462
1 0.3364 0.600534
0.000427253 0.492775 0.630579
0.123705 0.488548 0.627085
0.248081 0.483192 0.622217
0.37261 0.476936 0.616236
0.497261 0.470268 0.609705
0.621759 0.463325 0.602777
0.745617 0.455909 0.595285
0.868605 0.448371 0.587625
0.991852 0.440772 0.579782
0 0.603906 0.618677
0.105257 0.597223 0.612009
0.229679 0.590158 0.604929
0.353674 0.582589 0.59736
0.477256 0.574731 0.589487
0.60058 0.566964 0.581689
0.722988 0.558862 0.573541
0.844144 0.550805 0.565438
0.965133 0.54287 0.557443
0 0.709041 0.599268
0.0860151 0.701045 0.591424
0.209979 0.692927 0.583535
0.333288 0.684443 0.575357
0.45597 0.675883 0.567178
0.577996 0.667521 0.559319
0.698726 0.659068 0.551446
0.817746 0.650904 0.543984
0.935958 0.643061 0.53698
0 0.809644 0.577081
0.0686809 0.800748 0.569085
0.192355 0.79173 0.561196
0.315114 0.782574 0.553384
0.436851 0.773541 0.545953
0.557473 0.764935 0.539208
0.676204 0.756436 0.53283
0.792645 0.748486 0.527214
0.907774 0.741085 0.522377
0 0.905379 0.555352
0.0578775 0.895567 0.548119
0.181613 0.885985 0.541558
0.303746 0.876432 0.535363
0.424231 0.867247 0.52987
0.542977 0.858732 0.525353
0.65893 0.850324 0.521004
0.772625 0.842985 0.517861
0.88481 0.836362 0.515465
0.0230106 0.0230106 0.564828
0.123507 0.0278019 0.587091
0.229114 0.0309148 0.609018
0.340414 0.0325017 0.630884
0.458198 0.0326543 0.65272
0.58175 0.0307622 0.672923
0.710994 0.0272068 0.691234
0.844999 0.0225376 0.707408
0.982315 0.016495 0.719768
0.0366827 0.135058 0.642786
0.143893 0.138354 0.664485
0.256962 0.139574 0.68426
0.375738 0.139101 0.701823
0.499916 0.137377 0.716976
0.627588 0.134096 0.728283
0.757916 0.1299 0.73637
0.889616 0.125261 0.741741
1 0.119707 0.743938
0.0325017 0.253407 0.711742
0.146899 0.254551 0.725963
0.2663 0.253681 0.736171
0.389441 0.251469 0.74313
0.515541 0.248463 0.747555
0.642786 0.244236 0.748989
0.770687 0.239246 0.748241
0.898619 0.234028 0.746136
1 0.22771 0.741939
0.0166018 0.374334 0.749493
0.13724 0.372732 0.753033
0.260533 0.369558 0.75375
0.385275 0.36527 0.752331
0.511025 0.360372 0.749508
0.636713 0.354498 0.745022
0.762066 0.347982 0.73933
0.886915 0.341421 0.73315
1 0.334249 0.725994
0 0.491676 0.75613
0.121782 0.487144 0.752819
0.246098 0.481407 0.74789
0.370626 0.474998 0.741924
0.495277 0.468284 0.735378
0.619516 0.461112 0.728161
0.743267 0.453635 0.720516
0.866148 0.446128 0.712688
0.98909 0.438376 0.704463
0 0.601923 0.744289
0.103258 0.595224 0.737636
0.227466 0.587884 0.730251
0.351385 0.580224 0.722469
0.474983 0.572412 0.714443
0.598077 0.564477 0.706233
0.720333 0.556359 0.697719
0.841306 0.548333 0.689204
0.96202 0.540444 0.680674
0 0.706584 0.724285
0.0841077 0.698741 0.716426
0.207828 0.690349 0.707973
0.331044 0.681804 0.699382
0.453849 0.673442 0.690959
0.57554 0.664912 0.682338
0.696071 0.656504 0.673823
0.814954 0.648539 0.665751
0.932784 0.640726 0.657801
0 0.806851 0.700954
0.0670787 0.798016 0.692561
0.190646 0.788891 0.683986
0.313344 0.779767 0.675502
0.43508 0.770871 0.667384
0.555444 0.76228 0.659678
0.673961 0.753918 0.652323
0.790143 0.746136 0.64564
0.904936 0.738933 0.639628
0 0.902281 0.677195
0.0572366 0.892576 0.669245
0.180835 0.882979 0.661662
0.302892 0.873533 0.654459
0.423194 0.864485 0.647852
0.541711 0.856153 0.642145
0.65742 0.847974 0.636622
0.770809 0.840864 0.632212
0.882719 0.834485 0.62855
0.0250401 0.0250401 0.664012
0.125978 0.029221 0.689036
0.232364 0.0318456 0.714229
0.344594 0.0329442 0.739574
0.463111 0.0324407 0.764614
0.587396 0.0299535 0.787961
0.717083 0.0258946 0.809049
0.851225 0.0208743 0.827604
0.988144 0.0145724 0.841718
0.0369573 0.136522 0.752712
0.144808 0.139208 0.777646
0.258579 0.139834 0.800427
0.37792 0.138811 0.820569
0.502464 0.136645 0.837903
0.630213 0.133028 0.850858
0.760311 0.128527 0.86009
0.891707 0.123781 0.866453
1 0.118044 0.869184
0.0310063 0.254108 0.831418
0.14612 0.254658 0.847501
0.266056 0.253361 0.859251
0.389471 0.250736 0.867262
0.515557 0.247364 0.872404
0.642741 0.242924 0.874403
0.770352 0.23769 0.873945
0.897871 0.232227 0.871916
1 0.225803 0.867781
0.0145876 0.374121 0.873991
0.135637 0.37203 0.878141
0.259129 0.368475 0.87924
0.383963 0.363912 0.878126
0.509575 0.358709 0.875334
0.635065 0.352605 0.870802
0.760266 0.345983 0.865049
0.884886 0.33933 0.858732
1 0.332036 0.851377
0 0.49041 0.881941
0.119799 0.485588 0.878691
0.244068 0.479545 0.87364
0.368566 0.472969 0.867582
0.493202 0.466194 0.860929
0.617243 0.458854 0.853452
0.740841 0.451316 0.845594
0.863691 0.4439 0.837613
0.986282 0.435996 0.828916
0 0.599863 0.869886
0.101152 0.593103 0.863127
0.225269 0.585595 0.855497
0.349081 0.577829 0.84744
0.472755 0.570108 0.839292
0.595575 0.562005 0.830579
0.717647 0.553857 0.821622
0.838651 0.546105 0.812818
0.958892 0.538048 0.80351
0 0.704112 0.84918
0.0819715 0.696178 0.84097
0.205676 0.687739 0.832166
0.328832 0.679179 0.823117
0.45156 0.670817 0.81416
0.573114 0.662318 0.804929
0.693462 0.653971 0.795697
0.812192 0.64622 0.786892
0.92961 0.638453 0.777935
0 0.804044 0.824506
0.0654765 0.795209 0.815564
0.188998 0.786053 0.806302
0.31165 0.776959 0.797086
0.433402 0.768246 0.788205
0.553475 0.759655 0.779431
0.671778 0.751446 0.771023
0.787778 0.743954 0.763317
0.902159 0.736858 0.755978
0 0.899199 0.798459
0.0567788 0.889616 0.789715
0.180194 0.879988 0.781033
0.302144 0.870665 0.772747
0.422385 0.861875 0.765072
0.540169 0.853361 0.757733
0.655985 0.845716 0.751293
0.769131 0.83888 0.745678
0.88072 0.832685 0.740688
0.0268559 0.0268559 0.765057
0.128344 0.0304723 0.793103
0.235492 0.0326085 0.821698
0.348714 0.0332647 0.850752
0.467872 0.0320287 0.878874
0.592813 0.0289921 0.905241
0.723018 0.0245212 0.92903
0.856992 0.0191043 0.949477
0.993515 0.0126192 0.965072
0.0371099 0.137896 0.865095
0.14551 0.139834 0.89308
0.259983 0.139925 0.918746
0.37998 0.13846 0.94139
0.504692 0.135775 0.960327
0.632517 0.131868 0.97467
0.762387 0.127138 0.984817
0.893339 0.122179 0.99176
1 0.116335 0.994949
0.0294652 0.254688 0.953002
0.14522 0.254627 0.970535
0.265629 0.252857 0.983429
0.389334 0.249897 0.992309
0.515419 0.246204 0.997925
0.642435 0.241489 1
0.769848 0.236103 0.999954
0.896971 0.230396 0.997864
1 0.223819 0.993637
0.012726 0.373938 0.999527
0.134035 0.371237 1
0.257664 0.367269 1
0.38262 0.362539 1
0.508064 0.357 1
0.63331 0.350668 0.996597
0.758343 0.343938 0.990738
0.882765 0.337224 0.984222
1 0.329809 0.976623
0 0.489082 1
0.117769 0.483925 1
0.242039 0.477653 0.999435
0.366476 0.470893 0.993164
0.491035 0.464042 0.986328
0.614954 0.456611 0.978653
0.738384 0.448981 0.970489
0.861097 0.441566 0.962234
0.983459 0.433646 0.95314
0 0.597772 0.995422
0.09897 0.59086 0.988434
0.223056 0.583276 0.980591
0.346792 0.575433 0.972244
0.470344 0.567636 0.963729
0.593072 0.559533 0.95462
0.714977 0.551385 0.94519
0.835752 0.543648 0.935821
0.955764 0.535683 0.925856
0 0.701625 0.973861
0.0798657 0.693599 0.96527
0.20354 0.685115 0.956039
0.326665 0.676539 0.946502
0.449287 0.668193 0.936919
0.570703 0.659724 0.926986
0.690867 0.651469 0.916976
0.809354 0.643839 0.907271
0.926467 0.636225 0.897307
0 0.801236 0.947646
0.06392 0.79237 0.938079
0.187427 0.783215 0.928069
0.310048 0.774182 0.918029
0.431708 0.765576 0.908232
0.551598 0.757076 0.898405
0.669657 0.749035 0.888884
0.785489 0.741833 0.880064
0.899184 0.734539 0.871107
0 0.896101 0.919066
0.0563363 0.88661 0.909361
0.17969 0.877058 0.89958
0.301503 0.867857 0.89015
0.421683 0.859342 0.881376
0.539101 0.85095 0.872694
0.654612 0.843534 0.865003
0.767666 0.837095 0.858289
0.878782 0.830976 0.851896
