luts/Synesthesia.cube
TITLE "Generated by Resolve"
LUT_3D_SIZE 33
0 0 0
0 0 0
0 0 0
0 0 0
0 0 0
0.107134 0 0
0.158587 0 0
0.198734 0 0
0.226093 0 0
0.247196 0 0
0.271763 0 0
0.299596 0 0
0.328649 0 0
0.358358 0 0
0.388388 0 0
0.418784 0 0
0.449332 0 0
0.480079 0 0
0.510704 0 0
0.541665 0 0
0.572335 0 0
0.602899 0 0
0.633524 0 0
0.663859 0 0
0.693904 0 0
0.724025 0 0
0.753872 0 0
0.783719 0 0
0.813489 0 0
0.842863 0 0
0.872297 0 0
0.901808 0 0
0.931258 0 0
0 0 0
0 0 0
0 0 0
0 0 0
0 0 0
0.10457 0 0
0.156909 0 0
0.197299 0 0
0.22475 0 0
0.246235 0 0
0.271 0 0
0.298985 0 0
0.328099 0 0
0.357748 0 0
0.387869 0 0
0.418204 0 0
0.448829 0 0
0.479667 0 0
0.510201 0 0
0.541161 0 0
0.571801 0 0
0.602365 0 0
0.633005 0 0
0.663325 0 0
0.69337 0 0
0.723491 0 0
0.753384 0 0
0.783185 0 0
0.812955 0 0
0.842329 0 0
0.871839 0 0
0.901274 0 0
0.930724 0 0
0 0 0.0671702
0 0 0.065095
0 0 0.0544442
0 0 0
0 0 0
0.0975357 0 0
0.152773 0 0
0.193286 0 0
0.220737 0 0
0.243488 0 0
0.269795 0 0
0.298238 0 0
0.327764 0 0
0.357443 0 0
0.387655 0 0
0.418067 0 0
0.448722 0 0
0.479316 0 0
0.510216 0 0
0.540978 0 0
0.571542 0 0
0.602152 0 0
0.632761 0 0
0.663188 0 0
0.69308 0 0
0.723186 0 0
0.753185 0 0
0.782956 0 0
0.812482 0 0
0.841978 0 0
0.871565 0 0
0.900908 0 0
0.930343 0 0
0 0.0619364 0.114549
0 0.0617533 0.113649
0 0.0609598 0.10956
0 0.0583963 0.0995346
0 0.0541085 0.0795911
0.0827955 0.0465858 0
0.145006 0.0311589 0
0.185245 0.0285954 0
0.212711 0.0554971 0
0.239414 0.0681468 0
0.267994 0.0687572 0
0.29752 0.0666819 0
0.327428 0.0640116 0
0.357336 0.0602274 0
0.38793 0.054902 0
0.418402 0.0486763 0
0.44889 0.0392615 0
0.479774 0.0184024 0
0.510491 0 0
0.541131 0 0
0.571771 0 0
0.602472 0 0
0.632761 0 0
0.663005 0 0
0.693278 0 0
0.723339 0 0
0.753155 0 0
0.78265 0 0
0.81239 0 0
0.841856 0 0
0.871427 0 0
0.900923 0 0
0.93022 0 0
0 0.114382 0.158846
0 0.114229 0.15819
0 0.113741 0.155306
0 0.112886 0.149172
0 0.111269 0.138979
0.0467536 0.108812 0.122133
0.131044 0.105974 0.0942855
0.171984 0.107057 0.0570077
0.203876 0.109148 0
0.235416 0.108507 0
0.266133 0.107698 0
0.29659 0.10634 0
0.327153 0.104997 0
0.357778 0.103395 0
0.388403 0.101488 0
0.419242 0.0988785 0
0.449729 0.0955367 0
0.480476 0.0921187 0
0.511345 0.0873579 0
0.542031 0.082002 0
0.572381 0.074464 0
0.60293 0.0648356 0
0.633463 0.0501411 0
0.66363 0.023209 0
0.693797 0 0
0.723384 0 0
0.753292 0 0
0.782986 0 0
0.812589 0 0
0.842206 0 0
0.871702 0 0
0.900786 0 0
0.930114 0 0
0 0.156588 0.21973
0 0.156558 0.219165
0 0.156146 0.216144
0 0.155474 0.209812
0 0.153872 0.198611
0 0.150835 0.180865
0.10782 0.147875 0.160769
0.158022 0.146441 0.142077
0.196536 0.145266 0.124285
0.231159 0.144244 0.105394
0.263905 0.143343 0.0843977
0.295857 0.142275 0.0567636
0.327306 0.141161 0
0.358312 0.140124 0
0.389319 0.13872 0
0.420188 0.137163 0
0.451118 0.135149 0
0.481865 0.132998 0
0.512535 0.130526 0
0.543114 0.127382 0
0.57351 0.123247 0
0.603861 0.119097 0
0.634272 0.113466 0
0.664347 0.107546 0
0.694438 0.0992905 0
0.724254 0.0901198 0
0.754086 0.0764172 0
0.783352 0.0568704 0
0.81297 0 0
0.842542 0 0
0.871855 0 0
0.901289 0 0
0.930632 0 0
0 0.194095 0.290211
0 0.193988 0.289372
0 0.193439 0.2851
0 0.191974 0.275334
0 0.189654 0.259525
0 0.187304 0.240238
0 0.185138 0.219699
0.133867 0.18323 0.199405
0.185504 0.181628 0.180194
0.225971 0.180072 0.162127
0.262013 0.178912 0.145693
0.295384 0.177813 0.130526
0.327733 0.176608 0.115557
0.359274 0.175601 0.100053
0.390631 0.174334 0.0820935
0.421698 0.172976 0.059144
0.452598 0.171466 0
0.483375 0.169772 0
0.514015 0.167819 0
0.544549 0.165621 0
0.575113 0.162676 0
0.605386 0.159762 0
0.635477 0.156374 0
0.665629 0.15198 0
0.695445 0.147402 0
0.725353 0.141451 0
0.75491 0.135195 0
0.784588 0.127031 0
0.813993 0.118318 0
0.843519 0.106584 0
0.872557 0.0925154 0
0.901976 0.0717327 0
0.931151 0.024979 0
0 0.231449 0.345464
0 0.231357 0.344579
0 0.230625 0.339879
0 0.229419 0.330449
0 0.227726 0.316594
0 0.225452 0.298878
0 0.223011 0.278843
0.0626078 0.220737 0.258259
0.160174 0.218662 0.237842
0.212955 0.216831 0.21825
0.255177 0.215259 0.199847
0.292531 0.213535 0.182208
0.327184 0.212345 0.166262
0.360082 0.210986 0.151034
0.392142 0.209628 0.136339
0.423606 0.208179 0.121828
0.454704 0.206683 0.107118
0.485649 0.205447 0.0917678
0.51632 0.203601 0.0724041
0.546761 0.201663 0.043061
0.577096 0.199481 0
0.607233 0.19704 0
0.637232 0.194324 0
0.667109 0.191165 0
0.697002 0.187289 0
0.726604 0.183291 0
0.756283 0.178256 0
0.785702 0.173175 0
0.815213 0.166842 0
0.84448 0.160296 0
0.873884 0.152102 0
0.903014 0.143542 0
0.932265 0.132494 0
0 0.268788 0.396155
0 0.268727 0.395468
0 0.268299 0.391882
0 0.267292 0.38407
0 0.265736 0.372015
0 0.2636 0.356252
0 0.261326 0.33785
0 0.258976 0.317952
0.0998398 0.256611 0.297322
0.186374 0.254322 0.276616
0.24007 0.25214 0.256504
0.283497 0.250202 0.237491
0.322057 0.248569 0.219684
0.357748 0.246723 0.20238
0.391577 0.24535 0.186603
0.424231 0.243671 0.171054
0.455924 0.242054 0.156191
0.487221 0.240574 0.141711
0.518181 0.238895 0.126848
0.548699 0.237003 0.111147
0.578973 0.234943 0.0937057
0.609064 0.232715 0.0722972
0.638987 0.230259 0.0367742
0.668727 0.227543 0
0.698665 0.224277 0
0.728176 0.220905 0
0.757809 0.217411 0
0.78732 0.212894 0
0.816587 0.208438 0
0.84596 0.202976 0
0.875105 0.197513 0
0.904341 0.190799 0
0.933364 0.184054 0
0 0.306264 0.447044
0 0.306249 0.446632
0 0.305821 0.443412
0 0.304967 0.436896
0 0.303456 0.426337
0 0.301656 0.412589
0 0.29958 0.395956
0 0.297047 0.376852
0 0.294469 0.356466
0.131502 0.291966 0.335714
0.211826 0.289616 0.315114
0.266178 0.287404 0.295018
0.311284 0.285237 0.275395
0.350698 0.283146 0.256809
0.387411 0.281331 0.239231
0.421836 0.279377 0.222293
0.455207 0.277668 0.206287
0.487175 0.275837 0.190875
0.518944 0.274113 0.17583
0.549935 0.272084 0.160708
0.58053 0.269963 0.145418
0.610803 0.26772 0.129488
0.641077 0.265522 0.112444
0.670909 0.262959 0.0924697
0.700511 0.260136 0.0658732
0.730007 0.25713 0
0.75938 0.253849 0
0.788876 0.249973 0
0.818097 0.246143 0
0.847242 0.242008 0
0.876783 0.237369 0
0.905791 0.232486 0
0.93492 0.226642 0
0 0.343496 0.497642
0 0.34345 0.4972
0 0.343099 0.494484
0 0.342367 0.48893
0 0.340963 0.479744
0 0.339284 0.467384
0 0.337362 0.452354
0 0.334936 0.434684
0 0.332387 0.415473
0 0.329946 0.395178
0.15935 0.327367 0.374456
0.237247 0.324773 0.353445
0.292088 0.322393 0.333165
0.337591 0.319936 0.313329
0.378622 0.317693 0.294148
0.415991 0.315694 0.276143
0.45127 0.313405 0.258381
0.485023 0.311574 0.241947
0.517662 0.309346 0.225559
0.549752 0.307347 0.209903
0.580789 0.30518 0.194568
0.611383 0.302907 0.179248
0.641993 0.300694 0.163851
0.672038 0.2981 0.147662
0.701823 0.295384 0.130434
0.731411 0.292515 0.111147
0.761334 0.289418 0.0872511
0.790677 0.286183 0.0509499
0.819883 0.282734 0
0.849012 0.279072 0
0.878218 0.2748 0
0.907301 0.270573 0
0.936416 0.266224 0
0 0.380377 0.547799
0 0.380346 0.547448
0 0.380056 0.54519
0 0.379431 0.540398
0 0.378241 0.532403
0 0.376638 0.521324
0 0.374868 0.507836
0 0.372534 0.491554
0 0.37023 0.473579
0 0.367498 0.453788
0 0.364813 0.433371
0.186252 0.362066 0.412345
0.261143 0.359457 0.391577
0.317098 0.356802 0.370809
0.36379 0.354391 0.350912
0.405402 0.352056 0.331609
0.443885 0.349706 0.31281
0.479622 0.347341 0.294789
0.514214 0.345083 0.277378
0.54728 0.34258 0.260319
0.579461 0.340505 0.244388
0.610925 0.337987 0.22829
0.642054 0.335607 0.212634
0.672511 0.332967 0.196872
0.702617 0.33022 0.180941
0.732708 0.327596 0.164752
0.762402 0.324681 0.147494
0.791882 0.321599 0.128573
0.821195 0.318349 0.106584
0.85066 0.31519 0.0781262
0.879942 0.311269 0
0.908919 0.307424 0
0.937835 0.30338 0
0 0.416922 0.597589
0 0.416938 0.597406
0 0.416724 0.595621
0 0.416098 0.59118
0 0.415167 0.584298
0 0.413581 0.574289
0 0.411917 0.56199
0 0.409903 0.547112
0 0.407446 0.530083
0 0.404822 0.511437
0 0.40235 0.492012
0.0290227 0.399481 0.47126
0.211414 0.396719 0.450416
0.285573 0.393851 0.429221
0.341497 0.391196 0.408621
0.389395 0.388479 0.388128
0.431785 0.385977 0.368551
0.470848 0.383185 0.349081
0.507424 0.380743 0.330694
0.54258 0.378241 0.312688
0.57586 0.375677 0.295399
0.608637 0.37319 0.278523
0.640391 0.370459 0.261906
0.671809 0.367926 0.245808
0.702342 0.365286 0.230045
0.732876 0.362661 0.214267
0.762798 0.359777 0.198215
0.792599 0.356649 0.181491
0.822431 0.353674 0.164263
0.851896 0.350286 0.145342
0.881086 0.346853 0.124208
0.91017 0.343297 0.0983902
0.939406 0.339788 0.0595865
0 0.453223 0.647242
0 0.453208 0.646998
0 0.452979 0.645274
0 0.452415 0.641367
0 0.451575 0.635218
0 0.450248 0.626368
0 0.448585 0.615076
0 0.446708 0.601495
0 0.444358 0.585702
0 0.442023 0.568353
0 0.439292 0.54931
0 0.436469 0.529259
0.105165 0.433814 0.508919
0.236927 0.430823 0.487663
0.309087 0.427955 0.466728
0.365896 0.42501 0.445624
0.414069 0.422263 0.425254
0.457542 0.419425 0.405035
0.496941 0.416541 0.385458
0.534508 0.413794 0.366354
0.569909 0.411261 0.348241
0.603952 0.408347 0.330083
0.637217 0.405692 0.312718
0.669474 0.403128 0.29601
0.700801 0.400305 0.279469
0.731792 0.397436 0.263111
0.762509 0.394614 0.247013
0.79263 0.391562 0.230808
0.822751 0.388678 0.214679
0.852338 0.385458 0.19794
0.881758 0.382147 0.180545
0.911299 0.378943 0.162173
0.940597 0.375082 0.141039
0 0.489036 0.69604
0 0.489021 0.695842
0 0.488838 0.694377
0 0.488426 0.691173
0 0.487602 0.685527
0 0.486458 0.677546
0 0.484794 0.667048
0 0.483055 0.654704
0 0.480964 0.640009
0 0.478477 0.623438
0 0.47602 0.605646
0 0.473289 0.586648
0 0.470344 0.5664
0.146502 0.467369 0.545541
0.26096 0.464561 0.524742
0.332815 0.461448 0.50338
0.38941 0.458503 0.482506
0.438605 0.455482 0.461616
0.482338 0.452644 0.441505
0.522835 0.44947 0.421271
0.560876 0.446647 0.401984
0.596994 0.4439 0.383337
0.631739 0.441001 0.364935
0.664942 0.438224 0.347341
0.697719 0.435416 0.329992
0.729534 0.432364 0.312856
0.760998 0.429526 0.296254
0.791714 0.426429 0.279713
0.822293 0.423499 0.263508
0.852338 0.420294 0.24712
0.882322 0.417227 0.230793
0.911818 0.413855 0.213901
0.941161 0.410407 0.196429
0 0.524559 0.744732
0 0.524544 0.744549
0 0.52433 0.74316
0 0.523873 0.740032
0 0.523186 0.735149
0 0.522164 0.727993
0 0.520821 0.718669
0 0.518929 0.706828
0 0.516915 0.693111
0 0.514778 0.677928
0 0.512169 0.660822
0 0.509651 0.642664
0 0.506706 0.623102
0 0.503685 0.602762
0.178759 0.500694 0.582101
0.285328 0.497749 0.561028
0.355642 0.494697 0.539956
0.413062 0.491524 0.518654
0.462425 0.488533 0.497963
0.507179 0.485466 0.477363
0.548196 0.4822 0.456977
0.586725 0.479332 0.437568
0.62356 0.476356 0.418357
0.65861 0.473533 0.399969
0.692485 0.470405 0.381598
0.725658 0.467475 0.363851
0.758038 0.46453 0.346532
0.789517 0.461402 0.329442
0.820554 0.458595 0.313085
0.851087 0.455344 0.296422
0.881544 0.452277 0.280095
0.911467 0.44892 0.263539
0.941329 0.445716 0.247044
0 0.559716 0.792706
0 0.559731 0.792569
0 0.559564 0.791379
0 0.559243 0.788907
0 0.558434 0.784054
0 0.557351 0.777447
0 0.5561 0.768841
0 0.554528 0.75816
0 0.552499 0.745312
0 0.550393 0.731014
0 0.54815 0.71519
0 0.545419 0.697505
0 0.542824 0.679179
0 0.539864 0.659495
0 0.536797 0.639094
0.209506 0.533623 0.618051
0.308553 0.53077 0.59733
0.378882 0.52752 0.575891
0.435966 0.524422 0.554894
0.486229 0.521233 0.533806
0.531563 0.51809 0.5131
0.572976 0.514839 0.49276
0.612314 0.511711 0.472786
0.649409 0.508797 0.453651
0.685222 0.50573 0.434638
0.719692 0.502571 0.415976
0.753155 0.499428 0.397757
0.785626 0.496559 0.380453
0.817426 0.493278 0.362921
0.848981 0.490211 0.345922
0.880034 0.487098 0.329183
0.910399 0.483726 0.312428
0.940734 0.480537 0.295964
0 0.594461 0.840406
0 0.594476 0.840299
0 0.594324 0.839231
0 0.593942 0.836667
0 0.593317 0.832425
0 0.592432 0.82649
0 0.59115 0.818494
0 0.589563 0.808484
0 0.587823 0.796689
0 0.585885 0.783413
0 0.583429 0.767926
0 0.581079 0.751583
0 0.578317 0.7337
0 0.575631 0.714992
0 0.572625 0.695201
0 0.56965 0.67512
0.236881 0.566445 0.654078
0.332341 0.563424 0.633021
0.401328 0.56025 0.611902
0.459159 0.556954 0.590524
0.509544 0.553796 0.569619
0.555398 0.550576 0.548806
0.59791 0.547341 0.528237
0.637232 0.544076 0.508217
0.675135 0.540902 0.488502
0.711498 0.537758 0.469184
0.746242 0.534752 0.450645
0.779904 0.531426 0.432074
0.813077 0.528283 0.414038
0.845457 0.525139 0.396399
0.876997 0.521752 0.378866
0.908309 0.518578 0.361852
0.939193 0.515328 0.345006
0 0.628855 0.88748
0 0.628855 0.887373
0 0.628733 0.886427
0 0.628382 0.884092
0 0.627894 0.880507
0 0.627008 0.874769
0 0.625925 0.867521
0 0.624582 0.858396
0 0.62269 0.847166
0 0.62089 0.834775
0 0.618753 0.820432
0 0.616266 0.8047
0 0.613855 0.787915
0 0.611048 0.769741
0 0.608331 0.750881
0 0.60528 0.730999
0.0226749 0.602136 0.710506
0.263661 0.598962 0.689662
0.355108 0.595972 0.668803
0.424262 0.592615 0.647334
0.481834 0.58938 0.626184
0.532815 0.586084 0.605051
0.579339 0.582788 0.584039
0.621927 0.579644 0.563745
0.662364 0.576349 0.543389
0.700587 0.572885 0.523232
0.737011 0.569802 0.504067
0.772519 0.566583 0.484947
0.806912 0.563363 0.466224
0.840269 0.560052 0.447807
0.872618 0.556878 0.430106
0.904723 0.553658 0.412512
0.93608 0.55024 0.395056
0 0.663371 0.934844
0 0.663386 0.934768
0 0.663264 0.933898
0 0.662959 0.931777
0 0.662394 0.928161
0 0.661662 0.923201
0 0.660395 0.916075
0 0.659083 0.907454
0 0.657618 0.897505
0 0.655848 0.885679
0 0.653559 0.871885
0 0.651438 0.857237
0 0.648814 0.840818
0 0.646265 0.823529
0 0.643412 0.805142
0 0.640681 0.786191
0 0.63769 0.766537
0.126406 0.634531 0.746014
0.28957 0.631281 0.725063
0.3785 0.628183 0.704005
0.446403 0.624949 0.682918
0.504524 0.621561 0.661494
0.556115 0.618173 0.640192
0.602518 0.614954 0.619501
0.646113 0.611612 0.598703
0.687053 0.60827 0.57821
0.725567 0.605112 0.55848
0.762798 0.601755 0.538674
0.798489 0.598276 0.519142
0.833097 0.595102 0.500435
0.86685 0.591882 0.481971
0.89987 0.58854 0.463691
0.932113 0.585077 0.44564
0 0.697337 0.981353
0 0.697353 0.981277
0 0.697261 0.980499
0 0.696971 0.978561
0 0.696559 0.97557
0 0.695796 0.970672
0 0.694881 0.964508
0 0.69369 0.956649
0 0.691997 0.946822
0 0.690303 0.935637
0 0.68838 0.922896
0 0.686107 0.908782
0 0.683757 0.893248
0 0.681193 0.876692
0 0.678584 0.85919
0 0.675731 0.84065
0 0.672892 0.821485
0 0.669795 0.801511
0.175998 0.666606 0.780957
0.314382 0.663706 0.760662
0.400946 0.660349 0.739361
0.469062 0.656947 0.717937
0.526726 0.653666 0.69688
0.578622 0.650248 0.675547
0.626032 0.646845 0.654414
0.669581 0.643595 0.633906
0.71107 0.640208 0.613306
0.750423 0.636835 0.593042
0.788113 0.633463 0.573114
0.824125 0.630289 0.553933
0.859052 0.626703 0.534508
0.893324 0.623362 0.515679
0.926741 0.62002 0.4972
0 0.731472 1
0 0.731487 1
0 0.731395 1
0 0.731136 1
0 0.730663 1
0 0.729992 1
0 0.728847 1
0 0.727749 1
0 0.72639 0.995804
0 0.724788 0.985306
0 0.722713 0.973007
0 0.720775 0.959899
0 0.718532 0.945129
0 0.715999 0.929229
0 0.713558 0.912535
0 0.710719 0.894591
0 0.708034 0.876127
0 0.704982 0.856657
0 0.701854 0.836652
0.212924 0.698833 0.816281
0.339834 0.695598 0.795453
0.423362 0.692317 0.774472
0.490959 0.688945 0.75317
0.549355 0.685496 0.731731
0.601602 0.682048 0.710369
0.648814 0.678752 0.689586
0.69337 0.675303 0.668605
0.73521 0.67187 0.647929
0.774685 0.66862 0.627894
0.812802 0.665202 0.607828
0.849561 0.661799 0.588083
0.885161 0.658412 0.568689
0.919524 0.654978 0.549706
0 0.765103 1
0 0.765118 1
0 0.765042 1
0 0.764797 1
0 0.764462 1
0 0.76379 1
0 0.763012 1
0 0.761868 1
0 0.760571 1
0 0.758831 1
0 0.757183 1
0 0.755245 1
0 0.75285 0.996094
0 0.750652 0.981186
0 0.748028 0.964843
0 0.745434 0.947555
0 0.742565 0.929412
0 0.739849 0.910796
0 0.736767 0.891264
0 0.733791 0.871519
0.245579 0.73077 0.851316
0.363531 0.727489 0.830457
0.44622 0.724102 0.809232
0.513451 0.720668 0.787884
0.571405 0.717418 0.766888
0.623987 0.714031 0.745632
0.672236 0.710582 0.724437
0.717098 0.707164 0.703502
0.759045 0.703853 0.68307
0.799161 0.700236 0.662409
0.837644 0.696712 0.642115
0.874708 0.693294 0.622309
0.910399 0.689998 0.603052
0 0.798932 1
0 0.798962 1
0 0.798886 1
0 0.798657 1
0 0.798245 1
0 0.797635 1
0 0.796643 1
0 0.795682 1
0 0.794476 1
0 0.793027 1
0 0.791394 1
0 0.789288 1
0 0.787243 1
0 0.785122 1
0 0.782528 1
0 0.780056 1
0 0.777279 0.982696
0 0.774639 0.96466
0 0.771634 0.945678
0 0.768566 0.926116
0 0.765652 0.906294
0.277333 0.762402 0.885771
0.38793 0.759152 0.865064
0.468208 0.755856 0.84416
0.53547 0.752682 0.823087
0.594018 0.749187 0.801663
0.646815 0.745693 0.780285
0.694835 0.742336 0.759426
0.740139 0.738842 0.738369
0.782849 0.735348 0.717525
0.823575 0.731853 0.69691
0.862119 0.728542 0.677012
0.899733 0.725078 0.656962
0 0.832303 1
0 0.832319 1
0 0.832242 1
0 0.832151 1
0 0.831769 1
0 0.831189 1
0 0.830488 1
0 0.82948 1
0 0.828351 1
0 0.82678 1
0 0.825193 1
0 0.823423 1
0 0.821454 1
0 0.819181 1
0 0.816861 1
0 0.814328 1
0 0.811826 1
0 0.809018 1
0 0.806287 0.999344
0 0.803326 0.980407
0 0.800488 0.961044
0 0.797314 0.940978
0.305669 0.794079 0.920501
0.411597 0.790875 0.899794
0.491356 0.78764 0.878843
0.55761 0.784268 0.857725
0.615839 0.78085 0.836545
0.66891 0.77734 0.815167
0.717784 0.773816 0.793912
0.763485 0.770306 0.772824
0.806134 0.766949 0.7523
0.847211 0.763439 0.73164
0.886625 0.759945 0.711223
0 0.865904 1
0 0.865919 1
0 0.865858 1
0 0.865675 1
0 0.865309 1
0 0.864866 1
0 0.864118 1
0 0.863127 1
0 0.861845 1
0 0.860563 1
0 0.859083 1
0 0.857404 1
0 0.85536 1
0 0.853315 1
0 0.851118 1
0 0.8486 1
0 0.846235 1
0 0.843351 1
0 0.840757 1
0 0.837812 1
0 0.834989 1
0 0.831937 0.995285
0.148928 0.828763 0.975174
0.334707 0.825772 0.955016
0.434943 0.822614 0.9346
0.513313 0.819242 0.913573
0.579583 0.815793 0.892317
0.63827 0.812299 0.870954
0.691264 0.808927 0.849867
0.740337 0.805585 0.828901
0.786389 0.80209 0.807828
0.830014 0.798596 0.786892
0.871443 0.795071 0.766186
0 0.899336 1
0 0.899367 1
0 0.899336 1
0 0.899138 1
0 0.89868 1
0 0.898116 1
0 0.897505 1
0 0.896605 1
0 0.895598 1
0 0.894392 1
0 0.892943 1
0 0.891112 1
0 0.889311 1
0 0.887343 1
0 0.884978 1
0 0.882795 1
0 0.880476 1
0 0.877684 1
0 0.875166 1
0 0.872282 1
0 0.869474 1
0 0.866545 1
0 0.863462 1
0.201617 0.860517 1
0.361044 0.857298 0.989563
0.459068 0.854002 0.968795
0.536049 0.850629 0.947845
0.601419 0.847456 0.927138
0.660197 0.844099 0.905974
0.713726 0.840574 0.884611
0.763195 0.837034 0.863355
0.809598 0.833509 0.842222
0.85301 0.830121 0.821637
0 0.932525 1
0 0.93254 1
0 0.932494 1
0 0.932326 1
0 0.932082 1
0 0.93164 1
0 0.930968 1
0 0.93022 1
0 0.929168 1
