luts/Synesthesia.cube
TITLE "Generated by Resolve"
LUT_3D_SIZE 5
0 0 0
0.226093 0 0
0.449332 0 0
0.693904 0 0
0.931258 0 0
0 0.268788 0.396155
0.0998398 0.256611 0.297322
0.455924 0.242054 0.156191
0.698665 0.224277 0
0.933364 0.184054 0
0 0.559716 0.792706
0 0.552499 0.745312
0.308553 0.53077 0.59733
0.685222 0.50573 0.434638
0.940734 0.480537 0.295964
0 0.832303 1
0 0.828351 1
0 0.811826 1
0.491356 0.78764 0.878843
0.886625 0.759945 0.711223
0 1 1
0 1 1
0 1 1
0 1 1
0.670649 1 1
0.149615 0 0
0.247883 0 0
0.445884 0 0
0.68307 0 0
0.919722 0 0
0 0.247593 0.323964
0.191241 0.24152 0.258518
0.454276 0.233555 0.145022
0.689677 0.219364 0
0.922942 0.181842 0
0 0.547402 0.761975
0 0.54136 0.719326
0.32842 0.522011 0.581796
0.682033 0.499489 0.4271
0.933776 0.476097 0.292546
0 0.824399 1
0 0.820523 1
0 0.805158 1
0.497444 0.781903 0.87013
0.884047 0.75555 0.706096
0 1 1
0 1 1
0 1 1
0 1 1
0.672648 1 1
0.299763 0 0
0.341024 0 0
0.490318 0 0
0.696056 0 0
0.917159 0 0
0.292424 0.207828 0.174166
0.344106 0.207965 0.153216
0.500328 0.2065 0.0864271
0.703014 0.194934 0
0.921096 0.157229 0
0 0.514839 0.652552
0 0.511223 0.622919
0.43827 0.497902 0.518883
0.703975 0.480964 0.391821
0.935363 0.461387 0.271412
0 0.800092 1
0 0.797055 1
0 0.784634 0.971054
0.554849 0.764523 0.833036
0.89427 0.741131 0.681758
0 1 1
0 1 1
0 1 1
0 1 1
0.70251 1 1
0.449119 0 0
0.477897 0 0
0.58407 0 0
0.74905 0 0
0.944198 0 0
0.462303 0.150668 0
0.489921 0.150729 0
0.593668 0.147662 0
0.755123 0.129015 0
0.948196 0.0279545 0
0.397177 0.472694 0.498802
0.441062 0.470909 0.481636
0.583062 0.463615 0.416907
0.766232 0.452064 0.325704
0.964843 0.436347 0.224109
0 0.76527 0.961471
0 0.763149 0.945281
0.274235 0.75375 0.875715
0.670237 0.737819 0.761868
0.937453 0.718334 0.632044
0 1 1
0 1 1
0 1 1
0 1 1
0.781704 1 1
0.607111 0 0
0.627039 0 0
0.704417 0 0
0.835096 0 0
1 0 0
0.620584 0 0
0.638804 0 0
0.713161 0 0
0.841138 0 0
1 0 0
0.629511 0.425681 0.344137
0.648905 0.424796 0.334936
0.727855 0.420661 0.297108
0.858503 0.412299 0.233463
1 0.398322 0.136217
0.43212 0.723522 0.811704
0.473915 0.722225 0.800183
0.618326 0.715389 0.74931
0.809323 0.703792 0.663355
1 0.688518 0.559487
0 1 1
0 1 1
0 1 1
0.560555 0.990478 1
0.900099 0.97438 1
