luts/Synesthesia.cube
TITLE "Generated by Resolve"
LUT_3D_SIZE 9
0 0 0
0 0 0
0.226093 0 0
0.328649 0 0
0.449332 0 0
0.572335 0 0
0.693904 0 0
0.813489 0 0
0.931258 0 0
0 0.114382 0.158846
0 0.111269 0.138979
0.203876 0.109148 0
0.327153 0.104997 0
0.449729 0.0955367 0
0.572381 0.074464 0
0.693797 0 0
0.812589 0 0
0.930114 0 0
0 0.268788 0.396155
0 0.265736 0.372015
0.0998398 0.256611 0.297322
0.322057 0.248569 0.219684
0.455924 0.242054 0.156191
0.578973 0.234943 0.0937057
0.698665 0.224277 0
0.816587 0.208438 0
0.933364 0.184054 0
0 0.416922 0.597589
0 0.415167 0.584298
0 0.407446 0.530083
0.211414 0.396719 0.450416
0.431785 0.385977 0.368551
0.57586 0.375677 0.295399
0.702342 0.365286 0.230045
0.822431 0.353674 0.164263
0.939406 0.339788 0.0595865
0 0.559716 0.792706
0 0.558434 0.784054
0 0.552499 0.745312
0 0.542824 0.679179
0.308553 0.53077 0.59733
0.531563 0.51809 0.5131
0.685222 0.50573 0.434638
0.817426 0.493278 0.362921
0.940734 0.480537 0.295964
0 0.697337 0.981353
0 0.696559 0.97557
0 0.691997 0.946822
0 0.683757 0.893248
0 0.672892 0.821485
0.400946 0.660349 0.739361
0.626032 0.646845 0.654414
0.788113 0.633463 0.573114
0.926741 0.62002 0.4972
0 0.832303 1
0 0.831769 1
0 0.828351 1
0 0.821454 1
0 0.811826 1
0 0.800488 0.961044
0.491356 0.78764 0.878843
0.717784 0.773816 0.793912
0.886625 0.759945 0.711223
0 0.965927 1
0 0.965454 1
0 0.962493 1
0 0.956893 1
0 0.948425 1
0 0.937957 1
0 0.926452 1
0.580118 0.913848 1
0.80853 0.900191 0.932692
0 1 1
0 1 1
0 1 1
0 1 1
0 1 1
0 1 1
0 1 1
0.234165 1 1
0.670649 1 1
0 0 0
0.0799573 0 0
0.23003 0 0
0.327749 0 0
0.446036 0 0
0.567636 0 0
0.689342 0 0
0.809277 0 0
0.927596 0 0
0 0.106905 0.144671
0 0.103304 0.122408
0.208682 0.105119 0
0.326345 0.102281 0
0.446296 0.0945602 0
0.567971 0.0748608 0
0.689067 0 0
0.808606 0 0
0.926528 0 0
0 0.263264 0.37998
0 0.260517 0.35819
0.120882 0.252659 0.289357
0.321523 0.245609 0.215717
0.452888 0.240085 0.15465
0.575418 0.233509 0.0931411
0.694957 0.223285 0
0.813107 0.207935 0
0.930114 0.183932 0
0 0.413092 0.588754
0 0.41117 0.575586
0 0.404166 0.523644
0.216602 0.393942 0.44593
0.430823 0.383749 0.365835
0.573648 0.373922 0.293812
0.699672 0.363973 0.229267
0.819608 0.352789 0.164202
0.936751 0.33901 0.0601511
0 0.556924 0.786709
0 0.55555 0.778134
0 0.549874 0.740307
0 0.540322 0.674922
0.310521 0.528603 0.594186
0.530388 0.516442 0.511269
0.683665 0.504295 0.433249
0.815534 0.492088 0.362005
0.93872 0.479561 0.295399
0 0.695216 0.97702
0 0.694347 0.970993
0 0.689906 0.942657
0 0.681941 0.890105
0 0.671153 0.818677
0.401892 0.658778 0.737163
0.625391 0.645472 0.652766
0.786557 0.632425 0.57229
0.925277 0.618982 0.49633
0 0.83061 1
0 0.829984 1
0 0.826627 1
0 0.819928 1
0 0.810315 1
0 0.7991 0.958984
0.491844 0.786389 0.877134
0.71725 0.772686 0.792569
0.885634 0.758907 0.710185
0 0.964416 1
0 0.963958 1
0 0.961044 1
0 0.955581 1
0 0.947112 1
0 0.936873 1
0 0.925307 1
0.580316 0.91281 1
0.808011 0.899229 0.931563
0 1 1
0 1 1
0 1 1
0 1 1
0 1 1
0 1 1
0 1 1
0.237095 1 1
0.670619 1 1
0.149615 0 0
0.186572 0 0
0.247883 0 0
0.335042 0 0
0.445884 0 0
0.563653 0 0
0.68307 0 0
0.801663 0 0
0.919722 0 0
0.12372 0.0697185 0
0.159289 0.07364 0
0.233997 0.0919203 0
0.334432 0.0910506 0
0.446601 0.0841535 0
0.564248 0.0653697 0
0.683085 0 0
0.801251 0 0
0.918807 0 0
0 0.247593 0.323964
0 0.246082 0.308995
0.191241 0.24152 0.258518
0.333501 0.23743 0.199176
0.454276 0.233555 0.145022
0.572229 0.228199 0.0858167
0.689677 0.219364 0
0.806302 0.204852 0
0.922942 0.181842 0
0 0.401022 0.552834
0 0.399741 0.541909
0 0.393866 0.496498
0.25214 0.385412 0.427207
0.436576 0.376837 0.353918
0.572976 0.368399 0.28629
0.696117 0.359396 0.224323
0.814313 0.348775 0.160525
0.930709 0.335805 0.0554513
0 0.547402 0.761975
0 0.546349 0.754131
0 0.54136 0.719326
0 0.532723 0.658198
0.32842 0.522011 0.581796
0.533227 0.510658 0.502235
0.682033 0.499489 0.4271
0.811948 0.488167 0.357961
0.933776 0.476097 0.292546
0 0.687755 0.958984
0 0.686961 0.953307
0 0.682857 0.926452
0 0.67538 0.875959
0 0.665248 0.807462
0.4121 0.653513 0.728145
0.626734 0.640864 0.646021
0.785275 0.62829 0.566979
0.922103 0.615564 0.492805
0 0.824399 1
0 0.823926 1
0 0.820523 1
0 0.814099 1
0 0.805158 1
0 0.794232 0.950469
0.497444 0.781903 0.87013
0.717739 0.768856 0.787228
0.884047 0.75555 0.706096
0 0.959228 1
0 0.958907 1
0 0.955993 1
0 0.95053 1
0 0.942596 1
0 0.93257 1
0 0.921477 1
0.584588 0.909117 1
0.808057 0.895994 0.927214
0 1 1
0 1 1
0 1 1
0 1 1
0 1 1
0 1 1
0 1 1
0.258412 1 1
0.672648 1 1
0.244602 0 0
0.251621 0 0
0.285542 0 0
0.362036 0 0
0.460883 0 0
0.570459 0 0
0.684581 0 0
0.799435 0 0
0.91519 0 0
0.222019 0.0360418 0
0.233265 0.0508736 0
0.281453 0.0617838 0
0.362158 0.0594644 0
0.461906 0.0490578 0
0.571084 0 0
0.68455 0 0
0.799252 0 0
0.914351 0 0
0.168612 0.228138 0.247715
0.193332 0.227955 0.239979
0.270207 0.226246 0.209232
0.366278 0.224643 0.167697
0.470375 0.222446 0.123064
0.579385 0.21828 0.0620432
0.691264 0.210437 0
0.8047 0.196612 0
0.918837 0.173922 0
0 0.383841 0.491341
0 0.383062 0.483223
0 0.378988 0.448035
0.317693 0.372869 0.392065
0.459648 0.366247 0.329732
0.582544 0.359274 0.26952
0.698924 0.351476 0.212161
0.813443 0.342168 0.150851
0.927275 0.329915 0.0230106
0 0.532845 0.716075
0 0.532036 0.709438
0 0.528023 0.679561
0 0.520729 0.625452
0.374395 0.511345 0.556252
0.54905 0.501686 0.483787
0.687587 0.491691 0.413764
0.812802 0.481361 0.348058
0.931624 0.470207 0.285191
0 0.675319 0.923629
0 0.674769 0.918883
0 0.671168 0.894301
0 0.664546 0.848005
0 0.655436 0.7841
0.441932 0.644572 0.709316
0.636835 0.63299 0.631571
0.788067 0.621378 0.556069
0.921416 0.609308 0.48423
0 0.814054 1
0 0.813367 1
0 0.810483 1
0 0.804654 1
0 0.79617 1
0 0.786175 0.933379
0.516854 0.774563 0.856016
0.72491 0.762158 0.775616
0.885908 0.749538 0.696925
0 0.949981 1
0 0.949676 1
0 0.947234 1
0 0.942168 1
0 0.934752 1
0 0.925307 1
0.140139 0.91458 1
0.597391 0.902922 0.999176
0.812726 0.889952 0.917479
0 1 1
0 1 1
0 1 1
0 1 1
0 1 1
0 1 1
0 1 1
0.301915 1 1
0.68188 1 1
0.299763 0 0
0.307149 0 0
0.341024 0 0
0.404669 0 0
0.490318 0 0
0.58967 0 0
0.696056 0 0
0.805676 0 0
0.917159 0 0
0.296834 0 0
0.305303 0 0
0.341222 0 0
0.405814 0 0
0.49163 0 0
0.590539 0 0
0.696162 0 0
0.805371 0 0
0.916487 0 0
0.292424 0.207828 0.174166
0.302678 0.208057 0.170245
0.344106 0.207965 0.153216
0.413214 0.207767 0.125399
0.500328 0.2065 0.0864271
0.598764 0.202808 0
0.703014 0.194934 0
0.810681 0.180835 0
0.921096 0.157229 0
0.179828 0.363867 0.415732
0.205707 0.36347 0.410224
0.289448 0.361013 0.385321
0.39234 0.357214 0.343908
0.498436 0.352529 0.294423
0.60444 0.347173 0.243717
0.711559 0.340414 0.191669
0.820127 0.331945 0.131289
0.929824 0.32047 0
0 0.514839 0.652552
0 0.514351 0.647532
0 0.511223 0.622919
0.248829 0.505409 0.5776
0.43827 0.497902 0.518883
0.579446 0.489616 0.454948
0.703975 0.480964 0.391821
0.821286 0.471809 0.331258
0.935363 0.461387 0.271412
0 0.659602 0.872663
0 0.659083 0.86836
0 0.656245 0.84715
0 0.650568 0.806256
0.216648 0.642557 0.74847
0.492058 0.632883 0.68014
0.660105 0.622751 0.608743
0.799908 0.611933 0.537896
0.927108 0.601068 0.470253
0 0.800092 1
0 0.799771 1
0 0.797055 1
0 0.791867 1
0 0.784634 0.971054
0.228855 0.775143 0.906096
0.554849 0.764523 0.833036
0.742229 0.75285 0.756725
0.89427 0.741131 0.681758
0 0.93785 1
0 0.937514 1
0 0.935195 1
0 0.930632 1
0 0.923827 1
0 0.915145 1
0.28983 0.905226 1
0.624781 0.893996 0.980652
0.825666 0.881987 0.902235
0 1 1
0 1 1
0 1 1
0 1 1
0 1 1
0 1 1
0 1 1
0.375372 1 1
0.70251 1 1
0.371847 0 0
0.378531 0 0
0.406531 0 0
0.459083 0 0
0.532509 0 0
0.6206 0 0
0.717662 0 0
0.820356 0 0
0.92694 0 0
0.374182 0 0
0.380575 0 0
0.408438 0 0
0.461067 0 0
0.533928 0 0
0.621271 0 0
0.717906 0 0
0.820447 0 0
0.926329 0 0
0.380667 0.1841 0.104601
0.387366 0.184482 0.102296
0.416281 0.184756 0.0894026
0.469383 0.184512 0.0574197
0.542214 0.183154 0
0.628809 0.179049 0
0.724483 0.170336 0
0.825818 0.154269 0
0.930922 0.125841 0
0.356039 0.34258 0.337575
0.364706 0.342504 0.334188
0.402686 0.341299 0.317632
0.466499 0.338827 0.288136
0.54699 0.335805 0.250904
0.637339 0.331411 0.208652
0.73402 0.325444 0.161074
0.835309 0.317479 0.095613
0.939834 0.306783 0
0.147814 0.494362 0.577707
0.180346 0.494072 0.573953
0.280079 0.491768 0.554681
0.395392 0.487449 0.518853
0.51017 0.48191 0.471321
0.6215 0.475227 0.417609
0.730617 0.467948 0.362493
0.83859 0.459754 0.30753
0.946258 0.450309 0.25153
0 0.641306 0.80856
0 0.641016 0.805264
0 0.63859 0.787198
0 0.63386 0.751705
0.383566 0.627131 0.701518
0.555123 0.618906 0.641505
0.695613 0.609979 0.577218
0.821576 0.600305 0.512535
0.940505 0.590326 0.449622
0 0.783688 1
0 0.783337 1
0 0.781109 1
0 0.776654 0.975143
0 0.77026 0.928298
0.385718 0.761776 0.868696
0.607569 0.752117 0.801373
0.770932 0.741482 0.730526
0.911604 0.730632 0.659983
0 0.922927 1
0 0.922698 1
0 0.920745 1
0 0.916762 1
0 0.910582 1
0 0.902892 1
0.4103 0.893492 1
0.667811 0.882994 0.954452
0.84892 0.871687 0.880003
0 1 1
0 1 1
0 1 1
0 1 1
0 1 1
0 1 1
0 1 1
0.460258 1 1
0.736156 1 1
0.449119 0 0
0.454765 0 0
0.477897 0 0
0.521553 0 0
0.58407 0 0
0.661616 0 0
0.74905 0 0
0.84387 0 0
0.944198 0 0
0.452308 0 0
0.457694 0 0
0.480369 0 0
0.523415 0 0
0.58555 0 0
0.662287 0 0
0.74931 0 0
0.843992 0 0
0.943648 0 0
0.462303 0.150668 0
0.467384 0.150668 0
0.489921 0.150729 0
0.532326 0.150042 0
0.593668 0.147662 0
0.669383 0.141482 0
0.755123 0.129015 0
0.849012 0.104646 0
0.948196 0.0279545 0
0.46389 0.32015 0.26276
0.469261 0.320211 0.260624
0.493721 0.319493 0.249577
0.539086 0.31783 0.228824
0.602365 0.315602 0.200519
0.679133 0.312078 0.164797
0.765362 0.306493 0.116991
0.858991 0.298894 0
0.957015 0.288167 0
0.397177 0.472694 0.498802
0.405386 0.47245 0.495811
0.441062 0.470909 0.481636
0.503532 0.46775 0.454292
0.583062 0.463615 0.416907
0.671763 0.458244 0.372885
0.766232 0.452064 0.325704
0.864195 0.444694 0.276402
0.964843 0.436347 0.224109
0 0.620935 0.73521
0.0383917 0.62063 0.732219
0.237018 0.618967 0.717662
0.375784 0.614954 0.687968
0.503838 0.609445 0.645747
0.624964 0.602823 0.594583
0.74052 0.594888 0.538064
0.852155 0.586511 0.4804
0.961791 0.577569 0.423056
0 0.76527 0.961471
0 0.765011 0.959014
0 0.763149 0.945281
0 0.759411 0.91754
0.274235 0.75375 0.875715
0.507042 0.746197 0.822339
0.670237 0.737819 0.761868
0.809781 0.728283 0.697337
0.937453 0.718334 0.632044
0 0.906096 1
0 0.905852 1
0 0.904173 1
0 0.900801 1
0 0.895399 1
0.0625162 0.888426 1
0.52137 0.879881 0.988037
0.722042 0.870253 0.921263
0.882063 0.859709 0.851438
0 1 1
0 1 1
0 1 1
0 1 1
0 1 1
0 1 1
0 1 1
0.553826 1 1
0.781704 1 1
0.528176 0 0
0.53254 0 0
0.551843 0 0
0.588373 0 0
0.642359 0 0
0.710185 0 0
0.788724 0 0
0.876005 0 0
0.969162 0 0
0.531273 0 0
0.535683 0 0
0.554284 0 0
0.590509 0 0
0.643671 0 0
0.710872 0 0
0.789334 0 0
0.875868 0 0
0.968673 0 0
0.54226 0.0853437 0
0.546136 0.0848249 0
0.564263 0.0838941 0
0.59942 0.0803235 0
0.651423 0.0702983 0
0.717556 0.0442054 0
0.794858 0 0
0.880842 0 0
0.972961 0 0
0.553048 0.29485 0.191165
0.557031 0.294774 0.189487
0.575189 0.294255 0.181582
0.610513 0.293217 0.166033
0.662501 0.291112 0.141543
0.728344 0.287678 0.104387
0.805127 0.282185 0
0.890166 0.274388 0
0.981613 0.263172 0
0.527535 0.449866 0.419959
0.532097 0.449851 0.418128
0.554253 0.448692 0.407568
0.596414 0.446693 0.387518
0.655558 0.443305 0.358389
0.727932 0.438911 0.322667
0.809079 0.433692 0.282933
0.897185 0.426902 0.238407
0.990372 0.418982 0.187366
0.421515 0.599145 0.656458
0.429145 0.598932 0.654124
0.464256 0.597589 0.642329
0.52604 0.594491 0.618631
0.606455 0.590112 0.584054
0.69688 0.584588 0.541192
0.792248 0.578149 0.493217
0.890349 0.570733 0.442435
0.989944 0.56257 0.390723
0 0.745159 0.889632
0 0.744976 0.887465
0.111772 0.743542 0.875776
0.329976 0.740398 0.851911
0.48043 0.735271 0.815152
0.614313 0.728908 0.768566
0.738796 0.72137 0.7149
0.856977 0.713222 0.657557
0.971099 0.70425 0.598291
0 0.887694 1
0 0.887633 1
0 0.886076 1
0 0.883146 1
0 0.878431 1
0.427634 0.872206 0.997131
0.626429 0.864286 0.941955
0.784695 0.855711 0.881086
0.924224 0.846052 0.81651
0 1 1
0 1 1
0 1 1
0 1 1
0 1 1
0 1 1
0.379675 1 1
0.649287 0.998093 1
0.836851 0.988556 1
0.607111 0 0
0.610895 0 0
0.627039 0 0
0.658015 0 0
0.704417 0 0
0.764294 0 0
0.835096 0 0
0.914977 0 0
1 0 0
0.610208 0 0
0.61387 0 0
0.629389 0 0
0.66009 0 0
0.70576 0 0
0.765057 0 0
0.835462 0 0
0.91487 0 0
1 0 0
0.620584 0 0
0.623835 0 0
0.638804 0 0
0.668681 0 0
0.713161 0 0
0.771557 0 0
0.841138 0 0
0.919692 0 0
1 0 0
0.634394 0.264027 0.113283
0.637552 0.263966 0.11165
0.652094 0.263523 0.1037
0.681178 0.262394 0.0851301
0.725368 0.260075 0.0349279
0.782803 0.256229 0
0.851194 0.250248 0
0.928878 0.241382 0
1 0.228199 0
0.629511 0.425681 0.344137
0.632959 0.42562 0.342626
0.648905 0.424796 0.334936
0.680751 0.423239 0.319753
0.727855 0.420661 0.297108
0.787854 0.416922 0.268009
0.858503 0.412299 0.233463
0.937255 0.406073 0.191714
1 0.398322 0.136217
0.576455 0.576547 0.576577
0.580819 0.57641 0.574792
0.601465 0.575219 0.565423
0.641428 0.573083 0.547082
0.698924 0.569451 0.519066
0.769558 0.564874 0.483742
0.848936 0.559289 0.443183
0.934462 0.552804 0.399313
1 0.545449 0.352911
0.43212 0.723522 0.811704
0.439384 0.723369 0.809873
0.473915 0.722225 0.800183
0.536065 0.719676 0.78027
0.618326 0.715389 0.74931
0.711437 0.709957 0.709422
0.809323 0.703792 0.663355
0.909941 0.696269 0.612116
1 0.688518 0.559487
0 0.867781 1
0 0.86775 1
0 0.866667 1
0.240528 0.864027 1
0.436332 0.859892 0.980407
0.588479 0.854124 0.939162
0.725048 0.847288 0.889845
0.852003 0.839414 0.834775
0.972976 0.8309 0.776211
0 1 1
0 1 1
0 1 1
0 1 1
0 1 1
0.284001 0.997162 1
0.560555 0.990478 1
0.744686 0.982681 1
0.900099 0.97438 1
