luts/Timefold.cube
TITLE "Generated by Resolve"
LUT_3D_SIZE 5
0 7.62951e-05 0.000320439
0.178485 0 0.242435
0.35697 0 0.484886
0.53547 0 0.727321
0.713954 0 0.969772
0.141695 0.193606 0.139712
0.32018 0.1897 0.382132
0.498665 0.185794 0.624582
0.677165 0.181872 0.867033
0.85565 0.177966 1
0.283391 0.387228 0.279423
0.461875 0.383322 0.521859
0.640375 0.379416 0.764309
0.81886 0.375494 1
0.99736 0.371588 1
0.425101 0.58085 0.419135
0.603586 0.576944 0.66157
0.782071 0.573022 0.904021
0.960571 0.569116 1
1 0.565209 1
0.566796 0.774472 0.558862
0.745281 0.770565 0.801282
0.923781 0.766644 1
1 0.762737 1
1 0.758831 1
0 0.0695811 0
0.110704 0.0656748 0.0112459
0.289189 0.0617685 0.253697
0.467689 0.0578622 0.496147
0.646174 0.0539406 0.738598
0.0739147 0.263203 0
0.252384 0.259281 0.150958
0.430884 0.255375 0.393408
0.609369 0.251469 0.635843
0.787869 0.247562 0.878294
0.21561 0.456809 0.048249
0.394095 0.452903 0.290669
0.57258 0.448997 0.53312
0.75108 0.44509 0.77557
0.92958 0.441169 1
0.357321 0.650431 0.187961
0.53579 0.646525 0.430396
0.71429 0.642618 0.672831
0.89279 0.638712 0.915282
1 0.634791 1
0.499016 0.844053 0.327672
0.677501 0.840146 0.570108
0.855985 0.83624 0.812558
1 0.832319 1
1 0.828412 1
0 0.139178 0
0.0429084 0.135271 0
0.221393 0.131365 0.0225071
0.399893 0.127443 0.264942
0.578393 0.123537 0.507393
0.00611887 0.332784 0
0.184604 0.328878 0
0.363088 0.324971 0.162203
0.541588 0.32105 0.404654
0.720073 0.317143 0.647105
0.147829 0.526406 0
0.326299 0.522499 0.0594797
0.504799 0.518593 0.30193
0.683284 0.514672 0.544366
0.861784 0.510765 0.786816
0.289525 0.720027 0
0.468009 0.716121 0.199191
0.646494 0.712215 0.441642
0.824994 0.708293 0.684092
1 0.704387 0.926528
0.431235 0.913649 0.0964828
0.609705 0.909743 0.338903
0.788205 0.905821 0.581353
0.96669 0.901915 0.823804
1 0.898009 1
0 0.208774 0
0 0.204852 0
0.153613 0.200946 0
0.332097 0.19704 0.033753
0.510597 0.193133 0.276204
0 0.40238 0
0.116808 0.398474 0
0.295308 0.394553 0
0.473793 0.390646 0.173465
0.652293 0.38674 0.4159
0.0800336 0.596002 0
0.258518 0.592081 0
0.437003 0.588174 0.0707256
0.615503 0.584268 0.313176
0.793988 0.580362 0.555627
0.221744 0.789624 0
0.400214 0.785702 0
0.578714 0.781796 0.210452
0.757198 0.77789 0.452888
0.935699 0.773983 0.695338
0.363439 0.983246 0
0.541924 0.979324 0.107713
0.720409 0.975418 0.350164
0.898909 0.971511 0.592615
1 0.967605 0.83505
0 0.278355 0
0 0.274449 0
0.0858167 0.270542 0
0.264317 0.266636 0
0.442802 0.262715 0.0449989
0 0.471962 0
0.0490272 0.468055 0
0.227512 0.464149 0
0.406012 0.460243 0
0.584497 0.456336 0.18471
0.0122377 0.665583 0
0.190723 0.661677 0
0.369223 0.657771 0
0.547707 0.653864 0.0819867
0.726207 0.649943 0.324422
0.153948 0.859205 0
0.332433 0.855299 0
0.510918 0.851392 0
0.689418 0.847486 0.221698
0.867903 0.843565 0.464149
0.295644 1 0
0.474128 1 0
0.652628 1 0.118959
0.831113 1 0.36141
1 1 0.603861
