luts/Timefold.cube
TITLE "Generated by Resolve"
LUT_3D_SIZE 33
0 7.62951e-05 0.000320439
0.0222934 0 0.0302892
0.0446174 0 0.0605936
0.0669261 0 0.090898
0.0892348 0 0.121202
0.111543 0 0.151507
0.133852 0 0.181827
0.156176 0 0.212131
0.178485 0 0.242435
0.200793 0 0.27274
0.223102 0 0.303044
0.245411 0 0.333349
0.267735 0 0.363653
0.290044 0 0.393957
0.312352 0 0.424262
0.334661 0 0.454566
0.35697 0 0.484886
0.379294 0 0.51519
0.401602 0 0.545495
0.423911 0 0.575799
0.44622 0 0.606104
0.468528 0 0.636408
0.490837 0 0.666712
0.513161 0 0.697017
0.53547 0 0.727321
0.557778 0 0.757626
0.580087 0 0.78793
0.602396 0 0.81825
0.62472 0 0.848554
0.647028 0 0.878859
0.669337 0 0.909163
0.691646 0 0.939467
0.713954 0 0.969772
0.0177005 0.0241855 0.0174563
0.0400092 0.0236973 0.0477455
0.0623178 0.023209 0.0780499
0.0846265 0.0227207 0.108354
0.106935 0.0222324 0.138659
0.129244 0.0217441 0.168963
0.151568 0.0212558 0.199283
0.173877 0.0207675 0.229587
0.196185 0.0202792 0.259892
0.218494 0.019791 0.290196
0.240803 0.0193027 0.3205
0.263127 0.0188144 0.350805
0.285435 0.0183261 0.381109
0.307744 0.0178378 0.411414
0.330053 0.0173495 0.441718
0.352361 0.0168612 0.472023
0.374685 0.0163729 0.502327
0.396994 0.0158846 0.532647
0.419303 0.0153964 0.562951
0.441611 0.0149081 0.593256
0.46392 0.0144198 0.62356
0.486244 0.0139315 0.653864
0.508553 0.0134432 0.684169
0.530861 0.0129549 0.714473
0.55317 0.0124666 0.744778
0.575479 0.0119783 0.775082
0.597787 0.0114748 0.805386
0.620111 0.0109712 0.835691
0.64242 0.0104982 0.866011
0.664729 0.0100099 0.896315
0.687037 0.00955215 0.926619
0.709346 0.00901808 0.956924
0.73167 0.00852979 0.987228
0.0354162 0.0483864 0.0349279
0.0577249 0.0478981 0.0652171
0.0800336 0.0474098 0.0955215
0.102342 0.0469215 0.125826
0.124651 0.0464332 0.15613
0.14696 0.0459449 0.186435
0.169268 0.0454566 0.216739
0.191592 0.0449683 0.247044
0.213901 0.04448 0.277348
0.23621 0.0439918 0.307652
0.258518 0.0435035 0.337957
0.280827 0.0430152 0.368277
0.303151 0.0425269 0.398581
0.32546 0.0420386 0.428885
0.347768 0.0415503 0.45919
0.370077 0.041062 0.489494
0.392386 0.0405737 0.519799
0.41471 0.0400854 0.550103
0.437018 0.0395972 0.580407
0.459327 0.0391089 0.610712
0.481636 0.0386206 0.641016
0.503944 0.0381323 0.671321
0.526268 0.037644 0.70164
0.548577 0.0371557 0.731945
0.570886 0.0366674 0.762249
0.593194 0.0361791 0.792554
0.615503 0.0356909 0.822858
0.637812 0.0352026 0.853162
0.660136 0.0347143 0.883467
0.682445 0.034226 0.913771
0.704753 0.0337377 0.944076
0.727062 0.0332341 0.97438
0.749371 0.0327459 1
0.0531319 0.0726024 0.0523842
0.0754253 0.0721141 0.0826734
0.0977493 0.0716259 0.112978
0.120058 0.0711223 0.143282
0.142367 0.070634 0.173587
0.164675 0.0701457 0.203906
0.186984 0.0696574 0.234211
0.209293 0.0691691 0.264515
0.231617 0.0686809 0.29482
0.253925 0.0681926 0.325124
0.276234 0.0677043 0.355428
0.298543 0.067216 0.385733
0.320851 0.0667277 0.416037
0.343175 0.0662394 0.446342
0.365484 0.0657511 0.476646
0.387793 0.0652628 0.50695
0.410101 0.0647746 0.53727
0.43241 0.0642863 0.567575
0.454734 0.063798 0.597879
0.477043 0.0633097 0.628183
0.499352 0.0628214 0.658488
0.52166 0.0623331 0.688792
0.543969 0.0618448 0.719097
0.566293 0.0613565 0.749401
0.588602 0.0608682 0.779706
0.61091 0.0603799 0.81001
0.633219 0.0598917 0.840314
0.655528 0.0594034 0.870634
0.677836 0.0589151 0.900938
0.70016 0.0584268 0.931243
0.722469 0.0579385 0.961547
0.744778 0.057435 0.991852
0.767086 0.0569619 1
0.0708476 0.0968032 0.0698558
0.0931411 0.0963149 0.100145
0.11545 0.0958267 0.130449
0.137774 0.0953384 0.160754
0.160082 0.0948501 0.191058
0.182391 0.0943618 0.221363
0.2047 0.0938735 0.251667
0.227008 0.09337 0.281971
0.249317 0.0928817 0.312276
0.271641 0.0923934 0.34258
0.29395 0.0919051 0.3729
0.316258 0.0914168 0.403204
0.338567 0.0909285 0.433509
0.360876 0.0904402 0.463813
0.3832 0.0899519 0.494118
0.405509 0.0894636 0.524422
0.427817 0.0889754 0.554726
0.450126 0.0884871 0.585031
0.472435 0.0879988 0.615335
0.494759 0.0875105 0.64564
0.517067 0.0870222 0.675944
0.539376 0.0865339 0.706264
0.561685 0.0860456 0.736568
0.583993 0.0855573 0.766873
0.606317 0.085069 0.797177
0.628626 0.0845808 0.827482
0.650935 0.0840925 0.857786
0.673243 0.0836042 0.88809
0.695552 0.0831159 0.918395
0.717861 0.0826276 0.948699
0.740185 0.0821393 0.979004
0.762493 0.081651 1
0.784802 0.0811627 1
0.0885634 0.121004 0.0873121
0.110857 0.120516 0.117601
0.133165 0.120027 0.147906
0.155474 0.119539 0.17821
0.177798 0.119051 0.20853
0.200107 0.118563 0.238834
0.222416 0.118074 0.269139
0.244724 0.117586 0.299443
0.267033 0.117098 0.329747
0.289342 0.116609 0.360052
0.311666 0.116121 0.390356
0.333974 0.115618 0.420661
0.356283 0.115129 0.450965
0.378592 0.114641 0.48127
0.4009 0.114153 0.511574
0.423224 0.113664 0.541894
0.445533 0.113176 0.572198
0.467842 0.112688 0.602502
0.49015 0.1122 0.632807
0.512459 0.111711 0.663111
0.534783 0.111223 0.693416
0.557092 0.110735 0.72372
0.5794 0.110246 0.754025
0.601709 0.109758 0.784329
0.624018 0.10927 0.814633
0.646342 0.108782 0.844938
0.66865 0.108293 0.875257
0.690959 0.107805 0.905562
0.713268 0.107317 0.935866
0.735576 0.106828 0.966171
0.757885 0.10634 0.996475
0.780209 0.105852 1
0.802518 0.105364 1
0.106264 0.145205 0.104784
0.128573 0.144717 0.135073
0.150881 0.144228 0.165377
0.17319 0.14374 0.195682
0.195499 0.143252 0.225986
0.217823 0.142763 0.256291
0.240131 0.142275 0.286595
0.26244 0.141787 0.316899
0.284749 0.141299 0.347204
0.307057 0.14081 0.377523
0.329366 0.140322 0.407828
0.35169 0.139834 0.438132
0.373999 0.139345 0.468437
0.396307 0.138857 0.498741
0.418616 0.138369 0.529046
0.440925 0.137865 0.55935
0.463249 0.137377 0.589654
0.485557 0.136889 0.619959
0.507866 0.1364 0.650263
0.530175 0.135912 0.680568
0.552483 0.135424 0.710887
0.574807 0.134936 0.741192
0.597116 0.134447 0.771496
0.619425 0.133959 0.801801
0.641733 0.133471 0.832105
0.664042 0.132982 0.862409
0.686366 0.132494 0.892714
0.708675 0.132006 0.923018
0.730983 0.131518 0.953323
0.753292 0.131029 0.983627
0.775601 0.130541 1
0.797909 0.130053 1
0.820233 0.129564 1
0.12398 0.169406 0.12224
0.146288 0.168917 0.152529
0.168597 0.168429 0.182834
0.190906 0.167941 0.213138
0.213214 0.167452 0.243458
0.235523 0.166964 0.273762
0.257847 0.166476 0.304067
0.280156 0.165988 0.334371
0.302464 0.165499 0.364675
0.324773 0.165011 0.39498
0.347082 0.164523 0.425284
0.36939 0.164034 0.455589
0.391714 0.163546 0.485893
0.414023 0.163058 0.516197
0.436332 0.16257 0.546517
0.45864 0.162081 0.576822
0.480949 0.161593 0.607126
0.503273 0.161105 0.63743
0.525582 0.160601 0.667735
0.54789 0.160113 0.698039
0.570199 0.159625 0.728344
0.592508 0.159136 0.758648
0.614832 0.158648 0.788952
0.63714 0.15816 0.819257
0.659449 0.157671 0.849561
0.681758 0.157183 0.879881
0.704067 0.156695 0.910185
0.72639 0.156207 0.94049
0.748699 0.155718 0.970794
0.771008 0.15523 1
0.793317 0.154742 1
0.815625 0.154253 1
0.837934 0.153765 1
0.141695 0.193606 0.139712
0.163989 0.193118 0.170001
0.186313 0.19263 0.200305
0.208621 0.192142 0.23061
0.23093 0.191653 0.260914
0.253239 0.191165 0.291218
0.275547 0.190677 0.321523
0.297871 0.190188 0.351827
0.32018 0.1897 0.382132
0.342489 0.189212 0.412451
0.364797 0.188724 0.442756
0.387106 0.188235 0.47306
0.409415 0.187747 0.503365
0.431739 0.187259 0.533669
0.454047 0.18677 0.563973
0.476356 0.186282 0.594278
0.498665 0.185794 0.624582
0.520974 0.185306 0.654887
0.543297 0.184817 0.685191
0.565606 0.184329 0.715511
0.587915 0.183841 0.745815
0.610224 0.183352 0.77612
0.632532 0.182849 0.806424
0.654856 0.182361 0.836728
0.677165 0.181872 0.867033
0.699474 0.181384 0.897337
0.721782 0.180896 0.927642
0.744091 0.180407 0.957946
0.766415 0.179919 0.988251
0.788724 0.179431 1
0.811032 0.178943 1
0.833341 0.178454 1
0.85565 0.177966 1
0.159411 0.217807 0.157168
0.181704 0.217319 0.187457
0.204013 0.216831 0.217762
0.226337 0.216342 0.248081
0.248646 0.215854 0.278386
0.270954 0.215366 0.30869
0.293263 0.214878 0.338994
0.315572 0.214389 0.369299
0.337896 0.213901 0.399603
0.360204 0.213413 0.429908
0.382513 0.212924 0.460212
0.404822 0.212436 0.490517
0.427131 0.211948 0.520821
0.449454 0.21146 0.551125
0.471763 0.210971 0.581445
0.494072 0.210483 0.611749
0.516381 0.209995 0.642054
0.538689 0.209506 0.672358
0.560998 0.209018 0.702663
0.583322 0.20853 0.732967
0.605631 0.208042 0.763272
0.627939 0.207553 0.793576
0.650248 0.207065 0.82388
0.672557 0.206577 0.854185
0.694881 0.206088 0.884504
0.717189 0.2056 0.914809
0.739498 0.205097 0.945113
0.761807 0.204608 0.975418
0.784115 0.20412 1
0.806439 0.203632 1
0.828748 0.203143 1
0.851057 0.202655 1
0.873365 0.202167 1
0.177127 0.242008 0.17464
0.19942 0.24152 0.204929
0.221729 0.241032 0.235233
0.244038 0.240543 0.265538
0.266361 0.240055 0.295842
0.28867 0.239567 0.326146
0.310979 0.239078 0.356451
0.333288 0.23859 0.386755
0.355596 0.238102 0.417075
0.37792 0.237613 0.447379
0.400229 0.237125 0.477684
0.422538 0.236637 0.507988
0.444846 0.236149 0.538293
0.467155 0.23566 0.568597
0.489479 0.235172 0.598901
0.511788 0.234684 0.629206
0.534096 0.234195 0.65951
0.556405 0.233707 0.689815
0.578714 0.233219 0.720119
0.601022 0.232731 0.750439
0.623346 0.232242 0.780743
0.645655 0.231754 0.811048
0.667964 0.231266 0.841352
0.690272 0.230777 0.871656
0.712581 0.230289 0.901961
0.734905 0.229801 0.932265
0.757214 0.229313 0.96257
0.779522 0.228824 0.992874
0.801831 0.228321 1
0.82414 0.227832 1
0.846464 0.227344 1
0.868772 0.226856 1
0.891081 0.226368 1
0.194827 0.266209 0.192096
0.217136 0.265721 0.222385
0.239445 0.265232 0.252705
0.261753 0.264744 0.283009
0.284062 0.264256 0.313313
0.306386 0.263767 0.343618
0.328695 0.263279 0.373922
0.351003 0.262791 0.404227
0.373312 0.262303 0.434531
0.395621 0.261814 0.464836
0.417945 0.261326 0.49514
0.440253 0.260838 0.525444
0.462562 0.260349 0.555749
0.484871 0.259861 0.586069
0.507179 0.259373 0.616373
0.529503 0.258885 0.646677
0.551812 0.258396 0.676982
0.574121 0.257908 0.707286
0.596429 0.25742 0.737591
0.618738 0.256931 0.767895
0.641047 0.256443 0.798199
0.663371 0.255955 0.828504
0.685679 0.255467 0.858808
0.707988 0.254978 0.889113
0.730297 0.25449 0.919432
0.752605 0.254002 0.949737
0.774929 0.253513 0.980041
0.797238 0.253025 1
0.819547 0.252537 1
0.841856 0.252049 1
0.864164 0.25156 1
0.886488 0.251072 1
0.908797 0.250584 1
0.212543 0.290425 0.209567
0.234852 0.289937 0.239857
0.25716 0.289448 0.270161
0.279469 0.288945 0.300465
0.301778 0.288457 0.33077
0.324086 0.287968 0.361074
0.34641 0.28748 0.391379
0.368719 0.286992 0.421698
0.391028 0.286503 0.452003
0.413336 0.286015 0.482307
0.435645 0.285527 0.512612
0.457969 0.285039 0.542916
0.480278 0.28455 0.57322
0.502586 0.284062 0.603525
0.524895 0.283574 0.633829
0.547204 0.283085 0.664134
0.569528 0.282597 0.694438
0.591836 0.282109 0.724743
0.614145 0.281621 0.755062
0.636454 0.281132 0.785367
0.658763 0.280644 0.815671
0.681071 0.280156 0.845975
0.703395 0.279667 0.87628
0.725704 0.279179 0.906584
0.748012 0.278691 0.936889
0.770321 0.278202 0.967193
0.79263 0.277714 0.997497
0.814954 0.277226 1
0.837263 0.276738 1
0.859571 0.276249 1
0.88188 0.275761 1
0.904189 0.275273 1
0.926513 0.274784 1
0.230259 0.314626 0.227024
0.252552 0.314137 0.257328
0.274876 0.313649 0.287633
0.297185 0.313161 0.317937
0.319493 0.312673 0.348241
0.341802 0.312184 0.378546
0.364111 0.311696 0.40885
0.386435 0.311192 0.439155
0.408743 0.310704 0.469459
0.431052 0.310216 0.499763
0.453361 0.309728 0.530068
0.47567 0.309239 0.560372
0.497993 0.308751 0.590692
0.520302 0.308263 0.620996
0.542611 0.307774 0.651301
0.56492 0.307286 0.681605
0.587228 0.306798 0.71191
0.609552 0.30631 0.742214
0.631861 0.305821 0.772519
0.654169 0.305333 0.802823
0.676478 0.304845 0.833127
0.698787 0.304356 0.863432
0.721096 0.303868 0.893736
0.74342 0.30338 0.924056
0.765728 0.302892 0.95436
0.788037 0.302403 0.984665
0.810346 0.301915 1
0.832654 0.301427 1
0.854978 0.300938 1
0.877287 0.30045 1
0.899596 0.299962 1
0.921904 0.299474 1
0.944213 0.298985 1
0.247974 0.338827 0.244495
0.270268 0.338338 0.274784
0.292576 0.33785 0.305089
0.3149 0.337362 0.335393
0.337209 0.336873 0.365698
0.359518 0.336385 0.396002
0.381826 0.335897 0.426322
0.404135 0.335409 0.456626
0.426459 0.33492 0.486931
0.448768 0.334432 0.517235
0.471077 0.333944 0.547539
0.493385 0.33344 0.577844
0.515694 0.332952 0.608148
0.538018 0.332464 0.638453
0.560327 0.331975 0.668757
0.582635 0.331487 0.699062
0.604944 0.330999 0.729366
0.627253 0.33051 0.759686
0.649577 0.330022 0.78999
0.671885 0.329534 0.820294
0.694194 0.329046 0.850599
0.716503 0.328557 0.880903
0.738811 0.328069 0.911208
0.76112 0.327581 0.941512
0.783444 0.327092 0.971817
0.805753 0.326604 1
0.828061 0.326116 1
0.85037 0.325628 1
0.872679 0.325139 1
0.895003 0.324651 1
0.917311 0.324163 1
0.93962 0.323674 1
0.961929 0.323186 1
0.26569 0.363027 0.261952
0.287984 0.362539 0.292256
0.310292 0.362051 0.32256
0.332601 0.361563 0.352865
0.354925 0.361074 0.383169
0.377234 0.360586 0.413474
0.399542 0.360098 0.443778
0.421851 0.359609 0.474083
0.44416 0.359121 0.504387
0.466484 0.358633 0.534691
0.488792 0.358144 0.564996
0.511101 0.357656 0.595315
0.53341 0.357168 0.62562
0.555718 0.35668 0.655924
0.578042 0.356191 0.686229
0.600351 0.355688 0.716533
0.62266 0.3552 0.746838
0.644968 0.354711 0.777142
0.667277 0.354223 0.807446
0.689601 0.353735 0.837751
0.71191 0.353246 0.868055
0.734218 0.352758 0.89836
0.756527 0.35227 0.928679
0.778836 0.351781 0.958984
0.801144 0.351293 0.989288
0.823468 0.350805 1
0.845777 0.350317 1
0.868086 0.349828 1
0.890394 0.34934 1
0.912703 0.348852 1
0.935027 0.348363 1
0.957336 0.347875 1
0.979644 0.347387 1
0.283391 0.387228 0.279423
0.305699 0.38674 0.309712
0.328008 0.386252 0.340017
0.350317 0.385763 0.370321
0.372625 0.385275 0.400626
0.394949 0.384787 0.43093
0.417258 0.384298 0.46125
0.439567 0.38381 0.491554
0.461875 0.383322 0.521859
0.484184 0.382834 0.552163
0.506508 0.382345 0.582467
0.528817 0.381857 0.612772
0.551125 0.381369 0.643076
0.573434 0.38088 0.673381
0.595743 0.380392 0.703685
0.618067 0.379904 0.733989
0.640375 0.379416 0.764309
0.662684 0.378927 0.794614
0.684993 0.378424 0.824918
0.707301 0.377935 0.855222
0.729625 0.377447 0.885527
0.751934 0.376959 0.915831
0.774243 0.376471 0.946136
0.796551 0.375982 0.97644
0.81886 0.375494 1
0.841169 0.375006 1
0.863493 0.374517 1
0.885801 0.374029 1
0.90811 0.373541 1
0.930419 0.373053 1
0.952728 0.372564 1
0.975052 0.372076 1
0.99736 0.371588 1
0.301106 0.411429 0.296895
0.323415 0.410941 0.327184
0.345724 0.410452 0.357488
0.368032 0.409964 0.387793
0.390341 0.409476 0.418097
0.41265 0.408988 0.448402
0.434974 0.408499 0.478706
0.457282 0.408011 0.50901
0.479591 0.407523 0.539315
0.5019 0.407034 0.569619
0.524208 0.406546 0.599924
0.546532 0.406058 0.630243
0.568841 0.40557 0.660548
0.59115 0.405081 0.690852
0.613458 0.404593 0.721157
0.635767 0.404105 0.751461
0.658091 0.403616 0.781765
0.6804 0.403128 0.81207
0.702708 0.40264 0.842374
0.725017 0.402152 0.872679
0.747326 0.401663 0.902983
0.76965 0.401175 0.933288
0.791959 0.400671 0.963607
0.814267 0.400183 0.993912
0.836576 0.399695 1
0.858885 0.399207 1
0.881193 0.398718 1
0.903517 0.39823 1
0.925826 0.397742 1
0.948135 0.397253 1
0.970443 0.396765 1
0.992752 0.396277 1
1 0.395789 1
0.318822 0.43563 0.314351
0.341131 0.435142 0.34464
0.363439 0.434653 0.374945
0.385748 0.434165 0.405249
0.408057 0.433677 0.435554
0.430365 0.433188 0.465873
0.452689 0.4327 0.496178
0.474998 0.432212 0.526482
0.497307 0.431724 0.556786
0.519615 0.431235 0.587091
0.541924 0.430747 0.617395
0.564233 0.430259 0.6477
0.586557 0.42977 0.678004
0.608865 0.429282 0.708309
0.631174 0.428794 0.738613
0.653483 0.428305 0.768917
0.675792 0.427817 0.799237
0.698116 0.427329 0.829541
0.720424 0.426841 0.859846
0.742733 0.426352 0.89015
0.765042 0.425864 0.920455
0.78735 0.425376 0.950759
0.809674 0.424887 0.981064
0.831983 0.424399 1
0.854292 0.423911 1
0.8766 0.423423 1
0.898909 0.422919 1
0.921218 0.422431 1
0.943542 0.421942 1
0.96585 0.421454 1
0.988159 0.420966 1
1 0.420478 1
1 0.419989 1
0.336538 0.459831 0.331823
0.358831 0.459342 0.362112
0.381155 0.458854 0.392416
0.403464 0.458366 0.422721
0.425772 0.457877 0.453025
0.448081 0.457389 0.48333
0.47039 0.456901 0.513634
0.492714 0.456413 0.543938
0.515023 0.455924 0.574243
0.537331 0.455436 0.604547
0.55964 0.454948 0.634867
0.581949 0.454459 0.665171
0.604257 0.453971 0.695476
0.626581 0.453483 0.72578
0.64889 0.452995 0.756085
0.671199 0.452506 0.786389
0.693507 0.452018 0.816693
0.715816 0.45153 0.846998
0.73814 0.451041 0.877302
0.760449 0.450553 0.907607
0.782757 0.450065 0.937911
0.805066 0.449577 0.968231
0.827375 0.449088 0.998535
0.849699 0.4486 1
0.872007 0.448112 1
0.894316 0.447623 1
0.916625 0.447135 1
0.938933 0.446647 1
0.961242 0.446159 1
0.983566 0.445655 1
1 0.445167 1
1 0.444678 1
1 0.44419 1
0.354253 0.484031 0.349279
0.376547 0.483543 0.379568
0.398856 0.483055 0.409873
0.42118 0.482567 0.440177
0.443488 0.482078 0.470497
0.465797 0.48159 0.500801
0.488106 0.481102 0.531106
0.510414 0.480613 0.56141
0.532738 0.480125 0.591714
0.555047 0.479637 0.622019
0.577356 0.479149 0.652323
0.599664 0.47866 0.682628
0.621973 0.478172 0.712932
0.644282 0.477684 0.743236
0.666606 0.477195 0.773541
0.688914 0.476707 0.803861
0.711223 0.476219 0.834165
0.733532 0.475731 0.864469
0.75584 0.475242 0.894774
0.778164 0.474754 0.925078
0.800473 0.474266 0.955383
0.822782 0.473777 0.985687
0.84509 0.473289 1
0.867399 0.472801 1
0.889723 0.472313 1
0.912032 0.471824 1
0.93434 0.471336 1
0.956649 0.470848 1
0.978958 0.470359 1
1 0.469871 1
1 0.469383 1
1 0.468894 1
1 0.468406 1
0.371969 0.508247 0.366751
0.394263 0.507759 0.39704
0.416571 0.507271 0.427344
0.43888 0.506767 0.457649
0.461204 0.506279 0.487953
0.483513 0.505791 0.518257
0.505821 0.505302 0.548562
0.52813 0.504814 0.578866
0.550439 0.504326 0.609171
0.572763 0.503838 0.63949
0.595071 0.503349 0.669795
0.61738 0.502861 0.700099
0.639689 0.502373 0.730404
0.661997 0.501884 0.760708
0.684306 0.501396 0.791012
0.70663 0.500908 0.821317
0.728939 0.50042 0.851621
0.751247 0.499931 0.881926
0.773556 0.499443 0.91223
0.795865 0.498955 0.942535
0.818189 0.498466 0.972854
0.840497 0.497978 1
0.862806 0.49749 1
0.885115 0.497002 1
0.907423 0.496513 1
0.929747 0.496025 1
0.952056 0.495537 1
0.974365 0.495048 1
0.996674 0.49456 1
1 0.494072 1
1 0.493584 1
1 0.493095 1
1 0.492607 1
0.38967 0.532448 0.384207
0.411978 0.53196 0.414496
0.434287 0.531472 0.4448
0.456596 0.530983 0.47512
0.478904 0.530495 0.505425
0.501228 0.530007 0.535729
0.523537 0.529519 0.566033
0.545846 0.529015 0.596338
0.568154 0.528527 0.626642
0.590463 0.528038 0.656947
0.612787 0.52755 0.687251
0.635096 0.527062 0.717556
0.657404 0.526574 0.74786
0.679713 0.526085 0.778164
0.702022 0.525597 0.808484
0.72433 0.525109 0.838788
0.746654 0.52462 0.869093
0.768963 0.524132 0.899397
0.791272 0.523644 0.929702
0.813581 0.523156 0.960006
0.835889 0.522667 0.990311
0.858213 0.522179 1
0.880522 0.521691 1
0.902831 0.521202 1
0.925139 0.520714 1
0.947448 0.520226 1
0.969772 0.519738 1
0.992081 0.519249 1
1 0.518761 1
1 0.518273 1
1 0.517784 1
1 0.517296 1
1 0.516808 1
0.407385 0.556649 0.401679
0.429694 0.556161 0.431968
0.452003 0.555673 0.462272
0.474311 0.555184 0.492576
0.49662 0.554696 0.522881
0.518929 0.554208 0.553185
0.541253 0.553719 0.58349
0.563561 0.553231 0.613794
0.58587 0.552743 0.644099
0.608179 0.552254 0.674418
0.630488 0.551766 0.704723
0.652811 0.551263 0.735027
0.67512 0.550774 0.765332
0.697429 0.550286 0.795636
0.719738 0.549798 0.82594
0.742046 0.54931 0.856245
0.764355 0.548821 0.886549
0.786679 0.548333 0.916854
0.808988 0.547845 0.947158
0.831296 0.547356 0.977478
0.853605 0.546868 1
0.875914 0.54638 1
0.898238 0.545892 1
0.920546 0.545403 1
0.942855 0.544915 1
0.965164 0.544427 1
0.987472 0.543938 1
1 0.54345 1
1 0.542962 1
1 0.542473 1
1 0.541985 1
1 0.541497 1
1 0.541009 1
0.425101 0.58085 0.419135
0.447395 0.580362 0.449424
0.469718 0.579873 0.479728
0.492027 0.579385 0.510048
0.514336 0.578897 0.540352
0.536645 0.578408 0.570657
0.558953 0.57792 0.600961
0.581277 0.577432 0.631266
0.603586 0.576944 0.66157
0.625895 0.576455 0.691875
0.648203 0.575967 0.722179
0.670512 0.575479 0.752483
0.692836 0.57499 0.782788
0.715145 0.574502 0.813107
0.737453 0.574014 0.843412
0.759762 0.57351 0.873716
0.782071 0.573022 0.904021
0.804379 0.572534 0.934325
0.826703 0.572045 0.96463
0.849012 0.571557 0.994934
0.871321 0.571069 1
0.893629 0.570581 1
0.915938 0.570092 1
0.938262 0.569604 1
0.960571 0.569116 1
0.982879 0.568627 1
1 0.568139 1
1 0.567651 1
1 0.567163 1
1 0.566674 1
1 0.566186 1
1 0.565698 1
1 0.565209 1
0.442817 0.605051 0.436606
0.46511 0.604562 0.466896
0.487419 0.604074 0.4972
0.509743 0.603586 0.527504
0.532052 0.603098 0.557809
0.55436 0.602609 0.588113
0.576669 0.602121 0.618418
0.598978 0.601633 0.648722
0.621302 0.601144 0.679042
0.64361 0.600656 0.709346
0.665919 0.600168 0.739651
0.688228 0.59968 0.769955
0.710536 0.599191 0.800259
0.73286 0.598703 0.830564
0.755169 0.598215 0.860868
0.777478 0.597726 0.891173
0.799786 0.597238 0.921477
0.822095 0.59675 0.951782
0.844404 0.596246 0.982086
0.866728 0.595758 1
0.889036 0.59527 1
0.911345 0.594781 1
0.933654 0.594293 1
0.955962 0.593805 1
0.978286 0.593317 1
1 0.592828 1
1 0.59234 1
1 0.591852 1
1 0.591363 1
1 0.590875 1
1 0.590387 1
1 0.589899 1
1 0.58941 1
0.460533 0.629252 0.454063
0.482826 0.628763 0.484352
0.505135 0.628275 0.514672
0.527443 0.627787 0.544976
0.549767 0.627298 0.57528
0.572076 0.62681 0.605585
0.594385 0.626322 0.635889
0.616693 0.625834 0.666194
0.639002 0.625345 0.696498
0.661326 0.624857 0.726802
0.683635 0.624369 0.757107
0.705943 0.62388 0.787411
0.728252 0.623392 0.817716
0.750561 0.622904 0.848035
0.772885 0.622415 0.87834
0.795193 0.621927 0.908644
0.817502 0.621439 0.938949
0.839811 0.620951 0.969253
0.862119 0.620462 0.999557
0.884428 0.619974 1
0.906752 0.619486 1
0.929061 0.618997 1
0.95137 0.618494 1
0.973678 0.618006 1
0.995987 0.617517 1
1 0.617029 1
1 0.616541 1
1 0.616053 1
1 0.615564 1
1 0.615076 1
1 0.614588 1
1 0.614099 1
1 0.613611 1
0.478233 0.653452 0.471534
0.500542 0.652964 0.501823
0.52285 0.652476 0.532128
0.545159 0.651987 0.562432
0.567468 0.651499 0.592737
0.589792 0.651011 0.623041
0.6121 0.650523 0.653346
0.634409 0.650034 0.683665
0.656718 0.649546 0.71397
