luts/Timefold.cube
TITLE "Generated by Resolve"
LUT_3D_SIZE 9
0 7.62951e-05 0.000320439
0.0892348 0 0.121202
0.178485 0 0.242435
0.267735 0 0.363653
0.35697 0 0.484886
0.44622 0 0.606104
0.53547 0 0.727321
0.62472 0 0.848554
0.713954 0 0.969772
0.0708476 0.0968032 0.0698558
0.160082 0.0948501 0.191058
0.249317 0.0928817 0.312276
0.338567 0.0909285 0.433509
0.427817 0.0889754 0.554726
0.517067 0.0870222 0.675944
0.606317 0.085069 0.797177
0.695552 0.0831159 0.918395
0.784802 0.0811627 1
0.141695 0.193606 0.139712
0.23093 0.191653 0.260914
0.32018 0.1897 0.382132
0.409415 0.187747 0.503365
0.498665 0.185794 0.624582
0.587915 0.183841 0.745815
0.677165 0.181872 0.867033
0.766415 0.179919 0.988251
0.85565 0.177966 1
0.212543 0.290425 0.209567
0.301778 0.288457 0.33077
0.391028 0.286503 0.452003
0.480278 0.28455 0.57322
0.569528 0.282597 0.694438
0.658763 0.280644 0.815671
0.748012 0.278691 0.936889
0.837263 0.276738 1
0.926513 0.274784 1
0.283391 0.387228 0.279423
0.372625 0.385275 0.400626
0.461875 0.383322 0.521859
0.551125 0.381369 0.643076
0.640375 0.379416 0.764309
0.729625 0.377447 0.885527
0.81886 0.375494 1
0.90811 0.373541 1
0.99736 0.371588 1
0.354253 0.484031 0.349279
0.443488 0.482078 0.470497
0.532738 0.480125 0.591714
0.621973 0.478172 0.712932
0.711223 0.476219 0.834165
0.800473 0.474266 0.955383
0.889723 0.472313 1
0.978958 0.470359 1
1 0.468406 1
0.425101 0.58085 0.419135
0.514336 0.578897 0.540352
0.603586 0.576944 0.66157
0.692836 0.57499 0.782788
0.782071 0.573022 0.904021
0.871321 0.571069 1
0.960571 0.569116 1
1 0.567163 1
1 0.565209 1
0.495949 0.677653 0.488991
0.585184 0.6757 0.610208
0.674434 0.673747 0.731426
0.763684 0.671794 0.852659
0.852934 0.669841 0.973877
0.942168 0.667887 1
1 0.665934 1
1 0.663981 1
1 0.662013 1
0.566796 0.774472 0.558862
0.656046 0.772519 0.680064
0.745281 0.770565 0.801282
0.834531 0.768597 0.922515
0.923781 0.766644 1
1 0.764691 1
1 0.762737 1
1 0.760784 1
1 0.758831 1
0 0.0347906 0
0.0553445 0.0328374 0.00563058
0.144594 0.0308843 0.126848
0.233845 0.0289311 0.248066
0.323079 0.026978 0.369299
0.412329 0.0250248 0.490517
0.501579 0.0230564 0.611734
0.590829 0.0211032 0.732967
0.680064 0.0191501 0.854185
0.0369573 0.131594 0
0.126192 0.129641 0.0754711
0.215427 0.127687 0.196704
0.304677 0.125719 0.317922
0.393927 0.123766 0.439139
0.483177 0.121813 0.560372
0.572427 0.11986 0.68159
0.661662 0.117906 0.802808
0.750912 0.115953 0.924041
0.107805 0.228397 0.0241245
0.19704 0.226444 0.145327
0.28629 0.224491 0.26656
0.37554 0.222538 0.387778
0.464775 0.220584 0.508995
0.554025 0.218631 0.630228
0.643275 0.216678 0.751446
0.732525 0.21471 0.872679
0.821759 0.212757 0.993896
0.178653 0.325216 0.0939803
0.267887 0.323262 0.215183
0.357137 0.321294 0.336416
0.446387 0.319341 0.457633
0.535637 0.317388 0.578866
0.624872 0.315435 0.700084
0.714122 0.313481 0.821302
0.803372 0.311528 0.942535
0.892622 0.309575 1
0.2495 0.422019 0.163836
0.338735 0.420066 0.285054
0.427985 0.418112 0.406271
0.517235 0.416159 0.527489
0.606485 0.414206 0.648722
0.695735 0.412238 0.76994
0.78497 0.410285 0.891157
0.87422 0.408331 1
0.96347 0.406378 1
0.320363 0.518837 0.233692
0.409598 0.516869 0.35491
0.498848 0.514916 0.476127
0.588083 0.512963 0.59736
0.677333 0.511009 0.718578
0.766583 0.509056 0.839796
0.855833 0.507103 0.961028
0.945068 0.50515 1
1 0.503197 1
0.391211 0.615641 0.303548
0.480446 0.613687 0.424765
0.569696 0.611734 0.545983
0.658946 0.609781 0.667216
0.74818 0.607828 0.788434
0.83743 0.605859 0.909651
0.92668 0.603906 1
1 0.601953 1
1 0.6 1
0.462058 0.712444 0.373419
0.551293 0.710491 0.494621
0.640543 0.708537 0.615839
0.729793 0.706584 0.737072
0.819043 0.704631 0.858289
0.908278 0.702678 0.979522
0.997528 0.700725 1
1 0.698772 1
1 0.696803 1
0.532906 0.809262 0.443275
0.622141 0.807309 0.564477
0.711391 0.805356 0.68571
0.800641 0.803403 0.806928
0.889891 0.801434 0.928145
0.979141 0.799481 1
1 0.797528 1
1 0.795575 1
1 0.793622 1
0 0.0695811 0
0.0214542 0.067628 0
0.110704 0.0656748 0.0112459
0.199939 0.0637217 0.132479
0.289189 0.0617685 0.253697
0.378439 0.0598154 0.374914
0.467689 0.0578622 0.496147
0.556924 0.0558938 0.617365
0.646174 0.0539406 0.738598
0.0030518 0.166384 0
0.0922866 0.164431 0
0.181537 0.162478 0.0811017
0.270787 0.160525 0.202319
0.360037 0.158572 0.323552
0.449271 0.156603 0.44477
0.538521 0.15465 0.565988
0.627771 0.152697 0.687221
0.717021 0.150744 0.808438
0.0739147 0.263203 0
0.163149 0.261234 0.0297398
0.252384 0.259281 0.150958
0.341634 0.257328 0.272175
0.430884 0.255375 0.393408
0.520134 0.253422 0.514626
0.609369 0.251469 0.635843
0.698619 0.249516 0.757076
0.787869 0.247562 0.878294
0.144762 0.360006 0
0.233997 0.358053 0.0995956
0.323247 0.3561 0.220813
0.412482 0.354147 0.342046
0.501732 0.352178 0.463264
0.590982 0.350225 0.584482
0.680232 0.348272 0.705715
0.769467 0.346319 0.826932
0.858717 0.344366 0.94815
0.21561 0.456809 0.048249
0.304845 0.454856 0.169451
0.394095 0.452903 0.290669
0.483345 0.45095 0.411902
0.57258 0.448997 0.53312
0.66183 0.447044 0.654337
0.75108 0.44509 0.77557
0.84033 0.443137 0.896788
0.92958 0.441169 1
0.286458 0.553628 0.118105
0.375692 0.551675 0.239307
0.464942 0.549722 0.360525
0.554192 0.547768 0.481758
0.643442 0.5458 0.602975
0.732677 0.543847 0.724208
0.821927 0.541894 0.845426
0.911177 0.53994 0.966644
1 0.537987 1
0.357321 0.650431 0.187961
0.446555 0.648478 0.309163
0.53579 0.646525 0.430396
0.62504 0.644572 0.551614
0.71429 0.642618 0.672831
0.80354 0.640665 0.794064
0.89279 0.638712 0.915282
0.982025 0.636744 1
1 0.634791 1
0.428168 0.74725 0.257816
0.517403 0.745296 0.379019
0.606653 0.743343 0.500252
0.695903 0.741375 0.621469
0.785138 0.739422 0.742687
0.874388 0.737469 0.86392
0.963638 0.735515 0.985138
1 0.733562 1
1 0.731609 1
0.499016 0.844053 0.327672
0.588251 0.8421 0.448875
0.677501 0.840146 0.570108
0.766751 0.838193 0.691325
0.855985 0.83624 0.812558
0.945235 0.834287 0.933776
1 0.832319 1
1 0.830365 1
1 0.828412 1
0 0.104387 0
0 0.102434 0
0.0767987 0.100465 0
0.166049 0.0985122 0.0168765
0.255299 0.0965591 0.138094
0.344549 0.0946059 0.259327
0.433783 0.0926528 0.380545
0.523033 0.0906996 0.501762
0.612284 0.0887465 0.622995
0 0.201175 0
0.0583963 0.199222 0
0.147646 0.197269 0
0.236896 0.195315 0.0867323
0.326131 0.193362 0.20795
0.415381 0.191409 0.329168
0.504631 0.189456 0.450401
0.593881 0.187503 0.571618
0.683116 0.185534 0.692836
0.0400092 0.297993 0
0.129244 0.29604 0
0.218494 0.294087 0.0353552
0.307744 0.292119 0.156588
0.396994 0.290166 0.277806
0.486229 0.288212 0.399023
0.575479 0.286259 0.520256
0.664729 0.284306 0.641474
0.753979 0.282353 0.762707
0.110872 0.394797 0
0.200107 0.392844 0
0.289342 0.39089 0.105211
0.378592 0.388937 0.226444
0.467842 0.386984 0.347662
0.557092 0.385031 0.468894
0.646326 0.383078 0.590112
0.735576 0.381109 0.71133
0.824826 0.379156 0.832563
0.18172 0.491615 0
0.270954 0.489662 0.0538491
0.360204 0.487709 0.175082
0.449439 0.48574 0.2963
0.538689 0.483787 0.417517
0.627939 0.481834 0.53875
0.717189 0.479881 0.659968
0.806424 0.477928 0.781186
0.895674 0.475975 0.902419
0.252567 0.588418 0.00247196
0.341802 0.586465 0.123705
0.431052 0.584512 0.244938
0.520302 0.582559 0.366155
0.609537 0.580606 0.487373
0.698787 0.578653 0.608606
0.788037 0.576684 0.729824
0.877287 0.574731 0.851057
0.966522 0.572778 0.972274
0.323415 0.685237 0.0723583
0.41265 0.683268 0.193576
0.5019 0.681315 0.314794
0.59115 0.679362 0.436011
0.6804 0.677409 0.557244
0.769635 0.675456 0.678462
0.858885 0.673503 0.79968
0.948135 0.67155 0.920913
1 0.669596 1
0.394278 0.78204 0.142214
0.483513 0.780087 0.263432
0.572747 0.778134 0.384649
0.661997 0.776181 0.505867
0.751247 0.774227 0.6271
0.840497 0.772259 0.748318
0.929732 0.770306 0.869551
1 0.768353 0.990768
1 0.7664 1
0.465126 0.878859 0.21207
0.55436 0.87689 0.333288
0.64361 0.874937 0.454505
0.732845 0.872984 0.575738
0.822095 0.871031 0.696956
0.911345 0.869078 0.818173
1 0.867124 0.939406
1 0.865171 1
1 0.863218 1
0 0.139178 0
0 0.137224 0
0.0429084 0.135271 0
0.132158 0.133318 0
0.221393 0.131365 0.0225071
0.310643 0.129397 0.143725
0.399893 0.127443 0.264942
0.489143 0.12549 0.386175
0.578393 0.123537 0.507393
0 0.235981 0
0.024506 0.234028 0
0.113756 0.232059 0
0.202991 0.230106 0
0.292241 0.228153 0.0923476
0.381491 0.2262 0.213581
0.470741 0.224247 0.334798
0.559976 0.222293 0.456016
0.649226 0.22034 0.577249
0.00611887 0.332784 0
0.0953536 0.330831 0
0.184604 0.328878 0
0.273854 0.326925 0.0409857
0.363088 0.324971 0.162203
0.452338 0.323018 0.283436
0.541588 0.32105 0.404654
0.630838 0.319097 0.525887
0.720073 0.317143 0.647105
0.0769665 0.429603 0
0.166201 0.427649 0
0.255451 0.425681 0
0.344701 0.423728 0.110842
0.433951 0.421775 0.232074
0.523186 0.419821 0.353292
0.612436 0.417868 0.47451
0.701686 0.415915 0.595743
0.790936 0.413962 0.71696
0.147829 0.526406 0
0.237064 0.524453 0
0.326299 0.522499 0.0594797
0.415549 0.520546 0.180697
0.504799 0.518593 0.30193
0.594049 0.516625 0.423148
0.683284 0.514672 0.544366
0.772534 0.512718 0.665599
0.861784 0.510765 0.786816
0.218677 0.623209 0
0.307912 0.621256 0.0081178
0.397162 0.619303 0.129335
0.486397 0.61735 0.250553
0.575647 0.615396 0.371786
0.664897 0.613443 0.493004
0.754147 0.61149 0.614237
0.843381 0.609537 0.735454
0.932631 0.607584 0.856672
0.289525 0.720027 0
0.378759 0.718074 0.0779736
0.468009 0.716121 0.199191
0.55726 0.714168 0.320424
0.646494 0.712215 0.441642
0.735744 0.710246 0.56286
0.824994 0.708293 0.684092
0.914244 0.70634 0.80531
1 0.704387 0.926528
0.360372 0.816831 0.026627
0.449607 0.814878 0.147829
0.538857 0.812924 0.269047
0.628107 0.810971 0.39028
0.717357 0.809018 0.511498
0.806592 0.807065 0.632715
0.895842 0.805112 0.753948
0.985092 0.803159 0.875166
1 0.80119 0.996399
0.431235 0.913649 0.0964828
0.52047 0.911696 0.217685
0.609705 0.909743 0.338903
0.698955 0.90779 0.460136
0.788205 0.905821 0.581353
0.877455 0.903868 0.702586
0.96669 0.901915 0.823804
1 0.899962 0.945022
1 0.898009 1
0 0.173968 0
0 0.172015 0
0.00901808 0.170062 0
0.0982528 0.168109 0
0.187503 0.166155 0
0.276753 0.164202 0.0281224
0.366003 0.162249 0.149355
0.455238 0.160296 0.270573
0.544488 0.158328 0.391791
0 0.270771 0
0 0.268818 0
0.0798505 0.266865 0
0.1691 0.264912 0
0.25835 0.262959 0
0.347601 0.26099 0.0979782
0.436835 0.259037 0.219196
0.526085 0.257084 0.340429
0.615335 0.255131 0.461646
0 0.367575 0
0.0614633 0.365621 0
0.150713 0.363668 0
0.239948 0.361715 0
0.329198 0.359762 0.0466163
0.418448 0.357809 0.167834
0.507698 0.355856 0.289052
0.596933 0.353902 0.410285
0.686183 0.351949 0.531502
0.0430762 0.464393 0
0.132311 0.46244 0
0.221561 0.460487 0
0.310811 0.458534 0
0.400046 0.456565 0.116472
0.489296 0.454612 0.23769
0.578546 0.452659 0.358923
0.667796 0.450706 0.48014
0.757031 0.448753 0.601358
0.113924 0.561196 0
0.203159 0.559243 0
0.292409 0.55729 0
0.381659 0.555337 0.0651102
0.470909 0.553384 0.186328
0.560143 0.551431 0.307546
0.649393 0.549477 0.428779
0.738643 0.547524 0.549996
0.827893 0.545556 0.671214
0.184787 0.658015 0
0.274022 0.656062 0
0.363256 0.654108 0.0137484
0.452506 0.65214 0.134966
0.541756 0.650187 0.256184
0.631006 0.648234 0.377401
0.720241 0.646281 0.498634
0.809491 0.644327 0.619852
0.898741 0.642374 0.741085
0.255634 0.754818 0
0.344869 0.752865 0
0.434119 0.750912 0.0836042
0.523354 0.748959 0.204822
0.612604 0.747005 0.32604
0.701854 0.745052 0.447272
0.791104 0.743099 0.56849
0.880339 0.741131 0.689708
0.969589 0.739178 0.810941
0.326482 0.851637 0
0.415717 0.849683 0.0322271
0.504967 0.847715 0.15346
0.594217 0.845762 0.274678
0.683452 0.843809 0.395895
0.772702 0.841856 0.517128
0.861952 0.839902 0.638346
0.951202 0.837949 0.759579
1 0.835996 0.880796
0.39733 0.94844 0
0.486564 0.946487 0.102083
0.575814 0.944533 0.223316
0.665064 0.94258 0.344533
0.754314 0.940627 0.465766
0.843549 0.938674 0.586984
0.932799 0.936706 0.708202
1 0.934752 0.829435
1 0.932799 0.950652
0 0.208774 0
0 0.206821 0
0 0.204852 0
0.0643626 0.202899 0
0.153613 0.200946 0
0.242863 0.198993 0
0.332097 0.19704 0.033753
0.421347 0.195087 0.154971
0.510597 0.193133 0.276204
0 0.305562 0
0 0.303609 0
0.0459602 0.301656 0
0.13521 0.299702 0
0.22446 0.297749 0
0.313695 0.295796 0
0.402945 0.293843 0.103609
0.492195 0.29189 0.224826
0.581445 0.289921 0.346044
0 0.40238 0
0.0275731 0.400427 0
0.116808 0.398474 0
0.206058 0.396506 0
0.295308 0.394553 0
0.384558 0.392599 0.0522316
0.473793 0.390646 0.173465
0.563043 0.388693 0.294682
0.652293 0.38674 0.4159
0.00921645 0.499184 0
0.0984207 0.49723 0
0.187671 0.495277 0
0.276905 0.493324 0
0.366155 0.491371 0.000869764
0.455406 0.489418 0.122103
0.544656 0.487465 0.24332
0.63389 0.485496 0.364538
0.72314 0.483543 0.485771
0.0800336 0.596002 0
0.169268 0.594049 0
0.258518 0.592081 0
0.347768 0.590127 0
0.437003 0.588174 0.0707256
0.526253 0.586221 0.191959
0.615503 0.584268 0.313176
0.704753 0.582315 0.434394
0.793988 0.580362 0.555627
0.150881 0.692805 0
0.240116 0.690852 0
0.329366 0.688899 0
0.418616 0.686946 0.0193637
0.507866 0.684993 0.140581
0.597101 0.68304 0.261814
0.686351 0.681071 0.383032
0.775601 0.679118 0.504265
0.864851 0.677165 0.625483
0.221744 0.789624 0
0.310979 0.787671 0
0.400214 0.785702 0
0.489464 0.783749 0.0892195
0.578714 0.781796 0.210452
0.667964 0.779843 0.33167
0.757198 0.77789 0.452888
0.846448 0.775937 0.574121
0.935699 0.773983 0.695338
0.292592 0.886427 0
0.381826 0.884474 0
0.471077 0.882521 0.0378576
0.560311 0.880568 0.159075
0.649561 0.878614 0.280308
0.738811 0.876646 0.401526
0.828061 0.874693 0.522744
0.917296 0.87274 0.643977
1 0.870787 0.765194
0.363439 0.983246 0
0.452674 0.981277 0
0.541924 0.979324 0.107713
0.631174 0.977371 0.228931
0.720409 0.975418 0.350164
0.809659 0.973465 0.471382
0.898909 0.971511 0.592615
0.988159 0.969558 0.713832
1 0.967605 0.83505
0 0.243565 0
0 0.241611 0
0 0.239658 0
0.0304723 0.237705 0
0.119722 0.235752 0
0.208957 0.233783 0
0.298207 0.23183 0
0.387457 0.229877 0.0393835
0.476707 0.227924 0.160601
0 0.340368 0
0 0.338415 0
0.0120699 0.336446 0
0.10132 0.334493 0
0.190555 0.33254 0
0.279805 0.330587 0
0.369055 0.328634 0
0.458305 0.32668 0.109224
0.547539 0.324727 0.230457
0 0.437171 0
0 0.435218 0
0.0829175 0.433265 0
0.172168 0.431312 0
0.261418 0.429358 0
0.350652 0.427405 0
0.439902 0.425437 0.0578622
0.529152 0.423484 0.17908
0.618402 0.42153 0.300313
0 0.533989 0
0.0645151 0.532036 0
0.153765 0.530068 0
0.243015 0.528115 0
0.332265 0.526162 0
0.421515 0.524208 0.00648508
0.51075 0.522255 0.127718
0.6 0.520302 0.248951
0.68925 0.518349 0.370169
0.0461433 0.630793 0
0.135378 0.62884 0
0.224628 0.626886 0
0.313863 0.624933 0
0.403113 0.62298 0
0.492363 0.621012 0.0763561
0.581613 0.619058 0.197574
0.670848 0.617105 0.318807
0.760098 0.615152 0.440024
0.116991 0.727596 0
0.206226 0.725643 0
0.295476 0.72369 0
0.384726 0.721736 0
0.47396 0.719783 0.0249943
0.56321 0.71783 0.146212
0.652461 0.715877 0.26743
0.741711 0.713924 0.388663
0.830945 0.711971 0.50988
0.187839 0.824414 0
0.277073 0.822461 0
0.366323 0.820508 0
0.455573 0.818555 0
0.544823 0.816587 0.0948501
0.634058 0.814633 0.216068
0.723308 0.81268 0.337301
0.812558 0.810727 0.458518
0.901808 0.808774 0.579736
0.258686 0.921218 0
0.347936 0.919264 0
0.437171 0.917311 0
0.526421 0.915358 0.0434882
0.615671 0.913405 0.164706
0.704921 0.911452 0.285924
0.794156 0.909499 0.407156
0.883406 0.907546 0.528374
0.972656 0.905577 0.649607
0.329549 1 0
0.418784 1 0
0.508034 1 0
0.597269 1 0.113344
0.686519 1 0.234562
0.775769 1 0.355795
0.865019 1 0.477012
0.954253 1 0.59823
1 1 0.719463
0 0.278355 0
0 0.276402 0
0 0.274449 0
0 0.272496 0
0.0858167 0.270542 0
0.175067 0.268589 0
0.264317 0.266636 0
0.353567 0.264683 0
0.442802 0.262715 0.0449989
0 0.375158 0
0 0.373205 0
0 0.371252 0
0.0674144 0.369299 0
0.156664 0.367346 0
0.245914 0.365377 0
0.335164 0.363424 0
0.424399 0.361471 0
0.513649 0.359518 0.114855
0 0.471962 0
0 0.470008 0
0.0490272 0.468055 0
0.138277 0.466102 0
0.227512 0.464149 0
0.316762 0.462196 0
0.406012 0.460243 0
0.495262 0.458289 0.0634928
0.584497 0.456336 0.18471
0 0.56878 0
0.0306249 0.566827 0
0.119875 0.564874 0
0.209125 0.562921 0
0.298375 0.560952 0
0.38761 0.558999 0
0.47686 0.557046 0.0121309
0.56611 0.555093 0.133349
0.65536 0.55314 0.254566
0.0122377 0.665583 0
0.101488 0.66363 0
0.190723 0.661677 0
0.279973 0.659724 0
0.369223 0.657771 0
0.458473 0.655818 0
0.547707 0.653864 0.0819867
0.636957 0.651911 0.203204
0.726207 0.649943 0.324422
0.0831006 0.762402 0
0.172335 0.760449 0
0.261585 0.758495 0
0.35082 0.756527 0
0.44007 0.754574 0
0.52932 0.752621 0.0306096
0.61857 0.750668 0.151843
0.707805 0.748714 0.27306
0.797055 0.746761 0.394293
0.153948 0.859205 0
0.243183 0.857252 0
0.332433 0.855299 0
0.421683 0.853346 0
0.510918 0.851392 0
0.600168 0.849439 0.100481
0.689418 0.847486 0.221698
0.778668 0.845518 0.342916
0.867903 0.843565 0.464149
0.224796 0.956024 0
0.314031 0.95407 0
0.403281 0.952102 0
0.492531 0.950149 0
0.581781 0.948196 0.0491035
0.671016 0.946242 0.170336
0.760266 0.944289 0.291554
0.849515 0.942336 0.412772
0.938766 0.940383 0.534005
0.295644 1 0
0.384894 1 0
0.474128 1 0
0.563378 1 0
0.652628 1 0.118959
0.741878 1 0.240192
0.831113 1 0.36141
0.920363 1 0.482643
1 1 0.603861
