luts/travel_07.cube
TITLE "33x33x33 Adobe/IRIDAS cube 3D LUT exported with GrossGrade v0.2.2 (beta) 64 bit"
DOMAIN_MIN 0 0 0
DOMAIN_MAX 1 1 1
LUT_3D_SIZE 33
0.019317901 0.018905900 0.011978300
0.025101099 0.019912999 0.011780000
0.039673500 0.022476500 0.011245900
0.066071600 0.025864000 0.009933620
0.100388996 0.026718499 0.007736320
0.135224998 0.026169199 0.004715040
0.175586000 0.021759400 0.002716110
0.216846004 0.011780000 0.002609290
0.254931986 0.007873660 0.002517740
0.290821999 0.004180970 0.002456700
0.320638001 0.002243080 0.002410930
0.346684992 0.002273590 0.002365150
0.369969994 0.002304110 0.002349890
0.391149998 0.002349890 0.002349890
0.410178006 0.002380410 0.002380410
0.426779985 0.002426180 0.002426180
0.443809003 0.002471960 0.002471960
0.459434003 0.002517740 0.002517740
0.473259002 0.002548260 0.002548260
0.488121003 0.002594030 0.002594030
0.503333986 0.002655070 0.002655070
0.517387986 0.002700850 0.002700850
0.530647993 0.002746620 0.002746620
0.543694019 0.002792400 0.002792400
0.556023002 0.002853440 0.002853440
0.568780005 0.002899210 0.002914470
0.580910981 0.002960250 0.002960250
0.594003022 0.003021290 0.003021290
0.606867015 0.003082320 0.003143360
0.619898021 0.004486150 0.003234910
0.637476027 0.012008900 0.003295950
0.654505014 0.040024400 0.003341730
0.668223023 0.071610600 0.003402760
0.022354500 0.028290199 0.012085100
0.027084799 0.028336000 0.011917300
0.038300101 0.029983999 0.011062800
0.062500998 0.031525102 0.008957050
0.095964000 0.032593299 0.006973370
0.131028995 0.032059200 0.004318300
0.171159998 0.028305501 0.002487220
0.211901993 0.019607799 0.002456700
0.251163989 0.014725000 0.002426180
0.287312001 0.007385370 0.002426180
0.317678005 0.003341730 0.002410930
0.344395995 0.003189140 0.002410930
0.368535995 0.003173880 0.002410930
0.390448004 0.003158620 0.002426180
0.409689009 0.003158620 0.002471960
0.427114993 0.003158620 0.002517740
0.444723994 0.003173880 0.002563520
0.460409999 0.003189140 0.002609290
0.474510014 0.003219650 0.002639810
0.490119994 0.003234910 0.002700850
0.505439997 0.003250170 0.002746620
0.519798994 0.003280690 0.002792400
0.533288002 0.003295950 0.002838180
0.546272993 0.003326470 0.002899210
0.558845997 0.003341730 0.002944990
0.571725011 0.003372240 0.003006030
0.584115028 0.003402760 0.003067060
0.597208023 0.003463800 0.003112840
0.610635996 0.003524830 0.003265430
0.624216020 0.007873660 0.003341730
0.642144978 0.020294501 0.003387500
0.658625007 0.049698599 0.003448540
0.671945989 0.079392701 0.003509580
0.027466200 0.040787399 0.012054600
0.029144701 0.040482201 0.011673200
0.035202600 0.040970501 0.010925500
0.059906900 0.039932899 0.008880750
0.087693602 0.040589001 0.006927600
0.120973997 0.040421199 0.004577710
0.159289002 0.038635802 0.002380410
0.200458005 0.034134399 0.002319370
0.240620002 0.028473301 0.002334630
0.276843995 0.014496100 0.002365150
0.308064014 0.005325400 0.002395670
0.336019009 0.004806590 0.002426180
0.362264007 0.004699780 0.002471960
0.385625988 0.004608220 0.002502480
0.405447006 0.004531930 0.002548260
0.424475014 0.004486150 0.002578770
0.443136990 0.004470890 0.002624550
0.458990991 0.004470890 0.002670330
0.473578990 0.004455630 0.002716110
0.490455002 0.004486150 0.002777140
0.506371021 0.004547190 0.002822920
0.521476984 0.004608220 0.002868700
0.535423994 0.004638740 0.002929730
0.548515975 0.004684520 0.002975510
0.561486006 0.004699780 0.003036550
0.574823022 0.004730300 0.003097580
0.587548971 0.004760810 0.003158620
0.601144016 0.004791330 0.003219650
0.616052985 0.004852370 0.003295950
0.631693006 0.015686300 0.003356980
0.648263991 0.036224902 0.003433280
0.664255977 0.062928200 0.003494320
0.677424014 0.089677297 0.003555350
0.033264700 0.054795101 0.014480800
0.033539299 0.055481799 0.013397400
0.037720300 0.056321099 0.011947800
0.061982099 0.055451300 0.009704740
0.080476098 0.054810401 0.006637670
0.109911002 0.053971201 0.004486150
0.147615999 0.052155301 0.002471960
0.188906997 0.048096400 0.002426180
0.229053006 0.043625500 0.002441440
0.268009007 0.034775302 0.002471960
0.301380992 0.027420500 0.002502480
0.329975992 0.021713600 0.002533000
0.357823998 0.016281400 0.002578770
0.381857008 0.011627400 0.002624550
0.403311014 0.007934690 0.002655070
0.423835009 0.007125960 0.002700850
0.442725003 0.007034410 0.002746620
0.460516989 0.007034410 0.002792400
0.476585001 0.007034410 0.002853440
0.494347006 0.007064930 0.002899210
0.511161983 0.007110700 0.002944990
0.526879013 0.007125960 0.003006030
0.541603982 0.007125960 0.003051800
0.556053996 0.007125960 0.003112840
0.569772005 0.007125960 0.003158620
0.583535016 0.007125960 0.003219650
0.596962988 0.007110700 0.003280690
0.612177014 0.008514530 0.003341730
0.626183987 0.022491800 0.003402760
0.640742004 0.035202600 0.003463800
0.656901002 0.053528599 0.003524830
0.672374010 0.078400902 0.003585870
0.685236990 0.094697498 0.003646910
0.039688699 0.070191503 0.019653600
0.039902300 0.070786603 0.018310800
0.041413002 0.071839496 0.017120600
0.045792300 0.074372500 0.016662899
0.083482102 0.073472202 0.007064930
0.107865997 0.071686901 0.004089420
0.135896996 0.070511900 0.002517740
0.176302999 0.067841597 0.002548260
0.216892004 0.063889503 0.002578770
0.258136988 0.058899801 0.002609290
0.293523014 0.053467602 0.002639810
0.323781013 0.050003801 0.002670330
0.353033006 0.045090400 0.002716110
0.380026013 0.041901302 0.002761880
0.402960002 0.038071301 0.002807660
0.424398988 0.034409098 0.002853440
0.445868999 0.033035800 0.002899210
0.463919997 0.030792700 0.002944990
0.481117010 0.029816100 0.002990770
0.500801027 0.029587200 0.003051800
0.518746018 0.026916901 0.003097580
0.536309004 0.025650401 0.003158620
0.552116990 0.024841700 0.003204390
0.566751003 0.024933200 0.003265430
0.581201017 0.026764300 0.003311210
0.595269978 0.027298400 0.003372240
0.609506011 0.034332801 0.003433280
0.624001980 0.041977599 0.003494320
0.637567997 0.049927499 0.003555350
0.651666999 0.060273100 0.003616390
0.667369008 0.077607401 0.003677420
0.682536006 0.094865300 0.003738460
0.695369005 0.105699003 0.003814760
0.046829902 0.086640701 0.025116401
0.046814699 0.086991698 0.023697300
0.047058798 0.087418899 0.022461301
0.048355799 0.088731200 0.022522300
0.069825299 0.097505197 0.013946700
0.104417004 0.092637502 0.004623480
0.137284994 0.089768797 0.003356980
0.165606007 0.087693602 0.002685590
0.206806004 0.085267402 0.002716110
0.247700006 0.082001999 0.002761880
0.285634011 0.077027500 0.002792400
0.317524999 0.073029697 0.002838180
0.348760009 0.070283100 0.002868700
0.376486003 0.067093901 0.002914470
0.401311994 0.065461203 0.002960250
0.424811006 0.063477501 0.003006030
0.446433008 0.062531501 0.003067060
0.466040999 0.062226299 0.003112840
0.485038996 0.061386999 0.003158620
0.505271971 0.061386999 0.003219650
0.524559021 0.061432801 0.003265430
0.542747974 0.060624100 0.003326470
0.559379995 0.059967998 0.003372240
0.575158000 0.060349401 0.003433280
0.590433002 0.061448101 0.003494320
0.604897976 0.063660599 0.003555350
0.619180977 0.066239402 0.003616390
0.633584976 0.071457997 0.003677420
0.647044003 0.077149600 0.003738460
0.661279976 0.084977500 0.003799500
0.676921010 0.100298002 0.003860530
0.691614985 0.114214003 0.003921570
0.704936028 0.122285999 0.003982600
0.054612000 0.104355998 0.030517999
0.054688301 0.104799002 0.029404100
0.054581501 0.104783997 0.028107099
0.055115599 0.105547003 0.027756199
0.060898799 0.111803003 0.028229199
0.090425000 0.121812999 0.014313000
0.132737994 0.114473000 0.004837110
0.163133994 0.111451998 0.003555350
0.195925996 0.109117001 0.002868700
0.238208994 0.106935002 0.002914470
0.276706994 0.102799997 0.002960250
0.310521007 0.099381998 0.003006030
0.343145013 0.095964000 0.003051800
0.372961015 0.093553104 0.003097580
0.398932010 0.092179798 0.003143360
0.423635989 0.091142103 0.003189140
0.446844995 0.090928502 0.003250170
0.467323005 0.090638600 0.003295950
0.487174988 0.089555196 0.003341730
0.509254992 0.089936703 0.003402760
0.529640973 0.090257101 0.003463800
0.549202979 0.091035299 0.003509580
0.567071021 0.091111600 0.003570610
0.583337009 0.091828801 0.003631650
0.599587977 0.093507297 0.003692680
0.614724994 0.096024998 0.003753720
0.629617989 0.098024003 0.003814760
0.644174993 0.101244003 0.003875790
0.658061028 0.106035002 0.003936830
0.672357976 0.114321001 0.003997860
0.687418997 0.125734001 0.004074160
0.702129006 0.133852005 0.004135200
0.715801001 0.145144001 0.004196230
0.063416503 0.123705000 0.036682699
0.063218102 0.123796001 0.035172001
0.063111298 0.123873003 0.033798698
0.063538603 0.124482997 0.033295199
0.066437803 0.128176004 0.034088701
0.075700000 0.136567995 0.033050999
0.113329001 0.146241993 0.014511300
0.164691001 0.138063997 0.005340660
0.192355007 0.135759994 0.003646910
0.230854005 0.133074000 0.003158620
0.269962996 0.130022004 0.003128100
0.303638995 0.128114998 0.003173880
0.337330997 0.125901997 0.003219650
0.368460000 0.123017997 0.003280690
0.395696998 0.120943002 0.003326470
0.422262996 0.119005002 0.003372240
0.446615994 0.117784001 0.003433280
0.467932999 0.117174000 0.003494320
0.489035994 0.116486996 0.003540090
0.511802971 0.116013996 0.003601130
0.533729970 0.116548002 0.003646910
0.554314017 0.117388003 0.003707940
0.573494971 0.118378997 0.003768980
0.591394007 0.119645998 0.003830010
0.608240008 0.120789997 0.003891050
0.623941004 0.122408003 0.003952090
0.639307022 0.124421999 0.004013120
0.654184997 0.127931997 0.004089420
0.668376029 0.132280007 0.004150450
0.682672977 0.137468994 0.004211490
0.697229981 0.144593999 0.004272530
0.711329997 0.153338000 0.004348820
0.725382984 0.162722006 0.004409860
0.073899403 0.144227996 0.044983599
0.073914699 0.144610003 0.043717101
0.073456898 0.144273996 0.041748699
0.073395900 0.144305006 0.040482201
0.075471103 0.146761000 0.041001000
0.079407997 0.151658997 0.041657101
0.091401502 0.162051007 0.039093599
0.146257997 0.177798003 0.010177800
0.210178003 0.163210005 0.006347750
0.227008000 0.161990002 0.003738460
0.264728993 0.158464998 0.003326470
0.299686998 0.156068996 0.003341730
0.332646996 0.154405996 0.003402760
0.363958001 0.153307006 0.003463800
0.392493010 0.151033998 0.003509580
0.419744998 0.148257002 0.003555350
0.445791990 0.146777004 0.003616390
0.468605012 0.145251006 0.003677420
0.490379006 0.143893003 0.003723200
0.514427006 0.143709004 0.003784240
0.537621021 0.143785998 0.003845270
0.558983982 0.143861994 0.003906310
0.579248011 0.144731998 0.003967350
0.598001003 0.145418003 0.004028380
0.616128981 0.146715000 0.004089420
0.632318974 0.147311002 0.004150450
0.648234010 0.147860005 0.004211490
0.663492978 0.150454000 0.004287790
0.677501023 0.154085994 0.004348820
0.691721976 0.158952996 0.004409860
0.706004024 0.165957004 0.004470890
0.719965994 0.174181998 0.004547190
0.734173000 0.181383997 0.004608220
0.085359000 0.165286005 0.054169498
0.085282698 0.165499002 0.052872501
0.084550202 0.164920002 0.050583702
0.084458701 0.164980993 0.049210299
0.086045600 0.166566998 0.049652901
0.089417897 0.170168996 0.050644699
0.095704600 0.177615002 0.050736200
0.111635000 0.190386996 0.045639701
0.183017001 0.204210997 0.007461660
0.243579999 0.190509006 0.006988630
0.265231997 0.189165995 0.004409860
0.294759005 0.186480999 0.003509580
0.330724001 0.183046997 0.003570610
0.361928999 0.181459993 0.003616390
0.389761001 0.180605993 0.003677420
0.417638987 0.179750994 0.003738460
0.444281995 0.178011999 0.003799500
0.467887014 0.175661996 0.003860530
0.491218001 0.173982993 0.003906310
0.516242981 0.172518998 0.003967350
0.540795028 0.172014996 0.004028380
0.563561022 0.171939000 0.004089420
0.584939003 0.172442004 0.004150450
0.604287982 0.172472998 0.004211490
0.623133004 0.172685996 0.004287790
0.640253007 0.172625005 0.004348820
0.657221019 0.172014996 0.004409860
0.672679007 0.174517006 0.004470890
0.687021971 0.178241000 0.004547190
0.701137006 0.182345003 0.004608220
0.715007007 0.188342005 0.004669260
0.728145003 0.196612000 0.004745560
0.742443025 0.202593997 0.004806590
0.097062603 0.186175004 0.064057402
0.097215198 0.186602995 0.063019797
0.096696399 0.186190993 0.060913999
0.096650600 0.186221004 0.059540700
0.097749300 0.187319994 0.059723798
0.100923002 0.190585002 0.060898799
0.105912998 0.196262002 0.062104199
0.115068004 0.205614999 0.060578302
0.135729000 0.219515994 0.050232701
0.229267001 0.221256003 0.009140150
0.275090009 0.216983005 0.007690550
0.299320996 0.215274006 0.005157550
0.326986015 0.212436005 0.003799500
0.360525012 0.209353998 0.003799500
0.389151007 0.207491994 0.003845270
0.416541010 0.206652999 0.003906310
0.443441987 0.206240997 0.003982600
0.467781007 0.205005005 0.004043640
0.491753012 0.203906000 0.004104680
0.518104970 0.202669993 0.004165710
0.543434978 0.200747997 0.004211490
0.567192972 0.200075999 0.004272530
0.589563012 0.199832007 0.004333560
0.609506011 0.198962003 0.004409860
0.629252017 0.198337004 0.004470890
0.647700012 0.198062003 0.004531930
0.664591014 0.198428005 0.004592970
0.680507004 0.200472996 0.004669260
0.694986999 0.202655002 0.004730300
0.709330976 0.205569997 0.004791330
0.723277986 0.210178003 0.004867630
0.736842990 0.217197001 0.004928660
0.750271022 0.223819003 0.005004960
0.109102003 0.206134006 0.074723400
0.109238997 0.206515998 0.073639996
0.108583003 0.205951005 0.071259603
0.108415000 0.205890000 0.069672696
0.109194003 0.206591994 0.069733702
0.112001002 0.209292993 0.070893399
0.116181999 0.214054003 0.072098903
0.122667000 0.221164003 0.072632901
0.133683994 0.230731994 0.067490697
0.182040006 0.251574993 0.038330700
0.261036009 0.243472993 0.009903100
0.307042003 0.241137996 0.008331430
0.332951993 0.238345996 0.005767910
0.358678997 0.236453995 0.004180970
0.388830006 0.232760996 0.004028380
0.416922003 0.230960995 0.004089420
0.443580002 0.230105996 0.004150450
0.468192995 0.229770005 0.004211490
0.492042005 0.229587004 0.004272530
0.518379986 0.228779003 0.004333560
0.544670999 0.227816999 0.004394600
0.569436014 0.226291001 0.004455630
0.592980981 0.225452006 0.004516670
0.614557028 0.224154994 0.004592970
0.635019004 0.224215999 0.004654000
0.653925002 0.223774001 0.004715040
0.670862973 0.224353001 0.004791330
0.687418997 0.224566996 0.004852370
0.701822996 0.225574002 0.004913410
0.716319978 0.226978004 0.004974440
0.730158985 0.231983006 0.005050740
0.743206024 0.237690002 0.005127030
0.756832004 0.243396997 0.005188070
0.121981002 0.226046994 0.087418899
0.121919997 0.226229995 0.086060897
0.121035002 0.225589007 0.083161697
0.120774999 0.225406006 0.081345797
0.121324003 0.225863993 0.081101701
0.123308003 0.227633998 0.081437401
0.127427995 0.231997997 0.083192199
0.133135006 0.238482997 0.084870704
0.142030999 0.246722996 0.084611297
0.158739999 0.258350015 0.077714197
0.236377999 0.282566994 0.017044300
0.291417003 0.267369002 0.010269300
0.337774009 0.265751004 0.008850230
0.363653004 0.262439996 0.006301980
0.387838989 0.260609001 0.004592970
0.417212009 0.257725000 0.004257270
0.444967985 0.255833000 0.004318300
0.469215006 0.254871011 0.004379340
0.492821008 0.254337013 0.004440380
0.519356012 0.253666013 0.004516670
0.545418978 0.252674013 0.004577710
0.571572006 0.252429992 0.004638740
0.595055997 0.250995994 0.004699780
0.618875027 0.250340015 0.004776070
0.639856994 0.250674993 0.004837110
0.659906983 0.250140995 0.004898150
0.677866995 0.249500006 0.004974440
0.695002973 0.248280004 0.005035480
0.709101975 0.249072999 0.005096510
0.723353982 0.251331002 0.005157550
0.737330973 0.255221993 0.005233840
0.750392973 0.259357989 0.005310140
0.763454974 0.264438987 0.005371180
0.136933997 0.247363999 0.102982998
0.136933997 0.247654006 0.101609997
0.135653004 0.246601000 0.098130800
0.134829000 0.246005997 0.095338397
0.134936005 0.246051997 0.094392300
0.136645004 0.247517005 0.094773799
0.139666006 0.250140995 0.095536701
0.145128995 0.255847991 0.097993404
0.152453005 0.263249010 0.099381998
0.163394004 0.273075014 0.091767803
0.190798998 0.288578987 0.082826003
0.273364991 0.309742987 0.015579500
0.324407011 0.292149007 0.010818600
0.368948013 0.289189011 0.009674220
0.391516000 0.287479997 0.006775010
0.417472005 0.284824997 0.004943920
0.445776999 0.282642990 0.004486150
0.470741004 0.280552000 0.004547190
0.494408011 0.278508008 0.004608220
0.520989001 0.277653009 0.004684520
0.547340989 0.277408987 0.004745560
0.573876977 0.277622998 0.004821850
0.598245025 0.278171986 0.004882890
0.622018993 0.277469993 0.004943920
0.643701971 0.277150005 0.005020220
0.664102972 0.275593013 0.005081250
0.683054984 0.274434000 0.005142290
0.701014996 0.272587001 0.005218590
0.715541005 0.273548007 0.005279620
0.730189979 0.275546998 0.005340660
0.743876994 0.277927995 0.005416950
0.757000029 0.281406999 0.005477990
0.770321012 0.285968989 0.005554280
0.151141003 0.266972005 0.118363999
0.151049003 0.267123997 0.116959997
0.149645001 0.265919000 0.113329001
0.148714006 0.265262991 0.110246003
0.148943007 0.265522003 0.109300002
0.150011003 0.266391993 0.109026000
0.152529001 0.268512994 0.109392002
0.157000005 0.272709012 0.110703997
0.163561001 0.279637009 0.112749003
0.174121007 0.288594007 0.112154000
0.191531003 0.300983995 0.105164997
0.230868995 0.319707006 0.080048800
0.311237991 0.333561987 0.011047500
0.357228994 0.314152986 0.011642600
0.397543013 0.311284006 0.010452400
0.420127004 0.310018003 0.007248040
0.446325988 0.307698011 0.005172810
0.472434998 0.306203008 0.004745560
0.496910006 0.303685009 0.004776070
0.523980021 0.301564008 0.004852370
0.551079988 0.300496012 0.004913410
0.576883018 0.300785989 0.004989700
0.601128995 0.302204996 0.005050740
0.624872029 0.302601993 0.005127030
0.647044003 0.301732004 0.005188070
0.668177009 0.299641013 0.005249100
0.687952995 0.298817009 0.005325400
0.706248999 0.297336996 0.005386430
0.721415997 0.297780007 0.005462730
0.735943019 0.299001008 0.005523770
0.749660015 0.300617993 0.005600060
0.762600005 0.303882986 0.005661100
0.775798976 0.307606995 0.005737390
0.164614007 0.285252005 0.133440003
0.164736003 0.285587996 0.132341996
0.163454995 0.284565985 0.128739998
0.162202999 0.283665001 0.124986999
0.162187994 0.283695996 0.123690002
0.163027003 0.284381986 0.123354003
0.165377006 0.286487997 0.123842001
0.169100001 0.289967000 0.124300003
0.174640000 0.295749992 0.125672996
0.183275998 0.303959996 0.127473995
0.197375000 0.315021992 0.123017997
0.224323004 0.330922008 0.115496002
0.272450000 0.349325001 0.071168102
0.345311999 0.357228994 0.010956000
0.385977000 0.337635994 0.012268300
0.427451015 0.334461987 0.011368000
0.448767990 0.333288014 0.007705810
0.473381013 0.332127988 0.005371180
0.499213994 0.329701990 0.005004960
0.527291000 0.327535003 0.005020220
0.554040015 0.325825989 0.005081250
0.580879986 0.324712008 0.005157550
0.604730010 0.325504988 0.005218590
0.628518999 0.326252997 0.005294880
0.651255012 0.325841010 0.005355920
0.672891974 0.325093001 0.005432210
0.692942977 0.323857009 0.005493250
0.711710989 0.322636992 0.005569540
0.727199018 0.322315991 0.005630580
0.741725981 0.322849989 0.005706870
0.755306005 0.323734999 0.005767910
0.768459976 0.326512992 0.005828950
0.781078994 0.329762995 0.005905240
0.178957999 0.304051012 0.150224999
0.179095000 0.304432988 0.149203002
0.177599996 0.303303987 0.145219997
0.176394001 0.302617013 0.141389996
0.176332995 0.302724004 0.139849007
0.177095994 0.303409994 0.139360994
0.179049000 0.305135012 0.139528006
0.182254001 0.308140993 0.139651000
0.187090993 0.312916994 0.140291005
0.195407003 0.320928007 0.142672002
0.207523003 0.331349999 0.141863003
0.224765003 0.343481004 0.138903007
0.256763995 0.361180991 0.121004000
0.316213012 0.379781991 0.056488901
0.374776989 0.377523005 0.011352700
0.416830987 0.361027986 0.013153300
0.455862999 0.357762992 0.012268300
0.475623995 0.357580006 0.008407720
0.499992013 0.356725007 0.005706870
0.530022025 0.354162008 0.005233840
0.557655990 0.351933986 0.005249100
0.584100008 0.350071996 0.005310140
0.609125018 0.349889010 0.005386430
0.632700026 0.349263996 0.005447470
0.656443000 0.349096000 0.005523770
0.677684009 0.349081010 0.005584800
0.698267996 0.348547012 0.005661100
0.717432976 0.347478002 0.005737390
0.733485997 0.346608996 0.005798430
0.747996986 0.346334010 0.005874720
0.761883020 0.348042995 0.005935760
0.774670005 0.349660009 0.006012050
0.787029982 0.352391988 0.006073090
0.194095001 0.323444992 0.168626994
0.194353998 0.324025005 0.167680994
0.192858994 0.323002994 0.163561001
0.191089004 0.321949989 0.158632994
0.190615997 0.321859002 0.156176001
0.191149995 0.322468996 0.155397996
0.192844003 0.324025005 0.155566007
0.196154997 0.326893985 0.156146005
0.200580001 0.331090003 0.156725004
0.207308993 0.337835014 0.158083007
0.218661994 0.348057985 0.160784006
0.230884001 0.358372986 0.155214995
0.254413992 0.372137010 0.152728006
0.295399010 0.391683996 0.117997997
0.361012995 0.408666998 0.027740899
0.400792986 0.392935008 0.012329300
0.444967985 0.383551002 0.013641600
0.481056005 0.380041003 0.012909100
0.502663016 0.379736006 0.009292740
0.531059980 0.378636986 0.006652930
0.560204029 0.377157003 0.005615320
0.587410986 0.374868006 0.005477990
0.613245010 0.373892009 0.005539030
0.637399971 0.372503012 0.005615320
0.661601007 0.371252000 0.005676360
0.683268011 0.370687008 0.005752650
0.703867972 0.370108008 0.005828950
0.722895980 0.369345009 0.005889980
0.739452004 0.369145989 0.005966280
0.753718972 0.369664997 0.006042570
0.767758012 0.370458990 0.006103610
0.780818999 0.371632993 0.006179900
0.792706013 0.373465002 0.006256200
0.208483994 0.342657000 0.186296999
0.208712995 0.343174994 0.185335994
0.207218006 0.342061013 0.181231007
0.205447003 0.340992987 0.176149994
0.204607993 0.340611994 0.172900006
0.204913005 0.341053993 0.171785995
0.206409007 0.342427999 0.172014996
0.209536999 0.345234990 0.172671005
0.214099005 0.349476993 0.173785001
0.219806001 0.355322003 0.174289003
0.228167996 0.363561004 0.175463006
0.240725994 0.374181986 0.173556000
0.257358998 0.384786993 0.172334999
0.285176009 0.402013987 0.158068001
0.338903010 0.421743989 0.104952000
0.397864014 0.435523003 0.017608900
0.427024007 0.408544987 0.013458500
0.471046001 0.405523986 0.014221400
0.505591989 0.402426004 0.013351600
0.532905996 0.400853992 0.010193000
0.562753022 0.399908006 0.007537960
0.590555012 0.399268001 0.006073090
0.617318988 0.397940010 0.005706870
0.642373979 0.395833999 0.005783170
0.666163027 0.393790007 0.005844210
0.688471973 0.392798007 0.005920500
0.709728003 0.391943008 0.005981540
0.729243994 0.391393989 0.006057830
0.745571017 0.391196012 0.006134130
0.759944975 0.391867012 0.006210420
0.773648024 0.392278999 0.006271460
0.786969006 0.393270999 0.006347750
0.798550010 0.394811988 0.006424050
0.222385004 0.361409992 0.203464001
0.222628996 0.361959010 0.202609003
0.221210003 0.360754013 0.198703006
0.219638005 0.359762013 0.194018006
0.218569994 0.359212995 0.190265000
0.218401998 0.359319001 0.188342005
0.219501004 0.360388011 0.188205004
0.222644001 0.363272011 0.189074993
0.226795003 0.367300004 0.190111995
0.232425004 0.373053014 0.190951005
0.239779994 0.380513996 0.191455007
0.251881003 0.391440004 0.190951005
0.263568997 0.401053011 0.186922997
0.286168009 0.414938986 0.187044993
0.321079999 0.434836000 0.160281003
0.376821995 0.453788012 0.105820999
0.435355008 0.466468006 0.014068800
0.456703007 0.433158010 0.014236700
0.497108012 0.431739002 0.014725000
0.535530984 0.427482009 0.013824700
0.565392971 0.425695986 0.011032300
0.593743980 0.424964011 0.008377200
0.621224999 0.424154997 0.006561380
0.647166014 0.422735989 0.005935760
0.672145009 0.420049995 0.006012050
0.695536971 0.418891013 0.006073090
0.717571020 0.418051004 0.006149390
0.736918986 0.417349994 0.006225680
0.752925992 0.417136014 0.006286720
0.767865002 0.417165995 0.006363010
0.782100976 0.417075008 0.006439310
0.794628978 0.417959988 0.006515600
0.806622028 0.419791013 0.006591900
0.237369001 0.381918013 0.222827002
0.237827003 0.382604986 0.222308993
