luts/travel_11.cube
TITLE "33x33x33 Adobe/IRIDAS cube 3D LUT exported with GrossGrade v0.2.2 (beta) 64 bit"
DOMAIN_MIN 0 0 0
DOMAIN_MAX 1 1 1
LUT_3D_SIZE 5
0.018585499 0.000000000 0.015350600
0.097398303 0.000000000 0.024902700
0.231220007 0.000000000 0.049912300
0.370382011 0.003570610 0.055893801
0.510093987 0.020035099 0.071519002
0.053498100 0.144990996 0.065857902
0.212299004 0.193744004 0.061219200
0.372685999 0.202121004 0.052185901
0.497139007 0.210849002 0.060578302
0.630198002 0.219485998 0.075135402
0.053513400 0.294865012 0.088273399
0.244999006 0.370656997 0.057923201
0.495705009 0.406699002 0.057907999
0.655740976 0.410360992 0.066605598
0.795544028 0.404027998 0.072510898
0.046036500 0.443899989 0.103044003
0.130159006 0.509330988 0.060227402
0.497992992 0.592920005 0.067185499
0.708765984 0.618448019 0.073334903
0.867338002 0.592522979 0.077210598
0.042786300 0.595834017 0.113206998
0.127168998 0.644083023 0.093705699
0.495537013 0.750285983 0.077790499
0.688579023 0.819486022 0.161852002
0.854963005 0.810468018 0.152621001
0.008697640 0.000000000 0.057526499
0.117769003 0.000000000 0.121812999
0.258060992 0.000000000 0.146028996
0.404044002 0.001403830 0.158952996
0.551918983 0.027984999 0.176776007
0.053467602 0.162539005 0.160006002
0.142701998 0.221911997 0.206897005
0.368916988 0.227801993 0.191195995
0.507088006 0.214984000 0.176195994
0.634409010 0.214557007 0.184221998
0.050522599 0.316807985 0.208377004
0.116823003 0.375387013 0.217410997
0.480704993 0.440573990 0.235721007
0.648386002 0.429190993 0.177950993
0.786816001 0.407187015 0.161440000
0.048371099 0.467857003 0.242404997
0.117601000 0.495139986 0.228458002
0.471121997 0.602959991 0.190981999
0.704493999 0.644891977 0.214771003
0.867673993 0.617182016 0.180636004
0.048889901 0.609201014 0.288960010
0.124590002 0.629159987 0.265141010
0.407003999 0.728374004 0.206836000
0.706157029 0.851086974 0.360754013
0.860288024 0.853223026 0.339437008
0.033646099 0.000000000 0.202441007
0.124971002 0.000000000 0.227024004
0.325567007 0.048004899 0.276706994
0.476447999 0.051132999 0.286960989
0.629328012 0.055832800 0.301075995
0.047760699 0.182483003 0.261936009
0.104630999 0.216738999 0.293141007
0.404958993 0.275059015 0.363317013
0.575402021 0.259586006 0.348805994
0.720851004 0.249881998 0.340535998
0.048874602 0.349049985 0.360509992
0.119677000 0.383565992 0.388051987
0.414038002 0.485648990 0.459129006
0.630578995 0.492484987 0.445807993
0.793483973 0.447943985 0.392996013
0.049942799 0.522637010 0.444815993
0.129899994 0.551658988 0.455343992
0.295933008 0.622018993 0.475134999
0.707270980 0.716197014 0.548942983
0.855069995 0.692821026 0.495597988
0.059922200 0.699763000 0.513359010
0.138750002 0.708842993 0.506278992
0.213183999 0.721202016 0.475654006
0.733379006 0.867398977 0.581749976
0.906584024 0.887144029 0.599161029
0.039215699 0.000000000 0.316044986
0.134066001 0.000000000 0.338292986
0.315618008 0.059250802 0.389532000
0.571968973 0.060944501 0.432669997
0.712184012 0.054261100 0.434332997
0.042175900 0.204227000 0.375784010
0.107194997 0.220630005 0.390509009
0.298543006 0.280095011 0.485496014
0.632120013 0.302509993 0.503777027
0.770717978 0.281558990 0.490882993
0.045334600 0.368277013 0.483969986
0.116792999 0.392598987 0.502632022
0.284337014 0.460319012 0.560478985
0.651591003 0.529854000 0.627146006
0.822521985 0.498237997 0.602959991
0.050232701 0.550743997 0.599969983
0.132295996 0.585855007 0.626336992
0.248463005 0.643381000 0.663890004
0.719676018 0.743449986 0.700801015
0.862286985 0.752467990 0.695398986
0.061264999 0.709621012 0.660304010
0.145235002 0.756268024 0.689707994
0.242221996 0.816724002 0.707973003
0.760739028 0.880613029 0.724848986
0.922300994 0.908170998 0.751644015
0.042206500 0.000000000 0.427192003
0.132311001 0.015899900 0.448356003
0.308324009 0.078126200 0.502189994
0.574074984 0.069626898 0.549874008
0.767575026 0.072648197 0.562126994
0.038696900 0.228138000 0.496147007
0.113649003 0.235293999 0.501442015
0.233722001 0.279056996 0.579828024
0.606042981 0.311237991 0.633782983
0.809354007 0.307393014 0.641122997
0.041657101 0.388494998 0.611795008
0.115754999 0.406607002 0.627497017
0.201526001 0.442312986 0.668497980
0.628977001 0.520348012 0.761044025
0.867124021 0.522346973 0.758480012
0.049500301 0.557137012 0.727581024
0.131974995 0.593347013 0.757870018
0.219561994 0.636774004 0.778943002
0.678903997 0.731410980 0.786006987
0.873838007 0.774700999 0.795589983
0.065537497 0.721538007 0.789165974
0.159518003 0.775463998 0.814922988
0.308766007 0.816648006 0.809566975
0.786037982 0.888105989 0.822049022
0.931196988 0.918287992 0.838590026
