luts/travel_07.cube
TITLE "33x33x33 Adobe/IRIDAS cube 3D LUT exported with GrossGrade v0.2.2 (beta) 64 bit"
DOMAIN_MIN 0 0 0
DOMAIN_MAX 1 1 1
LUT_3D_SIZE 5
0.019317901 0.018905900 0.011978300
0.254931986 0.007873660 0.002517740
0.443809003 0.002471960 0.002471960
0.556023002 0.002853440 0.002853440
0.668223023 0.071610600 0.003402760
0.073899403 0.144227996 0.044983599
0.210178003 0.163210005 0.006347750
0.445791990 0.146777004 0.003616390
0.616128981 0.146715000 0.004089420
0.734173000 0.181383997 0.004608220
0.178957999 0.304051012 0.150224999
0.187090993 0.312916994 0.140291005
0.455862999 0.357762992 0.012268300
0.656443000 0.349096000 0.005523770
0.787029982 0.352391988 0.006073090
0.301106006 0.473381013 0.304630995
0.300159991 0.475410014 0.282597005
0.385778993 0.548286974 0.280414999
0.698786974 0.567085981 0.016968001
0.850614011 0.553277016 0.007415880
0.386815995 0.621912003 0.407034010
0.387701005 0.626123011 0.389730990
0.450248003 0.683772027 0.397650003
0.649912000 0.779506981 0.272374004
0.906782985 0.736141026 0.022720700
0.038849499 0.050461601 0.147982001
0.277164996 0.067429602 0.214434996
0.469168991 0.041458800 0.178011999
0.570412993 0.002960250 0.130526006
0.665063977 0.062623002 0.148898005
0.099290498 0.185092002 0.159564003
0.162370995 0.197650000 0.162553996
0.423896015 0.238468006 0.146334007
0.609368980 0.246325999 0.114656001
0.719585001 0.245089993 0.111055002
0.220356002 0.336567998 0.248080999
0.253879994 0.338566989 0.292409003
0.490577996 0.376531988 0.240908995
0.669992983 0.348042995 0.045426100
0.794017971 0.338169992 0.028137600
0.333409995 0.498436004 0.381841987
0.366338998 0.511130989 0.407568008
0.410773009 0.552543998 0.381888002
0.705699027 0.568108976 0.152421996
0.866101980 0.541832983 0.026566001
0.405279994 0.633065999 0.459876001
0.419806004 0.649546027 0.450659990
0.462027997 0.693064988 0.434760004
0.637216985 0.788190007 0.380575001
0.918699980 0.754467010 0.064972900
0.059403401 0.086274497 0.310369015
0.253773004 0.084962197 0.360127985
0.477699012 0.109300002 0.402471989
0.597985983 0.115861997 0.391530991
0.682062984 0.113176003 0.385717988
0.139925003 0.239902005 0.341253012
0.119432002 0.202380002 0.257739991
0.453070998 0.235126004 0.418296009
0.618631005 0.238086998 0.377371013
0.715220988 0.242358997 0.341390014
0.243061006 0.372029990 0.380376995
0.245456994 0.347081989 0.382712007
0.407507002 0.421499997 0.428855002
0.624734998 0.437200993 0.401297003
0.774394989 0.423987001 0.361837000
0.363958001 0.538749993 0.481727004
0.397466987 0.544717014 0.501121998
0.461050987 0.567009985 0.503135979
0.687358022 0.620522976 0.437415004
0.871397018 0.572412014 0.359135985
0.429953009 0.656854987 0.536934018
0.448294997 0.667948008 0.529244006
0.512322009 0.714457989 0.557335973
0.621941984 0.785091996 0.555504978
0.923430026 0.787944973 0.387228012
0.077683702 0.110964000 0.417730987
0.251408011 0.100388996 0.461021006
0.469000995 0.126909003 0.527275980
0.601175010 0.137742996 0.543892980
0.693767011 0.149400994 0.552269995
0.178424001 0.283710986 0.461982012
0.163179994 0.257404000 0.383931994
0.399343997 0.241794005 0.541131020
0.622552991 0.240040004 0.586602986
0.737269998 0.271580011 0.574806988
0.255207002 0.394811988 0.526192009
0.265720993 0.384633988 0.499107003
0.313039005 0.388646990 0.509284973
0.642114997 0.441733003 0.641672015
0.780407012 0.433371007 0.587152004
0.348744988 0.529151976 0.561470985
0.386633009 0.542473018 0.586983979
0.413199008 0.535423994 0.568399012
0.642450988 0.666377008 0.663034976
0.840481997 0.641885996 0.616571009
0.454809994 0.691173017 0.624719977
0.486609995 0.705196023 0.631617010
0.529030025 0.722697973 0.639307022
0.678629994 0.812390029 0.700069010
0.922087014 0.850126028 0.635966003
0.096009798 0.126055002 0.523415029
0.279866010 0.120912001 0.567529023
0.460348994 0.141268000 0.615732014
0.607461989 0.156008005 0.662943006
0.700281978 0.162950993 0.679727972
0.211032003 0.321491987 0.567941010
0.186526000 0.278324991 0.554024994
0.368429005 0.258350015 0.632333994
0.593881011 0.253284991 0.699947000
0.738689005 0.269138992 0.719264984
0.271091998 0.416938007 0.618021011
0.270114988 0.395453006 0.609948993
0.287113994 0.394003004 0.582300007
0.563805997 0.409812003 0.724330008
0.778424025 0.417517006 0.756024003
0.339055002 0.525596976 0.664851010
0.347005010 0.518546999 0.666406989
0.364491999 0.497139007 0.667521000
0.552590013 0.598962009 0.756374002
0.838117003 0.619547009 0.806912005
0.434226006 0.674144030 0.714137018
0.470146000 0.690074027 0.724941015
0.517220020 0.705515981 0.731272995
0.616250992 0.770763993 0.768932998
0.904905975 0.917952001 0.866316020
