luts/travel_01.cube
TITLE "33x33x33 Adobe/IRIDAS cube 3D LUT exported with GrossGrade v0.2.2 (beta) 64 bit"
DOMAIN_MIN 0 0 0
DOMAIN_MAX 1 1 1
LUT_3D_SIZE 33
0.024063500 0.026657499 0.031952400
0.032135502 0.026382800 0.029266801
0.042664200 0.027618799 0.028946400
0.054474700 0.028793801 0.028336000
0.070328802 0.029510900 0.027817201
0.088197097 0.030212900 0.027359400
0.108156003 0.031220000 0.027237400
0.130891994 0.031601399 0.027069500
0.157031000 0.031204700 0.026474399
0.185046002 0.029755101 0.025467301
0.215396002 0.027481500 0.024399200
0.247700006 0.025024800 0.023437900
0.280063987 0.023056399 0.022613900
0.314960986 0.022507099 0.022034001
0.350591004 0.023651499 0.022522300
0.387822986 0.025162101 0.023407299
0.426932007 0.026596500 0.024979001
0.466544986 0.027969800 0.026871100
0.505791008 0.029922901 0.029007399
0.544960976 0.032562800 0.031586200
0.581964016 0.034866899 0.034058101
0.616190016 0.036652200 0.035965499
0.649119020 0.038773201 0.037766099
0.679346979 0.041413002 0.039215699
0.707912028 0.043930698 0.040405899
0.736477017 0.046570498 0.041840199
0.764735997 0.049164601 0.043915499
0.792766988 0.051850200 0.046005901
0.819042981 0.054764599 0.048172701
0.844923019 0.057816401 0.050507400
0.870267987 0.060822502 0.052704699
0.894926012 0.063767500 0.055146102
0.919448018 0.066697203 0.057587501
0.026215000 0.035950299 0.036789499
0.035660300 0.034363300 0.033005301
0.046784200 0.034775302 0.031418301
0.059204999 0.035599299 0.029999200
0.074692897 0.036347002 0.029648300
0.091859303 0.037170999 0.029404100
0.111405998 0.037888199 0.029343100
0.133272007 0.038468000 0.028946400
0.158129007 0.038452700 0.028015601
0.185229003 0.037705000 0.026840599
0.214954004 0.036377501 0.025818300
0.247027993 0.034546401 0.024780700
0.279834986 0.032761101 0.023773599
0.315739989 0.032028701 0.023346299
0.352315992 0.032883201 0.023880400
0.390538990 0.034927901 0.025070600
0.430579007 0.037399899 0.026947400
0.470420003 0.039887100 0.029053200
0.510047972 0.043305099 0.031357300
0.549340010 0.047287699 0.034119200
0.586647987 0.050843101 0.036697902
0.621011972 0.053833801 0.038635802
0.654107988 0.056809299 0.040527999
0.684580982 0.059647501 0.042145401
0.713252008 0.062516198 0.043808699
0.741832972 0.065323897 0.045471899
0.770076990 0.067902602 0.047516599
0.797924995 0.070313603 0.049393501
0.824200988 0.073533200 0.051499199
0.849973023 0.076844402 0.053818598
0.875302970 0.080308199 0.055985399
0.899305999 0.083161697 0.058030099
0.922605991 0.085832000 0.060029000
0.029083701 0.046631601 0.044907302
0.039063100 0.043762900 0.038864698
0.051483899 0.043030400 0.035706099
0.065262802 0.043320399 0.033402000
0.080338798 0.044373199 0.032257602
0.097032100 0.045456599 0.031357300
0.116075002 0.046494201 0.031204700
0.137239993 0.047501300 0.030685900
0.160936996 0.048050702 0.029816100
0.186984003 0.048310101 0.028717499
0.215854004 0.047882799 0.027557800
0.247684002 0.047531899 0.026596500
0.280842006 0.047013000 0.025772501
0.317723006 0.046692599 0.025390999
0.355367005 0.048218500 0.025940301
0.394140989 0.050659999 0.027420500
0.434623003 0.053284500 0.029526200
0.474875987 0.056260001 0.031677701
0.514427006 0.060471501 0.033966601
0.553658009 0.065095000 0.036652200
0.590996981 0.069977902 0.039276700
0.625422001 0.073746897 0.041107800
0.658625007 0.077561602 0.042938899
0.689020991 0.081406899 0.044754699
0.717800021 0.085099600 0.046616301
0.746303022 0.088395499 0.048493199
0.774425983 0.090714902 0.050324298
0.802227974 0.092866398 0.052155301
0.828716993 0.095887698 0.054367900
0.854825974 0.099275202 0.056839898
0.879988015 0.102280997 0.058960900
0.903243005 0.104601003 0.060654599
0.925092995 0.106812999 0.062180500
0.033402000 0.060853001 0.059281301
0.043137301 0.057038199 0.049439199
0.057847001 0.055207100 0.044403799
0.073960498 0.054337401 0.040573701
0.088822797 0.055115599 0.035812899
0.104783997 0.055970099 0.032715298
0.123079002 0.057343401 0.032288101
0.143526003 0.058731999 0.032288101
0.166461006 0.059937399 0.031738799
0.190997005 0.060608801 0.030777400
0.218860000 0.061158199 0.029602500
0.250034004 0.062470399 0.028656401
0.282855988 0.063614897 0.027984999
0.319768012 0.064545698 0.027771400
0.357899994 0.066910803 0.028229199
0.397040009 0.070267797 0.029602500
0.438131988 0.074219897 0.031662501
0.478996009 0.078431398 0.033783499
0.519158006 0.083421104 0.036240201
0.558770001 0.088776998 0.039185200
0.596185029 0.093522497 0.041840199
0.630425990 0.098024003 0.043579798
0.663339972 0.102342002 0.045258299
0.693736017 0.106416002 0.047074098
0.722437978 0.110536002 0.048966199
0.750850976 0.113802001 0.050781999
0.778438985 0.116181999 0.052552100
0.805904984 0.118669003 0.054367900
0.832302988 0.121614002 0.056412600
0.858319998 0.124636002 0.058594599
0.883207023 0.127305999 0.060440999
0.906310022 0.129351005 0.061905898
0.927641988 0.131090000 0.063416503
0.037079401 0.079880998 0.078141503
0.044266399 0.076447703 0.068162099
0.060959801 0.074174099 0.059449200
0.080399796 0.072327800 0.051010899
0.098237596 0.070573002 0.045151401
0.115281999 0.070115201 0.039902300
0.131640002 0.072205700 0.035294101
0.150469005 0.074692897 0.034073401
0.171526998 0.077012300 0.033142600
0.195116997 0.078553401 0.031891402
0.222156003 0.080140397 0.031174200
0.252552003 0.082124099 0.030746900
0.284473985 0.083985701 0.030579099
0.321247995 0.086350799 0.030441700
0.359791994 0.089189000 0.030670600
0.399206996 0.092744298 0.031662501
0.441092998 0.097642504 0.033554599
0.482627988 0.103059001 0.035553500
0.523322999 0.109438002 0.037964400
0.563118994 0.115754999 0.040878899
0.600701988 0.121400997 0.043396700
0.634500980 0.125841007 0.045014098
0.667276978 0.129839003 0.046662100
0.697856009 0.133928001 0.048599999
0.726574004 0.138079002 0.050568402
0.755047023 0.141618997 0.052506302
0.781903028 0.143815994 0.054123800
0.808743000 0.146303996 0.055863298
0.834913015 0.148882002 0.057663798
0.860898972 0.151369005 0.059525400
0.885739982 0.153734997 0.061341301
0.909285009 0.155688003 0.062943503
0.930495024 0.157580003 0.064469397
0.042755801 0.100709997 0.097489901
0.047669198 0.098008700 0.088807501
0.061951600 0.095536701 0.077775203
0.080628701 0.093217403 0.065735899
0.105043001 0.089906201 0.058320001
0.126023993 0.087754600 0.050736200
0.142930999 0.089204200 0.042649001
0.159472004 0.092469700 0.038513798
0.177447006 0.096177600 0.034958400
0.199359000 0.098603800 0.033432499
0.225100994 0.101106003 0.032730602
0.254307002 0.104493998 0.032364398
0.285694987 0.107300997 0.032043900
0.321691006 0.110780001 0.031937100
0.359822989 0.114168003 0.032333899
0.400092006 0.118424997 0.033417299
0.442694992 0.124009997 0.034973700
0.485190988 0.129899994 0.036789499
0.526374996 0.136705995 0.039124101
0.566751003 0.143785998 0.042145401
0.604333997 0.149981007 0.044495299
0.637872994 0.154634997 0.046021201
0.670526981 0.158906996 0.047623400
0.701044977 0.163119003 0.049546000
0.730036974 0.167238995 0.051667001
0.758251011 0.170610994 0.053681199
0.784604013 0.172717005 0.055069800
0.810971022 0.174823001 0.056641500
0.836880982 0.177095994 0.058152098
0.862698972 0.179324001 0.059922200
0.887785017 0.181429997 0.061799001
0.911680996 0.183520004 0.063401200
0.932905972 0.185335994 0.064896598
0.051300801 0.123994999 0.116411000
0.055420801 0.121781997 0.109026000
0.062439900 0.119462997 0.099137902
0.070801899 0.116686001 0.087785199
0.104662001 0.115923002 0.077546403
0.135912001 0.114381999 0.067917898
0.159884006 0.111330003 0.060303699
0.172992006 0.113770999 0.048767801
0.185106993 0.118868001 0.037888199
0.204150006 0.122285999 0.035767101
0.228046000 0.125977993 0.034714300
0.256000996 0.129839003 0.033829302
0.286671013 0.133623004 0.033218902
0.321949989 0.137605995 0.033112101
0.359975994 0.141801998 0.033508800
0.400411993 0.146807000 0.034424402
0.443473011 0.152728006 0.035904501
0.486304998 0.159090996 0.037643999
0.528312981 0.166125000 0.039795499
0.569145977 0.173388004 0.042603198
0.607172012 0.180056006 0.044922601
0.641093016 0.186098993 0.046814699
0.673869014 0.191577002 0.048661001
0.704173028 0.195513994 0.050537899
0.732753992 0.198657006 0.052414700
0.760677993 0.201663002 0.054062702
0.786984026 0.204273000 0.055451300
0.813122988 0.206744000 0.056870401
0.838757992 0.208682001 0.058396298
0.864239991 0.210956007 0.060044300
0.889235020 0.213045999 0.061860099
0.912962973 0.214754999 0.063294403
0.934524000 0.216509998 0.064652503
0.059998501 0.147982001 0.127076998
0.063584298 0.145936996 0.119889997
0.068070501 0.144381002 0.112139001
0.073182300 0.143190995 0.104447998
0.090363897 0.143359005 0.096131802
0.113831997 0.142961994 0.087663099
0.159456998 0.140337005 0.079392701
0.188067004 0.138705000 0.069565900
0.206760004 0.138993993 0.058167402
0.215289995 0.145448998 0.044113800
0.233921006 0.150378004 0.038468000
0.258686006 0.155702993 0.036255401
0.287465006 0.160464004 0.035248298
0.322010994 0.165499002 0.034348100
0.359883994 0.170259997 0.034378599
0.400380999 0.175769001 0.035126299
0.443580002 0.182116002 0.036408000
0.487006992 0.188922003 0.038178101
0.529273987 0.196124002 0.040390600
0.570886016 0.203143001 0.042923599
0.609368980 0.210315004 0.045227699
0.643716991 0.218158007 0.047470801
0.676707029 0.224795997 0.049591798
0.706691027 0.228716999 0.051377099
0.734751999 0.230808005 0.052903000
0.762233973 0.232959002 0.054383200
0.788478971 0.235781997 0.055573400
0.814755023 0.238803998 0.056961901
0.840101004 0.241062000 0.058457300
0.865324020 0.243244007 0.059906900
0.889829993 0.244800001 0.061371800
0.913176000 0.246447995 0.062500998
0.935514987 0.247973993 0.063614897
0.071381703 0.174944997 0.129731998
0.075349003 0.174028993 0.132174000
0.076508701 0.173357993 0.122544996
0.077622600 0.173143998 0.111666001
0.082993798 0.173877001 0.097978197
0.095887698 0.174318999 0.088716000
0.136461005 0.173938006 0.095078997
0.180742994 0.170962006 0.092408597
0.225620002 0.167864993 0.083985701
0.241749004 0.169405997 0.070527203
0.252445012 0.176256999 0.055802200
0.267581999 0.184787005 0.044327501
0.290500998 0.191637993 0.038635802
0.322972000 0.197986007 0.037186202
0.359304011 0.203936994 0.036347002
0.399664015 0.209612995 0.036224902
0.443122000 0.216784999 0.037201501
0.486900002 0.224445000 0.038910501
0.529731989 0.231647000 0.041199401
0.571878016 0.239108995 0.043396700
0.610727012 0.246539995 0.045548201
0.644922972 0.254153997 0.047684401
0.677607000 0.260670006 0.049576599
0.707423985 0.263920009 0.051178802
0.735514998 0.265796989 0.052582599
0.763042986 0.267811000 0.053940602
0.789242029 0.270725995 0.055222400
0.815427005 0.273319989 0.056427900
0.840803027 0.275456011 0.057679102
0.865872979 0.277072996 0.059021901
0.890501022 0.278903991 0.060410500
0.913892984 0.280995011 0.061402299
0.937438011 0.282963008 0.062439900
0.079606302 0.205188006 0.124315001
0.084641799 0.204622999 0.135302007
0.083176903 0.203707993 0.123200998
0.081376404 0.203143001 0.109223999
0.084504500 0.203830004 0.100602999
0.092210300 0.204714999 0.095460400
0.113969997 0.206668004 0.100129999
0.153856993 0.207706004 0.102876000
0.209506005 0.207736000 0.104234003
0.255802006 0.202197000 0.099061601
0.279469013 0.203814998 0.086930603
0.293706000 0.211504996 0.071519002
0.304111987 0.222965002 0.053757500
0.325810999 0.231922001 0.041107800
0.360967010 0.237873003 0.039352998
0.399740994 0.245167002 0.038254399
0.442694992 0.253390998 0.038651101
0.486380994 0.261768997 0.039963402
0.529411972 0.269459009 0.041763902
0.572090983 0.277500987 0.043961201
0.611275971 0.284900993 0.045868602
0.644877017 0.291615009 0.047562402
0.677150011 0.297107995 0.049134001
0.706920028 0.300572008 0.050598901
0.735301971 0.302251011 0.052002698
0.763209999 0.304066986 0.053345501
0.789363980 0.306385994 0.054367900
0.815244019 0.308782011 0.055283401
0.840681016 0.310582012 0.056366801
0.866177976 0.312032014 0.057709601
0.890944004 0.313771009 0.059006602
0.914655983 0.316381007 0.060181599
0.938459992 0.318897992 0.061188702
0.087006897 0.238879994 0.121354997
0.093492001 0.238010004 0.140168995
0.092118703 0.236010998 0.129090995
0.091126896 0.234775007 0.118134998
0.094636500 0.235110998 0.115312003
0.099733002 0.235903993 0.112366997
0.109605998 0.238986999 0.110903002
0.132203996 0.242892995 0.111513004
0.167833999 0.247242004 0.113329001
0.230838001 0.247242004 0.117678002
0.283558011 0.243884996 0.115952998
0.321538001 0.243870005 0.108675003
0.339482993 0.251255006 0.094514400
0.347662002 0.264652014 0.068696097
0.366613001 0.275424987 0.048783101
0.400534004 0.283466995 0.041611400
0.442618012 0.292378008 0.040894199
0.485740006 0.300938010 0.041275699
0.528190970 0.310306996 0.042618401
0.571572006 0.318165988 0.044449501
0.610680997 0.325489998 0.046036500
0.643914998 0.331059992 0.047364000
0.675882995 0.336109996 0.048767801
0.705744982 0.338735014 0.050141100
0.734248996 0.340214998 0.051361900
0.762081027 0.341298997 0.052521601
0.788326979 0.343327999 0.053391300
0.814388990 0.344839007 0.054230601
0.840283990 0.346258014 0.055619098
0.865736008 0.346882999 0.056794100
0.890393972 0.348652989 0.057740100
0.914381981 0.351278007 0.058747198
0.937910974 0.354025006 0.059739102
0.099931300 0.276340991 0.129702002
0.107118003 0.274417996 0.150545999
0.107012004 0.271290004 0.145799994
0.107942000 0.270114988 0.141572997
0.109849997 0.270161003 0.137621000
0.112612002 0.271061003 0.133012995
0.116853997 0.274448991 0.127321005
0.126710996 0.278798014 0.121552996
0.143343002 0.284137994 0.115557000
0.182817996 0.289310992 0.125306994
0.243121997 0.293339014 0.132875994
0.307500005 0.295201004 0.136278003
0.355459005 0.294270009 0.133318007
0.383870989 0.299306005 0.119005002
0.396627992 0.311192006 0.093186803
0.411413997 0.325567007 0.063630097
0.443046004 0.335271001 0.046082199
0.486122012 0.343113989 0.043701801
0.528617978 0.351354003 0.044098601
0.570824981 0.360082000 0.044907302
0.609338999 0.367711991 0.046021201
0.642144978 0.373663008 0.047440302
0.673976004 0.377844006 0.048706800
0.703837991 0.379873008 0.049774900
0.732052028 0.380055994 0.050781999
0.759854019 0.380133003 0.051682301
0.786464989 0.381291986 0.052460499
0.812985003 0.382512987 0.053269200
0.838895023 0.382696003 0.054444201
0.864301980 0.382833987 0.055420801
0.888913989 0.383626997 0.056351598
0.912459016 0.385885000 0.057312898
0.935958028 0.387975991 0.058197901
0.111787997 0.315373003 0.138642997
0.118669003 0.312534988 0.154588997
0.121400997 0.309101999 0.157701999
0.121843003 0.307347000 0.154971004
0.117753997 0.306966007 0.142092004
0.116807997 0.307850987 0.132586002
0.118807003 0.310979009 0.126192003
0.126589000 0.315037996 0.120072998
0.138963997 0.320897013 0.114060998
0.155901000 0.328922987 0.112260997
0.195911005 0.337406993 0.127855003
0.254489988 0.345144004 0.143175006
0.321705997 0.349965990 0.153993994
0.383780003 0.349996001 0.155016005
0.423406988 0.352117002 0.143861994
0.444068015 0.361607999 0.121110998
0.455633998 0.377157003 0.079072297
0.486777991 0.386069000 0.053314999
0.529121995 0.392630011 0.046860501
0.571923018 0.400519013 0.046448499
0.610177994 0.407766998 0.046784200
0.642373979 0.413442999 0.047516599
0.673030019 0.418112010 0.048752598
0.701915026 0.419714987 0.049683399
0.729824007 0.419164985 0.050568402
0.757641017 0.418554991 0.051331300
0.784497023 0.419043005 0.051895902
0.811307013 0.419286996 0.052460499
0.837125003 0.418615997 0.053192999
0.862393975 0.417838007 0.054154299
0.886900008 0.418311000 0.055405501
0.910368979 0.419943988 0.056412600
0.933714986 0.421575993 0.057221301
0.114504002 0.350317001 0.135087997
0.118317999 0.348073989 0.142152995
0.124208003 0.345982999 0.151354000
0.124163002 0.344563991 0.147768006
0.117417999 0.343450010 0.129885003
0.117678002 0.344166994 0.122346997
0.121798001 0.347097009 0.120012000
0.131151006 0.351720005 0.119645998
0.143831998 0.357641011 0.120347999
0.160418004 0.364964992 0.120973997
0.180849999 0.373708993 0.121201999
0.216342002 0.384786993 0.129671007
0.265933990 0.395437986 0.142793998
0.335592002 0.403158993 0.165316001
0.408728004 0.402197003 0.172992006
0.453193009 0.403342009 0.162141994
0.478552997 0.411062986 0.135408998
0.496834010 0.423758000 0.093583599
0.528023005 0.432119995 0.062317800
0.571098983 0.437887996 0.050171699
0.610071003 0.443381011 0.048706800
0.642847002 0.448431998 0.048889901
0.674082994 0.452398986 0.049210299
0.702754021 0.454138994 0.049835999
0.729701996 0.454214990 0.050507400
0.756709993 0.454596996 0.051148199
0.783412993 0.455009013 0.051728100
0.810177982 0.455253005 0.052277401
0.836088002 0.454275995 0.052826699
0.861676991 0.453193009 0.053650700
0.886290014 0.452948987 0.054901998
0.909361005 0.453956008 0.055847999
0.932493985 0.454870999 0.056687299
0.120026998 0.383230001 0.136979997
0.120943002 0.381505996 0.135958001
0.122865997 0.380362004 0.136049002
0.123369001 0.379660010 0.132386997
0.123156004 0.379415989 0.126801997
0.126115993 0.380484015 0.125581995
0.130327001 0.383322001 0.125947997
0.139574006 0.387961000 0.128084004
0.151446000 0.393530011 0.130327001
0.167163000 0.399908006 0.132066995
0.185564995 0.407858014 0.132783994
0.207919002 0.418143004 0.133227006
0.236118004 0.429526001 0.135149002
0.277011991 0.442831993 0.140276000
0.343984008 0.452338010 0.164232999
0.422293007 0.451469004 0.177890003
0.480369002 0.450735986 0.172854006
0.513038993 0.455969989 0.148958996
0.534889996 0.467047989 0.105393998
0.568597019 0.474159002 0.069810003
0.608469009 0.477851987 0.055161402
0.642435014 0.481299996 0.051438201
0.674632013 0.484488994 0.050675198
0.704066992 0.486167997 0.050721001
0.731701016 0.486945987 0.050949901
0.758876979 0.487556010 0.051361900
0.785152972 0.488456994 0.051911201
0.811321974 0.489356995 0.052506302
0.836835027 0.489082009 0.053040400
0.862333000 0.487830997 0.053528599
0.886748016 0.487480015 0.054642599
0.909452975 0.487922013 0.055710699
0.932509005 0.488211989 0.056656700
0.129548997 0.415915012 0.149263993
0.130311996 0.415075988 0.146593004
0.131289005 0.414389014 0.143815994
0.132464007 0.414191008 0.140855998
0.133745000 0.414389014 0.137971997
0.136476994 0.415335000 0.136842996
0.140429005 0.418036014 0.136629000
0.148454994 0.422399998 0.138688996
0.159624994 0.427359015 0.141160995
0.174303994 0.433021009 0.143953994
0.192019999 0.440252990 0.144930005
0.211887002 0.449775010 0.144884005
0.234393999 0.460395008 0.144106001
0.262286991 0.472236007 0.141877994
0.302708000 0.485617995 0.145480007
0.367819011 0.495124996 0.164980993
0.447912991 0.495368987 0.182009995
0.509101987 0.494102001 0.179582998
0.546975017 0.496468008 0.159518003
0.571771026 0.506614983 0.111040004
0.605341017 0.511650026 0.078629702
0.640359998 0.514137983 0.062363598
0.674539983 0.516242981 0.054703601
0.705150008 0.517647028 0.052719899
0.733410001 0.518272996 0.052430000
0.761105001 0.519051015 0.052475799
0.787639976 0.519768000 0.052735198
0.814023018 0.520241022 0.053086098
0.839474976 0.520057976 0.053437099
0.864561021 0.519569993 0.053803299
0.888426006 0.519234002 0.054703601
0.910764992 0.519234002 0.055634402
0.933196008 0.519173026 0.056748301
0.139314994 0.448767990 0.161776006
0.141009003 0.448051006 0.160006002
0.142443001 0.447349012 0.157609999
0.144227996 0.447227001 0.155397996
0.146181002 0.447638988 0.153292000
0.147860005 0.448356003 0.150774002
0.151384994 0.450949997 0.149675995
0.157900006 0.454566002 0.150103003
0.167895004 0.459082991 0.151354000
0.180957004 0.464179009 0.153902993
0.197925001 0.470999986 0.154817998
0.217258006 0.479698002 0.155260995
0.237582996 0.489295989 0.154742002
0.260365009 0.500099003 0.152116999
0.292499989 0.512260973 0.148866996
0.338261992 0.525551021 0.152804002
0.402395993 0.534111977 0.168200001
0.478552997 0.534707010 0.186892003
0.537056983 0.533317983 0.181125000
0.576912999 0.534981012 0.158403993
0.605264008 0.542289972 0.116715997
0.637263000 0.546563029 0.089295797
0.672297001 0.548225999 0.070099898
0.704509020 0.548530996 0.059906900
0.733837008 0.548362970 0.055588599
0.762264013 0.548684001 0.054215301
0.789211988 0.549171984 0.054138999
0.815838993 0.549507976 0.054261100
0.841763973 0.549157023 0.054306898
0.867277026 0.548470020 0.054428902
0.891569018 0.547860026 0.054871399
0.913756013 0.547569990 0.055680200
0.935774982 0.547249973 0.056626201
0.148729995 0.480246991 0.173357993
0.150561005 0.479346991 0.171313003
0.152300000 0.478781998 0.169070005
0.154391006 0.478812993 0.167132005
0.156680003 0.479393005 0.165469006
0.158175007 0.480156004 0.162553996
0.161151007 0.482216001 0.160081998
0.166154996 0.484993011 0.158984005
0.175509006 0.489113003 0.160127997
0.187259004 0.493721008 0.162432000
0.203693002 0.500099003 0.163942993
0.222491995 0.508125007 0.164828002
0.242466003 0.517265975 0.164706007
0.264012009 0.526772022 0.162324995
0.288547993 0.537056983 0.157594994
0.326162010 0.550668001 0.153170004
0.374899000 0.563347995 0.156954005
0.434989005 0.571907997 0.170108005
0.513496995 0.570747972 0.192432001
0.566308022 0.569527984 0.178103000
0.605736971 0.571191013 0.156985000
0.636500001 0.576272011 0.124909997
0.669505000 0.579582989 0.097978197
0.701976001 0.579797029 0.078675501
0.732798994 0.578545988 0.065995298
0.762600005 0.578041971 0.058991399
0.790188015 0.577660978 0.056092199
0.817121029 0.577751994 0.055832800
0.843411982 0.577386022 0.055695400
0.869520009 0.576592982 0.055573400
0.894361973 0.575874984 0.055573400
0.917144001 0.575066984 0.056244802
0.939651012 0.573983014 0.057023000
0.157564998 0.509346008 0.183855996
0.159426004 0.508521974 0.181369007
0.161044002 0.507835984 0.178607002
0.162736997 0.507897019 0.175814003
0.164629996 0.508460999 0.173280999
0.166461006 0.509239018 0.170733005
0.169481993 0.510978997 0.168612003
0.173540995 0.513252020 0.167238995
0.182497993 0.517081976 0.168475002
0.193515003 0.521340013 0.170367002
0.209078997 0.527260005 0.172229007
0.227496997 0.534614980 0.173265994
0.247013003 0.542855024 0.173280999
0.268115997 0.551735997 0.171388999
0.290500998 0.561546981 0.167208001
0.321812987 0.573418975 0.161424994
0.363988996 0.587808013 0.157488003
0.412420988 0.599420011 0.159441993
0.476920992 0.605692029 0.176181003
0.553261995 0.602761984 0.196200997
0.596246004 0.603052020 0.176730007
0.634881973 0.604394972 0.158450007
0.668070018 0.607735991 0.129259005
0.699229002 0.609125018 0.104966998
0.729808986 0.608453989 0.086396597
0.760631979 0.607217014 0.072175197
0.789547980 0.605920017 0.063111298
0.817502022 0.605219007 0.058731999
0.844601989 0.604714990 0.057465501
0.871244013 0.604165971 0.057129800
0.896436989 0.603097975 0.056900900
0.919843972 0.601984024 0.057404399
0.942884982 0.601159990 0.058243699
0.165712997 0.536507010 0.193332002
0.167787999 0.536004007 0.190768003
0.169284001 0.535179973 0.187579006
0.170763999 0.535224974 0.184343994
0.172472998 0.535728991 0.181520998
0.174227998 0.536445975 0.178744003
0.177157000 0.538093984 0.176852003
0.180467993 0.539924979 0.175157994
0.189059004 0.543420017 0.176226005
0.199496001 0.547387004 0.177676007
0.214038000 0.552621007 0.179674998
0.232197002 0.559563994 0.180879995
0.251774013 0.567192972 0.181079000
0.272724986 0.575540006 0.179370001
0.294468999 0.584939003 0.175738007
0.320255995 0.596047997 0.169741005
0.359975994 0.610040009 0.163988993
0.403479010 0.622995019 0.160327002
0.455161005 0.633081973 0.164324000
0.521583974 0.637185991 0.185138002
0.583016992 0.635003984 0.192615002
0.626352012 0.634333014 0.176561996
0.665948987 0.634455025 0.158785000
0.697169006 0.636393011 0.133821994
0.726589024 0.636698008 0.111849003
0.756985009 0.636178970 0.093705699
0.786526024 0.634714007 0.079316400
0.816190004 0.633172989 0.067826398
0.844601989 0.631677985 0.062012699
0.872174978 0.630900025 0.059449200
0.898115993 0.629679024 0.058518399
0.922118008 0.628961980 0.058915101
0.945662975 0.627938986 0.059617002
0.173617005 0.563103974 0.202135995
0.175830007 0.562569976 0.199755996
