luts/travel_15.cube
TITLE "33x33x33 Adobe/IRIDAS cube 3D LUT exported with GrossGrade v0.2.2 (beta) 64 bit"
DOMAIN_MIN 0 0 0
DOMAIN_MAX 1 1 1
LUT_3D_SIZE 5
0.001724270 0.000732433 0.000534066
0.125276998 0.011963100 0.004226750
0.317524999 0.031677701 0.013824700
0.540687978 0.050263200 0.036896300
0.771130025 0.079957299 0.075928897
0.020324999 0.117936999 0.004852370
0.166552007 0.154939994 0.009308000
0.394414991 0.200717002 0.016434001
0.611566007 0.224231005 0.031815100
0.832044005 0.244021997 0.052689400
0.065629102 0.281834006 0.015030100
0.219638005 0.330677986 0.024506001
0.431066990 0.394964993 0.035492498
0.644052982 0.437979996 0.043152500
0.864804983 0.454733998 0.061005600
0.172060996 0.489448011 0.084412903
0.324056000 0.532464027 0.103563003
0.482001990 0.566690028 0.091950901
0.640528023 0.604180992 0.078019403
0.859296978 0.653513014 0.058960900
0.262028009 0.667369008 0.169879004
0.380041003 0.687892020 0.175478995
0.521187007 0.728847027 0.155596003
0.670085013 0.770183980 0.127947003
0.859403014 0.828472972 0.098344401
0.004852370 0.032410201 0.096269198
0.110841997 0.038284902 0.129839003
0.287647992 0.017624199 0.111680999
0.496529013 0.018249800 0.128602996
0.730297029 0.030914800 0.163942993
0.001953150 0.163911998 0.150224999
0.130891994 0.178393006 0.157488003
0.402395993 0.182329997 0.143419996
0.609688997 0.170839995 0.133211002
0.823880017 0.168871999 0.157397002
0.016769700 0.316044986 0.149462000
0.144884005 0.334798008 0.137696996
0.438331008 0.409918010 0.153902993
0.660395026 0.436515003 0.149537995
0.878476977 0.445533007 0.168536007
0.075318500 0.472647995 0.152238995
0.212619007 0.497489989 0.153871998
0.465537012 0.574303985 0.175814003
0.641458988 0.608407974 0.143038005
0.868254006 0.653880000 0.150286004
0.172259003 0.655282974 0.225620002
0.314884990 0.680033982 0.239353001
0.493629009 0.727183998 0.249103993
0.667581975 0.777493000 0.208041996
0.859799981 0.831005991 0.192461997
0.010437200 0.080826998 0.232669994
0.066666700 0.098069698 0.278035015
0.256686985 0.057160299 0.279193997
0.449012011 0.030624900 0.261067003
0.668864012 0.031021601 0.311681002
0.007736320 0.207720995 0.302327007
0.069733702 0.226504996 0.334829003
0.341816992 0.220127001 0.366293013
0.553933024 0.156343997 0.330083013
0.752620995 0.152728006 0.358312011
0.016891699 0.380071998 0.359944999
0.093202099 0.391454995 0.368901998
0.413031012 0.468726993 0.442939013
0.684778988 0.455787003 0.440542996
0.884993017 0.436423004 0.412710994
0.076035701 0.540260971 0.394582987
0.192111000 0.566064000 0.410131991
0.447973996 0.629786015 0.454780012
0.669184029 0.648325026 0.426885992
0.888136029 0.659358025 0.374823004
0.137041003 0.686137021 0.417425990
0.261233985 0.704890013 0.420401007
0.447744995 0.744839013 0.422201991
0.657114983 0.795300007 0.408118010
0.868939996 0.843502998 0.338079005
0.012298800 0.127839997 0.367361009
0.067383803 0.151812002 0.407918990
0.150667995 0.147402003 0.426459014
0.435065001 0.081666298 0.416480005
0.609185994 0.077088602 0.436834991
0.011383200 0.248385996 0.428748012
0.067780599 0.271077007 0.458595008
0.173693001 0.300159991 0.494819999
0.549354970 0.270007998 0.520210981
0.700709999 0.225863993 0.511314988
0.021622000 0.413107991 0.489677012
0.083939902 0.425146997 0.507393003
0.269504994 0.470634013 0.556970000
0.619242013 0.532554984 0.620797992
0.801831007 0.495186001 0.619225979
0.072846599 0.575142980 0.542123020
0.132157996 0.581277013 0.547523975
0.309834003 0.620966017 0.583597004
0.631388009 0.683634996 0.647333980
0.855832994 0.682413995 0.658900023
0.107790001 0.713680029 0.570641994
0.207965001 0.728968978 0.578118980
0.413870007 0.767407000 0.610071003
0.648477972 0.818921030 0.643564999
0.874997973 0.856106997 0.615839005
0.016723899 0.182269007 0.495750010
0.074326701 0.206226006 0.528770983
0.142076999 0.242420003 0.578011990
0.451864988 0.258549005 0.655893981
0.650065005 0.193895996 0.609261990
0.019150101 0.297780007 0.543069005
0.076676600 0.316060007 0.566491008
0.151124999 0.354054987 0.612482011
0.462729990 0.406744003 0.678874016
0.714304984 0.384267986 0.678309023
0.036301199 0.444357991 0.605463028
0.093781903 0.454214990 0.621851027
0.213213995 0.490837008 0.666682005
0.475455999 0.547387004 0.708064020
0.747233987 0.580209017 0.743008018
0.069642201 0.599313021 0.653117001
0.125764996 0.605675995 0.663783014
0.268512994 0.637338996 0.703348994
0.541801989 0.677729011 0.744594991
0.762539029 0.717540026 0.777920008
0.106737003 0.752391994 0.712122977
0.171008006 0.758556008 0.718043983
0.266254991 0.778469980 0.737071991
0.564584017 0.817135990 0.777356029
0.835476995 0.852383971 0.814877987
