luts/travel_14.cube
TITLE "33x33x33 Adobe/IRIDAS cube 3D LUT exported with GrossGrade v0.2.2 (beta) 64 bit"
DOMAIN_MIN 0 0 0
DOMAIN_MAX 1 1 1
LUT_3D_SIZE 5
0.000015259 0.000915541 0.001113910
0.147462994 0.025528301 0.024582300
0.376897991 0.035339899 0.028549600
0.637125015 0.042191200 0.034821101
0.877852023 0.056992400 0.047501300
0.028946400 0.135637000 0.030685900
0.199725002 0.152788997 0.028854800
0.451788992 0.191135004 0.027923999
0.686931014 0.206560999 0.037735600
0.902707994 0.232409999 0.050553098
0.096269198 0.329014987 0.078629702
0.283390999 0.356725007 0.069565900
0.522117972 0.387059987 0.042923599
0.709986985 0.434500992 0.037430398
0.912337005 0.455740988 0.049973302
0.195819005 0.554787993 0.134340003
0.387778014 0.589212000 0.139528006
0.575845003 0.600884974 0.110413998
0.744930029 0.631417990 0.080521896
0.914168000 0.676874995 0.054581501
0.270175993 0.756039023 0.184938997
0.444404006 0.786526024 0.192035004
0.611047983 0.816007018 0.190326005
0.769954979 0.822431028 0.165788993
0.933623016 0.863874018 0.149171993
0.000000000 0.016403399 0.090974301
0.132524997 0.026871100 0.105745003
0.365956992 0.037079401 0.131929994
0.627358973 0.035690900 0.162950993
0.870817006 0.040772099 0.197665006
0.006393530 0.132189006 0.135119006
0.143235996 0.153856993 0.148195997
0.445746988 0.190020993 0.159060001
0.686609983 0.196033001 0.182803005
0.905759990 0.219501004 0.214679003
0.049835999 0.320042998 0.207828000
0.213367000 0.358983994 0.209873006
0.505577028 0.395895004 0.181949005
0.712566018 0.437552005 0.202792004
0.915495992 0.457771003 0.236622006
0.135759994 0.540535986 0.262302995
0.322881013 0.583123982 0.266941011
0.563683987 0.616708994 0.251926005
0.740001023 0.635415971 0.216006994
0.915311992 0.678218007 0.232623994
0.219286993 0.742550015 0.313892990
0.408605993 0.782344997 0.325017005
0.601113975 0.820523024 0.334829003
0.762829006 0.827435970 0.307209998
0.932539999 0.866728008 0.296620011
0.000595102 0.041229900 0.185992002
0.072480403 0.049088299 0.202121004
0.345449001 0.050019100 0.217410997
0.603676975 0.047455601 0.265507013
0.846768975 0.046479002 0.340108007
0.006820780 0.152850002 0.230868995
0.076981798 0.167269006 0.247639000
0.397147000 0.186679006 0.274585992
0.654977977 0.191378996 0.300419986
0.878018975 0.207354993 0.371450007
0.036423299 0.311634988 0.313771009
0.151475996 0.341053993 0.339985996
0.406165004 0.400640994 0.374807000
0.698817015 0.446204007 0.423391998
0.911620021 0.453559011 0.439657986
0.124284998 0.534295022 0.435187012
0.249469995 0.572167993 0.457114995
0.501929998 0.628930986 0.466055989
0.711192012 0.631097972 0.423162997
0.915892005 0.681132019 0.454795003
0.201098993 0.743983984 0.501793027
0.339848995 0.768047988 0.497002006
0.564369977 0.816631973 0.504051030
0.755168974 0.839963019 0.493445992
0.927412987 0.869718015 0.484030992
0.004821850 0.072587200 0.288486987
0.073060200 0.080949098 0.301182985
0.148408994 0.085236900 0.348241001
0.593285978 0.063523300 0.359609008
0.823589981 0.068452001 0.422354013
0.011398500 0.181688994 0.331548005
0.079469003 0.196170002 0.348652989
0.150545999 0.212954998 0.381155014
0.636865973 0.217135996 0.415807992
0.847836971 0.226978004 0.474922001
0.025757199 0.327717990 0.405660987
0.120180003 0.355657011 0.433753014
0.281621009 0.414694011 0.490958989
0.671122015 0.456351995 0.527764022
0.879315972 0.463310003 0.590936005
0.133424997 0.527947009 0.525672972
0.234606996 0.557931006 0.554269016
0.391211003 0.608133018 0.600091994
0.677302003 0.644465029 0.605493009
0.904753029 0.682978988 0.664820015
0.203830004 0.716381013 0.629984021
0.315618008 0.740779996 0.647485971
0.488166988 0.786282003 0.670221984
0.739848971 0.839779973 0.683345020
0.914579988 0.856962025 0.669093013
0.010605000 0.106935002 0.392767012
0.076676600 0.115160003 0.404105008
0.145540997 0.128359005 0.426214993
0.582269013 0.102128997 0.535088003
0.802518010 0.136933997 0.570230007
0.017166400 0.214663997 0.434913009
0.084443398 0.228962004 0.451727986
0.153613001 0.248356000 0.477530986
0.511635005 0.291539013 0.575829983
0.825711012 0.297291994 0.624109030
0.030914800 0.357396990 0.506492972
0.101640001 0.380818993 0.531044006
0.209353998 0.419135004 0.571282983
0.432806998 0.483969986 0.653177977
0.855619013 0.500922978 0.689783990
0.146319002 0.548362970 0.619714975
0.249728993 0.579079986 0.649042010
0.382512987 0.621378005 0.690012991
0.571527004 0.666697025 0.734829009
0.868512988 0.680658996 0.742564976
0.212741002 0.717769027 0.717051983
0.315587014 0.738613009 0.737178981
0.440131009 0.766368985 0.763957977
0.649942994 0.815792978 0.809598029
0.877394021 0.838986993 0.810451984
