luts/travel_10.cube
TITLE "33x33x33 Adobe/IRIDAS cube 3D LUT exported with GrossGrade v0.2.2 (beta) 64 bit"
DOMAIN_MIN 0 0 0
DOMAIN_MAX 1 1 1
LUT_3D_SIZE 33
0.014740200 0.012558200 0.013717900
0.030396000 0.013702600 0.014145100
0.047486100 0.014267200 0.014267200
0.070435598 0.013733100 0.012893900
0.094697498 0.015472600 0.011413700
0.120591998 0.016067799 0.010086200
0.149691001 0.015991500 0.009903100
0.180987000 0.010681300 0.009597920
0.206957996 0.013702600 0.007431140
0.238468006 0.010147200 0.005722130
0.267506003 0.008804460 0.003219650
0.297107995 0.009445330 0.002075230
0.330067992 0.007141220 0.000610361
0.355062008 0.014862300 0.000411994
0.392125994 0.006027310 0.000000000
0.421530008 0.006271460 0.000213626
0.448065996 0.013092200 0.000839246
0.479332000 0.008926530 0.001754790
0.510703981 0.004882890 0.002883960
0.538887978 0.011062800 0.003326470
0.565056980 0.006652930 0.004638740
0.591897011 0.009185930 0.005447470
0.618143022 0.008514530 0.006500340
0.644038022 0.009353780 0.007324330
0.669551015 0.012375100 0.007003890
0.693858027 0.009338520 0.007309070
0.718257010 0.011551100 0.007110700
0.742519021 0.009887850 0.007064930
0.765667021 0.010116700 0.006057830
0.789578021 0.009475850 0.005340660
0.813382030 0.009460590 0.005325400
0.835659981 0.009628440 0.005096510
0.857298017 0.009674220 0.004104680
0.018249800 0.028381800 0.014648700
0.030640099 0.026474399 0.012893900
0.048767801 0.027069500 0.013122800
0.069413297 0.026413400 0.012115700
0.094346501 0.024811201 0.010803400
0.117951997 0.024322901 0.009689480
0.146456003 0.023041099 0.009521630
0.174914002 0.021423699 0.009262230
0.202075005 0.021118499 0.007202260
0.229282007 0.020569200 0.006149390
0.258166999 0.019958800 0.004028380
0.288396001 0.019501001 0.002822920
0.319249004 0.018799100 0.001617460
0.352346003 0.018844901 0.000549325
0.384786993 0.017364800 0.000000000
0.415228993 0.017227400 0.000045777
0.445120990 0.016052499 0.000671397
0.476173013 0.015686300 0.001358050
0.506905019 0.015259000 0.002090490
0.537590981 0.015793100 0.002822920
0.562920988 0.016479701 0.003692680
0.589456022 0.017196899 0.004592970
0.615351021 0.017914100 0.005310140
0.641916990 0.018631300 0.006027310
0.667322993 0.018616000 0.006240940
0.691874981 0.018616000 0.006424050
0.715785027 0.018600700 0.006408790
0.739772975 0.018555000 0.006317240
0.763378024 0.018555000 0.005310140
0.786221027 0.018539701 0.004455630
0.811367989 0.018524500 0.004440380
0.833325982 0.018524500 0.004318300
0.854947984 0.018509200 0.003372240
0.021408400 0.043961201 0.015686300
0.033646099 0.043137301 0.014663900
0.047623400 0.041245099 0.012100400
0.068925001 0.041702900 0.011261200
0.092164502 0.041001000 0.010284600
0.113877997 0.040482201 0.009430080
0.140276000 0.040802602 0.009216450
0.163240999 0.040589001 0.008438240
0.189302996 0.039810799 0.007309070
0.216083005 0.039795499 0.006805520
0.240924999 0.039825998 0.005371180
0.271533996 0.039444599 0.004242010
0.304035991 0.039414100 0.003189140
0.338108987 0.038574800 0.001403830
0.372395992 0.037552498 0.000244144
0.406592011 0.036438499 0.000000000
0.438804001 0.034195501 0.000167849
0.473197997 0.030914800 0.000640879
0.504585028 0.028122401 0.001190200
0.537452996 0.027618799 0.001800560
0.561959028 0.027435699 0.002685590
0.589501977 0.027435699 0.003646910
0.615320027 0.028015601 0.004135200
0.641489029 0.028091900 0.004684520
0.666437984 0.028091900 0.005096510
0.691797972 0.028091900 0.005493250
0.715754986 0.027954500 0.005493250
0.739360988 0.027908800 0.005401690
0.763180017 0.027908800 0.004394600
0.786235988 0.027893500 0.003540090
0.810971022 0.027893500 0.003524830
0.833325982 0.027878201 0.003402760
0.855374992 0.027863000 0.002441440
0.023544701 0.059647501 0.016083000
0.036499601 0.058991399 0.016434001
0.049424000 0.058991399 0.012787100
0.067521200 0.057068702 0.010528700
0.089219503 0.057602800 0.009765770
0.111101002 0.056702498 0.009109640
0.135637000 0.057373900 0.008194090
0.157671005 0.058106400 0.007400630
0.182757005 0.058274198 0.007293810
0.206989005 0.057785898 0.007141220
0.233158007 0.059494901 0.005905240
0.263217986 0.059296601 0.005066000
0.293172002 0.060166299 0.004165710
0.329273999 0.061310701 0.001937900
0.363424003 0.062089000 0.000335698
0.398961991 0.059433900 0.000000000
0.434866995 0.057358701 0.000000000
0.468071014 0.055130798 0.000000000
0.505531013 0.051087201 0.000000000
0.536369979 0.048966199 0.000000000
0.564233005 0.046082199 0.001129170
0.588388026 0.043488201 0.002151520
0.615152001 0.041336700 0.002563520
0.640878975 0.040909398 0.002868700
0.665843010 0.040390600 0.003631650
0.691645980 0.040314302 0.004333560
0.715372980 0.039459798 0.004394600
0.738490999 0.039505601 0.004303040
0.763194978 0.039185200 0.003311210
0.785870016 0.038315400 0.002533000
0.811200023 0.038407002 0.002502480
0.833585024 0.038162801 0.002410930
0.854947984 0.037766099 0.001510640
0.026489699 0.075593203 0.016983300
0.038880002 0.075425297 0.017044300
0.052521601 0.074051999 0.014938600
0.067750096 0.073762096 0.009643700
0.085908301 0.073029697 0.009262230
0.107438996 0.073518001 0.008758680
0.131929994 0.074418202 0.007721070
0.154299006 0.075135402 0.007202260
0.179613993 0.076203600 0.007110700
0.207262993 0.077058099 0.007019150
0.233340994 0.078416102 0.005889980
0.266270012 0.079743601 0.005691620
0.296986014 0.080445603 0.004943920
0.330877006 0.082597099 0.002349890
0.365346998 0.082230903 0.000045777
0.400519013 0.082642898 0.000000000
0.434852004 0.081574701 0.000000000
0.470497012 0.079530001 0.000000000
0.504051030 0.077317499 0.000000000
0.536262989 0.074403003 0.000000000
0.563805997 0.070954397 0.000289921
0.591012001 0.068757199 0.000823987
0.616693020 0.066376701 0.000915541
0.642771006 0.062241599 0.001113910
0.667979002 0.059479699 0.001998930
0.694118023 0.054840900 0.003021290
0.715937972 0.053620201 0.003082320
0.739467025 0.052857298 0.003006030
0.764262974 0.052582599 0.002029450
0.787487984 0.052628402 0.001251240
0.811841011 0.051316101 0.001281760
0.834989011 0.051331300 0.001098650
0.856657028 0.051361900 0.000167849
0.029205799 0.091020100 0.017853100
0.040604301 0.090089299 0.017853100
0.054673102 0.089662001 0.016601801
0.068757199 0.089158498 0.012069900
0.085008003 0.088288702 0.008697640
0.102449000 0.087556303 0.008514530
0.127168998 0.089494199 0.008346690
0.149935007 0.091538899 0.007553220
0.177432001 0.094224498 0.006912340
0.205385998 0.095857203 0.006820780
0.236164004 0.097108401 0.006729230
0.267430007 0.098680101 0.005706870
0.298970014 0.100298002 0.005386430
0.331593990 0.101244003 0.002533000
0.364522994 0.102922000 0.000442512
0.401098996 0.103578001 0.000000000
0.438818991 0.104601003 0.000000000
0.473899007 0.103226997 0.000000000
0.505240977 0.101563998 0.000000000
0.537971973 0.099061601 0.000000000
0.566093981 0.094972201 0.000000000
0.595193028 0.092988499 0.000000000
0.621056974 0.092683300 0.000015259
0.648203015 0.090257101 0.000183108
0.671885014 0.085984603 0.000610361
0.697780013 0.081513703 0.001098650
0.720377982 0.079072297 0.001220720
0.744533002 0.076295100 0.001266500
0.766399980 0.073991001 0.000885023
0.790219009 0.071824200 0.000534066
0.815228999 0.070664503 0.000579843
0.837369025 0.068818197 0.000427253
0.859007001 0.068284102 0.000000000
0.032822199 0.108309001 0.018982200
0.043533999 0.106827997 0.018402399
0.056595702 0.105501004 0.017731000
0.070344098 0.105912998 0.015899900
0.085572600 0.106310003 0.011169600
0.101976000 0.104051001 0.008331430
0.124697000 0.105608001 0.008224610
0.147539005 0.107148997 0.008148320
0.174318999 0.110201001 0.008072020
0.205509007 0.114046000 0.007949950
0.236469001 0.116517998 0.007019150
0.269932002 0.118745998 0.006897080
0.303104997 0.121018998 0.006256200
0.335164011 0.123262003 0.003738460
0.367437005 0.124224000 0.001068130
0.407079995 0.125780001 0.000000000
0.443792999 0.126756996 0.000000000
0.477591991 0.126818001 0.000000000
0.513207018 0.124880001 0.000000000
0.542823970 0.122102998 0.000000000
0.573128998 0.119599998 0.000000000
0.601006985 0.117326997 0.000000000
0.628840029 0.118395001 0.000000000
0.653132021 0.115938000 0.000000000
0.678919971 0.111970998 0.000000000
0.702509999 0.108110003 0.000000000
0.727793992 0.105164997 0.000000000
0.750407994 0.102251001 0.000000000
0.772076011 0.101136997 0.000000000
0.794170976 0.099778697 0.000000000
0.818372011 0.098085001 0.000000000
0.839932978 0.096498102 0.000000000
0.859739006 0.093598798 0.000000000
0.034164999 0.126481995 0.019943500
0.046692599 0.125246003 0.019333201
0.059342299 0.122606002 0.019333201
0.074006297 0.123751000 0.018417601
0.088212401 0.123521999 0.015274300
0.103182003 0.120272003 0.008239870
0.124665998 0.121873997 0.008148320
0.145205006 0.122194000 0.008148320
0.171496004 0.125367999 0.008102540
0.202044994 0.128922999 0.007980470
0.234439999 0.133272007 0.007858400
0.270191014 0.136171997 0.007721070
0.304432988 0.139085993 0.007293810
0.338414997 0.142046005 0.004501410
0.373982996 0.144899994 0.002700850
0.410223991 0.145296007 0.000793469
0.447227001 0.146745995 0.000000000
0.483146012 0.148012996 0.000000000
0.516716003 0.147294998 0.000000000
0.549004018 0.144350007 0.000000000
0.579918981 0.141909003 0.000000000
0.606607020 0.141618997 0.000000000
0.634791017 0.141405001 0.000000000
0.659159005 0.138933003 0.000000000
0.682155013 0.135775000 0.000000000
0.706905007 0.132769004 0.000000000
0.729915023 0.131273001 0.000000000
0.753017008 0.128007993 0.000000000
0.773754001 0.128465995 0.000000000
0.797131002 0.125810996 0.000000000
0.820661008 0.124361001 0.000000000
0.841596007 0.121781997 0.000000000
0.862837017 0.119188003 0.000000000
0.038178101 0.143709004 0.020492900
0.050049599 0.142763004 0.020935399
0.062867202 0.141755998 0.020691199
0.076188304 0.140780002 0.020065600
0.090394400 0.140809998 0.018310800
0.106325001 0.139254004 0.014053600
0.126130998 0.138414994 0.008972300
0.146562994 0.139268994 0.009063860
0.168367997 0.138993993 0.009063860
0.197512999 0.143586993 0.008911270
0.230533004 0.148302004 0.008773940
0.268269002 0.153521001 0.008606090
0.304890990 0.157183006 0.008102540
0.341282994 0.160631999 0.005416950
0.377279013 0.163957998 0.003479060
0.412665009 0.165866002 0.002502480
0.450033993 0.167575002 0.001800560
0.486045986 0.167758003 0.000000000
0.522895992 0.169467002 0.000000000
0.554481983 0.166857004 0.000000000
0.586022973 0.164462000 0.000000000
0.613565028 0.163882002 0.000000000
0.641885996 0.163683996 0.000000000
0.663752019 0.162202999 0.000000000
0.685222030 0.159243003 0.000000000
0.709788978 0.157289997 0.000000000
0.732891023 0.154116005 0.000000000
0.755611002 0.154330000 0.000000000
0.777966022 0.154863998 0.000000000
0.798932016 0.152438000 0.000000000
0.822933972 0.148271993 0.000000000
0.844038010 0.147143006 0.000000000
0.865643978 0.145082995 0.000000000
0.042099599 0.161532000 0.023010600
0.053330299 0.160448998 0.022583401
0.066300496 0.159472004 0.022278201
0.080109902 0.158311993 0.022049300
0.094636500 0.158601999 0.020706501
0.111101002 0.157443002 0.018432900
0.128893003 0.156497002 0.012024100
0.148989007 0.157443002 0.009277490
0.173189998 0.158938006 0.009720000
0.197787002 0.159685999 0.009048600
0.227420002 0.163760006 0.009475850
0.265628994 0.169725999 0.009033340
0.303898990 0.176241994 0.008377200
0.343084008 0.180696994 0.006195160
0.381215990 0.184359998 0.004333560
0.419883013 0.186998993 0.003814760
0.456167996 0.189456001 0.002868700
0.491874993 0.190631002 0.001739530
0.526405990 0.192035004 0.000000000
0.560631990 0.189669997 0.000000000
0.591881990 0.188890994 0.000000000
0.620019972 0.188281000 0.000000000
0.647898018 0.187625006 0.000000000
0.669611990 0.185962006 0.000000000
0.691965997 0.183321998 0.000000000
0.716503024 0.181048006 0.000000000
0.737574995 0.178774998 0.000000000
0.761974990 0.179262996 0.000000000
0.783490002 0.179248005 0.000000000
0.803722978 0.177798003 0.000000000
0.826992989 0.174364999 0.000000000
0.848233998 0.172976002 0.000000000
0.868910015 0.170305997 0.000000000
0.045258299 0.178896993 0.023590401
0.056504201 0.177828997 0.023239501
0.069748998 0.176866993 0.023819299
0.084031403 0.175707996 0.024078701
0.098908998 0.174974993 0.023544701
0.114579998 0.175189003 0.021561000
0.133775994 0.176470995 0.016937500
0.151979998 0.176073998 0.010727100
0.177095994 0.177768007 0.010009900
0.201067999 0.179599002 0.010132000
0.225086004 0.178987995 0.009918360
0.262317985 0.185779005 0.009231710
0.301122010 0.192995995 0.008438240
0.341619015 0.198703006 0.007080190
0.383397996 0.202715993 0.005752650
0.423101991 0.207644999 0.005066000
0.462058008 0.211337000 0.004242010
0.496284008 0.213565007 0.003372240
0.530372977 0.214877993 0.001617460
0.565042019 0.213062003 0.000381476
0.597329974 0.213168994 0.000000000
0.624643028 0.213703007 0.000000000
0.651269972 0.210941002 0.000000000
0.676492989 0.209399998 0.000000000
0.700510979 0.207674995 0.000000000
0.722148001 0.205019996 0.000000000
0.745387971 0.204607993 0.000000000
0.769360006 0.204944000 0.000000000
0.792232990 0.204547003 0.000000000
0.812313974 0.202213004 0.000000000
0.834088981 0.200641006 0.000000000
0.856015980 0.199466005 0.000000000
0.876233995 0.198763996 0.000000000
0.048325300 0.196108997 0.025207900
0.059586499 0.195102006 0.025909800
0.073228002 0.194049001 0.026123401
0.088013999 0.192690998 0.026062399
0.103318997 0.192340001 0.026031900
0.120881997 0.193103001 0.024002399
0.137193993 0.194521993 0.020584401
0.156877995 0.196536005 0.015030100
0.179979995 0.196796000 0.010482900
0.206637993 0.199908003 0.010849200
0.231128007 0.198488995 0.010727100
0.260226995 0.203204006 0.009979400
0.297443986 0.210941002 0.008972300
0.338521004 0.215549007 0.007431140
0.382939994 0.221545994 0.005844210
0.424903005 0.227512002 0.005828950
0.463447005 0.232654005 0.005798430
0.499718010 0.235935003 0.004226750
0.534859002 0.238315001 0.003418020
0.568978012 0.238620996 0.001495380
0.601373017 0.237979993 0.000686656
0.629800975 0.238239005 0.000000000
0.657588005 0.238116995 0.000000000
0.683939993 0.237156004 0.000000000
0.706431985 0.234378994 0.000000000
0.728556991 0.233600006 0.000000000
0.751246989 0.231494993 0.000000000
0.777081013 0.230900005 0.000000000
0.799495995 0.229892001 0.000000000
0.819622993 0.227770999 0.000000000
0.841931999 0.227970004 0.000000000
0.862989008 0.227587998 0.000000000
0.884366989 0.228061005 0.000000000
0.053208198 0.215671003 0.027084799
0.065308601 0.214282006 0.026916901
0.079240099 0.212984994 0.027039001
0.093904004 0.211887002 0.027542500
0.109300002 0.211765006 0.027740899
0.126558006 0.213717997 0.025818300
0.145006001 0.215426996 0.023941400
0.165895998 0.218006000 0.020065600
0.187701002 0.220065996 0.012924400
0.213870004 0.222431004 0.010818600
0.242663994 0.225574002 0.011047500
0.269748986 0.226138994 0.009460590
0.297825992 0.228061005 0.008484020
0.336995989 0.234072998 0.007660030
0.381262004 0.240908995 0.006958110
0.421988010 0.247929007 0.006897080
0.463584006 0.253941000 0.006561380
0.501289010 0.257068992 0.005600060
0.538384020 0.260960013 0.005203330
0.573449016 0.262973994 0.003295950
0.606302023 0.265323997 0.002121000
0.636102974 0.265659988 0.000595102
0.664301991 0.263828009 0.000000000
0.689143002 0.262897998 0.000000000
0.713832021 0.262668997 0.000000000
0.736155987 0.260883987 0.000000000
0.760128021 0.260028988 0.000000000
0.784053981 0.258639991 0.000000000
0.805768013 0.256503999 0.000000000
0.827984989 0.257221013 0.000000000
0.850965023 0.256168008 0.000000000
0.871747971 0.257099003 0.000000000
0.893033981 0.257876992 0.000000000
0.057282399 0.235401005 0.028946400
0.071763203 0.235644996 0.028717499
0.085740402 0.234592006 0.029083701
0.101273999 0.233326003 0.029404100
0.117509998 0.232883006 0.029404100
0.135392994 0.234515995 0.028152900
0.153582007 0.238453001 0.026443901
0.173448995 0.241520002 0.022873299
0.197375000 0.244007006 0.018829601
0.221698001 0.244571999 0.012405600
0.250874013 0.249531001 0.011368000
0.280963987 0.251269996 0.009826810
0.304798990 0.249652997 0.008178840
0.337682009 0.253208011 0.007705810
0.378347009 0.260242999 0.007385370
0.420293987 0.267430007 0.007309070
0.462455004 0.275409997 0.007293810
0.501945019 0.279682994 0.006485080
0.540489972 0.283558011 0.006042570
0.575112998 0.286412001 0.005066000
0.609063983 0.289737999 0.003616390
0.641992986 0.291676015 0.002105750
0.670297980 0.292789996 0.000488289
0.696101010 0.291630000 0.000000000
0.720516026 0.291568995 0.000000000
0.744639993 0.292499989 0.000000000
0.766766012 0.289737999 0.000000000
0.789380014 0.287189990 0.000000000
0.812283993 0.285512000 0.000000000
0.835035026 0.286229014 0.000000000
0.858151972 0.286197990 0.000000000
0.878934979 0.286716998 0.000000000
0.901395977 0.285984993 0.000000000
0.063889503 0.256778985 0.030685900
0.077225901 0.255207002 0.030472299
0.092820600 0.254536003 0.030273899
0.108430997 0.253345996 0.031021601
0.126130998 0.254871011 0.030914800
0.143327996 0.257281989 0.029892400
0.162127003 0.260150999 0.027740899
0.182009995 0.263294011 0.025879299
0.205553994 0.266849995 0.022873299
0.229908004 0.268878996 0.016815400
0.257649004 0.271550000 0.010742400
0.289371997 0.275593013 0.009262230
0.317036986 0.276309997 0.008072020
0.343647987 0.276066005 0.007995730
0.379538000 0.280140013 0.007934690
0.418891013 0.287984014 0.007934690
0.461035997 0.296039999 0.007888910
0.502403021 0.300998986 0.007324330
0.540398002 0.305776000 0.006866560
0.575646996 0.310384005 0.006729230
0.610589981 0.313344002 0.004989700
0.644526005 0.317189008 0.004257270
0.673762023 0.318791002 0.001525900
0.702509999 0.319844007 0.000381476
0.728084028 0.321171999 0.000000000
0.751003027 0.320210993 0.000000000
0.774487019 0.318302989 0.000000000
0.797284007 0.316532999 0.000000000
0.820218027 0.314945996 0.000000000
0.843792975 0.316854000 0.000000000
0.866621017 0.315495998 0.000000000
0.889433026 0.315723985 0.000000000
0.910871983 0.315174997 0.000000000
0.067994200 0.279224992 0.031738799
0.082230903 0.278126001 0.031387798
0.098451197 0.277653009 0.031128399
0.115052998 0.278981000 0.030777400
0.133287996 0.279911011 0.031097900
0.152116999 0.281803995 0.030777400
0.171327993 0.283802986 0.029083701
0.192629993 0.286853999 0.027283100
0.214175999 0.290500998 0.024338100
0.238940999 0.294301003 0.020065600
0.264927000 0.296086013 0.013000700
0.294301003 0.298772007 0.009643700
0.329380989 0.304479003 0.009018080
0.358159989 0.304311007 0.008987560
0.388190001 0.304462999 0.008590830
0.421133995 0.308048993 0.007980470
0.460761011 0.316426009 0.007858400
0.500526011 0.322530001 0.007827880
0.541360021 0.327854991 0.007736320
0.574196994 0.332112998 0.007553220
0.610055983 0.336172014 0.006622420
0.643914998 0.341131002 0.005691620
0.675989985 0.343937993 0.004257270
0.705959022 0.347341001 0.002273590
0.732631028 0.348241001 0.000000000
0.756785989 0.347874999 0.000000000
0.780422986 0.345892012 0.000000000
0.804500997 0.345997989 0.000000000
0.828320980 0.347494006 0.000000000
0.852810979 0.345921993 0.000000000
0.875958979 0.346639007 0.000000000
0.897795022 0.345784992 0.000000000
0.917128026 0.343908012 0.000000000
0.072632901 0.301578999 0.032608502
0.087220602 0.301151991 0.032211799
0.104355998 0.302540988 0.031799801
0.122133002 0.303624004 0.031982899
0.140108004 0.304096997 0.031815100
0.160189003 0.305501014 0.031174200
0.181308001 0.307271004 0.029816100
0.201892003 0.310445011 0.027786700
0.222827002 0.314168006 0.025635200
0.246631995 0.318287998 0.022171400
0.273472011 0.321233004 0.016983300
0.304006010 0.322820008 0.009903100
0.337148011 0.328222007 0.009002820
0.371237010 0.332845002 0.009231710
0.400487989 0.332783997 0.009399560
0.427282989 0.332493991 0.009170670
0.459464014 0.336126000 0.008957050
0.499886006 0.342931002 0.008514530
0.539283991 0.350210011 0.008331430
0.574181974 0.353718996 0.007843140
0.609018028 0.358220994 0.007690550
0.644143999 0.363653004 0.007034410
0.678264022 0.367590010 0.006118870
0.710291982 0.372229010 0.004592970
0.736796975 0.373708993 0.002426180
0.763271987 0.375173986 0.000000000
0.787701011 0.375891000 0.000000000
0.812481999 0.376439989 0.000000000
0.834684014 0.374655008 0.000000000
0.858838975 0.375555009 0.000000000
0.881955981 0.375097007 0.000000000
0.904691994 0.374792010 0.000000000
0.927290976 0.372976005 0.000000000
0.078843400 0.325428993 0.033142600
0.094987400 0.325185001 0.032883201
0.112612002 0.327580988 0.032303300
0.129168004 0.327657014 0.031845599
0.149081007 0.328099012 0.032059200
0.169985995 0.330509990 0.031876098
0.191378996 0.331716001 0.030502800
0.210941002 0.336003989 0.029388901
0.232485995 0.340261012 0.028015601
0.256321013 0.343374014 0.025146900
0.283084989 0.347829014 0.021026900
0.311879009 0.349813014 0.014572400
0.344471991 0.353978992 0.009308000
0.381200999 0.360509992 0.010650800
0.412665009 0.362843990 0.011032300
0.439505994 0.361409992 0.010040400
0.465521991 0.360983014 0.009628440
0.501121998 0.364735991 0.009674220
0.538872004 0.369345009 0.009887850
0.572701991 0.375203997 0.010193000
0.608224988 0.380728006 0.009597920
0.643441975 0.384770989 0.009460590
0.678523004 0.390401989 0.008453500
0.710582018 0.394414991 0.007385370
0.740337014 0.397650003 0.005050740
0.767086029 0.399084002 0.002578770
0.793469012 0.401434004 0.000000000
0.818935990 0.402960002 0.000000000
0.840939999 0.403158993 0.000000000
0.864027023 0.402440995 0.000000000
0.889142990 0.404181004 0.000000000
0.912184000 0.403600991 0.000000000
0.935392976 0.403342009 0.000000000
0.088654898 0.355123013 0.034164999
0.106126003 0.354039997 0.033569898
0.122850001 0.355702996 0.033005301
0.141009003 0.356344014 0.033875000
0.160219997 0.357381999 0.033646099
0.181734994 0.360020995 0.033402000
0.202959999 0.361837000 0.033188399
0.224323004 0.365788996 0.031952400
0.246662006 0.370305985 0.030731700
0.270695001 0.371282995 0.028748000
0.296696007 0.376531988 0.025009500
0.325489998 0.380468011 0.020660700
0.352910995 0.383612007 0.013901000
0.387288988 0.388785005 0.010894900
0.424964011 0.394308001 0.011688400
0.453604996 0.395803988 0.012298800
0.479561001 0.392919987 0.012436100
0.505286992 0.390356004 0.012283500
0.537423015 0.393240005 0.011886800
0.572670996 0.398047000 0.011505300
0.607553005 0.402518004 0.011688400
0.643809021 0.407187015 0.011566300
0.676661015 0.411826015 0.010330400
0.710184991 0.417578012 0.009872590
0.739269018 0.421636999 0.009811550
0.768872023 0.425482988 0.008270390
0.795789003 0.428626001 0.006027310
0.821346998 0.431326985 0.004104680
0.846494019 0.434134007 0.004180970
0.870314002 0.433616012 0.004501410
0.896055996 0.435034990 0.004898150
0.919737995 0.435492009 0.004867630
0.942641020 0.436042011 0.004638740
0.097657703 0.379797012 0.034195501
0.114350997 0.379660010 0.034470100
0.133227006 0.381247014 0.033997100
0.151492000 0.382878989 0.034271799
0.171205997 0.384512007 0.034286998
0.193361998 0.388251007 0.035110999
0.214374006 0.389699996 0.035172001
0.236453995 0.393117994 0.034378599
0.258807987 0.395209014 0.032761101
0.282536000 0.399053991 0.030624900
0.308934003 0.403631985 0.027878201
0.336903989 0.407813013 0.023819299
0.363362998 0.411704004 0.020279201
0.395238996 0.415212989 0.012619200
0.430334985 0.420217991 0.012802300
0.462103993 0.423896015 0.014389300
0.491203010 0.424230993 0.015487900
0.516547978 0.420507997 0.015182700
0.542106986 0.417486995 0.014877500
0.572763026 0.420065999 0.015152200
0.605279982 0.423667014 0.014984400
0.641276002 0.429632992 0.015274300
0.677088976 0.435584009 0.015899900
0.709438026 0.441062003 0.017074799
0.740368009 0.445228010 0.016922301
0.767498016 0.448783010 0.015548900
0.796200991 0.452659011 0.013962000
0.824643016 0.457556993 0.012207200
0.850094974 0.459434003 0.010330400
0.876340985 0.462042987 0.010421900
0.902540982 0.463660985 0.010925500
0.925795019 0.465629011 0.010833900
0.946745992 0.466147989 0.009979400
0.103197001 0.403066993 0.035904501
0.119615003 0.402686000 0.035492498
