luts/travel_10.cube
TITLE "33x33x33 Adobe/IRIDAS cube 3D LUT exported with GrossGrade v0.2.2 (beta) 64 bit"
DOMAIN_MIN 0 0 0
DOMAIN_MAX 1 1 1
LUT_3D_SIZE 5
0.014740200 0.012558200 0.013717900
0.206957996 0.013702600 0.007431140
0.448065996 0.013092200 0.000839246
0.669551015 0.012375100 0.007003890
0.857298017 0.009674220 0.004104680
0.038178101 0.143709004 0.020492900
0.168367997 0.138993993 0.009063860
0.450033993 0.167575002 0.001800560
0.685222030 0.159243003 0.000000000
0.865643978 0.145082995 0.000000000
0.072632901 0.301578999 0.032608502
0.222827002 0.314168006 0.025635200
0.459464014 0.336126000 0.008957050
0.736796975 0.373708993 0.002426180
0.927290976 0.372976005 0.000000000
0.127168998 0.500603020 0.042709999
0.301717013 0.520255983 0.050446302
0.514351010 0.552392006 0.037811901
0.732707977 0.554817975 0.045777101
0.951903999 0.592889011 0.050781999
0.196948007 0.689585984 0.090547003
0.368414015 0.711269021 0.108644001
0.556801975 0.748652995 0.130265996
0.764415979 0.767880023 0.124743000
0.925230980 0.753292024 0.158297002
0.035568800 0.012695500 0.147448003
0.207111001 0.007843140 0.161761001
0.468497992 0.002502480 0.158038005
0.698405027 0.010193000 0.128465995
0.885663986 0.014374000 0.107865997
0.029327800 0.158998996 0.125505000
0.193087995 0.163760006 0.127779007
0.474555999 0.176364005 0.119722001
0.714259982 0.175830007 0.104066998
0.885634005 0.182817996 0.111207999
0.071259603 0.342092007 0.124467999
0.223377004 0.339071006 0.133120000
0.497826010 0.370885998 0.115189999
0.778819978 0.400350988 0.092011899
0.950483978 0.393072009 0.078599200
0.141543001 0.547569990 0.160113007
0.320149988 0.554223001 0.182512999
0.539894998 0.591943026 0.198154002
0.761394978 0.583947003 0.140505001
0.974868000 0.636575997 0.164888993
0.220035002 0.734736979 0.226520002
0.399558008 0.745647013 0.251803994
0.581414998 0.771344006 0.284626991
0.789089978 0.799878001 0.256825000
0.951201975 0.784618974 0.248875007
0.060654599 0.015991500 0.303761005
0.198092997 0.022293400 0.318639010
0.463263988 0.006195160 0.359349996
0.695491016 0.017547900 0.349247992
0.881910026 0.035874002 0.314687014
0.038895201 0.160402998 0.302067995
0.185824007 0.176515996 0.332783997
0.450888991 0.190173000 0.345692992
0.707163990 0.202089995 0.335729003
0.877928019 0.226062000 0.332464010
0.052307900 0.378775001 0.332082003
0.228153005 0.398382992 0.345631987
0.507651985 0.434424013 0.363698989
0.755261004 0.457114995 0.372381002
0.921186984 0.454474986 0.361638993
0.136705995 0.588647008 0.355459005
0.314473003 0.582176983 0.356557995
0.515296996 0.592537999 0.376073986
0.777446985 0.641412973 0.372808009
0.977050006 0.679148972 0.374868006
0.230121002 0.758037984 0.374655008
0.403234988 0.755168974 0.387365997
0.584694982 0.770123005 0.421790004
0.775386989 0.805203021 0.423850000
0.959761977 0.810818970 0.378713995
0.088639699 0.014297700 0.491203010
0.224094003 0.027222101 0.508872986
0.459921986 0.022751199 0.537681997
0.693767011 0.025543600 0.556663990
0.878889024 0.048691500 0.535530984
0.073151797 0.171297997 0.496284008
0.238070995 0.193544999 0.538567007
0.470115006 0.221240997 0.555855989
0.711436987 0.225315005 0.573006988
0.890837014 0.258625001 0.553444982
0.081162699 0.395651013 0.529640973
0.269932002 0.435202986 0.561882973
0.507606983 0.473289013 0.585457981
0.755688012 0.491966009 0.596735001
0.933836997 0.492561013 0.579980016
0.153246000 0.624688983 0.560998023
0.353933007 0.657862008 0.585595012
0.558067977 0.669916987 0.593240023
0.804349005 0.713283002 0.611566007
0.978591979 0.708751023 0.595345974
0.253178000 0.820127010 0.574365020
0.424643010 0.822445989 0.580621004
0.592050016 0.807003975 0.573418975
0.769436002 0.816007018 0.591745019
0.967727005 0.854017019 0.580011010
0.120881997 0.029190499 0.665643990
0.266514003 0.038651101 0.687846005
0.482322007 0.052796200 0.715999007
0.725215971 0.051514499 0.736491978
0.897657990 0.044510599 0.739512980
0.118516997 0.175173998 0.665979981
0.306629986 0.226581007 0.708918989
0.499123007 0.244587004 0.721705973
0.727337003 0.251850009 0.738368988
0.904250026 0.256168008 0.740642011
0.126604006 0.399419993 0.690364003
0.315068007 0.442389995 0.718958974
0.537223995 0.486716986 0.754803002
0.754696012 0.495613009 0.764324009
0.934340000 0.502174020 0.769024014
0.188647002 0.630075991 0.721920013
0.355168998 0.655604005 0.746119976
0.557274997 0.689830005 0.771861970
0.781764984 0.712795019 0.787823021
0.960708022 0.716472030 0.777844012
0.227512002 0.831601024 0.739543974
0.414434999 0.851208985 0.756694973
0.602365017 0.863767028 0.765147984
0.789165974 0.857374012 0.759854019
0.971557021 0.896422029 0.779293001
