luts/travel_13.cube
TITLE "33x33x33 Adobe/IRIDAS cube 3D LUT exported with GrossGrade v0.2.2 (beta) 64 bit"
DOMAIN_MIN 0 0 0
DOMAIN_MAX 1 1 1
LUT_3D_SIZE 33
0.000000000 0.000000000 0.004470890
0.003143360 0.000000000 0.004242010
0.009109640 0.000000000 0.004058900
0.028076600 0.002502480 0.005371180
0.051529702 0.010620300 0.007354850
0.070603497 0.014862300 0.008361940
0.088166602 0.017563101 0.009018080
0.112078004 0.020584401 0.009887850
0.142289996 0.023788800 0.010711800
0.174028993 0.026382800 0.011413700
0.206348002 0.028412299 0.011932600
0.239032999 0.030212900 0.012512400
0.271550000 0.031601399 0.012893900
0.302677989 0.031876098 0.013168500
0.325612009 0.031280998 0.013321100
0.348958999 0.030777400 0.013473700
0.382162005 0.031021601 0.013565300
0.415122002 0.030701200 0.013412700
0.445562989 0.030533301 0.013351600
0.475486010 0.030869000 0.013321100
0.506340027 0.033783499 0.013290600
0.537530005 0.037598200 0.013214300
0.565025985 0.039719202 0.013122800
0.590767980 0.041199401 0.013107500
0.615396023 0.042633701 0.013061700
0.638940990 0.043823902 0.013046500
0.662881970 0.045441400 0.013061700
0.687236011 0.047791298 0.013061700
0.712809980 0.050370000 0.013046500
0.741711020 0.053696498 0.013046500
0.769406021 0.056687299 0.012939700
0.789211988 0.057389200 0.013122800
0.808911026 0.057969000 0.013336400
0.004226750 0.014740200 0.007461660
0.013199100 0.010620300 0.006942860
0.022903800 0.006408790 0.006271460
0.043259300 0.013214300 0.007812620
0.067826398 0.021896699 0.009414820
0.089845099 0.024353400 0.010055700
0.110872000 0.024353400 0.010559200
0.138429999 0.027389901 0.011001800
0.170671999 0.032562800 0.011657900
0.202655002 0.036545400 0.012237700
0.233722001 0.038696900 0.012710800
0.265965015 0.041046798 0.013168500
0.299153000 0.042771000 0.013412700
0.330953002 0.043762900 0.013656800
0.356038988 0.043656100 0.013702600
0.381628007 0.043182999 0.013717900
0.411688000 0.043564498 0.013611000
0.441534996 0.043747600 0.013519500
0.470068991 0.044541098 0.013427900
0.498694986 0.046173800 0.013351600
0.526970029 0.048020098 0.013244800
0.555275977 0.050095402 0.013107500
0.580941021 0.051712800 0.013031200
0.605813980 0.053635500 0.012909100
0.629206002 0.055329200 0.012954900
0.651437998 0.056870401 0.013000700
0.674768984 0.058609899 0.012939700
0.700052977 0.060807198 0.012832800
0.725306988 0.063096099 0.012939700
0.751141012 0.065812200 0.012924400
0.776349008 0.068406202 0.012909100
0.797802985 0.070191503 0.012970200
0.818935990 0.071930997 0.013107500
0.010864400 0.036728501 0.011230600
0.023651499 0.027069500 0.010254100
0.038819000 0.017654700 0.009002820
0.060502000 0.024155000 0.010086200
0.085755698 0.033646099 0.011261200
0.110505998 0.034241199 0.011718900
0.136308998 0.031113099 0.011810500
0.166292995 0.034286998 0.012146200
0.199892998 0.041794501 0.012634500
0.231617004 0.046967302 0.013168500
0.261723012 0.049210299 0.013519500
0.292988002 0.051316101 0.013763600
0.326496989 0.053879600 0.013977300
0.358143985 0.056244802 0.014129900
0.386083990 0.056031100 0.014038300
0.413610995 0.055436000 0.013839900
0.440802991 0.056214198 0.013763600
0.467352986 0.057190798 0.013702600
0.494697005 0.059662800 0.013611000
0.521736979 0.062165301 0.013412700
0.547662020 0.062775597 0.013153300
0.572793007 0.063294403 0.013031200
0.597131014 0.064820297 0.012893900
0.620873988 0.066834502 0.012817600
0.643213987 0.068818197 0.012878600
0.664057016 0.070710301 0.012909100
0.687036991 0.072571903 0.012848100
0.712718010 0.074326701 0.012680200
0.737774014 0.076295100 0.012665000
0.760555029 0.078278802 0.012756500
0.783429027 0.080445603 0.012802300
0.806240976 0.083268501 0.012817600
0.828962028 0.086060897 0.012802300
0.021515200 0.062836699 0.013641600
0.033676699 0.054032199 0.013153300
0.046891000 0.045166701 0.012222500
0.070161000 0.050110601 0.012542900
0.096314900 0.057328101 0.013107500
0.123383999 0.058884598 0.013244800
0.151842996 0.057511300 0.012954900
0.182437003 0.059815399 0.013000700
0.213793993 0.064759299 0.013504200
0.244663000 0.068131499 0.014007800
0.274585992 0.069199704 0.014206100
0.305698991 0.070191503 0.014328200
0.338277012 0.071625903 0.014465600
0.369406015 0.072861798 0.014541800
0.397222996 0.071946301 0.014541800
0.425222993 0.070420399 0.014328200
0.452627987 0.070618801 0.014175600
0.479773998 0.071259603 0.014114600
0.507012010 0.073578998 0.013916200
0.534340024 0.076005198 0.013595800
0.559181988 0.076081499 0.013229600
0.583245993 0.076340899 0.013092200
0.607294023 0.078263499 0.012954900
0.631510019 0.080994897 0.012893900
0.654688001 0.083360001 0.012893900
0.676966012 0.085099600 0.012802300
0.699809015 0.086854398 0.012695500
0.723628998 0.088334501 0.012558200
0.747066021 0.090180799 0.012466600
0.769298971 0.092301801 0.012542900
0.791454971 0.094621196 0.012558200
0.812633991 0.097123697 0.012619200
0.833645999 0.099595599 0.012619200
0.037018400 0.090119801 0.016739100
0.044449501 0.083360001 0.016266100
0.054123800 0.076676600 0.015243800
0.077302203 0.078705996 0.014740200
0.103974998 0.082902297 0.014465600
0.133470997 0.086411797 0.014465600
0.164828002 0.088532798 0.014282400
0.195041001 0.090089299 0.014374000
0.224383995 0.091569401 0.014709700
0.254292011 0.092286602 0.014923300
0.284610987 0.092149198 0.014877500
0.315647990 0.091584697 0.015060700
0.347463012 0.091493100 0.015075900
0.377920002 0.091035299 0.015045400
0.405553997 0.089204200 0.015030100
0.433477998 0.086625502 0.014801300
0.461631000 0.086137198 0.014618100
0.489769012 0.086274497 0.014465600
0.517387986 0.088593900 0.014221400
0.545022011 0.090974301 0.013901000
0.569298983 0.091111600 0.013641600
0.592615008 0.090867497 0.013427900
0.616753995 0.093278401 0.013260100
0.641458988 0.096467502 0.013122800
0.665812016 0.098710597 0.012924400
0.689783990 0.100144997 0.012665000
0.712642014 0.101563998 0.012527700
0.734157026 0.102830999 0.012390300
0.755810022 0.104463004 0.012314000
0.777935028 0.106981002 0.012268300
0.799709976 0.109499000 0.012237700
0.818601012 0.111284003 0.012344500
0.837567985 0.113160998 0.012436100
0.052552100 0.115479998 0.020004600
0.061234500 0.110215999 0.018509200
0.069962598 0.104737997 0.017090101
0.092393398 0.105485998 0.015747299
0.116625004 0.108231999 0.015045400
0.144915000 0.112214997 0.014877500
0.175752997 0.116609000 0.015060700
0.206897005 0.119645998 0.015365800
0.237811998 0.120973997 0.015732100
0.268635005 0.121035002 0.015823601
0.299488991 0.120333001 0.015747299
0.330143988 0.119249001 0.015793100
0.360493988 0.118028998 0.015716800
0.390096992 0.116655000 0.015640499
0.417120993 0.114046000 0.015533700
0.444617003 0.111574002 0.015381100
0.472770005 0.110536002 0.015198000
0.500846982 0.109834000 0.015014900
0.527337015 0.109865002 0.014709700
0.553825974 0.109986998 0.014404500
0.579003990 0.109696999 0.014084100
0.603784025 0.109788999 0.013778900
0.627680004 0.111482002 0.013565300
0.651208997 0.113237001 0.013366900
0.674937010 0.114762999 0.013138000
0.698512018 0.115938000 0.012863400
0.721111000 0.117417999 0.012710800
0.742335975 0.119020000 0.012512400
0.763836026 0.121035002 0.012359800
0.785687029 0.123475999 0.012298800
0.807079971 0.125810996 0.012283500
0.826200008 0.127092004 0.012298800
0.845197022 0.128343999 0.012253000
0.069031797 0.140535995 0.022034001
0.079285897 0.136583999 0.019851999
0.091493100 0.132906005 0.017654700
0.111695997 0.132829994 0.015793100
0.132326007 0.134492993 0.015045400
0.157259002 0.138368994 0.014892800
0.185367003 0.143739998 0.015060700
0.217105001 0.148653001 0.015671000
0.250750989 0.152132004 0.016388200
0.283223003 0.153170004 0.016662899
0.314839005 0.152758002 0.016556000
0.345342010 0.151430994 0.016525500
0.374410987 0.149217993 0.016388200
0.402731001 0.146669999 0.016296601
0.429708987 0.144396007 0.016174600
0.456580013 0.141772002 0.015991500
0.484351993 0.140168995 0.015747299
0.512062013 0.138399005 0.015518400
0.537118018 0.135286003 0.015289500
0.561821997 0.131411001 0.014984400
0.588478982 0.130831003 0.014557100
0.615472972 0.131518006 0.014190900
0.639063001 0.131623998 0.013901000
0.661005974 0.130982995 0.013611000
0.683283985 0.131044000 0.013427900
0.705637991 0.132052004 0.013214300
0.727855027 0.133745000 0.012954900
0.749722004 0.136338994 0.012710800
0.771466017 0.138871998 0.012558200
0.793026984 0.141360000 0.012481900
0.814266980 0.143481001 0.012420800
0.834104002 0.143953994 0.012268300
0.854124010 0.144701004 0.012085100
0.082887001 0.163683996 0.021820400
0.095521502 0.160952002 0.019562099
0.108704999 0.158251002 0.017425800
0.127290994 0.159380004 0.015823601
0.146165997 0.161578000 0.014755500
0.168566003 0.164888993 0.014602900
0.195041001 0.169481993 0.015075900
0.226978004 0.175830007 0.015777800
0.261523992 0.181520998 0.016525500
0.294499010 0.184450999 0.016937500
0.325810999 0.184313998 0.017029099
0.356175989 0.182895005 0.016983300
0.385152996 0.180834994 0.016907001
0.413625985 0.178470001 0.016800201
0.441107988 0.176332995 0.016632300
0.468528003 0.174289003 0.016372900
0.495963991 0.172793001 0.016052499
0.523400009 0.171022996 0.015762599
0.548210979 0.166720003 0.015472600
0.572975993 0.162279993 0.015365800
0.599756002 0.160341993 0.014831800
0.626917005 0.159990996 0.014587600
0.650552988 0.158572003 0.014297700
0.672479987 0.156785995 0.013962000
0.694728017 0.155534998 0.013611000
0.717051983 0.155413002 0.013382200
0.738689005 0.156389996 0.013168500
0.759654999 0.158861995 0.013046500
0.780636013 0.160830006 0.012878600
0.802227974 0.162478000 0.012665000
0.823529005 0.163928002 0.012466600
0.843792975 0.164553002 0.012222500
0.864041984 0.165408000 0.012069900
0.095811397 0.185442999 0.020386100
0.108994998 0.183734000 0.018524500
0.122560002 0.182116002 0.016708599
0.139985994 0.184664994 0.015487900
0.158129007 0.188418001 0.014740200
0.180087000 0.192111000 0.014602900
0.205768004 0.195604995 0.014969100
0.236895993 0.201693997 0.015869400
0.271519005 0.209170997 0.016281400
0.304143012 0.213596001 0.016708599
0.334264010 0.213946998 0.017135900
0.364019006 0.213137999 0.017273201
0.393545002 0.212436005 0.017196899
0.422659993 0.211230993 0.017105401
0.451407999 0.209978998 0.016952800
0.479804993 0.208529994 0.016662899
0.507012010 0.207385004 0.016357699
0.534218013 0.205982000 0.015991500
0.560037017 0.202761993 0.015655801
0.585824013 0.199374005 0.015350600
0.611855984 0.195712000 0.014953800
0.637750983 0.192461997 0.014679200
0.661783993 0.190065995 0.014419800
0.684809983 0.187685996 0.014053600
0.707912028 0.185550004 0.013733100
0.730831027 0.183580995 0.013412700
0.752040982 0.183474004 0.013183800
0.770839989 0.184878007 0.013290600
0.790417016 0.186038002 0.013199100
0.812345028 0.186450005 0.012741300
0.833935976 0.187030002 0.012390300
0.854153991 0.188402995 0.012268300
0.874310970 0.189943999 0.012115700
0.110521004 0.210056007 0.020340299
0.123461001 0.208835006 0.018432900
0.136171997 0.207736000 0.016769700
0.153139994 0.210803002 0.016006701
0.171084002 0.215671003 0.015625199
0.193118006 0.220370993 0.015228500
0.218584999 0.224886999 0.015182700
0.248447001 0.230914995 0.015869400
0.281376004 0.238193005 0.016311901
0.313679993 0.244282007 0.017013799
0.343968987 0.246738002 0.017502099
0.373784989 0.247806996 0.017685199
0.403037012 0.248385996 0.017395301
0.432029009 0.247700006 0.017273201
0.461219013 0.246571004 0.017029099
0.490119994 0.245379999 0.016647600
0.516853988 0.243579999 0.016372900
0.543496013 0.241809994 0.016144000
0.569848001 0.239199996 0.015716800
0.596414030 0.236423001 0.015304800
0.622170985 0.232074007 0.014999600
0.647517025 0.227237001 0.014770700
0.671458006 0.224169999 0.014358700
0.694895983 0.221759006 0.013824700
0.718379021 0.219027996 0.013550000
0.741741002 0.216402993 0.013504200
0.763073027 0.215014994 0.013473700
0.781459987 0.215641007 0.013397400
0.800716996 0.215777993 0.013214300
0.822263002 0.214846998 0.012802300
0.843564987 0.214237005 0.012466600
0.863507986 0.215197995 0.012405600
0.883391023 0.216051996 0.012298800
0.126467004 0.237902999 0.021835700
0.138537005 0.236515000 0.019714700
0.150744006 0.235644996 0.017837800
0.167208001 0.237979993 0.017532600
0.185076997 0.242984995 0.017593700
0.207752004 0.249638006 0.016434001
0.233997002 0.257618010 0.015381100
0.262118995 0.264499992 0.015518400
0.292241007 0.270999998 0.016418699
0.323720008 0.277011991 0.017364800
0.355870992 0.282765001 0.017929399
0.386083990 0.286244005 0.017990399
0.414115012 0.287999004 0.017639400
0.442023009 0.287616998 0.017303700
0.471107006 0.286381006 0.016922301
0.499641001 0.284061998 0.016418699
0.525505006 0.281453013 0.016311901
0.551019013 0.278232992 0.016311901
0.577782989 0.275577992 0.015793100
0.604471028 0.272480011 0.015228500
0.630365014 0.268406004 0.014953800
0.655680001 0.263752013 0.014740200
0.679454029 0.260502011 0.014145100
0.702280998 0.257618010 0.013229600
0.725673020 0.255115986 0.013107500
0.749432027 0.252566993 0.013717900
0.771695018 0.251071990 0.013855200
0.791409016 0.250492007 0.013214300
0.811489999 0.249821007 0.012695500
0.831921995 0.247455999 0.012649700
0.852353990 0.245593995 0.012558200
0.871716976 0.244282007 0.012558200
0.891202986 0.243426993 0.012573400
0.145540997 0.265843004 0.022644401
0.157152995 0.265094995 0.020782800
0.168795004 0.264468998 0.019165300
0.185016006 0.267201006 0.019043300
0.202181995 0.271259993 0.019195801
0.224658996 0.279163986 0.017929399
0.250003994 0.289067000 0.016418699
0.276387006 0.297719002 0.016296601
0.304006010 0.303974986 0.017425800
0.334553987 0.309682012 0.018493900
0.367285013 0.315876991 0.018890699
0.398047000 0.321262985 0.019012701
0.425498009 0.324131995 0.018829601
0.452627987 0.325093001 0.018341299
0.480720013 0.324346006 0.017792000
0.508736014 0.322728008 0.017120600
0.533729970 0.319599986 0.016907001
0.558709025 0.316166997 0.016754400
0.585381985 0.312855989 0.016098300
0.612389982 0.309879988 0.015365800
0.637948990 0.305837005 0.014938600
0.663187981 0.301793009 0.014679200
0.686793029 0.298054010 0.014038300
0.709697008 0.294910997 0.013244800
0.733058989 0.291951001 0.013077000
0.756832004 0.289052010 0.013778900
0.779416025 0.286747992 0.013824700
0.800351024 0.285618007 0.012832800
0.820966005 0.283879012 0.012176700
0.840955019 0.280734986 0.012253000
0.860837996 0.277500987 0.012329300
0.880246997 0.274708003 0.012329300
0.899488986 0.272067994 0.012405600
0.169146001 0.293843001 0.022049300
0.181383997 0.294575006 0.021377901
0.193866000 0.295520991 0.020721801
0.208575994 0.298267990 0.020370800
0.223819003 0.302067995 0.020157199
0.243472993 0.308553010 0.019394200
0.265704989 0.317829996 0.018631300
0.290028006 0.327596009 0.018799100
0.316197008 0.334859014 0.019775700
0.345663011 0.340642005 0.020691199
0.377676010 0.345708013 0.021164300
0.408286005 0.351110011 0.021423699
0.436300993 0.355657011 0.021637300
0.463645011 0.358662993 0.021530500
0.490714997 0.359822989 0.020874299
0.517738998 0.359914988 0.019989301
0.542442977 0.358343005 0.018936399
0.567207992 0.356130004 0.017883601
0.593560994 0.352880001 0.016983300
0.620279014 0.349247992 0.016144000
0.645335019 0.345921993 0.015487900
0.670054018 0.342640996 0.014831800
0.694194019 0.338979006 0.014633400
0.717983007 0.335301995 0.014602900
0.741343975 0.331333995 0.014313000
0.764384985 0.327214003 0.013855200
0.786541998 0.323964000 0.013260100
0.807446003 0.322010994 0.012604000
0.828305006 0.319707006 0.012008900
0.848874986 0.316074997 0.011795200
0.869306982 0.312595993 0.011612100
0.889113009 0.308643997 0.011642600
0.908751011 0.305195987 0.011795200
0.192386001 0.322057009 0.022217100
0.205477998 0.324025005 0.022247700
0.218967006 0.326496989 0.022400200
0.232593000 0.329061002 0.022018800
0.246296003 0.333012998 0.021591499
0.263767004 0.338887990 0.021133700
0.283024013 0.346731007 0.020874299
0.305332989 0.357091993 0.021271100
0.330312014 0.366124988 0.021957699
0.358343005 0.372334987 0.022766501
0.389075011 0.376302987 0.023407299
0.419348001 0.381018013 0.023956699
0.447439998 0.386510998 0.024506001
0.474617004 0.390706986 0.024582300
0.500633001 0.393317014 0.023804100
0.526543021 0.394903004 0.022934301
0.550912023 0.394735992 0.021484699
0.575540006 0.394003004 0.019851999
0.601251006 0.391027987 0.018829601
0.627344012 0.387778014 0.017868301
0.652049005 0.385152996 0.016922301
0.676523983 0.382512987 0.015960900
0.700877011 0.378697991 0.015854100
0.725444019 0.374731004 0.016357699
0.748866975 0.370077014 0.015854100
0.771526992 0.365209013 0.014419800
0.793377995 0.360983014 0.013458500
0.814252019 0.358662993 0.012954900
0.835171998 0.355778992 0.012481900
0.856442988 0.352102011 0.012161400
0.877470016 0.348028004 0.011810500
0.897626996 0.343679011 0.011795200
0.917571008 0.339269012 0.011734200
0.212512001 0.348318011 0.024170300
0.226429000 0.350926995 0.023682000
0.240832999 0.354330003 0.023254801
0.254139006 0.357351005 0.023590401
0.267628014 0.361180991 0.024170300
0.283879012 0.367498010 0.023682000
0.301822990 0.375874996 0.023056399
0.322683007 0.385733008 0.023056399
0.347050995 0.396032989 0.023559900
0.373753995 0.403616011 0.024475500
0.402837992 0.408834994 0.025467301
0.431510001 0.412665009 0.026413400
0.458685994 0.417181998 0.027069500
0.484717995 0.421317011 0.027115300
0.509635985 0.424369007 0.026733801
0.534431994 0.426001012 0.026215000
0.559105992 0.427069992 0.025497800
0.583871007 0.426795006 0.024704400
0.608469009 0.426093012 0.023605701
0.633265018 0.424551994 0.022293400
0.658396006 0.422506988 0.021515200
0.683772027 0.419759989 0.020874299
0.708446026 0.416204989 0.020172400
0.732554972 0.411749005 0.019424699
0.756282985 0.407889009 0.018692300
0.779370010 0.403845012 0.017761501
0.801281989 0.400548995 0.017044300
0.821042001 0.397513002 0.016174600
0.841534972 0.394629002 0.015640499
0.863783002 0.390935987 0.015762599
0.885863006 0.387320012 0.015899900
0.905806005 0.381963998 0.015213200
0.925719023 0.377065986 0.014572400
0.233768001 0.375265002 0.026459100
0.248523995 0.378805012 0.025436800
0.263172001 0.382405996 0.024475500
0.276661009 0.386251986 0.025589401
0.289829999 0.390356004 0.026993200
0.304829001 0.396551013 0.026550701
0.321034998 0.404913008 0.025528301
0.341069996 0.414983988 0.025330000
0.364538014 0.425345004 0.025848800
0.389883012 0.434103996 0.026642300
0.416907012 0.440726012 0.027588300
0.444007009 0.445028991 0.028671701
0.469855994 0.447928995 0.029495699
0.495124996 0.451330990 0.029861899
0.518958986 0.454001993 0.029922901
0.542931020 0.456474006 0.029846599
0.567696989 0.458213001 0.029770400
0.592660010 0.458885014 0.029694101
0.616006970 0.459769994 0.028320700
0.639596999 0.460348994 0.026733801
0.664927006 0.458929986 0.026077701
0.691004992 0.456717998 0.025757199
0.715556979 0.452917993 0.024490699
0.739436984 0.448493004 0.022781700
0.763104022 0.445212007 0.021667801
0.786679029 0.442434996 0.021240599
0.808331013 0.439368010 0.020645499
0.827359021 0.436392993 0.019653600
0.847470999 0.433111995 0.019012701
0.870832026 0.429816008 0.019668899
0.893644989 0.426016986 0.020019799
0.913694978 0.420493007 0.018738100
0.933516026 0.414938986 0.017532600
0.258807987 0.405386001 0.030670600
0.273564011 0.409078985 0.029968699
0.288197011 0.413352013 0.029510900
0.300846994 0.416433990 0.029541500
0.312992990 0.420706004 0.029922901
0.327291012 0.427085012 0.029572001
0.342397004 0.435202986 0.029205799
0.360356987 0.444326997 0.029236300
0.381139994 0.453711987 0.029587200
0.404471010 0.462882012 0.030228101
0.430518001 0.470741004 0.031235199
0.456427991 0.475470990 0.032211799
0.480872989 0.477744997 0.032959498
0.505393982 0.480369002 0.033539299
0.529304981 0.483267993 0.033798698
0.553032994 0.486411989 0.033676699
0.576943994 0.489311010 0.033783499
0.601022005 0.491385996 0.033508800
0.623239994 0.492163986 0.032333899
0.645730972 0.492316991 0.031006301
0.670497000 0.491843998 0.029633000
0.696238995 0.490990013 0.028290199
0.720454991 0.488059998 0.027512001
0.743938029 0.483756989 0.027039001
0.767575026 0.480399996 0.026215000
0.791164994 0.478217989 0.025345201
0.813198984 0.475593001 0.024750100
0.832807004 0.472647995 0.024551800
0.853468001 0.469886005 0.024414400
0.876967013 0.466834992 0.024689101
0.899946988 0.463629991 0.024887500
0.919920981 0.458442003 0.023575200
0.939849019 0.453422010 0.022445999
0.284153014 0.435903996 0.036286000
0.298817009 0.439779997 0.035431400
0.312977999 0.443931013 0.034912601
0.324726999 0.447257012 0.033814002
0.336003989 0.450904012 0.032944199
0.349386007 0.457464993 0.032837398
0.363377988 0.464973003 0.032974701
0.379476994 0.473181993 0.033173099
0.397817999 0.481590003 0.033234101
0.419333011 0.490943998 0.033920798
0.444343001 0.500069022 0.034973700
0.469291002 0.505837023 0.035904501
0.492302001 0.508018970 0.036499601
0.515830994 0.509833992 0.037003100
0.539726973 0.512444019 0.037354100
0.563546002 0.515861988 0.037323602
0.586618006 0.519447982 0.037506700
0.609826982 0.522606015 0.037354100
0.630961001 0.523200989 0.036377501
0.652293026 0.522971988 0.035355199
0.676661015 0.523934007 0.033188399
0.702022016 0.524559021 0.030762199
0.725733995 0.522072017 0.030487500
0.748866975 0.518333972 0.031326801
0.772212982 0.515403986 0.030960601
0.795894980 0.513710022 0.029541500
0.818143010 0.511497974 0.028976901
0.838270009 0.509070992 0.029709300
0.859311998 0.506431997 0.030090800
0.882811010 0.503838003 0.030106099
0.905806005 0.500710011 0.029953500
0.925917029 0.496452004 0.028641200
0.945876002 0.492072999 0.027450999
0.306416005 0.463203013 0.043625500
0.320378006 0.467247009 0.041733399
0.334295005 0.471686989 0.040100701
0.345982999 0.475165993 0.039047800
0.357641011 0.479270995 0.038300101
0.370229989 0.485038996 0.037293099
0.383763999 0.492484987 0.036682699
0.398824990 0.500252008 0.036591101
0.415778011 0.508750975 0.036987901
0.435294002 0.517799973 0.037613500
0.458517998 0.526757002 0.038300101
0.481819004 0.532464027 0.039078400
0.504417002 0.535713971 0.039932899
0.527489007 0.537881017 0.040894199
0.550545990 0.539894998 0.041504499
0.573464990 0.542457998 0.041687600
0.595879972 0.545662999 0.041840199
0.618021011 0.548501015 0.041580800
0.639245987 0.550316989 0.040619500
0.660562992 0.551048994 0.039307199
0.684031010 0.552590013 0.037796602
0.708185971 0.553353012 0.036209699
0.731441021 0.552132010 0.035599299
0.754481971 0.549553990 0.035416201
0.777568996 0.547600985 0.034699000
0.800670981 0.545861006 0.033295199
0.822660029 0.543678999 0.032501701
0.842648983 0.540749013 0.032440700
0.863600016 0.538231015 0.032547500
0.886731982 0.535866022 0.033127300
0.909560025 0.533546984 0.033554599
0.930022001 0.529121995 0.032715298
0.950378001 0.524909973 0.032318600
0.327672005 0.490074009 0.054444201
0.341237992 0.494284987 0.051331300
0.354238003 0.498786986 0.048508398
0.366490990 0.502388000 0.046601102
0.378363013 0.506935000 0.045655001
0.390828997 0.512596011 0.043167800
0.403219998 0.518929005 0.040741600
0.417715997 0.526879013 0.040238000
0.433584988 0.535423994 0.040711101
0.451637000 0.544044971 0.041199401
0.472571999 0.551765978 0.041489299
0.494560003 0.557960987 0.042145401
0.516669989 0.562920988 0.043473002
0.539207995 0.566079021 0.044739500
0.561227024 0.567314982 0.045426100
0.583597004 0.569436014 0.045868602
0.605172992 0.571449995 0.046021201
0.626718998 0.574074984 0.045853399
0.648020029 0.576485991 0.044708900
0.669565976 0.578621984 0.043228801
0.691874981 0.580269992 0.042358998
0.714838982 0.581414998 0.041825000
0.737545013 0.581048012 0.040772099
0.760571003 0.580193996 0.039566599
0.783276021 0.578972995 0.038300101
0.805752993 0.577400982 0.037048899
0.827314019 0.575021029 0.035935000
0.847195983 0.572061002 0.035141502
0.867856979 0.569314003 0.034958400
0.890561998 0.567758024 0.036102802
0.912977993 0.565483987 0.037109900
0.933806002 0.561334014 0.037109900
0.954542994 0.556832016 0.037201501
0.349905014 0.517234981 0.067322798
0.362890005 0.521095991 0.063767500
