luts/travel_02.cube
TITLE "33x33x33 Adobe/IRIDAS cube 3D LUT exported with GrossGrade v0.2.2 (beta) 64 bit"
DOMAIN_MIN 0 0 0
DOMAIN_MAX 1 1 1
LUT_3D_SIZE 5
0.023559900 0.019897800 0.033005301
0.274280995 0.065018699 0.027542500
0.622446001 0.112184003 0.018509200
0.812237978 0.152192995 0.024185499
0.915862024 0.186496004 0.026199700
0.039612401 0.167909995 0.065049201
0.203982994 0.205736995 0.051361900
0.594521999 0.269291013 0.035110999
0.827114999 0.319279999 0.037094701
0.944761992 0.363180012 0.041107800
0.054825701 0.360478997 0.122423001
0.178714007 0.396932989 0.116288997
0.520484984 0.504112005 0.086106703
0.835264027 0.539590001 0.085786201
0.963943005 0.566308022 0.095826700
0.074204601 0.540932000 0.182849005
0.196857005 0.580467999 0.191623002
0.473320007 0.655588984 0.156480998
0.816906989 0.730265975 0.161256999
0.967269003 0.742335975 0.182071000
0.100388996 0.676234007 0.234150007
0.235492006 0.718195975 0.255497009
0.481498003 0.775615990 0.226978004
0.776440024 0.834607005 0.216906995
0.955229998 0.864499986 0.262897998
0.028870100 0.039429300 0.168672994
0.286853999 0.067414403 0.151720002
0.622552991 0.098985299 0.125292003
0.820447028 0.148149997 0.120958000
0.931501985 0.196734995 0.116898999
0.040649999 0.216480002 0.185183004
0.233264998 0.238848999 0.210253999
0.594186008 0.294391990 0.210329995
0.832319021 0.348423988 0.204760998
0.962065995 0.400992006 0.200366005
0.063431799 0.415105999 0.240680993
0.215274006 0.451896012 0.277134001
0.534843981 0.518302977 0.250506997
0.826489985 0.554116011 0.248875007
0.969787002 0.582787991 0.257954001
0.095445201 0.590157986 0.304143012
0.247165993 0.635568976 0.356633991
0.493506998 0.689051986 0.338979006
0.807781994 0.747233987 0.311315000
0.966690004 0.759441018 0.323063999
0.135256007 0.718928993 0.359456986
0.302296013 0.766261995 0.423162997
0.516731977 0.814054012 0.424201012
0.775708020 0.861570001 0.390401989
0.954818010 0.890317976 0.406149000
0.045746502 0.095094196 0.320362985
0.321965009 0.144472003 0.351781011
0.639750004 0.159624994 0.297672987
0.837247014 0.192553997 0.256870002
0.950667977 0.246799007 0.247943997
0.068314597 0.310979009 0.365559995
0.299519002 0.340368003 0.427863002
0.608011007 0.335042000 0.420156986
0.839033008 0.365209013 0.383031994
0.969726026 0.413352013 0.373495013
0.104722999 0.506690979 0.410421997
0.270466000 0.540962994 0.463721991
0.569374979 0.554803014 0.516822994
0.821805000 0.571496010 0.490074009
0.973174989 0.593285978 0.483893991
0.145219997 0.657571971 0.457114995
0.309406996 0.694864988 0.514945984
0.543251991 0.733134985 0.576654017
0.803417981 0.766261995 0.528541982
0.969817996 0.776287019 0.521522999
0.196048006 0.774136007 0.506600022
0.368963003 0.809903026 0.567605019
0.584115028 0.853573978 0.630258977
0.787427008 0.888502002 0.601404011
0.961638987 0.916808009 0.581215978
0.109132998 0.212299004 0.495292991
0.399969012 0.262196004 0.551079988
0.663630009 0.293949991 0.542504013
0.853116989 0.290912986 0.463721991
0.962630987 0.326009005 0.448478013
0.134356007 0.420812994 0.552986979
0.381505996 0.453101009 0.621209979
0.655192018 0.459830999 0.651315987
0.847043991 0.438345999 0.586313009
0.968750000 0.459616989 0.567818999
0.191577002 0.597940028 0.608042002
0.374044001 0.628977001 0.664134026
0.643000007 0.647517025 0.726162016
0.832624018 0.613915980 0.695475996
0.971922994 0.611231029 0.677255988
0.238299996 0.725277007 0.635080993
0.393209994 0.752071023 0.680155993
0.611932993 0.786037982 0.743098974
0.820614994 0.800687015 0.768474996
0.970489025 0.801526010 0.751368999
0.282611996 0.827252984 0.661494017
0.439047992 0.852522016 0.707316995
0.636851013 0.886641026 0.766444981
0.820797980 0.916746974 0.797466993
0.968123972 0.937667012 0.776760995
0.238773003 0.329091012 0.674052000
0.471121997 0.353841007 0.718563020
0.687036991 0.379934013 0.725933015
0.859449029 0.380284995 0.675273001
0.961302996 0.392538011 0.651713014
0.221545994 0.494316012 0.710947990
0.446173996 0.517098010 0.768779993
0.684458971 0.530510008 0.799542010
0.854642987 0.526679993 0.775310993
0.964248002 0.518073976 0.742168009
0.270390004 0.645349979 0.756069005
0.444799989 0.669749022 0.804089010
0.673395991 0.690867007 0.855557978
0.849241018 0.684153020 0.855085015
0.968765020 0.663218021 0.828015983
0.323536992 0.768092990 0.787442029
0.470176011 0.789075017 0.824567020
0.665521979 0.818172991 0.875699997
0.846737981 0.838070989 0.907561004
0.972198009 0.829984009 0.891736984
0.362295002 0.861738026 0.801846027
0.496131986 0.880429983 0.833370984
0.675731003 0.912642002 0.882963002
0.845991015 0.942870021 0.921446979
0.970474005 0.957167983 0.934370995
