luts/travel_15.cube
TITLE "33x33x33 Adobe/IRIDAS cube 3D LUT exported with GrossGrade v0.2.2 (beta) 64 bit"
DOMAIN_MIN 0 0 0
DOMAIN_MAX 1 1 1
LUT_3D_SIZE 33
0.001724270 0.000732433 0.000534066
0.018539701 0.000839246 0.000106813
0.030823199 0.001571680 0.000137331
0.044449501 0.002990770 0.000366217
0.058731999 0.004608220 0.000732433
0.073426403 0.006240940 0.001190200
0.089433096 0.007995730 0.002059970
0.106827997 0.009918360 0.003158620
0.125276998 0.011963100 0.004226750
0.145052001 0.014602900 0.005416950
0.166246995 0.017181700 0.006622420
0.188846007 0.020050401 0.007980470
0.212650001 0.022659600 0.009185930
0.237445995 0.025192600 0.010406700
0.263462007 0.027603600 0.011627400
0.290333003 0.029816100 0.012726000
0.317524999 0.031677701 0.013824700
0.345037013 0.033554599 0.015243800
0.372503012 0.035767101 0.017151101
0.400121987 0.038086500 0.019668899
0.427938998 0.040497400 0.022552799
0.455924004 0.042908400 0.025955601
0.484030992 0.045242999 0.029449901
0.512351990 0.047882799 0.033066299
0.540687978 0.050263200 0.036896300
0.569222987 0.052597798 0.041031498
0.597909987 0.055725899 0.045426100
0.626703024 0.059113499 0.050064899
0.655497015 0.063096099 0.054886699
0.684397995 0.067261800 0.059967998
0.713236988 0.071366400 0.065186501
0.742199004 0.075608499 0.070573002
0.771130025 0.079957299 0.075928897
0.001678490 0.012268300 0.000244144
0.014572400 0.013595800 0.000320439
0.028885299 0.015671000 0.000549325
0.043900199 0.017837800 0.000946059
0.059601702 0.020050401 0.001449610
0.076050997 0.022339201 0.001998930
0.093507297 0.024704400 0.002563520
0.112199999 0.027054200 0.003356980
0.131974995 0.029495699 0.004348820
0.152682006 0.032166000 0.005401690
0.174623996 0.034882098 0.006729230
0.197542995 0.037201501 0.007797360
0.221682996 0.039566599 0.009063860
0.246967003 0.041931801 0.010132000
0.272846997 0.044068102 0.011306900
0.299306005 0.046250101 0.012405600
0.326375008 0.047974400 0.013595800
0.353780001 0.049424000 0.014770700
0.381291986 0.050888799 0.015808299
0.409215987 0.052216399 0.017181700
0.437263012 0.053284500 0.018600700
0.465278000 0.054642599 0.020782800
0.493324012 0.056916200 0.024002399
0.521416008 0.059144001 0.027618799
0.549676001 0.061921101 0.032074500
0.578134000 0.064759299 0.036819998
0.606455028 0.067933202 0.041840199
0.635034978 0.071366400 0.046936799
0.663554013 0.075379603 0.052048501
0.692210019 0.079407997 0.057358701
0.720881999 0.084000900 0.062882401
0.749615014 0.088151403 0.068390898
0.778316975 0.092469700 0.073975697
0.002426180 0.026108200 0.000427253
0.015411600 0.028091900 0.000732433
0.029785600 0.030212900 0.001113910
0.045273501 0.032791600 0.001663230
0.061737999 0.035507701 0.002212560
0.079163797 0.038300101 0.002761880
0.097703502 0.041229900 0.003356980
0.117509998 0.044022299 0.004028380
0.138322994 0.046829902 0.004745560
0.159944996 0.049591798 0.005539030
0.182574004 0.052277401 0.006591900
0.206286997 0.054657798 0.007629510
0.230960995 0.057221301 0.008834970
0.256274998 0.059372898 0.009964140
0.282337993 0.061600700 0.011017000
0.308858007 0.063706398 0.012100400
0.335606992 0.065598503 0.013290600
0.362737000 0.067246497 0.014419800
0.390157998 0.068802901 0.015518400
0.417944998 0.070176199 0.016830700
0.445838004 0.071519002 0.018112499
0.473823011 0.072816104 0.019607799
0.502067983 0.074051999 0.021347400
0.530541003 0.075165898 0.023300501
0.558983982 0.076707102 0.026459100
0.587441981 0.078797601 0.030609600
0.615839005 0.081254303 0.035355199
0.644221008 0.084580801 0.040940002
0.672541022 0.088395499 0.046799399
0.700999022 0.092484899 0.052750401
0.729335010 0.096986301 0.058716699
0.757808983 0.101471998 0.064682998
0.786221027 0.105576999 0.070450902
0.004348820 0.040100701 0.001037610
0.017395301 0.042191200 0.001388570
0.031998198 0.044937801 0.001892120
0.047180898 0.047669198 0.002517740
0.063935302 0.050797299 0.002990770
0.081986703 0.054123800 0.003494320
0.101640001 0.057663798 0.004165710
0.122621000 0.060990300 0.004776070
0.144548997 0.064240500 0.005401690
0.167284995 0.067216001 0.006042570
0.190906003 0.070161000 0.006790260
0.215259001 0.072922900 0.007705810
0.240360007 0.075700000 0.008850230
0.265980005 0.078004099 0.009842070
0.292088002 0.080201402 0.010910200
0.318502009 0.082398698 0.011978300
0.345158994 0.084428199 0.013183800
0.372213006 0.086411797 0.014389300
0.399450988 0.088242903 0.015610000
0.426993012 0.089967199 0.016922301
0.454535991 0.091752499 0.018234501
0.482383013 0.093522497 0.019638401
0.510520995 0.095063701 0.021164300
0.539054990 0.096543796 0.022980100
0.567514002 0.097962901 0.025162101
0.596032977 0.099183597 0.027679900
0.624643028 0.100359000 0.030594300
0.653239012 0.102036998 0.034576900
0.681864977 0.104128003 0.039078400
0.710353017 0.106827997 0.044708900
0.738582015 0.110628001 0.051361900
0.766842008 0.115006998 0.058091100
0.794995010 0.119539000 0.064484604
0.006698710 0.054261100 0.001678490
0.019729899 0.056260001 0.002075230
0.034531198 0.059845898 0.002655070
0.049744401 0.062867202 0.003265430
0.066559903 0.066025801 0.003738460
0.084779099 0.069535397 0.004287790
0.104952000 0.073518001 0.004852370
0.127198994 0.077897303 0.005386430
0.150454000 0.081864700 0.006012050
0.174532995 0.085526802 0.006668190
0.199267998 0.089021102 0.007293810
0.224445000 0.092210300 0.008026250
0.250050008 0.095231600 0.008987560
0.275974989 0.097871400 0.010025200
0.302219987 0.100281999 0.011032300
0.328664005 0.102525003 0.012176700
0.355199993 0.104799002 0.013412700
0.382100999 0.107088000 0.014709700
0.409170985 0.109194003 0.015960900
0.436392993 0.111359999 0.017242700
0.463766992 0.113541998 0.018585499
0.491508007 0.115754999 0.020157199
0.519523978 0.117876001 0.021820400
0.547845006 0.119889997 0.023682000
0.575967014 0.121843003 0.025665700
0.604349017 0.123582996 0.027908800
0.632836998 0.125047997 0.030258600
0.661539972 0.126359999 0.033188399
0.690257013 0.127519995 0.036423299
0.719004989 0.128801003 0.040176999
0.747538984 0.130465001 0.044617400
0.776073992 0.132478997 0.049485002
0.804395020 0.134645998 0.054703601
0.009704740 0.069123402 0.002395670
0.022507099 0.070847601 0.002792400
0.037003100 0.074723400 0.003372240
0.052506302 0.078202501 0.003952090
0.069214903 0.081574701 0.004501410
0.087540999 0.085374199 0.005035480
0.108034000 0.089723103 0.005584800
0.130877003 0.094682202 0.006118870
0.155428007 0.099763498 0.006713970
0.180941001 0.104524001 0.007293810
0.206928000 0.108750999 0.007919430
0.233218998 0.112595998 0.008529790
0.259647995 0.116013996 0.009369040
0.286060989 0.118989997 0.010345600
0.312626988 0.121675000 0.011474800
0.339040011 0.124178000 0.012680200
0.365559995 0.126756996 0.013901000
0.392325014 0.129182994 0.015243800
0.419104010 0.131608993 0.016434001
0.446204007 0.134112000 0.017822500
0.473547995 0.136629000 0.019363699
0.501151979 0.139146999 0.021057500
0.528922975 0.141740993 0.022888500
0.556892991 0.144273996 0.024734899
0.584740996 0.146669999 0.026871100
0.612893999 0.148912996 0.029251499
0.641215026 0.151019007 0.031753998
0.669749022 0.152833998 0.034454901
0.698221982 0.154376000 0.037247300
0.726801991 0.155779004 0.040009201
0.755428016 0.156831995 0.042954098
0.784099996 0.157548994 0.046082199
0.812633991 0.158235997 0.049607102
0.013153300 0.084824897 0.003189140
0.025665700 0.086228698 0.003540090
0.039429300 0.089539900 0.004043640
0.055100299 0.093797199 0.004638740
0.072221003 0.097840801 0.005203330
0.090592802 0.101807997 0.005798430
0.110978998 0.106310003 0.006378270
0.134187996 0.111803003 0.006897080
0.159685999 0.117951997 0.007446400
0.186434999 0.123842001 0.007949950
0.213580996 0.129122004 0.008514530
0.241062000 0.133882999 0.009079120
0.268391013 0.138003007 0.009948880
0.295368999 0.141558006 0.010894900
0.322286010 0.144639999 0.012054600
0.349065006 0.147539005 0.013229600
0.375813991 0.150255993 0.014480800
0.402608991 0.152987003 0.015915200
0.429511011 0.155488998 0.017227400
0.456564993 0.158206001 0.018738100
0.483803004 0.161044002 0.020386100
0.511161983 0.163850993 0.022186600
0.538460016 0.166598007 0.024139799
0.566110015 0.169435993 0.026138701
0.593743980 0.172137007 0.028336000
0.621653020 0.174761996 0.030853700
0.649653018 0.177187994 0.033447798
0.677882016 0.179370001 0.036133401
0.706064999 0.181628004 0.038864698
0.734400988 0.183596998 0.041535102
0.762782991 0.185213998 0.044296902
0.791164994 0.186633006 0.047043599
0.819471002 0.187564000 0.049805399
0.016876500 0.101044998 0.004013120
0.029099001 0.102388002 0.004303040
0.042023301 0.104768001 0.004715040
0.057328101 0.109438002 0.005264360
0.074799702 0.114321001 0.005859460
0.093675099 0.118822001 0.006469830
0.114289999 0.123751000 0.007064930
0.137330994 0.129564002 0.007675290
0.163256004 0.136294007 0.008255130
0.190981999 0.143175006 0.008728160
0.219332993 0.149706006 0.009140150
0.247730002 0.155443996 0.009704740
0.276035994 0.160647005 0.010559200
0.303777009 0.164920002 0.011612100
0.331272990 0.168642998 0.012863400
0.358419001 0.171984002 0.014068800
0.385443002 0.175006002 0.015335300
0.412436008 0.177935004 0.016784901
0.439399004 0.180666998 0.018280299
0.466621011 0.183458999 0.019958800
0.493660003 0.186358005 0.021622000
0.520835996 0.189242005 0.023483600
0.547996998 0.192172006 0.025528301
0.575311005 0.195116997 0.027679900
0.602807999 0.198108003 0.030014500
0.630442023 0.200916007 0.032623801
0.658106029 0.203571007 0.035187300
0.685968995 0.206165001 0.037811901
0.713817000 0.208606005 0.040482201
0.741771996 0.210941002 0.043122001
0.769923985 0.212879002 0.045792300
0.797924995 0.214785993 0.048554201
0.825878978 0.216266006 0.051300801
0.020324999 0.117936999 0.004852370
0.032410201 0.119539000 0.005127030
0.045044601 0.121446997 0.005432210
0.059662800 0.125352994 0.005859460
0.077058099 0.130769998 0.006500340
0.096726902 0.136294007 0.007171740
0.117753997 0.141740993 0.007888910
0.140748993 0.147845000 0.008621350
0.166552007 0.154939994 0.009308000
0.194658995 0.162570000 0.009704740
0.224154994 0.170199007 0.009948880
0.253558993 0.177264005 0.010452400
0.282689005 0.183566004 0.011398500
0.311253995 0.188723996 0.012420800
0.339376003 0.193316996 0.013748400
0.367040992 0.197176993 0.015060700
0.394414991 0.200717002 0.016434001
0.421606988 0.203890994 0.017898800
0.448675990 0.206866995 0.019501001
0.475699991 0.209689006 0.021179499
0.502739012 0.212650001 0.022964800
0.529824018 0.215563998 0.024902700
0.557030976 0.218447998 0.027023699
0.584236979 0.221347004 0.029282100
0.611566007 0.224231005 0.031815100
0.638987005 0.227192000 0.034363300
0.666392028 0.230076000 0.036911599
0.693827987 0.232822001 0.039475098
0.721415997 0.235553995 0.042069100
0.749050021 0.238024995 0.044708900
0.776776016 0.240208000 0.047364000
0.804561973 0.242191002 0.050019100
0.832044005 0.244021997 0.052689400
0.023910901 0.135575995 0.005600060
0.035935000 0.137224004 0.005844210
0.048676301 0.139146999 0.006164640
0.062790900 0.142260000 0.006591900
0.079530001 0.147645995 0.007171740
0.099580400 0.154054999 0.007965210
0.121339999 0.160235003 0.008819720
0.144427001 0.166583002 0.009643700
0.170030996 0.173922002 0.010360900
0.198092997 0.182100996 0.010833900
0.227984995 0.190660998 0.011108600
0.258381009 0.198779002 0.011459500
0.288349986 0.206148997 0.012497100
0.317600995 0.212604001 0.013427900
0.346394986 0.218067005 0.014709700
0.374547988 0.222782001 0.016022000
0.402182013 0.226763994 0.017441100
0.429663986 0.230288997 0.019073799
0.456793994 0.233555004 0.020752300
0.483864009 0.236576006 0.022537600
0.510825992 0.239506006 0.024444999
0.537986994 0.242450997 0.026459100
0.565164030 0.245318994 0.028687000
0.592415988 0.248202994 0.030899500
0.619593024 0.251026005 0.033478301
0.646799028 0.253787994 0.036026601
0.674082994 0.256641001 0.038529001
0.701426983 0.259402990 0.041107800
0.728679001 0.262042999 0.043656100
0.756053984 0.264454007 0.046250101
0.783336997 0.266788989 0.048813600
0.810651004 0.269032001 0.051377099
0.837918997 0.270938993 0.054001700
0.027740899 0.153841004 0.006256200
0.039902300 0.155459002 0.006546120
0.052613098 0.157305002 0.006942860
0.066224203 0.159655005 0.007339590
0.082673401 0.164980993 0.007934690
0.102509998 0.172122002 0.008773940
0.124909997 0.179339007 0.009720000
0.148607999 0.186130002 0.010650800
0.173877001 0.193469003 0.011474800
0.201647997 0.201876998 0.012130900
0.231479004 0.211016998 0.012573400
0.262225986 0.220065996 0.013000700
0.293049991 0.228518993 0.013794200
0.322896004 0.235919997 0.014648700
0.352162987 0.242603004 0.015869400
0.380591005 0.248188004 0.017196899
0.408499002 0.252871990 0.018600700
0.436132997 0.256931007 0.020264000
0.463385999 0.260426015 0.022003500
0.490622997 0.263767004 0.023895601
0.517890990 0.266864985 0.025925100
0.545129001 0.269870996 0.028198700
0.572350979 0.272709012 0.030396000
0.599542022 0.275485992 0.032745901
0.626657009 0.278248012 0.035050001
0.653819025 0.281010002 0.037506700
0.680994987 0.283573985 0.040085401
0.708155990 0.286152005 0.042603198
0.735149026 0.288623989 0.045029402
0.762248993 0.291004986 0.047501300
0.789287984 0.293233007 0.050080098
0.816372991 0.295475990 0.052658901
0.843473017 0.297414005 0.055222400
0.032303300 0.173068002 0.007202260
0.044480000 0.174609005 0.007476920
0.056778800 0.176302999 0.007751580
0.070359297 0.178515002 0.008178840
0.086167701 0.182817996 0.008773940
0.105608001 0.190280005 0.009613180
0.128679007 0.198825002 0.010727100
0.153399006 0.206591994 0.011749400
0.178561002 0.213825002 0.012787100
0.205782995 0.222048998 0.013641600
0.235355005 0.231509998 0.014221400
0.265980005 0.241154000 0.014679200
0.296956003 0.250492007 0.015426900
0.327320993 0.258915007 0.016495001
0.356878012 0.266422987 0.017608900
0.385580003 0.272922993 0.018829601
0.413641989 0.278508008 0.020019799
0.441291004 0.283100992 0.021591499
0.468879014 0.287312001 0.023392100
0.496315002 0.290989995 0.025436800
0.523598015 0.294301003 0.027435699
0.550912023 0.297352999 0.029572001
0.578041971 0.300114006 0.031906601
0.605264008 0.302875996 0.034286998
0.632273018 0.305485994 0.036636900
0.659341991 0.307987988 0.039078400
0.686366022 0.310490996 0.041428201
0.713389993 0.312886000 0.043854401
0.740368009 0.315160006 0.046295900
0.767422020 0.317357004 0.048752598
0.794475973 0.319584996 0.051316101
0.821575999 0.321613997 0.053879600
0.848568976 0.323507011 0.056473602
0.037583001 0.192935005 0.008148320
0.049469799 0.194490999 0.008392460
0.061799001 0.196307003 0.008682380
0.075242199 0.198504999 0.009124900
0.090745397 0.202227995 0.009720000
0.110048003 0.209536999 0.010650800
0.133394003 0.218921006 0.011856300
0.158739999 0.227741003 0.013061700
0.184435993 0.235415995 0.014404500
0.211002007 0.243244007 0.015304800
0.239917994 0.252398998 0.016037200
0.270206988 0.262394011 0.016662899
0.300846994 0.272235990 0.017639400
0.331212014 0.281468004 0.018677000
0.360936999 0.289815009 0.019729899
0.389775991 0.297093004 0.020721801
0.417959988 0.303487003 0.021911999
0.445654988 0.308995008 0.023407299
0.473197997 0.313755989 0.025009500
0.500633001 0.317844987 0.026794801
0.527854979 0.321415991 0.028671701
0.555092990 0.324665993 0.030853700
0.582269013 0.327565014 0.033218902
0.609444976 0.330175012 0.035568800
0.636529982 0.332753003 0.037872899
0.663614988 0.335180014 0.040299099
0.690684021 0.337498993 0.042694699
0.717769027 0.339711994 0.045090400
0.744853973 0.341863006 0.047470801
0.771907985 0.343892992 0.049866501
0.798961997 0.345892012 0.052338399
0.826093018 0.347799003 0.054932501
0.853208005 0.349629998 0.057618100
0.043244101 0.213733003 0.009155410
0.055008799 0.215351000 0.009460590
0.067490697 0.217181996 0.009811550
0.080857597 0.219332993 0.010238800
0.096299700 0.222903997 0.010894900
0.115769997 0.230334997 0.011902000
0.139268994 0.240085006 0.013199100
0.165148005 0.249606997 0.014679200
0.191561997 0.258029997 0.016159300
0.217669994 0.265522003 0.017334200
0.245685995 0.274280995 0.018402399
0.275074005 0.283879012 0.019241599
0.305240989 0.293873012 0.020202899
0.335180014 0.303532004 0.021301599
0.364721000 0.312489986 0.022354500
0.393561006 0.320562005 0.023437900
0.421636999 0.327580988 0.024551800
0.449225992 0.333806008 0.025742000
0.476570010 0.339161992 0.027054200
0.503898978 0.343908012 0.028549600
0.531059980 0.347874999 0.030212900
0.558236003 0.351431012 0.032166000
0.585367024 0.354497999 0.034332801
0.612573028 0.357259005 0.036682699
0.639734983 0.359869003 0.039047800
0.666880012 0.362066001 0.041413002
0.694056988 0.364369988 0.043823902
0.721293986 0.366490990 0.046234801
0.748470008 0.368582010 0.048645802
0.775631011 0.370398015 0.051041398
0.802823007 0.372289985 0.053574398
0.830075979 0.374089986 0.056122702
0.857205987 0.375768989 0.058686201
0.049698599 0.235630006 0.010513500
0.061188702 0.237216994 0.010803400
0.073914699 0.239032999 0.011200100
0.087418899 0.241199002 0.011657900
0.102738999 0.244571999 0.012268300
0.122408003 0.252032995 0.013382200
0.146241993 0.262333006 0.014847000
0.172625005 0.272525996 0.016479701
0.199832007 0.281453013 0.018188801
0.226078004 0.289142996 0.019714700
0.252826989 0.297017008 0.021088000
0.281239003 0.306035012 0.022171400
0.310261995 0.315602005 0.023041099
0.339498013 0.325307012 0.024155000
0.368582010 0.334706992 0.025543600
0.397024006 0.343252003 0.026749101
0.424825996 0.350834996 0.027740899
0.452185988 0.357609987 0.028732700
0.479209989 0.363591999 0.029800899
0.506218016 0.368901998 0.030945299
0.533317983 0.373510003 0.032394901
0.560432971 0.377371013 0.033981800
0.587625027 0.380957007 0.035889201
0.614847004 0.383993000 0.037964400
0.642023027 0.386541992 0.040070198
0.669305980 0.388951987 0.042358998
0.696559012 0.391196012 0.044815701
0.723933995 0.393346995 0.047211401
0.751263022 0.395163000 0.049698599
0.778698027 0.397116005 0.052170601
0.806043029 0.398871005 0.054688301
0.833356023 0.400519013 0.057236601
0.860578001 0.402045012 0.059769601
0.057328101 0.258396000 0.012176700
0.069092900 0.260075003 0.012527700
0.081574701 0.261905998 0.012878600
0.095246799 0.264041990 0.013351600
0.110567003 0.267567009 0.014007800
0.130357996 0.275043994 0.015167500
0.154696003 0.285694987 0.016876500
0.181537002 0.296391010 0.018829601
0.209215999 0.305776000 0.020767501
0.235644996 0.313542008 0.022491800
0.261768997 0.320820987 0.024048200
0.288655013 0.328893006 0.025467301
0.316487014 0.337942004 0.026520200
0.344579011 0.347158015 0.027878201
0.372732013 0.356420010 0.029129500
0.400610000 0.365377009 0.030350201
0.427863002 0.373342007 0.031448800
0.454764992 0.380391985 0.032288101
0.481453001 0.386862010 0.033173099
0.508095026 0.392675996 0.034149699
0.534812987 0.397848010 0.035202600
0.561821997 0.402364999 0.036484301
0.588936985 0.406302005 0.038010199
0.616235971 0.409781009 0.039642900
0.643534005 0.412802011 0.041458800
0.670862973 0.415259004 0.043488201
0.698283017 0.417699993 0.045715999
0.725902021 0.419820994 0.048233800
0.753413975 0.421804994 0.050690498
0.781002998 0.423712999 0.053208198
0.808498979 0.425345004 0.055725899
0.836010993 0.426977992 0.058274198
0.863232970 0.428366989 0.060700402
0.065629102 0.281834006 0.015030100
0.077546403 0.283573985 0.015304800
0.090074003 0.285465986 0.015686300
0.103928998 0.287616998 0.016083000
0.120180003 0.291920006 0.016891699
0.140246004 0.299825013 0.018280299
0.164537996 0.310292006 0.020111401
0.191637993 0.320973992 0.022339201
0.219638005 0.330677986 0.024506001
0.246708006 0.338780999 0.026382800
0.272022992 0.345479995 0.027801899
0.297596991 0.352651000 0.029251499
0.323980004 0.360677987 0.030640099
0.350896001 0.369360000 0.032089699
0.377813011 0.378194988 0.033356201
0.404500991 0.386770010 0.034515899
0.431066990 0.394964993 0.035492498
0.457298011 0.402502000 0.036331698
0.483420998 0.409139991 0.037033599
0.509621024 0.415304989 0.037827101
0.535897017 0.420874000 0.038620599
0.562524021 0.425956011 0.039566599
0.589456022 0.430442005 0.040680598
0.616648018 0.434484988 0.041825000
0.644052982 0.437979996 0.043152500
0.671640992 0.441062003 0.044785202
0.699244976 0.443731993 0.046616301
0.726970017 0.445975006 0.048950899
0.754649997 0.448080987 0.051346600
0.782391012 0.450004011 0.053788099
0.810039997 0.451727986 0.056305800
0.837629020 0.453330010 0.058762498
0.864804983 0.454733998 0.061005600
0.074891299 0.305882007 0.019180600
0.086655997 0.307576001 0.019409500
0.099702403 0.309545010 0.019851999
0.113649003 0.311940014 0.020264000
0.130648002 0.317036986 0.021347400
0.151736006 0.325612009 0.023056399
0.176226005 0.335972995 0.025116401
0.203036994 0.346486986 0.027466200
0.231128007 0.356191009 0.029770400
0.258686006 0.364813000 0.031799801
0.283589005 0.371098995 0.033035800
0.308079988 0.377462000 0.034271799
0.332967013 0.384481996 0.035583999
0.358251005 0.391943008 0.036926799
0.383902013 0.400121987 0.038040701
0.409323007 0.408147991 0.039154600
0.434606999 0.415975988 0.040146500
0.459968001 0.423606008 0.040970501
0.485327989 0.430685997 0.041519798
0.510994017 0.436957002 0.041962299
0.536782026 0.442999989 0.042542201
0.562951028 0.448493004 0.043060999
0.589516997 0.453590006 0.043762900
0.616571009 0.458121985 0.044541098
0.643899977 0.462287009 0.045410801
0.671580017 0.465842992 0.046646800
0.699320972 0.469031990 0.048081201
0.727306008 0.471733004 0.049820699
0.755137980 0.474022001 0.051819600
0.783061981 0.476157993 0.054154299
0.810773015 0.478049994 0.056443099
0.838375986 0.479667008 0.058579400
0.865491986 0.481085986 0.060456201
0.084840201 0.330220014 0.024399200
0.096986301 0.331898987 0.024689101
0.109803997 0.333867013 0.025146900
0.124773003 0.337345988 0.025986100
0.142472997 0.343282014 0.027405201
0.164111003 0.351918995 0.029358400
0.188951999 0.362280011 0.031708200
0.215549007 0.372534007 0.034134399
0.243595004 0.382100999 0.036621701
0.271335989 0.390845001 0.038727399
0.296207994 0.397192001 0.039871801
0.319676995 0.402761996 0.040772099
0.343313009 0.408881009 0.041672401
0.366903007 0.415259004 0.042542201
0.390845001 0.422262996 0.043427199
0.414983988 0.429571986 0.044281699
0.438986987 0.436834991 0.045136198
0.463218004 0.444099009 0.045899101
0.487693995 0.451209009 0.046585798
0.512427986 0.457846999 0.046845201
0.537652016 0.464134008 0.046936799
0.563377976 0.470068991 0.047165599
0.589547992 0.475578010 0.047470801
0.616250992 0.480751008 0.047913302
0.643441975 0.485419989 0.048416901
0.671015978 0.489569992 0.049240898
0.698877990 0.493308991 0.050217401
0.726939976 0.496650994 0.051438201
0.754939973 0.499366999 0.052826699
0.783001006 0.501883984 0.054474700
0.810833991 0.503913999 0.056229498
0.838361025 0.505668998 0.057862200
0.865460992 0.507332027 0.059266001
0.095719799 0.354833007 0.031220000
0.108019002 0.356633991 0.031570900
0.121324003 0.359030008 0.032074500
0.137284994 0.363911986 0.033295199
0.156389996 0.370808989 0.035187300
0.178362995 0.379355013 0.037445601
0.203021005 0.389196992 0.040024400
0.229556993 0.399008006 0.042709999
0.257068992 0.408347011 0.045166701
0.284305990 0.416754007 0.047196198
0.309498996 0.423467994 0.048386399
0.332035989 0.428335994 0.048813600
0.354512990 0.433555007 0.049210299
0.376805991 0.439016998 0.049424000
0.399161011 0.444891989 0.049820699
0.421575993 0.451225013 0.050156400
0.444175005 0.457740009 0.050553098
0.467231005 0.464484990 0.051117700
0.490639001 0.471336007 0.051773898
0.514487982 0.478065014 0.052140102
0.538780987 0.484474003 0.052262101
0.563805997 0.490684003 0.052109599
0.589487016 0.496619999 0.051789101
0.615885019 0.502265990 0.051804401
0.642695010 0.507515013 0.052033301
0.670145988 0.512291014 0.052338399
0.697932005 0.516593993 0.052857298
0.725962996 0.520470023 0.053589702
0.754069984 0.523856997 0.054337401
0.782222986 0.526710987 0.055161402
0.810132027 0.529273987 0.055970099
0.837841988 0.531455994 0.056916200
0.865049005 0.533303022 0.057953801
0.107637003 0.379613996 0.039261501
0.120058000 0.381720006 0.039810799
