luts/travel_04.cube
TITLE "33x33x33 Adobe/IRIDAS cube 3D LUT exported with GrossGrade v0.2.2 (beta) 64 bit"
DOMAIN_MIN 0 0 0
DOMAIN_MAX 1 1 1
LUT_3D_SIZE 33
0.008316170 0.019119600 0.025635200
0.018631300 0.019912999 0.026092900
0.031052100 0.020874299 0.026642300
0.047409799 0.022507099 0.027710401
0.066117302 0.024429699 0.028992100
0.088212401 0.026504900 0.030319700
0.111253999 0.028595399 0.031631999
0.135575995 0.030701200 0.032929000
0.162524000 0.032440700 0.033814002
0.190660998 0.034042899 0.034531198
0.223468006 0.037216801 0.034866899
0.258244008 0.042221699 0.036575899
0.294957012 0.045593999 0.037460901
0.331395000 0.048538901 0.037842400
0.367848992 0.050461601 0.037994999
0.402074993 0.052552100 0.038284902
0.435202986 0.054627299 0.038696900
0.465110004 0.057740100 0.039703999
0.493995994 0.060868200 0.040985700
0.520577013 0.064454101 0.042740501
0.546577990 0.068238303 0.044602100
0.572076023 0.071595304 0.046326399
0.597314000 0.075562701 0.048416901
0.622353971 0.079774201 0.050537899
0.646784008 0.084077202 0.052994601
0.670817018 0.088303998 0.055664901
0.694881022 0.093156300 0.058350500
0.719035983 0.098145999 0.060883500
0.742626011 0.103609003 0.063843697
0.762524009 0.107300997 0.065873198
0.778026998 0.109102003 0.066956602
0.787685990 0.110292003 0.067811102
0.787930012 0.110918000 0.068436697
0.009918360 0.029129500 0.027710401
0.009536890 0.026688000 0.027206801
0.026169199 0.025299501 0.027237400
0.043915499 0.025650401 0.027969800
0.063859001 0.027908800 0.029358400
0.086686499 0.030853700 0.030838501
0.110399000 0.034103900 0.032349098
0.135591999 0.037399899 0.033814002
0.164157003 0.041443501 0.035034701
0.194490999 0.045670301 0.036041800
0.228350997 0.050064899 0.036408000
0.262394011 0.054138999 0.036499601
0.298009008 0.056900900 0.037201501
0.333683997 0.059372898 0.037613500
0.369406015 0.061142899 0.037872899
0.403219998 0.062973998 0.038178101
0.435950011 0.064835601 0.038620599
0.465171009 0.067765303 0.039719202
0.493827999 0.071091801 0.041199401
0.519966006 0.074723400 0.043015201
0.545738995 0.078263499 0.044907302
0.570900977 0.082001999 0.046906199
0.596077979 0.085633598 0.048859399
0.621240973 0.090043500 0.050965101
0.646036029 0.094239697 0.053345501
0.670710027 0.098497003 0.055787001
0.694682002 0.103318997 0.058350500
0.718852997 0.108171001 0.061081901
0.742488980 0.113802001 0.064118400
0.762600005 0.118120000 0.066407301
0.778042018 0.120012000 0.067582197
0.788250983 0.120897003 0.068406202
0.788464010 0.121569000 0.069062300
0.011886800 0.041336700 0.030258600
0.011673200 0.039993901 0.029968699
0.021896699 0.039337799 0.029739801
0.041428201 0.040146500 0.029999200
0.063782699 0.042343799 0.031372599
0.087632596 0.045304000 0.032883201
0.112260997 0.048706800 0.034424402
0.137957007 0.052170601 0.035874002
0.166461006 0.055695400 0.036957301
0.196887001 0.059342299 0.037842400
0.230320007 0.062500998 0.037918702
0.264178991 0.065323897 0.037750799
0.299106985 0.067704298 0.037109900
0.334264010 0.069611698 0.037125200
0.369726002 0.071534298 0.037399899
0.403097987 0.073380597 0.037827101
0.435476989 0.075150698 0.038437501
0.464529991 0.077790499 0.039597198
0.492760003 0.081178002 0.040878899
0.518836975 0.085008003 0.042679500
0.544655979 0.088853300 0.044617400
0.569985986 0.092500202 0.046509501
0.595162988 0.096620098 0.048569500
0.620522976 0.100694001 0.050690498
0.645425975 0.105333000 0.053147200
0.670145988 0.109590001 0.055542801
0.694575012 0.114260003 0.058396298
0.718593001 0.119462997 0.061127599
0.742657006 0.125475004 0.064316802
0.763957977 0.130174994 0.066987097
0.779141009 0.132189006 0.068146802
0.789029002 0.133257002 0.069047101
0.789242029 0.133944005 0.069886297
0.014236700 0.057618100 0.034760099
0.014129900 0.056717802 0.034424402
0.019806201 0.056717802 0.033875000
0.039017301 0.058365799 0.032929000
0.063111298 0.060196798 0.033951301
0.087647803 0.062561996 0.035309400
0.112062000 0.065522201 0.036759000
0.138185993 0.068787701 0.038116999
0.166612998 0.071854703 0.039124101
0.197359994 0.074906498 0.039825998
0.230900005 0.077531099 0.039719202
0.264973015 0.079880998 0.039352998
0.299809009 0.081803598 0.038437501
0.334767997 0.083894096 0.037399899
0.369374990 0.085435301 0.036530100
0.402716011 0.087418899 0.036896300
0.435003996 0.089677297 0.037491400
0.464026988 0.092393398 0.038712099
0.492087990 0.095918201 0.040009201
0.518212020 0.099366799 0.041886002
0.543815970 0.102982998 0.043839201
0.569222987 0.106600001 0.045868602
0.594415009 0.110353000 0.047959100
0.619669020 0.114366002 0.050232701
0.644572020 0.118334003 0.052704699
0.669200003 0.122544996 0.055268198
0.693491995 0.127061993 0.058045302
0.717494011 0.131806999 0.061097100
0.741527021 0.137713000 0.064133704
0.765164018 0.143435001 0.067368597
0.780773997 0.145585999 0.068650298
0.790462971 0.146745995 0.069520101
0.790615976 0.147615999 0.070267797
0.016739100 0.077912599 0.042084400
0.016678100 0.077454798 0.041916501
0.021637300 0.077393800 0.040711101
0.037750799 0.078370303 0.037583001
0.061600700 0.081162699 0.037796602
0.088136099 0.083924599 0.038971499
0.114595003 0.086640701 0.040329602
0.141588002 0.089417897 0.041275699
0.170108005 0.092118703 0.041931801
0.200701997 0.094728000 0.042221699
0.233921006 0.096772701 0.041794501
0.268344998 0.098680101 0.041077301
0.303211987 0.100052997 0.039887100
0.338200986 0.101457000 0.038605299
0.372610003 0.102861002 0.037262499
0.405386001 0.104570001 0.036148600
0.437018007 0.106493004 0.036606401
0.465903997 0.109223999 0.037842400
0.493523002 0.112230003 0.039230902
0.519387007 0.115800999 0.041123100
0.544746995 0.119188003 0.043198299
0.570199013 0.122789003 0.045288801
0.595238984 0.126192003 0.047531899
0.620492995 0.130251005 0.050064899
0.645594001 0.134492993 0.052658901
0.670390010 0.138659000 0.055420801
0.694850028 0.143160000 0.058350500
0.718806982 0.148103997 0.061371800
0.742779016 0.153399006 0.064438798
0.766185999 0.158923000 0.067521200
0.782985985 0.161470994 0.069108099
0.792308986 0.162615001 0.070084698
0.792461991 0.163499996 0.070847601
0.019043300 0.100236997 0.051087201
0.019028001 0.100052997 0.051010899
0.024078701 0.100236997 0.049301900
0.037354100 0.100679003 0.044831000
0.058213200 0.103624001 0.042801600
0.087281600 0.107698001 0.043152500
0.117265999 0.110521004 0.044449501
0.145464003 0.112673000 0.044922601
0.174135998 0.115023002 0.045166701
0.204699993 0.116990998 0.044968300
0.238299996 0.118653998 0.044190101
0.272617996 0.119905002 0.043091498
0.307790011 0.120760001 0.041626599
0.342808992 0.121508002 0.040116001
0.377081007 0.122529998 0.038651101
0.409628004 0.124146998 0.037552498
0.440573990 0.125963002 0.036621701
0.469016999 0.128602996 0.037598200
0.496452004 0.131685004 0.039230902
0.522132993 0.135302007 0.041260399
0.547600985 0.138903007 0.043457702
0.572975993 0.142351002 0.045853399
0.598169029 0.146119997 0.048188001
0.623391986 0.149995998 0.050644699
0.648263991 0.153856993 0.053238701
0.672861993 0.157823995 0.056046400
0.697306991 0.162310004 0.058930300
0.721431017 0.167254001 0.061905898
0.744944990 0.171801001 0.064988203
0.768306971 0.176958993 0.068162099
0.785839975 0.179521993 0.069871098
0.794414997 0.180620998 0.070862897
0.794552982 0.181323007 0.071732700
0.021255801 0.126696005 0.062882401
0.021240599 0.126527995 0.062806100
0.027863000 0.126543000 0.060349401
0.039169900 0.126696005 0.056244802
0.056244802 0.129548997 0.051895902
0.080460802 0.134218007 0.048355799
0.115450002 0.138125002 0.050278500
0.148836002 0.140276000 0.050659999
0.180957004 0.142015994 0.050400499
0.212405995 0.143297002 0.049576599
0.246296003 0.143861994 0.048157498
0.280797005 0.144793004 0.046616301
0.315618008 0.145219997 0.044769999
0.350454003 0.146014005 0.042999901
0.384314001 0.147005007 0.041321401
0.415899992 0.148469999 0.040146500
0.446494013 0.150270998 0.039169900
0.474159002 0.152895004 0.038864698
0.501137018 0.155717999 0.040268600
0.526726007 0.158968002 0.042389601
0.552132010 0.162202999 0.044541098
0.577264011 0.165423006 0.046875700
0.602227986 0.168779999 0.049225599
0.626993001 0.172091007 0.051682301
0.651651978 0.175966993 0.054245800
0.676234007 0.180148005 0.057221301
0.700541973 0.184084997 0.060090002
0.724102020 0.188127995 0.063172303
0.747738004 0.192949995 0.066391997
0.770763993 0.197817996 0.069626898
0.788601995 0.200121999 0.071610600
0.796383977 0.201038003 0.072556697
0.796474993 0.201601997 0.073319599
0.023071600 0.154313996 0.076005198
0.023819299 0.154208004 0.075684696
0.031815100 0.154299006 0.072953403
0.042038601 0.154284000 0.069352299
0.056473602 0.156251997 0.063507996
0.075150698 0.160235003 0.056107402
0.110903002 0.165469006 0.056748301
0.148546994 0.168246001 0.056748301
0.185504004 0.169542998 0.055985399
0.220110998 0.170291007 0.054520499
0.254642993 0.170396999 0.052567299
0.289525002 0.170763999 0.050537899
0.324346006 0.170976996 0.048355799
0.358967990 0.171480998 0.046326399
0.391974002 0.172259003 0.044510599
0.423148006 0.173982993 0.043335602
0.452749997 0.175814003 0.042328499
0.479988009 0.178515002 0.042053901
0.506294012 0.181216002 0.042191200
0.531853020 0.184297994 0.044251200
0.556663990 0.187518001 0.046356902
0.581673980 0.190889999 0.048706800
0.606302023 0.194216996 0.051194001
0.630807996 0.197466999 0.053833801
0.655328989 0.200687006 0.056504201
0.679651976 0.204410002 0.059601702
0.703501999 0.207903996 0.062439900
0.727030993 0.211916998 0.065491699
0.750560999 0.216097996 0.068604603
0.773311973 0.220339999 0.071854703
0.791516006 0.222628996 0.073914699
0.798505008 0.223300993 0.074830197
0.798610985 0.223879993 0.075715303
0.024719600 0.183855996 0.092027202
0.029007399 0.183458999 0.089219503
0.036881100 0.183688000 0.086655997
0.046494201 0.183200002 0.083482102
0.058899801 0.184893996 0.076737598
0.073823102 0.187030002 0.067505904
0.104005001 0.193240002 0.064896598
0.142060995 0.197696000 0.063675903
0.185092002 0.199878007 0.062653497
0.227253005 0.199741006 0.060624100
0.263981014 0.199389994 0.058167402
0.299351007 0.199512005 0.055710699
0.334203005 0.199588001 0.053254001
0.368261009 0.199846998 0.050995700
0.400792986 0.200412005 0.048996702
0.430869013 0.201876998 0.047638699
0.459906995 0.203876004 0.046494201
0.486137003 0.206377998 0.046005901
0.511741996 0.209261999 0.045639701
0.536614001 0.211887002 0.047241900
0.561317980 0.215213001 0.049240898
0.586099029 0.218418002 0.051636498
0.610329986 0.221134007 0.054032199
0.634729981 0.223957002 0.056534700
0.658990979 0.226763994 0.059235498
0.683054984 0.230548993 0.062409401
0.706782997 0.233692005 0.065369703
0.729991972 0.237170994 0.068390898
0.753201008 0.240832999 0.071610600
0.775768995 0.244143993 0.074769199
0.794292986 0.246296003 0.076981798
0.800534010 0.246937007 0.077882104
0.800594985 0.247150004 0.078736603
0.025451999 0.214114994 0.107957996
0.032883201 0.214114994 0.104768001
0.040527999 0.213747993 0.101305000
0.049881700 0.213062003 0.096955799
0.061448101 0.214205995 0.090363897
0.074982800 0.214954004 0.082017198
0.099092104 0.220965996 0.074113101
0.133181006 0.226566002 0.071061298
0.176822007 0.230334997 0.070786603
0.224795997 0.230685994 0.067582197
0.268970996 0.229525998 0.064347297
0.308339000 0.229191005 0.061509099
0.343708992 0.228962004 0.058686201
0.377462000 0.229236007 0.056290500
0.409276992 0.229770005 0.054200001
0.438437015 0.231159002 0.052811500
0.466423005 0.233065993 0.051667001
0.492408991 0.235584006 0.051071901
0.517585993 0.238086998 0.050553098
0.542382002 0.240741998 0.051636498
0.566796005 0.243518993 0.053589702
0.591058016 0.246188998 0.055664901
0.615045011 0.249226004 0.057999499
0.638956010 0.251971990 0.060517300
0.662729979 0.254673004 0.063218102
0.686320007 0.257678986 0.066102102
0.709697008 0.260639012 0.069001302
0.732815027 0.263904989 0.072159901
0.755688012 0.266728014 0.075287998
0.778225005 0.270007998 0.078461900
0.796886981 0.271717012 0.080766000
0.802518010 0.271946013 0.081605203
0.802578986 0.272145003 0.082459800
0.029221000 0.245105997 0.122621000
0.036652200 0.245059997 0.119707003
0.044113800 0.244800001 0.116686001
0.053421799 0.243792996 0.111649998
0.064698301 0.244053006 0.104036003
0.077668399 0.244053006 0.096559100
0.096223399 0.248752996 0.084168799
0.124238998 0.254642993 0.078690797
0.164553002 0.260868013 0.079819903
0.217243001 0.262409002 0.075074397
0.270893008 0.260318995 0.070939198
0.316655010 0.259052008 0.067689002
0.352941006 0.258823991 0.064530402
0.386052996 0.259068012 0.062012699
0.416631997 0.259662986 0.059922200
0.445136011 0.261249989 0.058594599
0.472389013 0.262501001 0.057343401
0.498084992 0.264683008 0.056565199
0.522971988 0.266880006 0.056107402
0.547356009 0.269306004 0.057343401
0.571480989 0.271717012 0.059037201
0.595605016 0.274479002 0.060853001
0.619302988 0.277393997 0.063034996
0.642877996 0.279637009 0.065384902
0.666194022 0.282002002 0.067841597
0.689616024 0.285053998 0.070710301
0.712825000 0.287845999 0.073594302
0.735637009 0.290730000 0.076600298
0.758418977 0.293567985 0.079743601
0.780620992 0.296070993 0.082826003
0.799390018 0.298038989 0.085160598
0.804607987 0.297825992 0.085938796
0.804654002 0.297841012 0.086747497
0.032043900 0.276295006 0.137284994
0.039337799 0.276019990 0.134569004
0.046753600 0.275745988 0.131806999
0.056443099 0.274661988 0.126558006
0.068146802 0.274311006 0.119951002
0.080689698 0.273898989 0.111192003
0.096742198 0.277469993 0.098298602
0.119631000 0.282337993 0.089387298
0.152499005 0.289386988 0.084260300
0.203264996 0.293339014 0.084580801
0.257313013 0.293370008 0.080231898
0.310703993 0.291660994 0.074708201
0.356007993 0.289799005 0.071229100
0.392217994 0.289586008 0.068482503
0.423635989 0.290410012 0.066208899
0.451301008 0.291584998 0.064805098
0.477607012 0.293384999 0.063691199
0.503075004 0.295506001 0.062943503
0.527642012 0.297443986 0.063446999
0.552223980 0.299488991 0.064560898
0.576318026 0.301503003 0.065873198
0.600183010 0.303517014 0.067429602
0.623925984 0.305729985 0.069382802
0.647409976 0.308353990 0.071534298
0.670497000 0.310276985 0.073639996
0.693445981 0.312748998 0.076264597
0.716395974 0.315389007 0.078965403
0.738964021 0.317921996 0.081788398
0.761273026 0.320210993 0.084611297
0.783321977 0.322773993 0.087769903
0.801907003 0.324162990 0.089967199
0.806729019 0.324162990 0.090760700
0.806774974 0.324193001 0.091554098
0.034271799 0.307164013 0.151338995
0.041550301 0.307072997 0.148974001
0.049103498 0.306385994 0.146197006
0.059693299 0.304966986 0.140992999
0.071625903 0.304554999 0.135378003
0.084062003 0.303974986 0.127351999
0.098847903 0.306156993 0.114519000
0.117647000 0.309727997 0.101640001
0.143327996 0.316624999 0.090638600
0.189653993 0.322026014 0.092362903
0.242480993 0.324117005 0.089417897
0.300816000 0.323583007 0.082749702
0.354375988 0.320546001 0.078187197
0.395880014 0.319860011 0.075013399
0.429587007 0.320499986 0.072526097
0.456687003 0.321736008 0.071122304
0.482459992 0.323507011 0.070344098
0.507546008 0.325260997 0.070771299
0.531913996 0.326543003 0.071519002
0.556343973 0.328602999 0.072358303
0.580438018 0.330282003 0.073685803
0.604471028 0.332174003 0.075043902
0.627924025 0.333882987 0.076585002
0.651286006 0.336232990 0.078477196
0.674463987 0.338140011 0.080384500
0.697275996 0.340611994 0.082932800
0.719950974 0.342229009 0.085114799
0.742428005 0.345220000 0.087983496
0.764599025 0.347341001 0.090730101
0.786282003 0.349310011 0.093614101
0.805141985 0.350744009 0.095796101
0.809338987 0.350529999 0.096391201
0.809354007 0.350347012 0.097138897
0.036133401 0.337545007 0.165788993
0.043289799 0.337437987 0.163714007
0.051682301 0.336674988 0.160570994
0.062623002 0.335514992 0.156130001
0.074998103 0.334569007 0.151095003
0.087266304 0.334461987 0.143755004
0.102068000 0.335027009 0.132737994
0.118441001 0.338048011 0.119218998
0.138521001 0.343557000 0.103409998
0.179278001 0.349339992 0.100129999
0.228244007 0.353444993 0.097703502
0.284794003 0.355412990 0.094529599
0.341237992 0.353262007 0.086549200
0.390493989 0.351552993 0.081864700
0.430914998 0.350484014 0.080186203
0.460501999 0.351751000 0.079224803
0.487526000 0.353673995 0.079163797
0.512260973 0.355215013 0.079377398
0.536445975 0.356999993 0.080094598
0.560525000 0.358617991 0.080903299
0.584542990 0.360204011 0.082001999
0.608392000 0.361943990 0.083237998
0.631860971 0.363058001 0.084672302
0.655466974 0.365042001 0.086244002
0.678523004 0.366780996 0.088105597
0.701366007 0.368337989 0.090165600
0.724025011 0.370077014 0.092317097
0.746241987 0.372014999 0.094773799
0.768245995 0.373907000 0.097245701
0.789792001 0.375708014 0.100160003
0.808560014 0.377339989 0.102311999
0.812359989 0.376913011 0.102845997
0.812359989 0.376729995 0.103455998
0.037903398 0.367605001 0.179644004
0.045151401 0.367269009 0.177645996
0.054795101 0.366475999 0.174426004
0.065644301 0.365498990 0.170534998
0.078034602 0.364354998 0.166170999
0.090440199 0.363867015 0.159685999
0.105927996 0.363698989 0.150667995
0.121416003 0.365987986 0.137850001
0.139054999 0.370611012 0.122042000
0.173006997 0.375905991 0.113191001
0.216463998 0.380789012 0.108629003
0.270085007 0.383931994 0.108202003
0.326725990 0.383246005 0.100267000
0.380468011 0.382254004 0.093873501
0.426656991 0.380896002 0.090348698
0.461295009 0.381749988 0.089036398
0.490821987 0.383047014 0.088654898
0.516288996 0.384833008 0.088822797
0.540733993 0.386099011 0.089249998
0.564813018 0.387869000 0.089997701
0.588555992 0.388875991 0.090898000
0.612329006 0.390143007 0.092088200
0.635842979 0.391591996 0.093385197
0.659448981 0.393027008 0.094895899
0.682474971 0.394232005 0.096406497
0.705348015 0.395880014 0.098374903
0.727962017 0.397329986 0.100342996
0.750102997 0.399008006 0.102601998
0.772045016 0.400656015 0.105164997
0.793500006 0.402213007 0.107865997
0.812130988 0.403203994 0.109742999
0.815747023 0.402960002 0.110322997
0.815778017 0.402792007 0.110841997
0.040131200 0.396230996 0.192858994
0.048523702 0.396230996 0.190798998
0.058121599 0.395453006 0.188022003
0.068955503 0.394293010 0.184542999
0.081284799 0.393361986 0.180788994
0.094117597 0.392706007 0.175264999
0.110215999 0.391943008 0.168017000
0.125352994 0.393667996 0.156572998
0.141648993 0.397177011 0.142260000
0.169055000 0.402013987 0.128419995
0.206469998 0.407370001 0.119889997
0.258228004 0.410879999 0.120089002
0.312763989 0.412313998 0.115525998
0.367361009 0.412757009 0.108934000
0.417120993 0.411642998 0.101167001
0.457922995 0.411444008 0.099351503
0.491676003 0.411520988 0.098908998
0.519676983 0.413381994 0.098680101
0.545204997 0.415060997 0.099015802
0.569360018 0.416449010 0.099519297
0.593194008 0.417989999 0.100556999
0.616602004 0.418920994 0.101517998
0.640055001 0.420583993 0.102830999
0.663385987 0.421499997 0.104020998
0.686595023 0.422614008 0.105576999
0.709452987 0.423712999 0.107179001
0.732082009 0.424842000 0.109086998
0.754208028 0.426200002 0.111299001
0.776103973 0.427314013 0.113603003
0.797482014 0.428595006 0.115984000
0.816296995 0.429358006 0.117936999
0.819546998 0.429084003 0.118409999
0.819546998 0.428701997 0.119035996
0.043442398 0.425161988 0.205905005
0.052887801 0.424567014 0.203525007
0.062714599 0.424185991 0.201113999
0.073502697 0.423025995 0.198154002
0.085694700 0.421728998 0.194475994
0.098924197 0.421103001 0.190219000
0.115525998 0.419669002 0.184175998
0.131136000 0.420980990 0.174609005
0.148028001 0.423361987 0.162553996
0.171480998 0.427726001 0.147569999
0.202701002 0.432624012 0.135698006
0.250064999 0.436300993 0.132203996
0.302251011 0.438392013 0.129365996
0.355306000 0.439871997 0.125443995
0.404790998 0.440497011 0.117494002
0.449149013 0.440313995 0.112412997
0.487495005 0.440268993 0.109940998
0.519158006 0.441565990 0.109392002
0.547478020 0.442663997 0.109346002
0.572930992 0.444312006 0.109667003
0.597329974 0.445975006 0.110459998
0.620980978 0.447196007 0.111528002
0.644281983 0.448401988 0.112657003
0.667338014 0.449149013 0.113893002
0.690486014 0.450064987 0.115327999
0.713160992 0.451086998 0.116976000
0.735743999 0.451911002 0.118715003
0.757824004 0.452749997 0.120683998
0.779735982 0.453985989 0.122683004
0.801281989 0.454809994 0.125138998
0.820263982 0.455511987 0.126879007
0.823301017 0.455009013 0.127290994
0.823255002 0.454398006 0.127687007
0.048279501 0.452688992 0.218432993
0.058091100 0.452246994 0.216251001
0.067902602 0.451591015 0.213885993
0.078690797 0.450415999 0.211062998
0.091142103 0.449577004 0.208057001
0.104417004 0.448356003 0.204517007
0.121172003 0.446967006 0.199801996
0.137254998 0.447257012 0.191501006
0.155046999 0.448890001 0.181949005
0.175601006 0.452964008 0.166887999
0.201739997 0.457343012 0.152529001
0.243763000 0.461111993 0.145296007
0.292652994 0.463981003 0.142518997
0.345158994 0.465979993 0.141680002
0.393667996 0.467352986 0.134798005
0.438697010 0.468634993 0.128038004
0.479972988 0.469413012 0.121569000
0.516013980 0.469565988 0.120806001
0.547447979 0.470129997 0.120591998
0.575142980 0.471534014 0.120439000
0.600670993 0.473181993 0.121018998
0.624886990 0.474693000 0.121904001
0.648463011 0.476065993 0.123140000
0.671442986 0.477012008 0.124421999
0.694499016 0.478035003 0.125734001
0.717051983 0.478599012 0.127184004
0.739528000 0.478949994 0.128588006
0.761638999 0.479912013 0.130510002
0.783596992 0.480903000 0.132508993
0.805112004 0.481436998 0.134874001
0.824186027 0.481635988 0.136324003
0.827023983 0.481117010 0.136583999
0.826992989 0.480522007 0.136979997
0.054230601 0.480643988 0.231342003
0.063996300 0.480185986 0.229388997
0.073716298 0.479346991 0.227313995
0.084519699 0.478065014 0.224506006
0.097367801 0.476844013 0.221607000
0.110857002 0.475226998 0.218326002
0.127779007 0.473762006 0.214450002
0.144564003 0.473639995 0.207523003
0.163499996 0.473944992 0.199618995
0.183092996 0.477194995 0.185595006
0.206194997 0.481070995 0.171465993
0.243747994 0.484732985 0.161623999
0.288684994 0.487738997 0.156480998
0.339040011 0.489784002 0.155062005
0.385594994 0.491966009 0.150973007
0.429969013 0.494087011 0.145388007
0.470786989 0.495902985 0.138185993
0.508231997 0.496834010 0.134569004
0.542855024 0.497505009 0.132418007
0.573723972 0.498450994 0.131715998
0.601662993 0.499976993 0.131883994
0.627420008 0.501259029 0.132432997
0.651666999 0.502785027 0.133410007
0.674861014 0.503883004 0.134675995
0.698145986 0.504981995 0.136079997
0.720499992 0.505653024 0.137513995
0.742991984 0.506065011 0.138917997
0.765118003 0.506630003 0.140748993
0.786984026 0.506950021 0.142550007
0.808667004 0.507622004 0.144670993
0.827709973 0.507744014 0.145968005
0.830564022 0.507210016 0.146211997
0.830518007 0.506583989 0.146470994
0.060502000 0.507439017 0.243061006
0.070176199 0.506416023 0.241215006
0.079942003 0.505729973 0.239337996
0.091142103 0.504249990 0.236987993
0.104172997 0.503333986 0.234577000
0.117769003 0.501823008 0.231800005
0.134035006 0.500190973 0.228229001
0.152575001 0.499107003 0.222599000
0.172747001 0.498237997 0.216129005
0.191577002 0.500648022 0.203418002
0.212741002 0.504279971 0.190173000
0.245838001 0.507697999 0.178316996
0.286045998 0.511314988 0.170916006
0.333622992 0.513450980 0.167971000
0.379049003 0.515937984 0.165987998
0.422309011 0.519020021 0.163087994
0.461966991 0.521736979 0.156130001
0.500038028 0.523796022 0.149889007
0.536095023 0.524955988 0.144624993
0.569512010 0.525566995 0.143526003
0.600229025 0.526528001 0.143052995
0.627848029 0.527260005 0.142885000
0.653559029 0.529168010 0.143664002
0.677699029 0.530418992 0.144884005
0.701335013 0.531944990 0.146365002
0.723949015 0.532509029 0.147936001
0.746532023 0.533164978 0.149553999
0.768444002 0.533715010 0.151338995
0.790432990 0.533822000 0.153001994
0.812023997 0.534202993 0.154788002
0.830991030 0.534051001 0.155871004
0.833844006 0.533501029 0.156130001
0.833782971 0.532890975 0.156237006
0.067124397 0.533424973 0.254200011
0.076707102 0.532769024 0.252658993
