luts/travel_14.cube
TITLE "33x33x33 Adobe/IRIDAS cube 3D LUT exported with GrossGrade v0.2.2 (beta) 64 bit"
DOMAIN_MIN 0 0 0
DOMAIN_MAX 1 1 1
LUT_3D_SIZE 33
0.000015259 0.000915541 0.001113910
0.015533700 0.003814760 0.003341730
0.031860799 0.006958110 0.006546120
0.049118798 0.010315100 0.010162500
0.066926099 0.013839900 0.013611000
0.084885903 0.017074799 0.016571300
0.103822000 0.020019799 0.019333201
0.124636002 0.022888500 0.022034001
0.147462994 0.025528301 0.024582300
0.172030002 0.027954500 0.026367599
0.198413000 0.029968699 0.027817201
0.225528002 0.031525102 0.028656401
0.254566014 0.032883201 0.029205799
0.284215003 0.033753000 0.029221000
0.314274997 0.034332801 0.029022699
0.345158994 0.034897398 0.028778501
0.376897991 0.035339899 0.028549600
0.408895999 0.035828199 0.028549600
0.441092998 0.036392801 0.028778501
0.473883986 0.037094701 0.029266801
0.506843984 0.037903398 0.029999200
0.539757013 0.038788401 0.031006301
0.572655976 0.039917599 0.032150801
0.605172992 0.041046798 0.033432499
0.637125015 0.042191200 0.034821101
0.668711007 0.043503501 0.036240201
0.699580014 0.044846300 0.037781298
0.730036974 0.046494201 0.039368302
0.760159016 0.048310101 0.040909398
0.790021002 0.050186899 0.042481098
0.819576979 0.052353699 0.044098601
0.848890007 0.054657798 0.045792300
0.877852023 0.056992400 0.047501300
0.002365150 0.016067799 0.003875790
0.017669899 0.016113499 0.004684520
0.034943201 0.018844901 0.007721070
0.053376101 0.022522300 0.011505300
0.072724499 0.026230300 0.015457400
0.091874599 0.029572001 0.018539701
0.111666001 0.032394901 0.021149000
0.132815003 0.035110999 0.023590401
0.155839995 0.037750799 0.025772501
0.180636004 0.040131200 0.027389901
0.206897005 0.042069100 0.028534399
0.234180003 0.043762900 0.029160000
0.263217986 0.045242999 0.029526200
0.292714000 0.046341699 0.029434700
0.322712988 0.047226701 0.029205799
0.353368014 0.048020098 0.028946400
0.384862989 0.048737299 0.028778501
0.416846007 0.049637601 0.028900599
0.448965997 0.050568402 0.029190499
0.481483012 0.051651798 0.029709300
0.513953984 0.052796200 0.030472299
0.546608984 0.054154299 0.031479400
0.579079986 0.055558100 0.032654300
0.611109018 0.057023000 0.033936098
0.642741024 0.058609899 0.035324600
0.673838019 0.060379900 0.036835302
0.704280019 0.062241599 0.038345899
0.734400988 0.064286299 0.039902300
0.764096022 0.066483602 0.041413002
0.793744028 0.068879202 0.043030400
0.823072016 0.071457997 0.044708900
0.852093995 0.074158803 0.046433199
0.880734980 0.076890200 0.048065901
0.004028380 0.031280998 0.006561380
0.021255801 0.031509899 0.007034410
0.037598200 0.032639001 0.008926530
0.056137901 0.035492498 0.012268300
0.076600298 0.039383501 0.016205100
0.097489901 0.043167800 0.019729899
0.118790999 0.046112798 0.022537600
0.140826002 0.048844099 0.024826400
0.164278999 0.051361900 0.026733801
0.189364001 0.053665999 0.028152900
0.215838999 0.055588599 0.029083701
0.243396997 0.057282399 0.029510900
0.272267014 0.058808301 0.029816100
0.301625013 0.060013700 0.029602500
0.331487000 0.061081901 0.029327800
0.361883014 0.062073700 0.029129500
0.393117994 0.062989198 0.029022699
0.424993992 0.064011604 0.029190499
0.457069010 0.065232299 0.029526200
0.489311010 0.066651396 0.030075500
0.521552980 0.068192601 0.030838501
0.553718984 0.069947399 0.031891402
0.585641026 0.071671598 0.033020500
0.617182016 0.073533200 0.034332801
0.648263991 0.075516902 0.035751902
0.679026008 0.077714197 0.037262499
0.709223986 0.080048800 0.038849499
0.738933027 0.082474999 0.040360101
0.768321991 0.085053802 0.041901302
0.797589004 0.087830901 0.043518700
0.826611996 0.090821698 0.045197200
0.855390012 0.093949802 0.046906199
0.883741021 0.097032100 0.048569500
0.005203330 0.046906199 0.009582670
0.024658600 0.047745500 0.009796290
0.041428201 0.048340600 0.010864400
0.058960900 0.049835999 0.013351600
0.079209603 0.053101402 0.016662899
0.101655997 0.057358701 0.020202899
0.124880001 0.061219200 0.023239501
0.148271993 0.064225197 0.025497800
0.172671005 0.066864997 0.027161101
0.198245004 0.069108099 0.028351299
0.225054994 0.071091801 0.029160000
0.252963990 0.072785497 0.029617799
0.281773001 0.074250400 0.029800899
0.311161995 0.075501598 0.029633000
0.340902001 0.076615497 0.029388901
0.371084005 0.077714197 0.029251499
0.402090013 0.078690797 0.029190499
0.433737993 0.079743601 0.029343100
0.465568006 0.081025399 0.029785600
0.497626990 0.082520798 0.030365501
0.529519022 0.084199302 0.031189401
0.561105013 0.086121902 0.032227099
0.592537999 0.088273399 0.033432499
0.623606026 0.090547003 0.034714300
0.654138982 0.092958003 0.036118101
0.684397995 0.095536701 0.037613500
0.714199007 0.098313898 0.039185200
0.743694007 0.101075999 0.040756799
0.772763014 0.104082003 0.042343799
0.801708996 0.107331999 0.043976501
0.830349982 0.110688999 0.045624498
0.858793020 0.114152998 0.047333501
0.886824012 0.117509998 0.048966199
0.005996800 0.062989198 0.013244800
0.027878201 0.064240500 0.012817600
0.045807600 0.065201797 0.013412700
0.063050300 0.066102102 0.014923300
0.081818901 0.067856900 0.017410500
0.104355998 0.071793698 0.020538600
0.129259005 0.076691799 0.023498900
0.154604003 0.080720201 0.025635200
0.180467993 0.083878800 0.027130499
0.207019001 0.086533897 0.028259700
0.234606996 0.088807501 0.028870100
0.262912989 0.090592802 0.029343100
0.291875005 0.092011899 0.029373599
0.321233004 0.093217403 0.029297300
0.351063997 0.094407603 0.029205799
0.381276995 0.095613003 0.029175200
0.412084997 0.096803203 0.029266801
0.443426996 0.097978197 0.029495699
0.474983007 0.099321000 0.029999200
0.506645024 0.100725003 0.030716401
0.538079023 0.102311999 0.031586200
0.569253027 0.104218997 0.032608502
0.600045979 0.106310003 0.033814002
0.630594015 0.108567998 0.035126299
0.660578012 0.111086003 0.036545400
0.690165997 0.113954000 0.038040701
0.719524026 0.117098004 0.039581899
0.748683989 0.120499998 0.041199401
0.777432024 0.123888001 0.042816799
0.805997014 0.127413005 0.044419002
0.834286988 0.131211996 0.046021201
0.862363994 0.134950995 0.047638699
0.890043020 0.138750002 0.049256101
0.008606090 0.079713099 0.017441100
0.031326801 0.081239000 0.016479701
0.050003801 0.082597099 0.016739100
0.067933202 0.083756797 0.017318999
0.086030401 0.084687598 0.018768599
0.106950000 0.087037504 0.021133700
0.131898999 0.091783002 0.023727801
0.159395993 0.097383097 0.025742000
0.187167004 0.101761997 0.026947400
0.215091005 0.105210997 0.027801899
0.243518993 0.108002998 0.028183401
0.272343010 0.110322997 0.028641200
0.301717013 0.112016000 0.028732700
0.331364989 0.113375001 0.028732700
0.361333996 0.114716999 0.028793801
0.391683996 0.116044998 0.028961601
0.422369987 0.117326997 0.029160000
0.453512996 0.118639000 0.029541500
0.484717995 0.119997002 0.030136600
0.515999019 0.121508002 0.030960601
0.546913981 0.123079002 0.031845599
0.577569008 0.124865003 0.032913700
0.607735991 0.126864001 0.034149699
0.637781024 0.128985003 0.035538301
0.667246997 0.131472006 0.036972601
0.696314991 0.134218007 0.038529001
0.725139022 0.137224004 0.040070198
0.753871977 0.140597001 0.041687600
0.782284021 0.144259006 0.043305099
0.810422003 0.148257002 0.044876799
0.838346004 0.152346000 0.046433199
0.865980029 0.156343997 0.047989599
0.893369973 0.160464004 0.049546000
0.014526600 0.097367801 0.021606799
0.036072299 0.099015802 0.020965900
0.054688301 0.100648999 0.021026900
0.073136501 0.102159001 0.020874299
0.091554098 0.103151001 0.021118499
0.111147001 0.104066998 0.022415500
0.134675995 0.107408002 0.024460200
0.162524000 0.113404997 0.026154000
0.192232996 0.119645998 0.026977999
0.221941993 0.124590002 0.027252600
0.251513988 0.128327996 0.027496800
0.281132013 0.131532997 0.027710401
0.310979009 0.133806005 0.027878201
0.341069996 0.135683000 0.028030800
0.371526986 0.137376994 0.028259700
0.401953012 0.138811007 0.028503900
0.432745993 0.140246004 0.028900599
0.463766992 0.141648993 0.029419400
0.494652003 0.143084005 0.030167099
0.525489986 0.144656003 0.030975800
0.555931985 0.146365002 0.031967700
0.585991979 0.148135006 0.033081599
0.615563989 0.150071993 0.034348100
0.645044982 0.152147993 0.035782401
0.674052000 0.154528007 0.037354100
0.702663004 0.157168001 0.038956299
0.730967999 0.159898996 0.040512700
0.759136021 0.163073003 0.042099599
0.787105978 0.166644007 0.043732401
0.814862013 0.170504004 0.045288801
0.842343986 0.174517006 0.046860501
0.869687974 0.178714007 0.048401602
0.896651030 0.182925001 0.049912300
0.022156101 0.115907997 0.025864000
0.041809700 0.117540002 0.025909800
0.060029000 0.119249001 0.025894601
0.078385599 0.121080004 0.025482601
0.097383097 0.122498997 0.024780700
0.116959997 0.123246998 0.024704400
0.139116004 0.124788001 0.025680900
0.165606007 0.129182994 0.026977999
0.195865005 0.136445999 0.027664600
0.227313995 0.143632993 0.027512001
0.258549005 0.149248004 0.027222101
0.289234996 0.153429002 0.027023699
0.319721997 0.156755999 0.027069500
0.350225002 0.159303993 0.027252600
0.381047994 0.161470994 0.027496800
0.411841005 0.163394004 0.027954500
0.442633986 0.165057003 0.028473301
0.473518014 0.166521996 0.029099001
0.504265010 0.168047994 0.029938200
0.534752011 0.169696003 0.030884299
0.564736009 0.171434999 0.031967700
0.594232023 0.173235998 0.033157900
0.623362005 0.175235003 0.034500599
0.652185977 0.177416995 0.035996001
0.680658996 0.179842994 0.037537199
0.708811998 0.182329997 0.039230902
0.736584008 0.185060993 0.040833101
0.764324009 0.188113004 0.042465899
0.791745007 0.191332996 0.044068102
0.819135010 0.194812000 0.045639701
0.846203983 0.198580995 0.047180898
0.873166978 0.202533007 0.048691500
0.899839997 0.206851006 0.050278500
0.028946400 0.135637000 0.030685900
0.047592901 0.137437999 0.031036900
0.065766402 0.139238998 0.031052100
0.084016196 0.141176000 0.030685900
0.103426002 0.143084005 0.029724600
0.123842001 0.144289002 0.028320700
0.145480007 0.144747004 0.027679900
0.170199007 0.146777004 0.028183401
0.199725002 0.152788997 0.028854800
0.232043996 0.161333993 0.028549600
0.264744014 0.169313997 0.027710401
0.296712011 0.175372005 0.027039001
0.328038007 0.180116996 0.026581200
0.359030008 0.183763996 0.026535399
0.390035987 0.186556995 0.026840599
0.420920014 0.189043999 0.027298400
0.451788992 0.191135004 0.027923999
0.482643008 0.192919999 0.028656401
0.513252020 0.194598004 0.029572001
0.543480992 0.196291998 0.030624900
0.573022008 0.197986007 0.031799801
0.602136016 0.199892998 0.033142600
0.630701005 0.201892003 0.034561701
0.658990979 0.204105005 0.036102802
0.686931014 0.206560999 0.037735600
0.714519024 0.209094003 0.039398801
0.741909027 0.211733997 0.041046798
0.769177020 0.214603007 0.042725299
0.796230972 0.217838004 0.044327501
0.823208988 0.221148998 0.045853399
0.849928021 0.224628001 0.047302999
0.876509011 0.228304997 0.048798401
0.902707994 0.232409999 0.050553098
0.034546401 0.156176001 0.035980798
0.053223498 0.158144996 0.036408000
0.071778402 0.160189003 0.036484301
0.090348698 0.162386999 0.036133401
0.109819002 0.164569005 0.035248298
0.131365001 0.166506007 0.033173099
0.153384000 0.167025000 0.031021601
0.176822007 0.167375997 0.030090800
0.204760998 0.170519993 0.030228101
0.236865997 0.177981004 0.030045001
0.270435989 0.187762007 0.029053200
0.303609014 0.196383998 0.027908800
0.335866004 0.203021005 0.027008500
0.367390990 0.208194003 0.026443901
0.398505002 0.212145999 0.026382800
0.429266989 0.215151995 0.026688000
0.460029006 0.217776999 0.027328899
0.490729988 0.220050007 0.028137600
0.521125972 0.221973002 0.029129500
0.551095009 0.223849997 0.030273899
0.580345988 0.225695997 0.031555701
0.609125018 0.227604002 0.032990001
0.637216985 0.229541004 0.034485400
0.665049016 0.231768996 0.036163900
0.692484975 0.234043002 0.037827101
0.719753027 0.236561000 0.039490301
0.746776998 0.239170000 0.041229900
0.773708999 0.242083997 0.042862602
0.800351024 0.245089993 0.044419002
0.826932013 0.248248994 0.045883901
0.853314996 0.251453012 0.047287699
0.879530013 0.254963011 0.048722100
0.905348003 0.259113014 0.050675198
0.040695801 0.177828997 0.041474000
0.059525400 0.180025995 0.041962299
0.078553401 0.182375997 0.042008098
0.097474597 0.184787005 0.041641898
0.117205001 0.187167004 0.040863700
0.138979003 0.189348996 0.038925800
0.161912993 0.190660998 0.036041800
0.185289994 0.190828994 0.033386700
0.211719006 0.191698998 0.031967700
0.242450997 0.195911005 0.031662501
0.276477993 0.204898000 0.030991100
0.310337991 0.215792999 0.029648300
0.343557000 0.224841997 0.028305501
0.375661999 0.231800005 0.027267899
0.406973004 0.237307996 0.026703300
0.437552005 0.241428003 0.026520200
0.467810988 0.244617000 0.026916901
0.497992992 0.247302994 0.027710401
0.527885973 0.249698997 0.028778501
0.557412028 0.251865000 0.029953500
0.586389005 0.254047006 0.031372599
0.614831984 0.256031007 0.032806899
0.642679989 0.258060992 0.034348100
0.670207024 0.260150999 0.036011301
0.697353005 0.262425005 0.037766099
0.724361002 0.264744014 0.039505601
0.751079977 0.267338008 0.041168801
0.777599990 0.269993007 0.042771000
0.804013014 0.272908002 0.044296902
0.830227971 0.275914013 0.045746502
0.856260002 0.279071987 0.047135100
0.882260978 0.282276988 0.048569500
0.907683015 0.286426991 0.050751500
0.048752598 0.201006994 0.047501300
0.067063399 0.203356996 0.047913302
0.086228698 0.205920994 0.047943801
0.105531000 0.208544999 0.047516599
0.125338003 0.211092994 0.046845201
0.147036001 0.213717997 0.045456599
0.170580998 0.215746999 0.042709999
0.194949001 0.216555998 0.039078400
0.220324993 0.216663003 0.035751902
0.249409005 0.218158007 0.033539299
0.283374995 0.223377004 0.032654300
0.318134993 0.233660996 0.031891402
0.351826996 0.244922996 0.030380700
0.384207010 0.254184991 0.028992100
0.415564001 0.261418015 0.028015601
0.445791990 0.266972005 0.027435699
0.475394994 0.271198988 0.027267899
0.504737973 0.274556011 0.027603600
0.533837020 0.277316988 0.028442800
0.562813997 0.279942006 0.029648300
0.591318011 0.282292008 0.031082600
0.619347990 0.284657001 0.032608502
0.646860003 0.286702007 0.034210701
0.674234986 0.288991004 0.035904501
0.701228023 0.291249007 0.037598200
0.727931976 0.293384999 0.039292000
0.754437029 0.295872003 0.040955201
0.780849993 0.298482001 0.042526901
0.807003975 0.301106006 0.043991800
0.833051026 0.303929001 0.045395602
0.858853996 0.306843996 0.046677299
0.884473979 0.310124010 0.048371099
0.909361005 0.314595014 0.051224500
0.057190798 0.225283995 0.053711802
0.075608499 0.227832004 0.054062702
0.094850101 0.230579004 0.054032199
0.114396997 0.233386993 0.053589702
0.134599999 0.236178994 0.053009801
0.156160995 0.238925993 0.051834900
0.180194005 0.241488993 0.049317200
0.205631003 0.243213996 0.045517702
0.231174007 0.243458003 0.041199401
0.258166999 0.243229002 0.037109900
0.290578008 0.245501995 0.034103900
0.326543003 0.252627999 0.033936098
0.360951990 0.263431996 0.032837398
0.393453985 0.274524987 0.031418301
0.424735010 0.284000993 0.030228101
0.454535991 0.291386008 0.029373599
0.483330011 0.297031999 0.028778501
0.511666000 0.301533997 0.028595399
0.539650977 0.305043012 0.028900599
0.567559004 0.308019012 0.029724600
0.595422029 0.310674012 0.030960601
0.622979999 0.313115001 0.032486498
0.650141001 0.315571994 0.034073401
0.677195013 0.317921996 0.035706099
0.703975022 0.320104003 0.037384599
0.730616987 0.322468996 0.039002098
0.756985009 0.324880004 0.040497400
0.783168972 0.327275991 0.041977599
0.809201002 0.329656005 0.043411899
0.835142016 0.332280010 0.044785202
0.860867977 0.335042000 0.046066999
0.886228979 0.338337988 0.047974400
0.910613000 0.342976987 0.051667001
0.065934204 0.250308990 0.059891701
0.084596001 0.253024995 0.060105301
0.104189001 0.255833000 0.059983201
0.124375999 0.258915007 0.059662800
0.144777998 0.261860013 0.059067700
0.166461006 0.264804989 0.058030099
0.190723002 0.267720014 0.055817500
0.217151001 0.270236999 0.052109599
0.243304998 0.270924002 0.047409799
0.269214988 0.270267993 0.042511601
0.299412996 0.270909011 0.037643999
0.334737003 0.274890989 0.035370398
0.370595992 0.282902002 0.035187300
0.403800011 0.293660015 0.034302302
0.434836000 0.304753006 0.033203602
0.464056998 0.314168006 0.032166000
0.491905004 0.321736008 0.031326801
0.519035995 0.327672005 0.030792700
0.545785010 0.332264990 0.030579099
0.572564006 0.335987985 0.030777400
0.599161029 0.338887990 0.031387798
0.625864029 0.341573000 0.032455899
0.652688980 0.344015002 0.033936098
0.679422975 0.346592993 0.035446700
0.705959022 0.348881990 0.037003100
0.732464015 0.351278007 0.038605299
0.758647978 0.353552014 0.040085401
0.784802020 0.356007993 0.041458800
0.810727000 0.358296990 0.042755801
0.836606026 0.360722989 0.043961201
0.862257004 0.363272011 0.045242999
0.887480021 0.366613001 0.047348700
0.911527991 0.371297985 0.051667001
0.075120203 0.275837004 0.066010498
0.094071902 0.278798014 0.066178396
0.114442997 0.281895012 0.066102102
0.135163993 0.285160989 0.065796897
0.155917004 0.288318992 0.065171301
0.177752003 0.291386008 0.064194702
0.202304006 0.294591010 0.062287301
0.229175001 0.297459006 0.058838800
0.256260008 0.298970014 0.054108500
0.282245994 0.298694998 0.049073000
0.310337991 0.298283011 0.043579798
0.343205988 0.299854994 0.038468000
0.379446000 0.305150002 0.037109900
0.414449990 0.313726008 0.037094701
0.445746988 0.324299991 0.036499601
0.474402994 0.335256010 0.035614599
0.501380980 0.344929993 0.034714300
0.527198970 0.352604985 0.033920798
0.552559972 0.358723998 0.033356201
0.577934980 0.363362998 0.033020500
0.603371978 0.366887987 0.032974701
0.629128993 0.370000988 0.033295199
0.654932022 0.372640997 0.034088701
0.681116998 0.375097007 0.035294101
0.707439005 0.377539009 0.036697902
0.733714998 0.379904002 0.038162801
0.759761989 0.382254004 0.039475098
0.785794020 0.384573013 0.040756799
0.811719000 0.387030005 0.041962299
0.837536991 0.389364004 0.043152500
0.863111019 0.391806006 0.044388499
0.888167024 0.394933999 0.046845201
0.912092984 0.399710000 0.051331300
0.085206397 0.301990986 0.072175197
0.104326002 0.305074006 0.072419301
0.125383005 0.308476001 0.072388798
0.146548003 0.311910003 0.071976803
0.167941004 0.315266997 0.071351200
0.190081999 0.318654001 0.070588201
0.214542001 0.322026014 0.069047101
0.241779000 0.325383008 0.065980002
0.269809991 0.327596009 0.061432801
0.296665996 0.327962011 0.056275301
0.323217005 0.327046990 0.050888799
0.353460014 0.327351987 0.044495299
0.388083011 0.330296993 0.040070198
0.423835009 0.336522013 0.039520901
0.456488997 0.345052004 0.039658200
0.485282987 0.355473995 0.039383501
0.511559010 0.366322994 0.038666401
0.536355019 0.376073986 0.037857600
0.560295999 0.383794993 0.037064198
0.584131002 0.389761001 0.036270700
0.608057022 0.394338995 0.035660300
0.632700026 0.397940010 0.035416201
0.657588005 0.400992006 0.035431400
0.682947993 0.403555006 0.035782401
0.708536983 0.405966014 0.036575899
0.734538972 0.408362001 0.037720300
0.760448992 0.410726994 0.038880002
0.786388993 0.413031012 0.039978601
0.812192023 0.415426999 0.041077301
0.838025987 0.417791992 0.042145401
0.863538980 0.420233011 0.043549199
0.888410985 0.423498988 0.046372201
0.912306011 0.427771002 0.050843101
0.096269198 0.329014987 0.078629702
0.115648001 0.332157999 0.078873903
0.136919007 0.335729003 0.078828096
0.158618003 0.339437008 0.078461900
0.180712998 0.342947006 0.077866800
0.203250006 0.346455991 0.077256396
0.227604002 0.350088000 0.076127298
0.254536003 0.353735000 0.073762096
0.283390999 0.356725007 0.069565900
0.311771989 0.358083010 0.064316802
0.337835014 0.357183009 0.058930300
0.365788996 0.356557995 0.052628402
0.397635013 0.357717007 0.045960199
0.432090014 0.361624002 0.042603198
0.465950012 0.368153989 0.042618401
0.495810986 0.376608014 0.043030400
0.522117972 0.387059987 0.042923599
0.546212018 0.397695988 0.042389601
0.569024026 0.407263011 0.041504499
0.591378987 0.414954007 0.040497400
0.613825023 0.420904994 0.039459798
0.636956990 0.425422013 0.038574800
0.660731018 0.429037988 0.037903398
0.685176015 0.431952000 0.037521899
0.709986985 0.434500992 0.037430398
0.735270977 0.436773986 0.037750799
0.760829985 0.439123988 0.038376398
0.786664009 0.441352010 0.039230902
0.812390029 0.443670988 0.040161699
0.838177979 0.445959985 0.041153599
0.863645017 0.448538989 0.042709999
0.888379991 0.451759011 0.045761801
0.912337005 0.455740988 0.049973302
0.108002998 0.356557995 0.085206397
0.127610996 0.359883994 0.085435301
0.149095997 0.363638014 0.085389502
0.171267003 0.367453009 0.085084297
0.193973005 0.371282995 0.084763899
0.217212006 0.375142992 0.084306099
0.241488993 0.378850996 0.083527900
0.268070012 0.382696003 0.081773102
0.297107995 0.386296988 0.078324601
0.326588988 0.388464004 0.073182300
0.353383988 0.388173997 0.067566901
0.379904002 0.387273997 0.061860099
0.408926994 0.387198001 0.054749399
0.440481991 0.388799995 0.048264299
0.473793000 0.393438995 0.046005901
0.504768014 0.399877995 0.046356902
0.532082021 0.408362001 0.046967302
0.556252003 0.418585002 0.046982501
0.578392982 0.429067999 0.046463698
0.599618971 0.438589990 0.045441400
0.620706022 0.446081996 0.044190101
0.642283022 0.452017993 0.042801600
0.664682984 0.456488997 0.041474000
0.688028991 0.460105002 0.040466901
0.711986005 0.462927997 0.039566599
0.736522019 0.465308994 0.038956299
0.761409998 0.467689008 0.038696900
0.786786020 0.469886005 0.038773201
0.812375009 0.472052991 0.039261501
0.838070989 0.474357009 0.040116001
0.863431990 0.476722002 0.041748699
0.888136029 0.479849994 0.044937801
0.912261009 0.483619004 0.048706800
0.120241001 0.384680003 0.091813497
0.140063003 0.388143986 0.092042401
0.161790997 0.392035007 0.092103504
0.184572995 0.395956010 0.091981404
0.207919002 0.400045991 0.091813497
0.231463999 0.404058993 0.091599897
0.255923986 0.407934994 0.091142103
0.282231003 0.411962986 0.089951903
0.311024994 0.415991008 0.087235801
0.340947986 0.419028014 0.082642898
0.368811011 0.419683993 0.077134401
0.394751012 0.418799013 0.071671598
0.421454012 0.417867988 0.065186501
0.450064987 0.418067008 0.057496000
0.480751008 0.420401007 0.051758599
0.511893988 0.425193012 0.050186899
0.540382981 0.431616992 0.050766800
0.565530002 0.439933002 0.051499199
0.587761998 0.449882001 0.051545002
0.608422995 0.460426003 0.050888799
0.628472984 0.469749004 0.049652901
0.648752987 0.477118999 0.047989599
0.669656992 0.483040005 0.046219599
0.691690981 0.487434000 0.044480000
0.714672029 0.490882993 0.042954098
0.738384008 0.493705988 0.041565601
0.762600005 0.496071011 0.040375400
0.787320018 0.498252988 0.039429300
0.812390029 0.500419974 0.039002098
0.837858021 0.502463996 0.039230902
0.863080978 0.504845023 0.040665299
0.887769997 0.507835984 0.043823902
0.912032008 0.511207998 0.047180898
0.132586002 0.413168997 0.098649599
0.153062999 0.416860998 0.099000499
0.175035998 0.420859009 0.099198900
0.198443994 0.425101012 0.099275202
0.222323999 0.429282010 0.099275202
0.246296003 0.433402002 0.099259898
0.270877987 0.437476009 0.099107303
0.296817988 0.441581011 0.098298602
0.324849010 0.445731014 0.096299700
0.354757011 0.449667990 0.092561200
0.383520007 0.451483995 0.087418899
0.409505993 0.450935006 0.082032502
0.434852004 0.449743986 0.076417200
0.461082011 0.449180007 0.069367498
0.488518000 0.449409008 0.061280198
0.517952025 0.452277005 0.056183700
0.546760976 0.456901014 0.055008799
0.573175013 0.463156998 0.055817500
0.596399009 0.471121997 0.056504201
0.617182016 0.480888009 0.056321099
0.636698008 0.491447002 0.055436000
0.656091988 0.500724971 0.053971201
0.675731003 0.508216977 0.051926501
0.696390986 0.513999999 0.049652901
0.718241990 0.518317997 0.047516599
0.741008997 0.521645010 0.045441400
0.764446020 0.524345994 0.043457702
0.788464010 0.526603997 0.041611400
0.812955022 0.528770983 0.040192299
0.837812006 0.530677974 0.039200399
0.862730026 0.532981992 0.039917599
0.887358010 0.535759985 0.042572699
0.911741972 0.538811028 0.045410801
0.145113006 0.441733003 0.105562001
0.166232005 0.445623994 0.106141999
