luts/travel_08.cube
TITLE "33x33x33 Adobe/IRIDAS cube 3D LUT exported with GrossGrade v0.2.2 (beta) 64 bit"
DOMAIN_MIN 0 0 0
DOMAIN_MAX 1 1 1
LUT_3D_SIZE 5
0.003509580 0.002014190 0.000411994
0.140597001 0.020187700 0.002685590
0.385015994 0.040116001 0.003295950
0.631021976 0.052689400 0.004135200
0.854596972 0.062287301 0.008819720
0.035523001 0.132006004 0.030060301
0.212299004 0.158923000 0.014053600
0.458411992 0.195178002 0.007125960
0.688991010 0.219135001 0.007675290
0.893751025 0.246891007 0.013931500
0.082261398 0.337666988 0.069703199
0.283710986 0.371266991 0.053208198
0.527687013 0.412238002 0.018783901
0.742367029 0.449577004 0.015030100
0.936613977 0.466499001 0.019378999
0.215609998 0.559379995 0.146287993
0.382254004 0.593056977 0.143327996
0.598748982 0.627344012 0.076493502
0.783032000 0.668359995 0.045029402
0.961807013 0.700480998 0.032043900
0.312413007 0.745190024 0.244175002
0.462958992 0.776607990 0.248447001
0.629052997 0.804364026 0.195345998
0.811016977 0.839460015 0.104662001
0.961395025 0.884290993 0.093644597
0.013427900 0.030579099 0.067124397
0.123811997 0.028915800 0.094682202
0.387380987 0.017959900 0.091538899
0.630411029 0.030853700 0.097688302
0.851590991 0.045990702 0.118776001
0.034073401 0.148149997 0.120150000
0.168642998 0.179110005 0.144396007
0.473991007 0.185718000 0.125429004
0.695872009 0.208712995 0.122469001
0.895353973 0.241611004 0.135302007
0.079560503 0.335301995 0.173251003
0.237170994 0.393027008 0.212130994
0.543999016 0.428214014 0.170885995
0.754527986 0.451849997 0.165117994
0.942808986 0.468376011 0.167146996
0.161256999 0.546730995 0.252445012
0.350988001 0.600687027 0.287097991
0.588769019 0.641641974 0.251774013
0.786633015 0.681559026 0.188800007
0.962615013 0.709438026 0.199634001
0.282155007 0.741863012 0.354833007
0.447912991 0.780224025 0.378286004
0.625771999 0.816570997 0.373753995
0.810818970 0.855467021 0.278782010
0.960982978 0.899092019 0.243930995
0.032715298 0.076829202 0.177340001
0.091645703 0.082520798 0.199680001
0.328099012 0.068009503 0.240940005
0.607918978 0.035034701 0.254352987
0.841169000 0.037994999 0.280506998
0.039765000 0.193804994 0.228290007
0.104509003 0.213733003 0.255084991
0.385107011 0.229313001 0.317692995
0.678798020 0.204898000 0.312200010
0.893369973 0.217166007 0.319355994
0.090898000 0.357412010 0.307408005
0.162814006 0.393667996 0.342168003
0.468315005 0.456977010 0.409521997
0.752193987 0.457984000 0.386052996
0.943113983 0.473457009 0.384573013
0.154405996 0.540733993 0.384588003
0.254871011 0.586923003 0.421012014
0.551705003 0.657664001 0.484046996
0.787594020 0.693889022 0.455862999
0.962081015 0.720806003 0.435339987
0.246967003 0.726145983 0.465826988
0.388814986 0.767787993 0.497092992
0.614969015 0.826367974 0.542840004
0.808438003 0.869093001 0.528023005
0.961027980 0.916517973 0.493019015
0.056580499 0.129899994 0.297046989
0.107744001 0.140489995 0.314839005
0.228382006 0.145968005 0.370427996
0.536750972 0.130219996 0.416709006
0.789699972 0.109529004 0.464103013
0.064011604 0.249698997 0.347860008
0.116700999 0.266528994 0.368214995
0.256657004 0.296849012 0.440604001
0.603905976 0.287845999 0.494971991
0.841458976 0.274495006 0.524742007
0.096345499 0.400656015 0.426642001
0.152438000 0.423040986 0.448904991
0.312032014 0.478354990 0.521462023
0.682138979 0.513237000 0.594720006
0.914198995 0.502770007 0.606774986
0.161912993 0.563592017 0.515510976
0.216892004 0.585427999 0.534080982
0.427130997 0.648096025 0.605463028
0.733012974 0.706340015 0.662074029
0.950453997 0.722743988 0.656992018
0.224978998 0.724407017 0.585397005
0.304233998 0.749157012 0.604668975
0.519631028 0.806927979 0.663676023
0.790920973 0.873197973 0.727459013
0.959318995 0.922850013 0.753826022
0.087205298 0.198245004 0.436026990
0.135027006 0.214175999 0.456306010
0.215167001 0.231937006 0.500069022
0.497123986 0.241077006 0.587274015
0.746258020 0.234531000 0.637063980
0.096955799 0.312458992 0.480522007
0.144839004 0.329030007 0.499976993
0.229541004 0.354817986 0.543770015
0.543937981 0.388922006 0.650506973
0.795482993 0.384375006 0.699504018
0.125901997 0.449835986 0.552697003
0.173693001 0.466865003 0.570611000
0.257495999 0.497047007 0.608453989
0.566124976 0.556252003 0.714443028
0.851484001 0.573692977 0.774441004
0.162402004 0.600045979 0.633448005
0.211321995 0.618860006 0.651835024
0.309834003 0.649408996 0.686228991
0.592279017 0.713389993 0.773983002
0.896619976 0.759884000 0.846418023
0.201938003 0.754620016 0.720149994
0.271138012 0.781261981 0.746441007
0.416083008 0.813291013 0.782162011
0.708171010 0.879056990 0.864744008
0.945433974 0.933287978 0.922605991
