luts/travel_12.cube
TITLE "33x33x33 Adobe/IRIDAS cube 3D LUT exported with GrossGrade v0.2.2 (beta) 64 bit"
DOMAIN_MIN 0 0 0
DOMAIN_MAX 1 1 1
LUT_3D_SIZE 33
0.032349098 0.007003890 0.027771400
0.043442398 0.010101500 0.029083701
0.055390202 0.013397400 0.030594300
0.069108099 0.017013799 0.032394901
0.083329499 0.020752300 0.034271799
0.098847903 0.023743000 0.035996001
0.123461001 0.027313599 0.037827101
0.148179993 0.029465200 0.039337799
0.175356999 0.026367599 0.040527999
0.207094997 0.023453100 0.044556301
0.239582002 0.024124499 0.050568402
0.271946013 0.025742000 0.055420801
0.309895009 0.028061301 0.057801198
0.350210011 0.031601399 0.059372898
0.387091011 0.037537199 0.060776699
0.424291998 0.049729198 0.063050300
0.460426003 0.061951600 0.065644301
0.493537992 0.080018297 0.068436697
0.525994003 0.098573297 0.071351200
0.553201020 0.106218003 0.071183302
0.578225017 0.112108000 0.070542499
0.599053979 0.117951997 0.070634000
0.616526008 0.123628996 0.071366400
0.633355975 0.130006999 0.071549602
0.648828983 0.138979003 0.070679799
0.665109992 0.147982001 0.069947399
0.684015989 0.160555005 0.068925001
0.701762021 0.172548994 0.068100996
0.720272005 0.184771001 0.068665601
0.739300013 0.197451994 0.069748998
0.756175995 0.207674995 0.071290202
0.769985020 0.213382006 0.073151797
0.783474982 0.218722999 0.074921802
0.038712099 0.038040701 0.035843398
0.049698599 0.041306201 0.036957301
0.061478600 0.044724200 0.038193300
0.075379603 0.048264299 0.039551400
0.090150297 0.052323200 0.041062001
0.105958998 0.055939600 0.042572699
0.129351005 0.060151100 0.044312201
0.153033003 0.064255700 0.046066999
0.178607002 0.065018699 0.047333501
0.209369004 0.065201797 0.050049599
0.240329996 0.065781601 0.053650700
0.271701992 0.067093901 0.057145000
0.309392005 0.070038900 0.059220299
0.350149006 0.073182300 0.060883500
0.386052996 0.079865701 0.062592499
0.422140986 0.092240803 0.064835601
0.456519008 0.098252803 0.066910803
0.488166988 0.105791003 0.069047101
0.518944025 0.113512002 0.071427502
0.546241999 0.120424002 0.071519002
0.572229028 0.126985997 0.070984997
0.594201982 0.134264007 0.070862897
0.613016009 0.142076999 0.071244404
0.630961001 0.150240004 0.071168102
0.647638977 0.159152001 0.070420399
0.664713979 0.168443993 0.069794796
0.683054984 0.179079995 0.069260702
0.699916005 0.188327000 0.068726599
0.718059003 0.199420005 0.069169097
0.737118006 0.211809993 0.070115201
0.753857017 0.221530005 0.071580097
0.767727017 0.227175996 0.073441699
0.781307995 0.232242003 0.075196497
0.043671299 0.064148903 0.042358998
0.054093201 0.066041000 0.042832099
0.065110199 0.068116300 0.043350901
0.078522898 0.069947399 0.043808699
0.092637502 0.071686901 0.044220600
0.107621998 0.073655300 0.044907302
0.129457995 0.077103801 0.046158500
0.151553005 0.080567598 0.047379300
0.175631002 0.083360001 0.048691500
0.205097005 0.085648902 0.051071901
0.235172004 0.086884901 0.053864300
0.265583009 0.088059798 0.056595702
0.302724004 0.090699598 0.058655702
0.343953997 0.093919300 0.060685098
0.379141003 0.098191798 0.062500998
0.413213998 0.104662001 0.064271003
0.447715014 0.110857002 0.066376701
0.480002999 0.118822001 0.068741903
0.511559010 0.127061993 0.071396999
0.539483011 0.134492993 0.071854703
0.565865993 0.141955003 0.071412198
0.589119971 0.150712997 0.071061298
0.609461010 0.160585999 0.071015500
0.629388988 0.170564994 0.071000203
0.647607982 0.179248005 0.070557699
0.665736020 0.187900007 0.070145696
0.682734013 0.196124002 0.069886297
0.698116004 0.203906000 0.069367498
0.715937972 0.214221001 0.069748998
0.735011995 0.226245999 0.070511900
0.751658976 0.235676005 0.071961500
0.765515029 0.240970001 0.073777400
0.779079974 0.245609000 0.075349003
0.044831000 0.078034602 0.044907302
0.055069800 0.079682603 0.045029402
0.065720603 0.081483200 0.045120899
0.078904398 0.083100602 0.045166701
0.092927396 0.084687598 0.045197200
0.107804999 0.086717002 0.045639701
0.129198000 0.090470701 0.046677299
0.150607005 0.094041400 0.047715001
0.172885001 0.097367801 0.048859399
0.200671002 0.100037999 0.051071901
0.228518993 0.102036998 0.053437099
0.256291002 0.103944004 0.055817500
0.290486008 0.106752001 0.057862200
0.328770995 0.110032998 0.060059499
0.363867015 0.114396997 0.062012699
0.398505002 0.120393999 0.063569099
0.433966994 0.126435995 0.065491699
0.467902988 0.134356007 0.068055198
0.501106024 0.142732993 0.071030699
0.530067980 0.150667995 0.071869999
0.557838976 0.158906996 0.071625903
0.583902001 0.168413997 0.071091801
0.606743991 0.178819999 0.071091801
0.628503978 0.188906997 0.071320698
0.647104979 0.197863996 0.071076497
0.665537000 0.206714004 0.070832402
0.681773007 0.214237005 0.070557699
0.696924984 0.221393004 0.070008397
0.714579999 0.231220007 0.070252500
0.733485997 0.242161006 0.070832402
0.750331998 0.250506997 0.072236203
0.764644980 0.255313993 0.074128300
0.778500021 0.259723991 0.075760998
0.045883901 0.092103504 0.047425002
0.055985399 0.093446203 0.047119901
0.066330999 0.094865300 0.046768900
0.079331703 0.096406497 0.046433199
0.093308903 0.097932398 0.046112798
0.108231999 0.100098997 0.046311099
0.129228994 0.104005001 0.047180898
0.150178999 0.107819997 0.048020098
0.170671999 0.111420996 0.049027201
0.196962997 0.114396997 0.051148199
0.221988007 0.117601000 0.053177699
0.246951997 0.120851003 0.055222400
0.277363002 0.124269001 0.057251900
0.311726987 0.127793998 0.059464399
0.346197009 0.131883994 0.061432801
0.382039994 0.137513995 0.062851898
0.418691993 0.143144995 0.064515099
0.455496997 0.151063994 0.067292303
0.492042005 0.159349993 0.070328802
0.523872972 0.167909995 0.071427502
0.554238021 0.176698998 0.071457997
0.581430018 0.186556995 0.071335897
0.604485989 0.196857005 0.071305402
0.626612008 0.207094997 0.071503803
0.645852983 0.216358006 0.071580097
0.664851010 0.225635007 0.071625903
0.680751026 0.232792005 0.071152799
0.696025014 0.239611998 0.070328802
0.713756025 0.248401999 0.070450902
0.732586026 0.258166999 0.071152799
0.749522984 0.265614003 0.072556697
0.764050007 0.270314008 0.074540302
0.778302014 0.274632007 0.076386698
0.046829902 0.107088000 0.050324298
0.056397300 0.108338997 0.049485002
0.066071600 0.109803997 0.048630498
0.078904398 0.111055002 0.047837000
0.092958003 0.112214997 0.047119901
0.107621998 0.114350997 0.047028299
0.127931997 0.118790999 0.047684401
0.148271993 0.123156004 0.048340600
0.167909995 0.126772001 0.049134001
0.193758994 0.129914999 0.051087201
0.217364997 0.133761004 0.052964099
0.240803003 0.137896001 0.054840900
0.269183993 0.141955003 0.056839898
0.300633013 0.146090001 0.058899801
0.334722012 0.150545999 0.060730901
0.371923000 0.156160995 0.061921101
0.409368992 0.161776006 0.063218102
0.448141992 0.169467002 0.065705404
0.485846996 0.177218005 0.068314597
0.518013000 0.185747996 0.069855802
0.548806012 0.194536999 0.070817098
0.576547027 0.204256997 0.071259603
0.600426972 0.214557007 0.071457997
0.623178005 0.224871993 0.071610600
0.642984986 0.234546006 0.071534298
0.662622988 0.244175002 0.071366400
0.679301023 0.251087010 0.070664503
0.695536971 0.257770985 0.069993101
0.714030981 0.266285002 0.070603497
0.733394027 0.275516987 0.071961500
0.750667989 0.282642990 0.073670603
0.765347004 0.287007004 0.076050997
0.779461026 0.291034997 0.078156702
0.047196198 0.123582996 0.053437099
0.055725899 0.125489995 0.052094299
0.064286299 0.127381995 0.050659999
0.077302203 0.128007993 0.049408700
0.092072897 0.128373995 0.048310101
0.106919996 0.130373001 0.048004899
0.126161993 0.135545999 0.048508398
0.145616993 0.140612006 0.048966199
0.165804997 0.144076005 0.049378201
0.192294002 0.146974996 0.051087201
0.215884998 0.150667995 0.052903000
0.239199996 0.154451996 0.054764599
0.265812010 0.159121007 0.056565199
0.294452995 0.164385006 0.058350500
0.327107996 0.169801995 0.059815399
0.363577008 0.175874993 0.060746200
0.400061011 0.181917995 0.061615899
0.439521015 0.189089999 0.063294403
0.478354990 0.196353003 0.064988203
0.510338008 0.204165995 0.067185499
0.540856004 0.212253004 0.069489598
0.569467008 0.221622005 0.070908703
0.594353974 0.231876001 0.071076497
0.618203998 0.242054000 0.071076497
0.638315022 0.252094001 0.070969701
0.658182979 0.261936009 0.070710301
0.677028000 0.269199997 0.069977902
0.695384026 0.276066005 0.069275998
0.715663016 0.285053998 0.070801899
0.736584008 0.294530004 0.073365398
0.754954994 0.301946014 0.076142497
0.769298971 0.306064993 0.079240099
0.783154011 0.309911013 0.082108803
0.047348700 0.140489995 0.056626201
0.055008799 0.142809004 0.054779898
0.062668800 0.145113006 0.052841999
0.075639002 0.145418003 0.051132999
0.090699598 0.145190001 0.049576599
0.105912998 0.147082001 0.049042501
0.124361001 0.152604997 0.049408700
0.143724993 0.158098996 0.049607102
0.163973004 0.161440000 0.049683399
0.191165000 0.164462000 0.051163498
0.214922994 0.167895004 0.052933499
0.238132000 0.171526998 0.054703601
0.263431996 0.176593006 0.056351598
0.289981991 0.182726994 0.057907999
0.320728987 0.188830003 0.059067700
0.356756002 0.195590004 0.059647501
0.392080992 0.202350006 0.060257901
0.431982994 0.209064007 0.061036099
0.471489012 0.216159001 0.061768498
0.503624022 0.223574996 0.064652503
0.534478009 0.230700999 0.068177298
0.563317001 0.239628002 0.070206799
0.588967979 0.249256000 0.070511900
0.613381982 0.259158999 0.070527203
0.634028018 0.269306004 0.070389897
0.654307008 0.279422998 0.070115201
0.674997985 0.287007004 0.069321699
0.695658982 0.294223994 0.068864003
0.717860997 0.303853005 0.071351200
0.740123987 0.313787013 0.075165898
0.759105980 0.321447015 0.078934900
0.772992015 0.325475007 0.082749702
0.786495984 0.329061002 0.086289801
0.047043599 0.158601999 0.060563099
0.054779898 0.161059007 0.058335200
0.062516198 0.163516000 0.056061599
0.073853701 0.164691001 0.053711802
0.086610198 0.165637001 0.051377099
0.101945996 0.167254001 0.050293699
0.122667000 0.170687005 0.050370000
0.144610003 0.174838006 0.050186899
0.163988993 0.179461002 0.050156400
0.190615997 0.183901995 0.051667001
0.215609998 0.187456995 0.053284500
0.240391001 0.190966994 0.054917201
0.266911000 0.195696995 0.056519400
0.293904006 0.201404005 0.058106400
0.324514002 0.207491994 0.059159201
0.358967990 0.214663997 0.059296601
0.393285990 0.221911997 0.059327099
0.430900007 0.228701994 0.059006602
0.468284011 0.235339999 0.058579400
0.499473989 0.242175996 0.061554901
0.529488027 0.248692006 0.065522201
0.557838976 0.257037997 0.068146802
0.584176004 0.266209006 0.069321699
0.609399974 0.275546998 0.070054203
0.631600976 0.285602987 0.069993101
0.653833985 0.295567006 0.069993101
0.675242007 0.303959996 0.069520101
0.696208000 0.311803013 0.069138601
0.718455970 0.321904004 0.072358303
0.740749002 0.332249999 0.077286899
0.759792984 0.340413988 0.081971496
0.774120986 0.344471991 0.086381301
0.787792981 0.348226011 0.090379201
0.046677299 0.177111000 0.064545698
0.054490000 0.179736003 0.061982099
0.062317800 0.182375997 0.059372898
0.071976803 0.184664994 0.056382101
0.082474999 0.186816007 0.053254001
0.097886600 0.188251004 0.051605999
0.121416003 0.189334005 0.051514499
0.146486998 0.192218006 0.051132999
0.165515006 0.198168993 0.051300801
0.190798998 0.203936994 0.052658901
0.216297001 0.207401007 0.053940602
0.241992995 0.210498005 0.055222400
0.270038992 0.214846998 0.056824598
0.297428995 0.220156997 0.058396298
0.327672005 0.226169005 0.059311800
0.361166000 0.233829007 0.058960900
0.394629002 0.241595998 0.058442101
0.429877013 0.248051003 0.057007700
0.465278000 0.254658014 0.055466499
0.495398998 0.260807008 0.058533601
0.524483025 0.266972005 0.062867202
0.552772999 0.274601012 0.066224203
0.580147982 0.283313990 0.068406202
0.606881976 0.292347997 0.070008397
0.630380988 0.302129000 0.070054203
0.653787971 0.311787993 0.070099898
0.675531983 0.320775002 0.069733702
0.696666002 0.329320014 0.069382802
0.718958974 0.339574009 0.073304303
0.741191983 0.350652009 0.079346903
0.760555029 0.359425992 0.085114799
0.775310993 0.363683999 0.090119801
0.789258003 0.367498010 0.094590701
0.046799399 0.195192993 0.068116300
0.054688301 0.198397994 0.064698301
0.062561996 0.201495007 0.061203901
0.071595304 0.204256997 0.058152098
0.081208497 0.207034007 0.055314001
0.095658801 0.208423004 0.053452399
0.117113002 0.208849996 0.052735198
0.141572997 0.211521000 0.051911201
0.164370000 0.217121005 0.052185901
0.192766994 0.222262993 0.053421799
0.218569994 0.226398006 0.054520499
0.245274007 0.230288997 0.055725899
0.275501996 0.234730005 0.057114501
0.305440009 0.239749998 0.058289502
0.336355001 0.245884001 0.058793001
0.370916009 0.253697008 0.057557002
0.404776007 0.261204004 0.056229498
0.438331008 0.267383993 0.055176601
0.471426994 0.273472011 0.054230601
0.500298023 0.279255003 0.057602800
0.528129995 0.285221994 0.062150002
0.555351973 0.292591989 0.065613799
0.581888020 0.300648987 0.067811102
0.607888997 0.309361011 0.069413297
0.631646991 0.319492996 0.069657400
0.655099988 0.329457998 0.069871098
0.676630974 0.338261992 0.069703199
0.697642982 0.346547991 0.069565900
0.719843984 0.357533991 0.074280903
0.741649985 0.369756997 0.081406899
0.760540009 0.379186988 0.087754600
0.774899006 0.383520007 0.092683300
0.788540006 0.387472004 0.097062603
0.046997800 0.213245004 0.071717396
0.054963000 0.217043996 0.067292303
0.062867202 0.220676005 0.062851898
0.071427502 0.223911002 0.059815399
0.080415003 0.227192000 0.057389200
0.093751401 0.228854999 0.055374999
0.112489998 0.228350997 0.053894900
0.135775000 0.230792999 0.052582599
0.162645996 0.235752001 0.053009801
0.194628999 0.240269005 0.054093201
0.220981002 0.245228007 0.055054601
0.249302000 0.250095010 0.056366801
0.281544000 0.254673004 0.057511300
0.313816994 0.259418994 0.058182601
0.345739007 0.265689999 0.058228400
0.382039994 0.273395985 0.056092199
0.416723996 0.280324012 0.053986400
0.448646009 0.286442012 0.053665999
0.479193985 0.292012006 0.053498100
0.506461978 0.297551006 0.057023000
0.532921016 0.303517014 0.061661702
0.558938026 0.310627997 0.065140799
0.584360003 0.317997992 0.067231297
0.609399974 0.326283991 0.068772398
0.633065999 0.336827993 0.069184400
0.656641006 0.347036004 0.069733702
0.677866995 0.355473995 0.069871098
0.698939979 0.363867015 0.069993101
0.720745027 0.375569999 0.075303301
0.741970003 0.388814986 0.083375297
0.760326982 0.398961991 0.090257101
0.774227023 0.403356999 0.095017903
0.787549019 0.407476991 0.099336199
0.047226701 0.232363999 0.076722398
0.055344500 0.236973003 0.071335897
0.063401200 0.241306007 0.065934204
0.072037801 0.244953007 0.062226299
0.081055902 0.248401999 0.059220299
0.093995601 0.250232995 0.056641500
0.111666001 0.249943003 0.054734100
0.132920995 0.251682013 0.053238701
0.160432994 0.255786985 0.053818598
0.193210006 0.259739012 0.054749399
0.221042007 0.265170991 0.055649702
0.251498997 0.270236999 0.056992400
0.286823988 0.275043994 0.057541799
0.322605997 0.280063987 0.057389200
0.357488006 0.286457986 0.056778800
0.394490987 0.293706000 0.053955901
0.428824008 0.300038010 0.051453400
0.459205002 0.305988997 0.052338399
0.487266004 0.311024994 0.053254001
0.513267994 0.316547990 0.056916200
0.538613021 0.322544992 0.061448101
0.563745022 0.329441994 0.064850800
0.588326991 0.336706012 0.066941299
0.612237990 0.344655991 0.068436697
0.635508001 0.355123013 0.069138601
0.658656001 0.365209013 0.069886297
0.679544985 0.373816013 0.070283100
0.700450003 0.382375985 0.070618801
0.722011030 0.394490987 0.076585002
0.742855012 0.408300996 0.085618399
0.760860980 0.418691993 0.093278401
0.774365008 0.423148006 0.098680101
0.787410975 0.428061008 0.103761002
0.047455601 0.251911014 0.082581803
0.055695400 0.256992012 0.076386698
0.063981101 0.262302995 0.070084698
0.072968602 0.266223997 0.065232299
0.082490303 0.269733995 0.060883500
0.095429897 0.271793991 0.057541799
0.112520002 0.271748006 0.055420801
0.132311001 0.273701012 0.053986400
0.158450007 0.276600003 0.054657798
0.189623997 0.280171007 0.055374999
0.219104007 0.285512000 0.056122702
0.251637012 0.290562004 0.057419699
0.291218013 0.295338005 0.057206102
0.331990987 0.301182985 0.056168500
0.371266991 0.307805002 0.054749399
0.406989008 0.314244002 0.051575501
0.441031992 0.319981992 0.048859399
0.469199985 0.325551003 0.051194001
0.495490998 0.330220014 0.053467602
0.520439029 0.335743994 0.057297599
0.544915020 0.341847986 0.061661702
0.569176972 0.348562002 0.064911902
0.592980981 0.355672985 0.066941299
0.615961015 0.363835990 0.068406202
0.638513982 0.374044001 0.069260702
0.660776973 0.383902013 0.070145696
0.681392014 0.392598987 0.070786603
0.701991022 0.401632994 0.071381703
0.723048985 0.414144993 0.078187197
0.743770003 0.428167999 0.088090301
0.761761010 0.438483000 0.096574403
0.774806976 0.443244010 0.103165999
0.787823021 0.448035002 0.109376997
0.047715001 0.271930993 0.088853300
0.056107402 0.277332991 0.082261398
0.064515099 0.283039987 0.075394802
0.073731601 0.287770003 0.069092900
0.083314300 0.291325003 0.063004501
0.096116602 0.293567985 0.058487799
0.112856001 0.293828011 0.056061599
0.132097006 0.295383990 0.054505199
0.157869995 0.297733992 0.055207100
0.188327000 0.301212996 0.055695400
0.220507994 0.306690991 0.055909101
0.256962001 0.311742008 0.056931399
0.298938990 0.317021012 0.056336299
0.342794001 0.323368996 0.055130798
0.384649009 0.330098003 0.053467602
0.419562012 0.335622013 0.050553098
0.453880012 0.341131002 0.048004899
0.479362011 0.345815003 0.051132999
0.503838003 0.350255996 0.054230601
0.527442992 0.355428010 0.057923201
0.551217020 0.361562997 0.061905898
0.574715972 0.368200004 0.064927101
0.597620010 0.375387013 0.066864997
0.619898021 0.383473992 0.068452001
0.641627014 0.393209994 0.069443800
0.662820995 0.402913988 0.070511900
0.683054984 0.412283987 0.071488500
0.703243017 0.421851009 0.072480403
0.724009991 0.434271991 0.080231898
0.744624972 0.447836995 0.091233701
0.762295008 0.457922995 0.100938000
0.775035977 0.462500989 0.108782001
0.787823021 0.467108995 0.116136000
0.047913302 0.293904006 0.095719799
0.056275301 0.298694998 0.089372098
0.064682998 0.303882986 0.082871698
0.073823102 0.309482992 0.074738704
0.083161697 0.313726008 0.066132598
0.095902897 0.315618008 0.059906900
0.112810001 0.314992011 0.056717802
0.132799000 0.315510988 0.054688301
0.159578994 0.318699986 0.055222400
0.191119000 0.323307991 0.055268198
0.228153005 0.329441994 0.054138999
0.270848006 0.334890008 0.054596800
0.312305987 0.340673000 0.054169498
0.353780001 0.347065985 0.053879600
0.393804997 0.353246003 0.053009801
0.429769993 0.358267009 0.051148199
0.465048999 0.363409013 0.049546000
0.488288999 0.367406994 0.052536801
0.511573970 0.371389002 0.055542801
0.534431994 0.376684010 0.058808301
0.557717025 0.382833987 0.062210999
0.580636024 0.389319003 0.064927101
0.602761984 0.396795988 0.066926099
0.624230981 0.404653996 0.068680897
0.644922972 0.413901001 0.069916800
0.664758980 0.422735989 0.071122304
0.684840024 0.433082014 0.072449803
0.704952002 0.443610013 0.073777400
0.725184977 0.455451012 0.082963303
0.745356977 0.467337996 0.095918201
0.762401998 0.476875007 0.107607000
0.774852991 0.480628997 0.116976000
0.787198007 0.484398007 0.125734001
0.048004899 0.315479994 0.102463998
0.056443099 0.319905013 0.096513301
0.064881399 0.324452996 0.090333402
0.073853701 0.330480009 0.080689698
0.082978599 0.336048990 0.069535397
0.095643602 0.337651998 0.061631199
0.112718001 0.336277992 0.057511300
0.133500993 0.335927010 0.054871399
0.161364004 0.339650989 0.055268198
0.194064006 0.345295995 0.054825701
0.235721007 0.351857990 0.052430000
0.283634990 0.358143985 0.052307900
0.325856000 0.364340007 0.052216399
0.364813000 0.370626003 0.052567299
0.402868986 0.376134992 0.052567299
0.439963013 0.381033003 0.051758599
0.474265993 0.385091990 0.050888799
0.496345013 0.388967991 0.053772800
0.518746018 0.392949998 0.056717802
0.541481972 0.398627013 0.059632301
0.564248025 0.404913008 0.062546700
0.586404026 0.411460012 0.065049201
0.607613981 0.418677002 0.067109197
0.628289998 0.426032007 0.069031797
0.648020029 0.434484988 0.070405103
0.666742980 0.442633986 0.071778402
0.686595023 0.453848988 0.073426403
0.706614971 0.465324014 0.074967600
0.726329029 0.476447999 0.085343704
0.745983005 0.487282008 0.100571997
0.762401998 0.495613009 0.114321001
0.774456024 0.498436004 0.125092998
0.786404014 0.501182973 0.135133997
0.048050702 0.337803990 0.110657997
0.056443099 0.341482013 0.105516002
0.064866103 0.345281005 0.100281999
0.073533200 0.351110011 0.091523603
0.082215600 0.357015014 0.081147499
0.094422802 0.360127985 0.070908703
0.111482002 0.360388011 0.061951600
0.133165002 0.361088991 0.055329200
0.163271993 0.361501008 0.055329200
0.198946998 0.364279002 0.054428902
0.244312003 0.371740013 0.051010899
0.293720990 0.379979998 0.049500301
0.336827993 0.387427002 0.049164601
0.374242991 0.394246995 0.049393501
0.410086006 0.400274992 0.050049599
0.445014000 0.404852003 0.051178802
0.476691991 0.408331007 0.052033301
0.500617981 0.412115991 0.055207100
0.524941027 0.415868998 0.058426801
0.547493994 0.421346992 0.061234500
0.569619000 0.427282989 0.063965797
0.591042995 0.433737993 0.066239402
0.611292005 0.441123009 0.068100996
0.631265998 0.448386014 0.069810003
0.650705993 0.456748009 0.070969701
0.668711007 0.465353996 0.071976803
0.688426018 0.476065993 0.074738704
0.708384991 0.486945987 0.077561602
0.727717996 0.496802986 0.090119801
0.746487021 0.505989015 0.108202003
0.762355983 0.512809992 0.123735003
0.774013996 0.515250981 0.134645998
0.785794020 0.517296016 0.144777998
0.047684401 0.360448986 0.118836999
0.056107402 0.363516003 0.114733003
0.064560898 0.366629004 0.110536002
0.073029697 0.372244000 0.102724001
0.081437401 0.377905011 0.093156300
0.093446203 0.382239014 0.081086397
0.110155001 0.384222001 0.066605598
0.132540002 0.386175007 0.055863298
0.165025994 0.383489996 0.055268198
0.203844994 0.383444011 0.053940602
0.252582997 0.391927987 0.049546000
0.302998006 0.402152002 0.046616301
0.347555012 0.410162985 0.045990702
0.383444011 0.417989999 0.046143301
0.417365015 0.424703985 0.047592901
0.450004011 0.428916007 0.050614201
0.479377002 0.431829989 0.053223498
0.505271971 0.435247988 0.056641500
0.531243026 0.438910991 0.060120501
0.553475022 0.444099009 0.062836699
0.574777007 0.449882001 0.065384902
0.595314980 0.456382006 0.067475401
0.614602983 0.463782996 0.069031797
0.633660972 0.471473008 0.070450902
0.652750015 0.479912013 0.071274899
0.670481026 0.488395989 0.071946301
0.690226972 0.498481989 0.075913601
0.710108995 0.508720994 0.080140397
0.729121983 0.517250001 0.095002703
0.747004986 0.524407029 0.115861997
0.762126982 0.529793024 0.133211002
0.773509979 0.531533003 0.144259006
0.784969985 0.533562005 0.155337006
0.046967302 0.385031015 0.127855003
0.055374999 0.388235003 0.124254003
0.063859001 0.391638011 0.120745003
0.072495602 0.397253007 0.112673000
0.081208497 0.403142989 0.102463998
0.092683300 0.407858014 0.088471800
0.107607000 0.410421997 0.070283100
0.128327996 0.413107991 0.056336299
0.165620998 0.409339011 0.055207100
0.211704001 0.408881009 0.053437099
0.261249989 0.416678011 0.049164601
0.311527997 0.425727010 0.046189100
0.355764002 0.432516992 0.045761801
0.390082002 0.439428985 0.046616301
0.422125995 0.445701003 0.048523702
0.451712996 0.450506985 0.051621299
0.478569001 0.454017013 0.054276299
0.505668998 0.457632989 0.057755399
0.532570004 0.461097002 0.061158199
0.554879010 0.466452986 0.063752197
0.576272011 0.472267002 0.066102102
0.596750021 0.479332000 0.068024702
0.615732014 0.487372994 0.069382802
0.634698987 0.495292991 0.070664503
0.654291987 0.503166020 0.071778402
0.672908008 0.510932982 0.072632901
0.692332029 0.520684004 0.078141503
0.711803019 0.530372977 0.083985701
0.730144024 0.537423015 0.101090997
0.747295022 0.542686999 0.124300003
0.762202978 0.546684980 0.142472997
0.773754001 0.548530996 0.152316004
0.785396993 0.550652027 0.161868006
0.046356902 0.411002010 0.138047993
0.054932501 0.414739996 0.134966001
