luts/travel_02.cube
TITLE "33x33x33 Adobe/IRIDAS cube 3D LUT exported with GrossGrade v0.2.2 (beta) 64 bit"
DOMAIN_MIN 0 0 0
DOMAIN_MAX 1 1 1
LUT_3D_SIZE 33
0.023559900 0.019897800 0.033005301
0.046448499 0.024567001 0.033127300
0.069245398 0.029358400 0.033310398
0.091920301 0.034302302 0.033539299
0.114487998 0.039337799 0.033814002
0.145861000 0.045197200 0.033173099
0.187548995 0.051804401 0.031403098
0.230776995 0.058426801 0.029465200
0.274280995 0.065018699 0.027542500
0.320149988 0.071457997 0.025574099
0.368764997 0.077683702 0.023605701
0.417593986 0.083741501 0.021652600
0.466239005 0.089784101 0.019714700
0.513648987 0.095887698 0.018112499
0.553520977 0.101700999 0.017837800
0.588402987 0.107012004 0.018188801
0.622446001 0.112184003 0.018509200
0.656596005 0.117432997 0.018860200
0.688380003 0.122758999 0.019302700
0.713541985 0.128038004 0.020035099
0.734080970 0.133074000 0.020950601
0.754756987 0.138170004 0.021820400
0.775463998 0.143313006 0.022690199
0.795270026 0.148149997 0.023498900
0.812237978 0.152192995 0.024185499
0.828289986 0.156283006 0.024780700
0.841840029 0.161151007 0.025085799
0.855298996 0.166003004 0.025345201
0.868040025 0.170442998 0.025589401
0.879972994 0.174410999 0.025757199
0.891919971 0.178424001 0.025894601
0.903852999 0.182391003 0.026047099
0.915862024 0.186496004 0.026199700
0.025635200 0.036560599 0.035904501
0.046585798 0.040878899 0.035782401
0.067475401 0.045288801 0.035675600
0.088242903 0.049790200 0.035614599
0.108903997 0.054367900 0.035538301
0.136033997 0.060013700 0.035187300
0.177844003 0.066498801 0.033386700
0.222003996 0.073029697 0.031357300
0.266589999 0.079606302 0.029358400
0.312427998 0.086030401 0.027313599
0.361227006 0.092210300 0.025284201
0.410620004 0.098435998 0.023300501
0.459921986 0.104539998 0.021316901
0.508521974 0.110582002 0.019470500
0.549553990 0.116457000 0.019012701
0.584909022 0.121964999 0.019378999
0.619576991 0.127321005 0.019699400
0.654169023 0.132707998 0.020065600
0.686824024 0.138125002 0.020477600
0.713069022 0.143572003 0.021179499
0.734188020 0.148912996 0.022125600
0.755366981 0.154268995 0.023010600
0.776669025 0.159701005 0.023895601
0.796979010 0.164796993 0.024765400
0.814328015 0.169009000 0.025451999
0.830883980 0.173251003 0.026031900
0.844724000 0.178575993 0.026291300
0.858442008 0.183855996 0.026535399
0.871457994 0.188800007 0.026749101
0.883574009 0.193087995 0.026855901
0.895673990 0.197375000 0.026977999
0.907805026 0.201769993 0.027084799
0.919951022 0.206180006 0.027191600
0.027695101 0.053360801 0.038925800
0.046784200 0.057236601 0.038513798
0.065796897 0.061219200 0.038116999
0.084702797 0.065217100 0.037689801
0.103487000 0.069321699 0.037262499
0.126115993 0.074784502 0.037201501
0.167787999 0.081223801 0.035431400
0.213122994 0.087754600 0.033295199
0.258655995 0.094224498 0.031204700
0.304722995 0.100725003 0.029114200
0.353735000 0.106935002 0.027039001
0.403784007 0.113100000 0.024963800
0.453604996 0.119188003 0.022919100
0.503409982 0.125352994 0.020904901
0.545571029 0.131273001 0.020264000
0.581459999 0.136858001 0.020584401
0.616586983 0.142412007 0.020920100
0.651803970 0.147966996 0.021332100
0.685176015 0.153551996 0.021698300
0.712535024 0.159075007 0.022369700
0.734202981 0.164706007 0.023315800
0.755962014 0.170335993 0.024231300
0.777797997 0.176073998 0.025131600
0.798610985 0.181429997 0.026016600
0.816419005 0.185901001 0.026764300
0.833477974 0.190311000 0.027359400
0.847593009 0.196245998 0.027588300
0.861554980 0.202089995 0.027801899
0.874754012 0.207506999 0.028015601
0.886976004 0.212099999 0.028091900
0.899214029 0.216769993 0.028198700
0.911527991 0.221622005 0.028320700
0.923780978 0.226275995 0.028442800
0.029770400 0.070359297 0.042069100
0.047043599 0.073655300 0.041351900
0.064209998 0.077073298 0.040589001
0.081254303 0.080567598 0.039795499
0.098191798 0.084046699 0.038956299
0.119234003 0.089433096 0.038819000
0.157609999 0.095979303 0.037491400
0.203906000 0.102495000 0.035309400
0.250523001 0.108948998 0.033112101
0.297291994 0.115388997 0.030929999
0.346394986 0.121599004 0.028778501
0.396840990 0.127793998 0.026688000
0.447241992 0.134004995 0.024597500
0.497658014 0.140154004 0.022507099
0.541526973 0.146090001 0.021530500
0.578011990 0.151904002 0.021850901
0.613686979 0.157580003 0.022186600
0.649348021 0.163225994 0.022568099
0.683574021 0.169634998 0.023010600
0.711910009 0.175874993 0.023666700
0.734142005 0.182254001 0.024658600
0.756404996 0.188556001 0.025589401
0.778759003 0.194949001 0.026550701
0.800000012 0.200884998 0.027405201
0.818157971 0.205706999 0.028122401
0.835476995 0.210407004 0.028824300
0.850004017 0.216434002 0.029068399
0.864210010 0.222507000 0.029327800
0.877546012 0.227908999 0.029541500
0.889891028 0.232639000 0.029678799
0.902296007 0.237445995 0.029816100
0.914686978 0.242237002 0.029968699
0.927123010 0.247119993 0.030136600
0.031799801 0.087388404 0.045334600
0.047318202 0.090165600 0.044266399
0.062684096 0.092942700 0.043106701
0.077927798 0.095811397 0.041901302
0.093049496 0.098680101 0.040604301
0.113191001 0.103914000 0.040299099
0.147860005 0.110674001 0.039490301
0.194461003 0.117234997 0.037323602
0.242145002 0.123659000 0.035034701
0.289997995 0.130082995 0.032791600
0.339100987 0.136338994 0.030609600
0.389959991 0.142564997 0.028442800
0.440970004 0.148774996 0.026306599
0.491782993 0.155534998 0.024307599
0.536674976 0.162508994 0.023285300
0.574181974 0.169405997 0.023575200
0.610436976 0.176165000 0.024017701
0.646784008 0.182803005 0.024353400
0.681986988 0.189288005 0.024658600
0.711376011 0.195421994 0.025177401
0.734095991 0.201906994 0.026154000
0.756816983 0.208453000 0.027054200
0.779644012 0.215045005 0.028000301
0.801328003 0.221134007 0.028854800
0.819805980 0.225986004 0.029572001
0.837445974 0.230868995 0.030212900
0.852293015 0.236881003 0.030594300
0.866728008 0.243121997 0.030899500
0.880262017 0.248692006 0.031174200
0.892744005 0.253513008 0.031357300
0.905225992 0.258289009 0.031540401
0.917753994 0.263217986 0.031769302
0.930251002 0.268070012 0.031952400
0.034027599 0.105591998 0.049195100
0.048371099 0.107988000 0.047989599
0.062607802 0.110384002 0.046707898
0.076691799 0.112902001 0.045349799
0.090669103 0.115465000 0.043946002
0.109880000 0.120562002 0.043457702
0.141252995 0.127443001 0.042786300
0.186830997 0.133715004 0.040375400
0.234150007 0.139895007 0.037781298
0.281345993 0.146608993 0.035294101
0.329259008 0.154208004 0.033249401
0.379781991 0.161959007 0.031387798
0.431418002 0.169496998 0.029419400
0.483604014 0.176944003 0.027420500
0.530694008 0.183978006 0.026138701
0.569772005 0.190844998 0.026123401
0.606805980 0.197742000 0.026382800
0.643945992 0.204471007 0.026550701
0.680247009 0.211048007 0.026672799
0.710780978 0.217334002 0.027039001
0.734004974 0.223940998 0.027969800
0.757274985 0.230579004 0.028885299
0.780560017 0.237170994 0.029739801
0.802716017 0.243336007 0.030548600
0.821575999 0.248172998 0.031265698
0.839489996 0.253039986 0.031876098
0.854794979 0.259128988 0.032318600
0.869473994 0.265491992 0.032700099
0.883176982 0.271122009 0.033020500
0.895766020 0.275943995 0.033249401
0.908415020 0.280873001 0.033524100
0.921019018 0.285710007 0.033768199
0.933683991 0.290699989 0.034042899
0.036331698 0.124711998 0.053620201
0.050095402 0.127015993 0.052552100
0.063767500 0.129427001 0.051438201
0.077302203 0.131823003 0.050202198
0.090714902 0.134462997 0.048950899
0.109071001 0.139574006 0.048355799
0.137437999 0.146868005 0.047608100
0.180056006 0.153871998 0.044968300
0.224169999 0.161089003 0.042038601
0.268132001 0.168947995 0.039322499
0.314640999 0.177386001 0.037262499
0.366369009 0.185472995 0.035278901
0.419959009 0.193149000 0.033234101
0.474220008 0.200717002 0.031113099
0.523841977 0.207736000 0.029541500
0.564842999 0.214496002 0.029129500
0.602823019 0.221331999 0.029175200
0.640969992 0.228229001 0.029160000
0.678140998 0.234546006 0.029007399
0.709667027 0.240771994 0.029251499
0.733959019 0.247409999 0.030029800
0.757748008 0.254078001 0.030899500
0.781552017 0.260699987 0.031708200
0.804135025 0.266819000 0.032501701
0.823423028 0.271732986 0.033157900
0.841702998 0.276706994 0.033783499
0.857465982 0.282826006 0.034256499
0.872358024 0.289157987 0.034683801
0.886290014 0.294957012 0.035065200
0.899046004 0.299870014 0.035385702
0.911832988 0.304874986 0.035736602
0.924574971 0.309772998 0.036057100
0.937376976 0.314763010 0.036347002
0.038010199 0.146090001 0.059204999
0.051499199 0.148378998 0.058258899
0.064866103 0.150667995 0.057221301
0.078156702 0.153184995 0.056153201
0.091310002 0.155779004 0.054978300
0.109010004 0.160739005 0.054154299
0.134478003 0.168092996 0.053086098
0.173418999 0.175615996 0.050064899
0.213854998 0.183412999 0.046692599
0.254611999 0.191943005 0.043518700
0.298801988 0.201846004 0.041535102
0.351613998 0.210253999 0.039490301
0.407523006 0.217822999 0.037277799
0.464134008 0.225207999 0.035004199
0.516731977 0.231800005 0.033035800
0.559791982 0.238590002 0.032318600
0.598671973 0.245274007 0.032135502
0.637781024 0.252079010 0.031845599
0.675929010 0.258473009 0.031540401
0.708414972 0.264468998 0.031540401
0.733821988 0.270924002 0.032166000
0.758113980 0.277698994 0.032944199
0.782498002 0.284366995 0.033753000
0.805615008 0.290668994 0.034470100
0.825299025 0.295475990 0.035126299
0.843869984 0.300464988 0.035706099
0.860104978 0.306600004 0.036255401
0.875288010 0.313190997 0.036759000
0.889418006 0.319065988 0.037216801
0.902327001 0.324010015 0.037598200
0.915220976 0.328893006 0.037933901
0.928144991 0.333959013 0.038330700
0.941070020 0.338948995 0.038712099
0.039612401 0.167909995 0.065049201
0.052811500 0.170213997 0.064194702
0.065934204 0.172671005 0.063324898
0.078934900 0.175157994 0.062333100
0.091874599 0.177599996 0.061280198
0.108980000 0.182528004 0.060227402
0.131623998 0.189653993 0.058747198
0.166963995 0.197497994 0.055222400
0.203982994 0.205736995 0.051361900
0.241580993 0.214633003 0.047745500
0.284076989 0.225787997 0.045685500
0.336369991 0.235172004 0.043732401
0.394659013 0.242390007 0.041290902
0.453619987 0.249682993 0.038849499
0.509361029 0.256076992 0.036591101
0.554574013 0.262576997 0.035553500
0.594521999 0.269291013 0.035110999
0.634516001 0.275929004 0.034592200
0.673533022 0.282261014 0.034073401
0.707179010 0.288150996 0.033814002
0.733592987 0.294468999 0.034332801
0.758480012 0.301304996 0.035065200
0.783367991 0.308140993 0.035797700
0.806989014 0.314426988 0.036514800
0.827114999 0.319279999 0.037094701
0.846020997 0.324254006 0.037689801
0.862698972 0.330388010 0.038254399
0.878157020 0.337056994 0.038849499
0.892530978 0.343053013 0.039368302
0.905561984 0.348057985 0.039765000
0.918639004 0.353123993 0.040222801
0.931670010 0.358099014 0.040665299
0.944761992 0.363180012 0.041107800
0.041260399 0.190188006 0.071076497
0.054184798 0.192569003 0.070374601
0.067002401 0.194949001 0.069565900
0.079789400 0.197497994 0.068741903
0.092484899 0.199968994 0.067795798
0.108919002 0.204639003 0.066483602
0.129244000 0.211398005 0.064622000
0.161227003 0.219439998 0.060715601
0.195087001 0.227878004 0.056336299
0.229739994 0.237018004 0.052246898
0.270954013 0.249331996 0.050156400
0.321370006 0.260197014 0.048294801
0.381338000 0.267444998 0.045639701
0.442649007 0.274509996 0.042954098
0.500877023 0.280734986 0.040421199
0.549187005 0.286976010 0.038971499
0.590050995 0.293583989 0.038254399
0.631036997 0.300130010 0.037506700
0.671137989 0.306340009 0.036697902
0.705775976 0.312108010 0.036270700
0.733287990 0.318318009 0.036575899
0.758723974 0.325352997 0.037460901
0.784206986 0.332403004 0.038422201
0.808315992 0.338856995 0.039261501
0.828778982 0.343739986 0.039948098
0.848004997 0.348699003 0.040634800
0.865125000 0.354909986 0.041382499
0.880780995 0.361638993 0.042191200
0.895246983 0.367529005 0.042862602
0.908353984 0.372381002 0.043411899
0.921508014 0.377400994 0.043946002
0.934646010 0.382391006 0.044525798
0.947784007 0.387304008 0.045075200
0.042984702 0.213488996 0.077637903
0.055725899 0.215884998 0.077042803
0.068406202 0.218493998 0.076447703
0.081040703 0.220965996 0.075715303
0.093614101 0.223606005 0.074952297
0.109605998 0.228199005 0.073639996
0.128542006 0.234684005 0.071824200
0.158038005 0.242801994 0.067917898
0.189211994 0.251498997 0.063599601
0.221362993 0.261005998 0.059433900
0.260533005 0.274266005 0.057053499
0.308339000 0.286594987 0.054825701
0.367926002 0.294286013 0.051575501
0.430334985 0.300877005 0.048020098
0.490180999 0.306966007 0.044998899
0.541420996 0.313497007 0.043335602
0.583855987 0.320531011 0.042679500
0.626047015 0.327320993 0.041992798
0.667460024 0.333851993 0.041382499
0.703760982 0.339543998 0.041031498
0.732692003 0.345510006 0.041382499
0.758723974 0.352468014 0.042252202
0.784802020 0.359548002 0.043182999
0.809414983 0.365895987 0.044083301
0.830242991 0.370793998 0.044861499
0.849820971 0.375524998 0.045532901
0.867368996 0.381628007 0.046463698
0.883176982 0.388083011 0.047348700
0.897733986 0.393759012 0.048142198
0.910933018 0.398488998 0.048798401
0.924131989 0.403295994 0.049424000
0.937316000 0.408042014 0.050095402
0.950514972 0.412786990 0.050766800
0.044754699 0.237293005 0.084473900
0.057373900 0.239962995 0.084092498
0.069916800 0.242512003 0.083573699
0.082429200 0.245274007 0.083054900
0.094895899 0.247973993 0.082429200
0.110505998 0.252582997 0.081300102
0.128801003 0.258762002 0.079591103
0.155885994 0.266957015 0.075928897
0.184634000 0.275761008 0.071778402
0.214496002 0.285694987 0.067826398
0.252124995 0.299474001 0.064927101
0.297428995 0.313160986 0.062134702
0.356146008 0.321262985 0.058213200
0.417746007 0.328877985 0.054184798
0.477043003 0.336263001 0.051056702
0.530143976 0.343526006 0.049317200
0.575417995 0.350515008 0.048569500
0.619561970 0.357183009 0.047959100
0.662958980 0.363209993 0.047348700
0.701319993 0.368719012 0.047058798
0.731959999 0.374242991 0.047379300
0.758587003 0.381215990 0.048340600
0.785245001 0.388006002 0.049225599
0.810361028 0.394262999 0.050110601
0.831556022 0.398809999 0.050812501
0.851530015 0.403524995 0.051529702
0.869458973 0.409033000 0.052384201
0.885420024 0.415335000 0.053406600
0.900098979 0.420736998 0.054291598
0.913329005 0.425283998 0.055039302
0.926589012 0.429755002 0.055787001
0.939818025 0.434287012 0.056549899
0.953047991 0.438726991 0.057251900
0.046631601 0.261494011 0.091584697
0.059082899 0.264256001 0.091371000
0.071488500 0.267062992 0.091065802
0.083863601 0.269780010 0.090684399
0.096192896 0.272617996 0.090241902
0.111391000 0.277103990 0.089265302
0.129030004 0.283039987 0.087724097
0.154359996 0.290989995 0.084275603
0.181597993 0.299504012 0.080277704
0.210421994 0.308995008 0.076249301
0.247394994 0.323018014 0.072739802
0.290257007 0.338048011 0.069291197
0.346531987 0.347844988 0.064972900
0.406118989 0.356954008 0.060502000
0.463797987 0.366185993 0.057389200
0.517692983 0.374913990 0.055832800
0.565743983 0.381796002 0.055054601
0.612206995 0.387914985 0.054398399
0.657984018 0.393530011 0.053788099
0.698650002 0.398198992 0.053360801
0.731197000 0.403281003 0.053543899
0.758404016 0.410010010 0.054459400
0.785656989 0.416693002 0.055359699
0.811307013 0.422628999 0.056137901
0.832883000 0.427008003 0.056778800
0.853192985 0.431418002 0.057450201
0.871564984 0.436697990 0.058411501
0.887678027 0.442694992 0.059540700
0.902433991 0.447822005 0.060532499
0.915723979 0.452078998 0.061326001
0.928985000 0.456230015 0.062134702
0.942305982 0.460440993 0.062928200
0.955565989 0.464576006 0.063736901
0.048661001 0.286060989 0.099092104
0.060944501 0.288884014 0.099061601
0.073197499 0.291691005 0.098924197
0.085419998 0.294606000 0.098756403
0.097612001 0.297520012 0.098497003
0.112383001 0.301822990 0.097672999
0.129319996 0.307453990 0.096269198
0.153230995 0.314900011 0.092958003
0.179294005 0.322941989 0.088975400
0.207323998 0.332082003 0.084855400
0.244342998 0.346013993 0.080628701
0.285129994 0.361975014 0.076356098
0.338337988 0.373510003 0.071534298
0.395330995 0.384267986 0.066697203
0.451362014 0.395422012 0.063538603
0.505469978 0.405997008 0.062241599
0.555642009 0.413520008 0.061570201
0.604578018 0.418906003 0.060837701
0.652688980 0.423696995 0.060120501
0.695796013 0.427985013 0.059662800
0.730373025 0.432348996 0.059739102
0.758189976 0.438926011 0.060593601
0.786006987 0.445181996 0.061356500
0.812222004 0.451011002 0.062210999
0.834150016 0.455238014 0.062790900
0.854794979 0.459250987 0.063416503
0.873610020 0.464148998 0.064347297
0.889859974 0.469931990 0.065613799
0.904738009 0.474799991 0.066697203
0.918074012 0.478751987 0.067628004
0.931394994 0.482596993 0.068467200
0.944732010 0.486564010 0.069398001
0.958082974 0.490485996 0.070283100
0.050721001 0.310734987 0.106783003
0.062882401 0.313663989 0.106935002
0.075059101 0.316655010 0.107056998
0.087205298 0.319646001 0.107088000
0.099321000 0.322591007 0.107027002
0.113724999 0.326954991 0.106416002
0.130098000 0.332356989 0.105195999
0.152987003 0.339208007 0.101853997
0.178286001 0.347021013 0.097932398
0.205631003 0.355733991 0.093705699
0.241946995 0.369390011 0.088990599
0.282002002 0.385275006 0.084077202
0.330662996 0.398566008 0.079117998
0.384526998 0.410360992 0.074189402
0.438315004 0.423162997 0.071091801
0.492195010 0.436392993 0.069886297
0.544152021 0.444923013 0.069031797
0.595560014 0.450064987 0.067948401
0.646143019 0.454490006 0.066941299
0.691874981 0.457969010 0.066269897
0.728847027 0.461723000 0.066208899
0.757534027 0.467826009 0.066941299
0.786037982 0.474234998 0.067780599
0.812847972 0.479759008 0.068482503
0.835171998 0.483664989 0.069047101
0.856260002 0.487616986 0.069718502
0.875593007 0.492148995 0.070649303
0.892012000 0.497489989 0.071992099
0.907042027 0.502205014 0.073228002
0.920409024 0.505729973 0.074158803
0.933806002 0.509422004 0.075135402
0.947188020 0.513054013 0.076142497
0.960586011 0.516731977 0.077134401
0.052750401 0.335500002 0.114549004
0.064911902 0.338598013 0.114960998
0.077042803 0.341740996 0.115296997
0.089128003 0.344915003 0.115557000
0.101213001 0.348089010 0.115754999
0.115373001 0.352284998 0.115312003
0.131319001 0.357641011 0.114289999
0.153688997 0.364385009 0.111024998
0.178393006 0.371800989 0.107056998
0.205111995 0.380315989 0.102770001
0.240452006 0.393256009 0.097795099
0.279300988 0.408576012 0.092698596
0.323734999 0.422477007 0.087769903
0.373434007 0.435218006 0.083146401
0.424979001 0.449133992 0.080064103
0.477973998 0.464424014 0.078721300
0.531121016 0.476265013 0.077576898
0.585168004 0.481224000 0.075837299
0.638422012 0.485541999 0.074250400
0.686380982 0.488593996 0.073411196
0.725475013 0.491829008 0.073472202
0.756008029 0.497397989 0.074250400
0.785229027 0.503166020 0.075165898
0.812726021 0.508385003 0.076050997
0.835554004 0.511955023 0.076737598
0.857145011 0.515525997 0.077515803
0.877072990 0.519432008 0.078446597
0.893689990 0.524559021 0.080048800
0.908797026 0.528786004 0.081406899
0.922224998 0.532067001 0.082459800
0.935683012 0.535453975 0.083573699
0.949096024 0.538734972 0.084626503
0.962553978 0.542123020 0.085801497
0.054825701 0.360478997 0.122423001
0.066941299 0.363729000 0.123079002
0.079026498 0.367101997 0.123673998
0.091096401 0.370398015 0.124192998
0.103165999 0.373753995 0.124651000
0.117082000 0.378057986 0.124453001
0.132631004 0.383260995 0.123582996
0.154620007 0.389883012 0.120333001
0.178714007 0.396932989 0.116288997
0.204868004 0.405142009 0.111939996
0.239002004 0.417593986 0.106935002
0.276387006 0.432090014 0.101655997
0.317265987 0.445930004 0.096696399
0.362737000 0.459082991 0.092332304
0.412238002 0.473807991 0.089311101
0.465644002 0.490195990 0.087601997
0.520484984 0.504112005 0.086106703
0.576637983 0.510109007 0.083970398
0.631524980 0.515022993 0.082169801
0.680598021 0.518624008 0.081437401
0.720974028 0.521874011 0.081803598
0.753490984 0.526772022 0.082780197
0.783536017 0.532006025 0.083909400
0.811841011 0.536567986 0.085008003
0.835264027 0.539590001 0.085786201
0.857465982 0.542595983 0.086717002
0.878126025 0.546043992 0.087892003
0.894850016 0.550637007 0.089585699
0.910094023 0.554527998 0.091142103
0.923551977 0.557473004 0.092332304
0.936995983 0.560432971 0.093476802
0.950469017 0.563301980 0.094590701
0.963943005 0.566308022 0.095826700
0.056916200 0.385580003 0.130419001
0.068985999 0.389165998 0.131380007
0.081040703 0.392553985 0.132174000
0.093079999 0.396124005 0.132982001
0.105103999 0.399710000 0.133729994
0.118807003 0.404044002 0.133775994
0.133928001 0.409078985 0.133043006
0.155428007 0.415517986 0.129809007
0.178973004 0.422338992 0.125764996
0.204501003 0.430029988 0.121324003
0.237476006 0.441489011 0.116167001
0.273303986 0.454764992 0.110841997
0.311298996 0.467932999 0.105837002
0.353735000 0.480461001 0.101563998
0.402411014 0.495384008 0.098344401
0.456793994 0.512656987 0.096223399
0.513648987 0.528205991 0.094285503
0.571175992 0.536171019 0.092072897
0.626519978 0.542199016 0.090318203
0.675195992 0.547402024 0.090043500
0.715999007 0.551629007 0.090989500
0.750271022 0.556282997 0.092179798
0.781383991 0.560616016 0.093354702
0.810575008 0.564508021 0.094560198
0.834684014 0.567056000 0.095506199
0.857572019 0.569467008 0.096467502
0.879010975 0.572197974 0.097642504
0.895918012 0.576532006 0.099534601
0.911222994 0.579904020 0.101044998
0.924727023 0.582544029 0.102311999
0.938215971 0.585092008 0.103532001
0.951719999 0.587732017 0.104799002
0.965224981 0.590295017 0.106035002
0.059220299 0.409978986 0.138368994
0.071274899 0.413534999 0.139543995
0.083360001 0.417288005 0.140734002
0.095384099 0.420935005 0.141772002
0.107423998 0.424627990 0.142823994
0.120912001 0.428977013 0.143084005
0.135729000 0.433966994 0.142686993
0.156863004 0.440008998 0.139391005
0.179828003 0.446615994 0.135378003
0.204685003 0.453848988 0.130891994
0.236453995 0.464468986 0.125795007
0.270924002 0.476462990 0.120378003
0.306371003 0.488608986 0.115235999
0.346531987 0.500252008 0.110872000
0.394964993 0.514504015 0.107529998
0.450843006 0.531853020 0.104783997
0.509148002 0.549553990 0.102418996
0.566475987 0.560311019 0.100129999
0.621056974 0.568382978 0.098649599
0.669245005 0.575311005 0.098741099
0.710430026 0.580605984 0.100144997
0.746425986 0.585290015 0.101534002
0.778759003 0.589318991 0.102953002
0.809109986 0.592522979 0.104143001
0.833890021 0.594506979 0.105180003
0.857481003 0.596216023 0.106187999
0.879788995 0.598383009 0.107454002
0.896879971 0.602213025 0.109407000
0.912276030 0.605279982 0.111055002
0.925826013 0.607537985 0.112383001
0.939360976 0.609872997 0.113724999
0.952911019 0.612024009 0.114992000
0.966445029 0.614237010 0.116319999
0.061661702 0.432882994 0.145968005
0.073823102 0.436773986 0.147554994
0.085923597 0.440497011 0.148974001
0.098069698 0.444433987 0.150423005
0.110123999 0.448157012 0.151704997
0.123598002 0.452537000 0.152300000
0.138200998 0.457358986 0.152116999
0.159243003 0.463263988 0.148882002
0.181871995 0.469505012 0.144930005
0.206316993 0.476370990 0.140535995
0.237018004 0.486212999 0.135348007
0.270283014 0.497458994 0.129976004
0.303867996 0.508888006 0.124681003
0.342366993 0.520012021 0.120241001
0.389959991 0.533744991 0.116655000
0.445533007 0.550988019 0.113664001
0.503791988 0.569589019 0.110932998
0.559686005 0.582360983 0.108736001
0.612146020 0.591638029 0.107408002
0.659555972 0.600214005 0.107865997
0.702280998 0.607644975 0.109742999
0.740657985 0.613412976 0.111330003
0.774868011 0.617136002 0.112535000
0.806760013 0.620019972 0.113770999
0.832409978 0.621469021 0.114869997
0.856824994 0.622644007 0.115984000
0.880200982 0.624094009 0.117265999
0.897490025 0.627619028 0.119370997
0.913053989 0.630349994 0.121141002
0.926665008 0.632197022 0.122498997
0.940245986 0.634028018 0.123842001
0.953872025 0.636026978 0.125306994
0.967453003 0.637919009 0.126696005
0.064148903 0.455038995 0.153399006
0.076371402 0.459021986 0.155276000
