luts/travel_09.cube
TITLE "33x33x33 Adobe/IRIDAS cube 3D LUT exported with GrossGrade v0.2.2 (beta) 64 bit"
DOMAIN_MIN 0 0 0
DOMAIN_MAX 1 1 1
LUT_3D_SIZE 33
0.000000000 0.000000000 0.000000000
0.000000000 0.000000000 0.000000000
0.019165300 0.000091554 0.000000000
0.042999901 0.000671397 0.000000000
0.065751098 0.001312280 0.000000000
0.088838004 0.002319370 0.000000000
0.111376002 0.003509580 0.000000000
0.134432003 0.005004960 0.000000000
0.159838006 0.006363010 0.000000000
0.186816007 0.007644770 0.000000000
0.215121999 0.008361940 0.000000000
0.245075002 0.008163580 0.000000000
0.275974989 0.007064930 0.000000000
0.307972997 0.004638740 0.000000000
0.340916991 0.001602200 0.000000000
0.373724014 0.000213626 0.000000000
0.406484991 0.000045777 0.000000000
0.439796001 0.000000000 0.000000000
0.472831011 0.000000000 0.000000000
0.505546987 0.000000000 0.000000000
0.537957013 0.000000000 0.000000000
0.570213974 0.000000000 0.000000000
0.602853000 0.000000000 0.000000000
0.635537982 0.000000000 0.000000000
0.668085992 0.000000000 0.000000000
0.700648010 0.000000000 0.000000000
0.733303010 0.000000000 0.000000000
0.765621006 0.000000000 0.000000000
0.797573984 0.000000000 0.000000000
0.829267025 0.000000000 0.000000000
0.860395014 0.000000000 0.000000000
0.891188025 0.000000000 0.000000000
0.921431005 0.000000000 0.000000000
0.000000000 0.000000000 0.000000000
0.000000000 0.000000000 0.000000000
0.019165300 0.000091554 0.000000000
0.042999901 0.000671397 0.000000000
0.065751098 0.001312280 0.000000000
0.088838004 0.002319370 0.000000000
0.111376002 0.003509580 0.000000000
0.134432003 0.005004960 0.000000000
0.159838006 0.006363010 0.000000000
0.186816007 0.007644770 0.000000000
0.215121999 0.008361940 0.000000000
0.245075002 0.008163580 0.000000000
0.275974989 0.007064930 0.000000000
0.307972997 0.004638740 0.000000000
0.340916991 0.001602200 0.000000000
0.373724014 0.000213626 0.000000000
0.406484991 0.000045777 0.000000000
0.439796001 0.000000000 0.000000000
0.472831011 0.000000000 0.000000000
0.505546987 0.000000000 0.000000000
0.537957013 0.000000000 0.000000000
0.570213974 0.000000000 0.000000000
0.602853000 0.000000000 0.000000000
0.635537982 0.000000000 0.000000000
0.668085992 0.000000000 0.000000000
0.700648010 0.000000000 0.000000000
0.733303010 0.000000000 0.000000000
0.765621006 0.000000000 0.000000000
0.797573984 0.000000000 0.000000000
0.829267025 0.000000000 0.000000000
0.860395014 0.000000000 0.000000000
0.891188025 0.000000000 0.000000000
0.921431005 0.000000000 0.000000000
0.005691620 0.011947800 0.001174940
0.005691620 0.011947800 0.001174940
0.033279900 0.008987560 0.000274662
0.060395200 0.009079120 0.000000000
0.082642898 0.010574500 0.000091554
0.104341000 0.012298800 0.000091554
0.125795007 0.013809400 0.000091554
0.147585005 0.015350600 0.000183108
0.171130002 0.016296601 0.000274662
0.197024003 0.017013799 0.000274662
0.224765003 0.016723899 0.000091554
0.253726989 0.015243800 0.000000000
0.283939987 0.013260100 0.000000000
0.315389007 0.010238800 0.000000000
0.347645998 0.007080190 0.000000000
0.379720986 0.005371180 0.000000000
0.412009001 0.004119940 0.000000000
0.444572002 0.002441440 0.000000000
0.477118999 0.001037610 0.000000000
0.509482980 0.000335698 0.000000000
0.541558027 0.000091554 0.000000000
0.573785007 0.000015259 0.000000000
0.605951011 0.000000000 0.000000000
0.638453007 0.000000000 0.000000000
0.670953989 0.000000000 0.000000000
0.703319013 0.000000000 0.000000000
0.735790014 0.000000000 0.000000000
0.767925978 0.000000000 0.000000000
0.799831986 0.000000000 0.000000000
0.831372976 0.000000000 0.000000000
0.862439990 0.000000000 0.000000000
0.893186986 0.000000000 0.000000000
0.923232019 0.000000000 0.000000000
0.012863400 0.028717499 0.005554280
0.012863400 0.028717499 0.005554280
0.044174898 0.022812201 0.001556420
0.076234102 0.020386100 0.000091554
0.099977098 0.022110300 0.000183108
0.120789997 0.024856901 0.000457771
0.141558006 0.027512001 0.000640879
0.162570000 0.029572001 0.000823987
0.184771001 0.031128399 0.001007100
0.209246993 0.032303300 0.000823987
0.235965997 0.032761101 0.000457771
0.264438987 0.032028701 0.000183108
0.293857992 0.030136600 0.000091554
0.324375987 0.027191600 0.000000000
0.355641991 0.023559900 0.000000000
0.386815995 0.019165300 0.000000000
0.418615997 0.013733100 0.000000000
0.450538009 0.007431140 0.000000000
0.482596993 0.002792400 0.000000000
0.514487982 0.001495380 0.000000000
0.546241999 0.001281760 0.000000000
0.578118980 0.001205460 0.000000000
0.610086024 0.001083390 0.000000000
0.642237008 0.000747692 0.000000000
0.674417973 0.000473030 0.000000000
0.706614971 0.000274662 0.000000000
0.738871992 0.000152590 0.000000000
0.770763993 0.000076295 0.000000000
0.802471995 0.000076295 0.000000000
0.833859980 0.000045777 0.000000000
0.864759028 0.000015259 0.000000000
0.895322978 0.000000000 0.000000000
0.925199986 0.000000000 0.000000000
0.020248700 0.048630498 0.011306900
0.020248700 0.048630498 0.011306900
0.050858300 0.041229900 0.003585870
0.084840201 0.035294101 0.000366217
0.112214997 0.034958400 0.000091554
0.134310007 0.038254399 0.000640879
0.155016005 0.042130198 0.001098650
0.175677001 0.045731299 0.001266500
0.197162002 0.048004899 0.001358050
0.220919997 0.050049599 0.001251240
0.246997997 0.051331300 0.000976577
0.274769008 0.051209301 0.000518807
0.303470999 0.050202198 0.000167849
0.333272010 0.048279501 0.000000000
0.363591999 0.045899101 0.000000000
0.394308001 0.043106701 0.000000000
0.425604999 0.039734501 0.000000000
0.456824988 0.035950299 0.000000000
0.488350004 0.032120202 0.000000000
0.519860029 0.028625900 0.000000000
0.551186025 0.024811201 0.000000000
0.582558990 0.020981200 0.000000000
0.614282012 0.016876500 0.000000000
0.646203995 0.012726000 0.000000000
0.678171992 0.008804460 0.000000000
0.710017979 0.005600060 0.000000000
0.742061019 0.003463800 0.000000000
0.773769975 0.002639810 0.000000000
0.805112004 0.002670330 0.000000000
0.836286008 0.003006030 0.000000000
0.867017984 0.004379340 0.000000000
0.897397995 0.008224610 0.000000000
0.927107990 0.014496100 0.000000000
0.027847700 0.070313603 0.016830700
0.027847700 0.070313603 0.016830700
0.055512302 0.062089000 0.006622420
0.088334501 0.054230601 0.001159690
0.118378997 0.050629400 0.000091554
0.144747004 0.051483899 0.000274662
0.166917995 0.056733001 0.000900282
0.187685996 0.062851898 0.001235980
0.209018007 0.067368597 0.001220720
0.232272997 0.070511900 0.001205460
0.257602990 0.072632901 0.001190200
0.284671992 0.073991001 0.000839246
0.312795013 0.073991001 0.000244144
0.341787010 0.073456898 0.000000000
0.371648997 0.072175197 0.000000000
0.402029008 0.070801899 0.000000000
0.432684988 0.069077604 0.000000000
0.463523000 0.066697203 0.000000000
0.494513988 0.064255700 0.000000000
0.525367975 0.061539602 0.000000000
0.556465983 0.058899801 0.000000000
0.587610006 0.056244802 0.000000000
0.618966997 0.053696498 0.000000000
0.650506973 0.051224500 0.000000000
0.682231009 0.049042501 0.000000000
0.713817000 0.047440302 0.000000000
0.745631993 0.046646800 0.000000000
0.776988983 0.046967302 0.000000000
0.808239996 0.047852300 0.000000000
0.839093983 0.049240898 0.000000000
0.869626999 0.051865399 0.000000000
0.899702013 0.056061599 0.000000000
0.929212987 0.061799001 0.000000000
0.033753000 0.093110599 0.021347400
0.033753000 0.093110599 0.021347400
0.058350500 0.085648902 0.010940700
0.089356802 0.077973597 0.002914470
0.120393999 0.072236203 0.000335698
0.150683001 0.069871098 0.000000000
0.177035004 0.072312497 0.000350958
0.199145004 0.079102799 0.000854505
0.220461994 0.086961202 0.000900282
0.243290007 0.092408597 0.000640879
0.268009007 0.096024998 0.000564584
0.294270009 0.098603800 0.000381476
0.321660012 0.099870302 0.000076295
0.350071996 0.100525998 0.000000000
0.379460990 0.100556999 0.000000000
0.409521997 0.100435004 0.000000000
0.439796001 0.100083999 0.000000000
0.470221996 0.099259898 0.000000000
0.500815988 0.098710597 0.000000000
0.531273007 0.097718798 0.000000000
0.561868012 0.096757501 0.000000000
0.592644989 0.095796101 0.000000000
0.623896003 0.094911098 0.000000000
0.655206978 0.094102398 0.000000000
0.686686993 0.093522497 0.000000000
0.718029022 0.093492001 0.000000000
0.749493003 0.093766697 0.000000000
0.780605972 0.094544902 0.000000000
0.811626971 0.095948704 0.000000000
0.842267990 0.097688302 0.000000000
0.872465014 0.100571997 0.000000000
0.902220011 0.104051001 0.000000000
0.931623995 0.108446002 0.000000000
0.037018400 0.117067002 0.025482601
0.037018400 0.117067002 0.025482601
0.060395200 0.111330003 0.015121700
0.090806402 0.103899002 0.005828950
0.121385999 0.097749300 0.001113910
0.152238995 0.093537800 0.000000000
0.182146996 0.092103504 0.000000000
0.208560005 0.096406497 0.000549325
0.231494993 0.105074003 0.000930800
0.254063010 0.113877997 0.000518807
0.277989000 0.120072998 0.000076295
0.303243011 0.124361001 0.000000000
0.330098003 0.127305999 0.000000000
0.358128995 0.129106998 0.000000000
0.387059987 0.130327001 0.000000000
0.416464001 0.131211996 0.000000000
0.446372002 0.131654993 0.000000000
0.476570010 0.131944999 0.000000000
0.506752014 0.132249996 0.000000000
0.536965013 0.132494003 0.000000000
0.567330003 0.132646993 0.000000000
0.597863972 0.132906005 0.000000000
0.628884971 0.133165002 0.000000000
0.659952998 0.133470997 0.000000000
0.691202998 0.133866996 0.000000000
0.722316027 0.134615004 0.000000000
0.753413975 0.135621995 0.000000000
0.784298003 0.136736006 0.000000000
0.814953983 0.138308004 0.000000000
0.845350027 0.140276000 0.000000000
0.875319004 0.142718002 0.000000000
0.904951990 0.145616993 0.000000000
0.934157014 0.149340004 0.000000000
0.038712099 0.143144995 0.027878201
0.038712099 0.143144995 0.027878201
0.061707500 0.138491005 0.017792000
0.092210300 0.131654993 0.009185930
0.122544996 0.125443995 0.002807660
0.152499005 0.120835997 0.000350958
0.183291003 0.117357001 0.000000000
0.213504001 0.117188998 0.000366217
0.240542993 0.123171002 0.000701915
0.264423996 0.133318007 0.000534066
0.287526011 0.143252000 0.000122072
0.312000990 0.150454000 0.000000000
0.338063985 0.155534998 0.000000000
0.365498990 0.159090996 0.000000000
0.394033998 0.161364004 0.000000000
0.423087001 0.163073003 0.000000000
0.452461004 0.164217994 0.000000000
0.482277006 0.165132999 0.000000000
0.512244999 0.166079000 0.000000000
0.542213976 0.166812003 0.000000000
0.572472990 0.167741999 0.000000000
0.602868974 0.168413997 0.000000000
0.633782983 0.169192001 0.000000000
0.664651990 0.170138001 0.000000000
0.695658982 0.171114996 0.000000000
0.726543009 0.172183007 0.000000000
0.757396996 0.173556000 0.000000000
0.788066983 0.174944997 0.000000000
0.818341017 0.176486000 0.000000000
0.848371029 0.178302005 0.000000000
0.878111005 0.180591002 0.000000000
0.907500029 0.183229998 0.000000000
0.936477005 0.186496004 0.000000000
0.036530100 0.171008006 0.028076600
0.036530100 0.171008006 0.028076600
0.060334198 0.167407006 0.020035099
0.091569401 0.161410004 0.010879700
0.122804999 0.154817998 0.005325400
0.153200999 0.149798006 0.001266500
0.183275998 0.146059006 0.000000000
0.214679003 0.142809004 0.000122072
0.246021003 0.143831998 0.000259403
0.273503006 0.151553005 0.000289921
0.297414005 0.163850993 0.000045777
0.320850998 0.175218999 0.000000000
0.345845997 0.183383003 0.000000000
0.372442007 0.189074993 0.000000000
0.400335997 0.192949995 0.000000000
0.428930998 0.195712000 0.000000000
0.458106011 0.197528005 0.000000000
0.487556010 0.199054003 0.000000000
0.517143011 0.200229004 0.000000000
0.547035992 0.201312006 0.000000000
0.577081025 0.202441007 0.000000000
0.607659996 0.203464001 0.000000000
0.638346016 0.204577997 0.000000000
0.669215024 0.205660999 0.000000000
0.699855030 0.206866995 0.000000000
0.730647981 0.208240002 0.000000000
0.761273026 0.209536999 0.000000000
0.791562021 0.210941002 0.000000000
0.821622014 0.212467000 0.000000000
0.851408005 0.214480996 0.000000000
0.880918980 0.216571003 0.000000000
0.910184979 0.219104007 0.000000000
0.938902974 0.221988007 0.000000000
0.031433601 0.199588001 0.026474399
0.031433601 0.199588001 0.026474399
0.056031100 0.197313994 0.020111401
0.088471800 0.192523003 0.010482900
0.121446997 0.186693996 0.006118870
0.153429002 0.180712998 0.002548260
0.183734000 0.176547006 0.000427253
0.214480996 0.173068002 0.000000000
0.247333005 0.170504004 0.000045777
0.279347003 0.172763005 0.000045777
0.306690991 0.182726994 0.000045777
0.330175012 0.197237998 0.000000000
0.353964001 0.209292993 0.000000000
0.379247993 0.218158007 0.000000000
0.406073004 0.224323004 0.000000000
0.434150010 0.228625998 0.000000000
0.462897986 0.231356993 0.000000000
0.492195010 0.233386993 0.000000000
0.521598995 0.234852001 0.000000000
0.551415026 0.236102998 0.000000000
0.581384003 0.237399995 0.000000000
0.612024009 0.238620996 0.000000000
0.642602980 0.239765003 0.000000000
0.673259020 0.240848005 0.000000000
0.703806996 0.242129996 0.000000000
0.734386027 0.243441999 0.000000000
0.764782012 0.244755000 0.000000000
0.794842005 0.246142998 0.000000000
0.824765027 0.247668996 0.000000000
0.854322016 0.249469995 0.000000000
0.883696020 0.251437992 0.000000000
0.912717998 0.253924996 0.000000000
0.941313982 0.256534994 0.000000000
0.025284201 0.229587004 0.023285300
0.025284201 0.229587004 0.023285300
0.049637601 0.228046000 0.018326100
0.083161697 0.224735007 0.010971200
0.118180998 0.219547004 0.003280690
0.152055994 0.214008003 0.002304110
0.183658004 0.209277004 0.000885023
0.214359000 0.205631003 0.000106813
0.246647000 0.202013999 0.000000000
0.280719995 0.200121999 0.000000000
0.312718004 0.204227000 0.000000000
0.339024991 0.216784999 0.000000000
0.362264007 0.232425004 0.000000000
0.386281997 0.245304003 0.000000000
0.411749005 0.254368007 0.000000000
0.438910991 0.260654986 0.000000000
0.467032999 0.265064001 0.000000000
0.496208012 0.267780989 0.000000000
0.525627971 0.269627005 0.000000000
0.555290997 0.271259993 0.000000000
0.585336030 0.272480011 0.000000000
0.615792990 0.273883998 0.000000000
0.646296024 0.274906993 0.000000000
0.676874995 0.276187986 0.000000000
0.707332015 0.277271986 0.000000000
0.737681985 0.278492004 0.000000000
0.767987013 0.279666990 0.000000000
0.797909021 0.280887991 0.000000000
0.827619016 0.282321990 0.000000000
0.857069016 0.284031004 0.000000000
0.886197984 0.285908014 0.000000000
0.915067971 0.288105994 0.000000000
0.943542004 0.290486008 0.000000000
0.020157199 0.261372000 0.017502099
0.020157199 0.261372000 0.017502099
0.039978601 0.260746002 0.014068800
0.076676600 0.257954001 0.009826810
0.113114998 0.254123986 0.003723200
0.148714006 0.248875007 0.000549325
0.182238996 0.244250998 0.000473030
0.213962004 0.240452006 0.000167849
0.245639995 0.236544997 0.000015259
0.279103011 0.233264998 0.000000000
0.313481003 0.232180998 0.000000000
0.345005989 0.238208994 0.000000000
0.370687008 0.252948999 0.000000000
0.393712997 0.269001007 0.000000000
0.417959988 0.282016993 0.000000000
0.443670988 0.291112006 0.000000000
0.471046001 0.297307014 0.000000000
0.499610990 0.301640004 0.000000000
0.528877974 0.304417014 0.000000000
0.558571994 0.306324989 0.000000000
0.588617027 0.307835996 0.000000000
0.618891001 0.309087008 0.000000000
0.649362981 0.310140014 0.000000000
0.679866016 0.311268985 0.000000000
0.710262001 0.312352002 0.000000000
0.740368009 0.313268006 0.000000000
0.770596027 0.314473003 0.000000000
0.800548971 0.315663010 0.000000000
0.830137014 0.316747010 0.000000000
0.859463990 0.318349004 0.000000000
0.888593972 0.320134014 0.000000000
0.917235017 0.322147995 0.000000000
0.945571005 0.324360996 0.000000000
0.013473700 0.294331014 0.010544000
0.013473700 0.294331014 0.010544000
0.030609600 0.293384999 0.007675290
0.070527203 0.291783005 0.006103610
0.108263001 0.288670003 0.003906310
0.144944996 0.284779012 0.000473030
0.180133000 0.280277997 0.000061036
0.213488996 0.276158005 0.000045777
0.245396003 0.272587001 0.000015259
0.277745008 0.268344998 0.000000000
0.311985999 0.265156001 0.000000000
0.346394986 0.265675008 0.000000000
0.376608014 0.274509996 0.000000000
0.401526004 0.289829999 0.000000000
0.424872011 0.306203008 0.000000000
0.449317008 0.319097012 0.000000000
0.475349009 0.328022987 0.000000000
0.502875984 0.334051013 0.000000000
0.531533003 0.338108987 0.000000000
0.561105013 0.340855986 0.000000000
0.591180027 0.342779011 0.000000000
0.621438980 0.344166994 0.000000000
0.651880980 0.345189989 0.000000000
0.682200015 0.346150994 0.000000000
0.712520003 0.347065985 0.000000000
0.742702007 0.347936004 0.000000000
0.772961020 0.348942995 0.000000000
0.802700996 0.350102991 0.000000000
0.832364023 0.351278007 0.000000000
0.861676991 0.352544010 0.000000000
0.890684009 0.354191989 0.000000000
0.919188023 0.355901003 0.000000000
0.947279990 0.357946008 0.000000000
0.004409860 0.327733010 0.006683450
0.004409860 0.327733010 0.006683450
0.024521200 0.327046990 0.002059970
0.065583304 0.325780004 0.001724270
0.104341000 0.323857009 0.001342790
0.141772002 0.320409000 0.000839246
0.178224996 0.316365004 0.000000000
0.213183999 0.312534988 0.000000000
0.246067002 0.308674991 0.000000000
0.277684003 0.304645985 0.000000000
0.310627997 0.300388992 0.000000000
0.345402986 0.298038989 0.000000000
0.379079998 0.301366001 0.000000000
0.407873988 0.311711013 0.000000000
0.432577997 0.327580988 0.000000000
0.455801994 0.343755007 0.000000000
0.480262011 0.356146008 0.000000000
0.506461978 0.364598989 0.000000000
0.534249008 0.370474011 0.000000000
0.563180029 0.374350011 0.000000000
0.592996001 0.377095997 0.000000000
0.623407006 0.378758997 0.000000000
0.653833985 0.380178988 0.000000000
0.684122980 0.381094009 0.000000000
0.714533985 0.381949008 0.000000000
0.744639993 0.382773012 0.000000000
0.774806976 0.383581012 0.000000000
0.804623008 0.384512007 0.000000000
0.834286988 0.385641009 0.000000000
0.863493025 0.386815995 0.000000000
0.892377973 0.388190001 0.000000000
0.920881987 0.389654011 0.000000000
0.948958993 0.391530991 0.000000000
0.000457771 0.361211985 0.005096510
0.000457771 0.361211985 0.005096510
0.023895601 0.360585988 0.001831080
0.059769601 0.359456986 0.000183108
0.103136003 0.357701987 0.000198367
0.140734002 0.355275989 0.000198367
0.177324995 0.352102011 0.000106813
0.213199005 0.348805994 0.000000000
0.247425005 0.344976008 0.000000000
0.279271007 0.340855986 0.000000000
0.310811013 0.336553007 0.000000000
0.344305009 0.332859993 0.000000000
0.379094988 0.332661986 0.000000000
0.411170006 0.337743014 0.000000000
0.439078003 0.349065006 0.000000000
0.462866992 0.365025997 0.000000000
0.485924006 0.380957007 0.000000000
0.510384023 0.392583996 0.000000000
0.536858022 0.400716990 0.000000000
0.564736009 0.406287014 0.000000000
0.594201982 0.409978986 0.000000000
0.624490976 0.412436008 0.000000000
0.655054986 0.414373994 0.000000000
0.685603023 0.415533990 0.000000000
0.715983987 0.416480005 0.000000000
0.746165991 0.417089999 0.000000000
0.776394010 0.417959988 0.000000000
0.806271017 0.418707997 0.000000000
0.835828006 0.419593006 0.000000000
0.865064025 0.420661002 0.000000000
0.893858016 0.421927005 0.000000000
0.922347009 0.423285007 0.000000000
0.950285971 0.424856991 0.000000000
0.003768980 0.394841999 0.003692680
0.003768980 0.394841999 0.003692680
0.021774599 0.394506991 0.002044710
0.056656700 0.393469006 0.000015259
0.103272997 0.392186999 0.000015259
0.141435996 0.390065998 0.000015259
0.178407997 0.387762010 0.000015259
0.214739993 0.384588003 0.000000000
0.249531001 0.381323010 0.000000000
0.282139003 0.377553999 0.000000000
0.313024014 0.373311996 0.000000000
0.344457000 0.369024009 0.000000000
0.378087997 0.366629004 0.000000000
0.411642998 0.368443996 0.000000000
0.442678988 0.375097007 0.000000000
0.469107985 0.386525989 0.000000000
0.491874993 0.402426004 0.000000000
0.514656007 0.417304009 0.000000000
0.539543986 0.428274989 0.000000000
0.566353977 0.435934991 0.000000000
0.595040977 0.441276014 0.000000000
0.624993980 0.444815993 0.000000000
0.655451000 0.447409987 0.000000000
0.686244011 0.449194998 0.000000000
0.716991007 0.450506985 0.000000000
0.747402012 0.451346993 0.000000000
0.777584016 0.452003002 0.000000000
0.807523012 0.452780992 0.000000000
0.837109983 0.453590006 0.000000000
0.866223991 0.454414010 0.000000000
0.895033002 0.455421001 0.000000000
0.923399985 0.456640989 0.000000000
0.951323986 0.458090991 0.000000000
0.004806590 0.429145008 0.001678490
0.004806590 0.429145008 0.001678490
0.013687300 0.428687006 0.001129170
0.056519400 0.427619010 0.000457771
0.103899002 0.426443994 0.000000000
0.144777998 0.425071001 0.000000000
0.181079000 0.423072010 0.000000000
0.216800004 0.420767993 0.000000000
0.252003014 0.417762011 0.000000000
0.285358995 0.414373994 0.000000000
0.316518009 0.410223991 0.000000000
0.346639007 0.405463010 0.000000000
0.378286004 0.402045012 0.000000000
0.411017001 0.401372999 0.000000000
0.443046004 0.404486001 0.000000000
0.472328007 0.411704004 0.000000000
0.497215003 0.423132986 0.000000000
0.519234002 0.438208997 0.000000000
0.542580009 0.452246994 0.000000000
0.568123996 0.463019997 0.000000000
0.595865011 0.470557988 0.000000000
0.625024974 0.475867987 0.000000000
0.655375004 0.479377002 0.000000000
0.686197996 0.481804013 0.000000000
0.717067003 0.483588994 0.000000000
0.747844994 0.484901011 0.000000000
0.778500021 0.485908002 0.000000000
0.808453977 0.486609995 0.000000000
0.838117003 0.487159997 0.000000000
0.867262006 0.487877011 0.000000000
0.896055996 0.488792002 0.000000000
0.924284995 0.489876002 0.000000000
0.952071011 0.491187990 0.000000000
0.003265430 0.463111013 0.000457771
0.003265430 0.463111013 0.000457771
0.010009900 0.462653995 0.000335698
0.060456201 0.461692005 0.000228885
0.106354997 0.460792005 0.000076295
0.148607999 0.459556013 0.000000000
0.185046002 0.457861990 0.000000000
0.220035002 0.455725998 0.000000000
0.254841000 0.453711987 0.000000000
0.288639992 0.450720996 0.000000000
0.320302010 0.446815014 0.000000000
0.349813014 0.441870987 0.000000000
0.379660010 0.437736005 0.000000000
0.410650998 0.435355008 0.000000000
0.442389995 0.435797989 0.000000000
0.472755015 0.439765006 0.000000000
0.500358999 0.447409987 0.000000000
0.523781002 0.458900005 0.000000000
0.546379983 0.473136008 0.000000000
0.570428014 0.486624986 0.000000000
0.596826017 0.497002006 0.000000000
0.625039995 0.504325986 0.000000000
0.654887021 0.509559989 0.000000000
0.685450017 0.513161004 0.000000000
0.716457009 0.515556991 0.000000000
0.747462988 0.517356992 0.000000000
0.778454006 0.518669009 0.000000000
0.808865011 0.519676983 0.000000000
0.838804007 0.520439029 0.000000000
0.867994010 0.521035016 0.000000000
0.896681011 0.521827996 0.000000000
0.925016999 0.522789001 0.000000000
0.952804029 0.523963988 0.000000000
0.001846340 0.496390998 0.000061036
0.001846340 0.496390998 0.000061036
0.019378999 0.495566994 0.000061036
0.066132598 0.494926006 0.000045777
0.111757003 0.493735999 0.000030518
0.153184995 0.492653012 0.000015259
0.189898998 0.491402000 0.000000000
0.224108994 0.489845008 0.000000000
0.258273989 0.488121003 0.000000000
0.291936010 0.485556990 0.000000000
0.323873013 0.482199997 0.000000000
0.353536010 0.477530986 0.000000000
0.382192999 0.473091006 0.000000000
0.411550999 0.469825000 0.000000000
0.441778988 0.468284011 0.000000000
0.472052991 0.469444007 0.000000000
0.501151979 0.474525005 0.000000000
0.526679993 0.482124001 0.000000000
0.550134003 0.493384987 0.000000000
0.573189974 0.507041991 0.000000000
0.597940028 0.520072997 0.000000000
0.625100970 0.530174971 0.000000000
0.654138982 0.537437975 0.000000000
0.684306026 0.542611003 0.000000000
0.715189993 0.546014011 0.000000000
0.746318996 0.548530996 0.000000000
0.777553976 0.550301015 0.000000000
0.808408022 0.551644027 0.000000000
0.838757992 0.552833974 0.000000000
0.868359983 0.553735018 0.000000000
0.897275984 0.554558992 0.000000000
0.925490022 0.555397987 0.000000000
0.953261971 0.556298018 0.000000000
0.000900282 0.528114974 0.000000000
0.000900282 0.528114974 0.000000000
