luts/travel_13.cube
TITLE "33x33x33 Adobe/IRIDAS cube 3D LUT exported with GrossGrade v0.2.2 (beta) 64 bit"
DOMAIN_MIN 0 0 0
DOMAIN_MAX 1 1 1
LUT_3D_SIZE 5
0.000000000 0.000000000 0.004470890
0.142289996 0.023788800 0.010711800
0.382162005 0.031021601 0.013565300
0.615396023 0.042633701 0.013061700
0.808911026 0.057969000 0.013336400
0.095811397 0.185442999 0.020386100
0.271519005 0.209170997 0.016281400
0.507012010 0.207385004 0.016357699
0.707912028 0.185550004 0.013733100
0.874310970 0.189943999 0.012115700
0.258807987 0.405386001 0.030670600
0.381139994 0.453711987 0.029587200
0.576943994 0.489311010 0.033783499
0.767575026 0.480399996 0.026215000
0.939849019 0.453422010 0.022445999
0.425742000 0.614907980 0.128419995
0.513863027 0.654672980 0.088426001
0.645747006 0.702220023 0.064301498
0.813015997 0.716564000 0.065476499
0.954573989 0.713283002 0.071290202
0.567498028 0.831312001 0.287755013
0.653406978 0.865140975 0.266957015
0.740855992 0.919570029 0.187900007
0.880598009 0.949020028 0.151095003
0.977614999 0.963073015 0.248234004
0.000000000 0.000000000 0.021820400
0.000000000 0.000000000 0.020889601
0.184542999 0.000000000 0.023804100
0.549751997 0.000000000 0.031982899
0.769496977 0.000000000 0.030273899
0.063706398 0.188951999 0.167590007
0.228367001 0.201693997 0.173129007
0.509330988 0.174243003 0.134890005
0.705561996 0.152346000 0.111803003
0.874310970 0.163668007 0.120164998
0.180620998 0.401129007 0.178865999
0.349783003 0.434745014 0.165392995
0.577340007 0.493584007 0.160143003
0.769909024 0.477577001 0.165132999
0.945250988 0.446693003 0.164232999
0.382589012 0.612313986 0.245899007
0.496605009 0.638635993 0.236102998
0.630639970 0.704936028 0.184741005
0.807705998 0.720377982 0.193529993
0.957839012 0.713817000 0.214954004
0.543877006 0.834730029 0.390433013
0.642953992 0.860273004 0.380941004
0.739512980 0.910506010 0.339711994
0.871564984 0.957641006 0.289281011
0.977416992 0.964248002 0.360478997
0.000000000 0.000000000 0.097795099
0.000000000 0.000000000 0.106325001
0.152116999 0.000000000 0.108048998
0.539147019 0.000000000 0.132174000
0.758998990 0.000000000 0.126696005
0.078385599 0.186816007 0.329946011
0.162310004 0.190555006 0.345907003
0.421546012 0.181079000 0.314655989
0.655817986 0.106721997 0.293706000
0.837200999 0.122300997 0.295246989
0.128327996 0.447730005 0.417257994
0.251224995 0.473960012 0.431098014
0.523963988 0.493705988 0.438483000
0.751461029 0.475073993 0.410955995
0.939345002 0.432424992 0.382833987
0.261402011 0.641305983 0.444770008
0.394308001 0.649103999 0.454154015
0.587990999 0.672586977 0.459403008
0.783123016 0.724619985 0.452215999
0.956680000 0.716364980 0.437812001
0.468207985 0.851804018 0.541298985
0.586266994 0.868757010 0.545845985
0.720516026 0.900297999 0.543861985
0.856625974 0.957701981 0.529426992
0.975250006 0.971343994 0.554162025
0.000000000 0.000000000 0.282840997
0.038437501 0.000000000 0.302204996
0.126039997 0.000000000 0.280095011
0.467247009 0.000000000 0.309513986
0.723064005 0.000000000 0.301427007
0.084596001 0.185779005 0.447425008
0.159030005 0.186113998 0.461158007
0.349721998 0.208072007 0.444418997
0.544731975 0.169909000 0.415502995
0.764110982 0.154604003 0.444784999
0.135362998 0.453772992 0.590188026
0.236987993 0.476615995 0.613915980
0.467521012 0.504172981 0.616235971
0.691524029 0.490150005 0.586847007
0.896131992 0.414815992 0.561119974
0.233706996 0.692179978 0.652994990
0.342123002 0.707346976 0.662486017
0.539040029 0.711436987 0.655511975
0.739405990 0.720088005 0.656320989
0.945052028 0.716257989 0.643594980
0.415793002 0.902220011 0.712199986
0.531044006 0.908186018 0.714838982
0.663432002 0.917540014 0.721614003
0.823682010 0.945281029 0.728358984
0.969802022 0.973662972 0.738231003
0.019272100 0.000000000 0.404913008
0.066941299 0.000000000 0.408850014
0.150378004 0.000000000 0.406316996
0.418722987 0.011535800 0.440665007
0.604273021 0.021805100 0.463934988
0.095887698 0.192232996 0.560295999
0.168429002 0.194339007 0.574303985
0.301930010 0.211612001 0.579308987
0.523536980 0.231266007 0.550988019
0.674310982 0.211642995 0.537697017
0.141664997 0.442862988 0.716334999
0.233432993 0.456885993 0.734309971
0.409949005 0.484840006 0.745449007
0.628427982 0.501778007 0.700801015
0.787456989 0.441825002 0.668802977
0.219515994 0.698695004 0.809735000
0.323186010 0.715296984 0.823255002
0.527520001 0.735072970 0.832059026
0.705684006 0.736370027 0.806667984
0.878050029 0.724879980 0.790539026
0.341497004 0.896619976 0.853895009
0.454429001 0.908721030 0.861006021
0.611352980 0.917311013 0.860364974
0.760739028 0.917540014 0.854200006
0.929152012 0.927993000 0.857617974
