luts/travel_05.cube
TITLE "33x33x33 Adobe/IRIDAS cube 3D LUT exported with GrossGrade v0.2.2 (beta) 64 bit"
DOMAIN_MIN 0 0 0
DOMAIN_MAX 1 1 1
LUT_3D_SIZE 33
0.016998500 0.020080900 0.026276000
0.016998500 0.020080900 0.026276000
0.036728501 0.032730602 0.033508800
0.067231297 0.049515501 0.042847302
0.090074003 0.057465501 0.046768900
0.112902001 0.064774603 0.052460499
0.137896001 0.072846599 0.059250802
0.163882002 0.080857597 0.066147901
0.192844003 0.087983496 0.072312497
0.223803997 0.094788998 0.079377398
0.256366998 0.100542001 0.084870704
0.289555013 0.104920998 0.089524701
0.323231995 0.108323999 0.093034297
0.356404990 0.111330003 0.096314900
0.389012992 0.114854999 0.099214204
0.419470996 0.118532002 0.102646999
0.448233992 0.122881003 0.106279001
0.475425005 0.128190994 0.111147001
0.501304984 0.133715004 0.116258003
0.527260005 0.139405996 0.121400997
0.553079009 0.145418003 0.126710996
0.578926980 0.151079997 0.131731004
0.604607999 0.156389996 0.136599004
0.630044997 0.161547005 0.141206995
0.655633986 0.166292995 0.145647004
0.680765986 0.172229007 0.150178999
0.705591977 0.178011999 0.154771999
0.727183998 0.184404999 0.160739005
0.742443025 0.190798998 0.166995004
0.749186993 0.193698004 0.169741005
0.749186993 0.193698004 0.169741005
0.749186993 0.193698004 0.169741005
0.749186993 0.193698004 0.169741005
0.016998500 0.020080900 0.026276000
0.016998500 0.020080900 0.026276000
0.025497800 0.025528301 0.029343100
0.059739102 0.046021201 0.040940002
0.084382400 0.055497099 0.045807600
0.108140998 0.063340202 0.051041398
0.132998005 0.071183302 0.057923201
0.158739999 0.079163797 0.064942397
0.188296005 0.086625502 0.071091801
0.218752995 0.093995601 0.078385599
0.251789004 0.099641398 0.084245101
0.284931988 0.104143001 0.089005902
0.318883002 0.107957996 0.092591703
0.352728009 0.111101002 0.096177600
0.385275006 0.114214003 0.098863199
0.416312009 0.117982998 0.102219999
0.445120990 0.122316003 0.105866998
0.472770005 0.127489001 0.110521004
0.498847991 0.133257002 0.115694001
0.525093019 0.139162004 0.121035002
0.550912023 0.144960999 0.126329005
0.576744974 0.150637001 0.131349996
0.602196991 0.155977994 0.136065006
0.627878010 0.161333993 0.140871003
0.653468013 0.166109994 0.145327002
0.678981006 0.171785995 0.149812996
0.703670025 0.177340001 0.154559001
0.726145983 0.183947995 0.160265997
0.741222024 0.190356001 0.166552007
0.749186993 0.193698004 0.169741005
0.749186993 0.193698004 0.169741005
0.749186993 0.193698004 0.169741005
0.749186993 0.193698004 0.169741005
0.017776800 0.021881400 0.027527301
0.016998500 0.020080900 0.026276000
0.016998500 0.020080900 0.026276000
0.046829902 0.038651101 0.036896300
0.076981798 0.052918300 0.044556301
0.102205001 0.061631199 0.049332399
0.127427995 0.069459103 0.056427900
0.153718993 0.077882104 0.063691199
0.182879001 0.085496299 0.070115201
0.213245004 0.092988499 0.077348001
0.246967003 0.098924197 0.083466902
0.280079007 0.103899002 0.088365003
0.314548999 0.107575998 0.092133999
0.348394006 0.110749997 0.095582500
0.381352991 0.114014998 0.098603800
0.412923992 0.117250003 0.101792999
0.442023009 0.121964999 0.105470002
0.469931990 0.127001002 0.109940998
0.496239007 0.132586002 0.115281999
0.522301018 0.138262004 0.120393999
0.548301995 0.144319996 0.125750005
0.574136019 0.149995998 0.130755007
0.600014985 0.155550003 0.135698006
0.625649989 0.160739005 0.140306994
0.651301026 0.165712997 0.144960999
0.676616013 0.170916006 0.149400994
0.701624990 0.176958993 0.153887004
0.724941015 0.183261007 0.159777001
0.740199983 0.189914003 0.166094005
0.749186993 0.193698004 0.169741005
0.749186993 0.193698004 0.169741005
0.749186993 0.193698004 0.169741005
0.749186993 0.193698004 0.169741005
0.026840599 0.043366101 0.042664200
0.026031900 0.041489299 0.041107800
0.024795899 0.038483299 0.039093599
0.037949201 0.044891998 0.041550301
0.068314597 0.058640402 0.047379300
0.096543796 0.067719497 0.050156400
0.122254997 0.074708201 0.056611001
0.149035007 0.081483200 0.063462302
0.177707002 0.088029303 0.069810003
0.208194003 0.094605900 0.076752901
0.241566002 0.100160003 0.082932800
0.274753988 0.104722999 0.088044599
0.309605986 0.108080000 0.091767803
0.343771011 0.111070000 0.095384099
0.376913011 0.114198998 0.098237596
0.409170985 0.117296003 0.101488002
0.438697010 0.121629998 0.105103999
0.466910988 0.126497000 0.109361000
0.493400007 0.131914005 0.114687003
0.519585013 0.137788996 0.120012000
0.545799971 0.143847004 0.125551000
0.571572006 0.149340004 0.130357996
0.597634971 0.154909998 0.135286003
0.623269975 0.160127997 0.139925003
0.648874998 0.165132999 0.144427001
0.674646974 0.170717999 0.149081007
0.699458003 0.176532000 0.153551996
0.723673999 0.182788000 0.159090996
0.738795996 0.189440995 0.165637001
0.749186993 0.193698004 0.169741005
0.749186993 0.193698004 0.169741005
0.749186993 0.193698004 0.169741005
0.749186993 0.193698004 0.169741005
0.035019498 0.064835601 0.057969000
0.034546401 0.063279197 0.056916200
0.033936098 0.061478600 0.055436000
0.037521899 0.062012699 0.054474700
0.056122702 0.071686901 0.055451300
0.089372098 0.084123001 0.055497099
0.118974999 0.091737203 0.059784800
0.146105006 0.095857203 0.065995298
0.173815995 0.100281999 0.071717396
0.204242006 0.104662001 0.077988900
0.236973003 0.108857997 0.083970398
0.270283014 0.112260997 0.088670202
0.305348009 0.114733003 0.092622302
0.339451998 0.116930000 0.095674098
0.373082995 0.119814001 0.098863199
0.405768007 0.122529998 0.102022000
0.435003996 0.126313999 0.105591998
0.463919997 0.130265996 0.109757997
0.490379006 0.135683000 0.114900000
0.516991019 0.141130999 0.120134003
0.543145001 0.146623999 0.125413999
0.569145977 0.152116999 0.130403996
0.595193028 0.157305002 0.135302007
0.620797992 0.162324995 0.139909998
0.646646976 0.167346001 0.144593999
0.672145009 0.172747001 0.149081007
0.697382987 0.178561002 0.153718993
0.722361982 0.184801996 0.159181997
0.737621009 0.191011995 0.165454000
0.749264002 0.195682004 0.170199007
0.749264002 0.195682004 0.170199007
0.749264002 0.195682004 0.170199007
0.749264002 0.195682004 0.170199007
0.040833101 0.084183998 0.072663501
0.040573701 0.083207399 0.071793698
0.040146500 0.081345797 0.070344098
0.039871801 0.079545297 0.068802901
0.049652901 0.084718101 0.068879202
0.077073298 0.096955799 0.068253599
0.111832999 0.109223999 0.069459103
0.143510997 0.116579004 0.072434597
0.171145007 0.119585000 0.076523997
0.201952994 0.122056998 0.082017198
0.233783007 0.123948999 0.087052703
0.267338008 0.125581995 0.091218397
0.301472008 0.126726002 0.094575398
0.335743994 0.128298000 0.097749300
0.369116008 0.129564002 0.100556999
0.401998997 0.131411001 0.103426002
0.431724012 0.134020001 0.106783003
0.461005986 0.137529999 0.110857002
0.487708986 0.141893998 0.115800999
0.514321029 0.146502003 0.120714001
0.540657997 0.151400000 0.125917003
0.566628993 0.156497002 0.130860999
0.592644989 0.161287993 0.135698006
0.618432999 0.166125000 0.140276000
0.644236028 0.170855001 0.144944996
0.669902027 0.176103994 0.149432003
0.695093989 0.181537002 0.153856993
0.720072985 0.187030002 0.159106001
0.736460984 0.193483993 0.165392995
0.749355018 0.197909996 0.170687005
0.749310017 0.197925001 0.170504004
0.749310017 0.197711006 0.170473993
0.749310017 0.197711006 0.170473993
0.045471899 0.104906000 0.088746503
0.045212500 0.103761002 0.087968297
0.044937801 0.102388002 0.086823799
0.044632599 0.100556999 0.085526802
0.048493199 0.101503000 0.084657103
0.066788703 0.109621003 0.084596001
0.099763498 0.124971002 0.085709900
0.137101993 0.137591004 0.083588898
0.170626000 0.143313006 0.085648902
0.201617002 0.144472003 0.088883802
0.232547000 0.145159006 0.092637502
0.265415013 0.145173997 0.095841900
0.299153000 0.145602003 0.098725900
0.332982004 0.145861000 0.101259001
0.366322994 0.146562994 0.103928998
0.398595989 0.147477999 0.106569000
0.428793997 0.149553999 0.109682001
0.457877010 0.151979998 0.113558002
0.485038996 0.155779004 0.118134998
0.511817992 0.159548000 0.122896001
0.538398981 0.164003998 0.127993003
0.564553022 0.168413997 0.132815003
0.590600014 0.173097998 0.137819007
0.616357982 0.177340001 0.141984999
0.642039001 0.181658998 0.146456003
0.667643011 0.186572000 0.150927007
0.692987978 0.191240996 0.155459002
0.718029022 0.196490005 0.160647005
0.735347986 0.201784998 0.166734993
0.749629974 0.206148997 0.172168002
0.749629974 0.206148997 0.172168002
0.749629974 0.206148997 0.172168002
0.749615014 0.205920994 0.172137007
0.050141100 0.126375005 0.106126003
0.049973302 0.125367999 0.105318002
0.049652901 0.123963997 0.104218997
0.049347699 0.122331999 0.102922000
0.052033301 0.122454002 0.101305000
0.062775597 0.125764996 0.100679003
0.091187902 0.136262998 0.102434002
0.125658005 0.152132004 0.100679003
0.163836002 0.163103998 0.099443004
0.200152993 0.169267997 0.099519297
0.231768996 0.169847995 0.101182997
0.264775008 0.169481993 0.102707997
0.297641993 0.169130996 0.104722999
0.330983013 0.168063000 0.106569000
0.363835990 0.167787999 0.108553000
0.395895004 0.167818993 0.110780001
0.426016986 0.168642998 0.113527000
0.455451012 0.170153007 0.117280997
0.483085006 0.173372999 0.121629998
0.510109007 0.176302999 0.126039997
0.536400020 0.179736003 0.130769998
0.562554002 0.183550999 0.135348007
0.588571012 0.187319994 0.140063003
0.614099026 0.191226006 0.144396007
0.639779985 0.194873005 0.148653001
0.665491998 0.199267998 0.153079003
0.690744996 0.202976003 0.157518998
0.715969026 0.207111001 0.162370995
0.734264016 0.211658001 0.168292001
0.749782979 0.215930000 0.174043998
0.750195026 0.215914994 0.174243003
0.750195026 0.215701997 0.174211994
0.750178993 0.215030000 0.174121007
0.058808301 0.149171993 0.121996000
0.058503099 0.148469999 0.121339999
0.057862200 0.146853000 0.120393999
0.057389200 0.145418003 0.119478002
0.059372898 0.144960999 0.117997997
0.065552801 0.146151006 0.116700999
0.089387298 0.153062999 0.118317999
0.118989997 0.165163994 0.117082000
0.152178004 0.179613993 0.114733003
0.191835999 0.191683993 0.112458996
0.230471998 0.195361003 0.111803003
0.265491992 0.195590004 0.111757003
0.298451006 0.194490999 0.112535000
0.331777006 0.193224996 0.113558002
0.364187002 0.192003995 0.114733003
0.395514011 0.191423997 0.116350003
0.425635010 0.191363007 0.118578002
0.454443991 0.192553997 0.122010998
0.481941015 0.194232002 0.126009002
0.508521974 0.196734995 0.130144000
0.534736991 0.199466005 0.134584993
0.560631990 0.202181995 0.139039993
0.586587012 0.205477998 0.143373996
0.612131000 0.208469003 0.147615999
0.637690008 0.211627007 0.151842996
0.663278997 0.215105996 0.156191006
0.688762009 0.218798995 0.160341993
0.714046001 0.222293004 0.165178999
0.733363986 0.225757003 0.170779005
0.749035001 0.229633003 0.176515996
0.750850976 0.229830995 0.177095994
0.750850976 0.229830995 0.177095994
0.750850976 0.229603007 0.177065998
0.068680897 0.172793001 0.138170004
0.068039998 0.171908006 0.137591004
0.067399099 0.170230001 0.136370003
0.066941299 0.168795004 0.135408998
0.069199704 0.168687999 0.134629995
0.075227000 0.169771999 0.133821994
0.095719799 0.174640000 0.134904996
0.118120000 0.182054996 0.133470997
0.143678993 0.192035004 0.130480006
0.179339007 0.207019001 0.127107993
0.221714005 0.215228006 0.124392003
0.263049990 0.220356002 0.122392997
0.298375010 0.220172003 0.121981002
0.332403004 0.218860000 0.121706001
0.364888996 0.217166007 0.121964999
0.395758003 0.216402993 0.123063996
0.425680995 0.216129005 0.125230998
0.453788012 0.216754004 0.128068998
0.480994999 0.217761993 0.131456003
0.507317007 0.219622999 0.135316998
0.533227026 0.221668005 0.139284000
0.559090972 0.223666996 0.143481001
0.584649026 0.225787997 0.147477999
0.610284984 0.228458002 0.151492000
0.635950029 0.230609998 0.155550003
0.661508977 0.233493999 0.159593999
0.687265992 0.236027002 0.163531005
0.712673008 0.238986999 0.168307006
0.733012974 0.242083997 0.173540995
0.748301983 0.245471999 0.179033995
0.751766026 0.245639995 0.180377007
0.751720011 0.245670006 0.180179000
0.751720011 0.245212004 0.180133000
0.080353998 0.196979001 0.156618997
0.079835199 0.195666000 0.155702993
0.079301096 0.194521993 0.154863998
0.078782298 0.193347007 0.153856993
0.080109902 0.192752004 0.153184995
0.086137198 0.193698004 0.152575001
0.102449000 0.197665006 0.151842996
0.121950001 0.202838004 0.150087997
0.143923000 0.209461004 0.147677004
0.173175007 0.221316993 0.142855003
0.208498999 0.232348993 0.138429999
0.251881003 0.241428003 0.134645998
0.293935001 0.244250998 0.132615998
0.331990987 0.244555995 0.131044000
0.365758985 0.243290007 0.130494997
0.396750003 0.242420003 0.131411001
0.426519990 0.241671994 0.132906005
0.454093009 0.241520002 0.135103002
0.481117010 0.242115006 0.137788996
0.506965995 0.243015006 0.141100004
0.532478988 0.244083002 0.144716993
0.558206022 0.245747000 0.148317993
0.583504975 0.247517005 0.151949003
0.609109998 0.248965994 0.155702993
0.634607017 0.250721008 0.159273997
0.660273015 0.253208011 0.163027003
0.686029971 0.255145997 0.167071000
0.711452007 0.257831991 0.171785995
0.732569993 0.260426015 0.176715001
0.748103976 0.263554007 0.182375997
0.752925992 0.264225006 0.184146002
0.752910972 0.263783008 0.184100002
0.752879977 0.263354987 0.184054002
0.091889799 0.221347004 0.173877001
0.091386303 0.220461994 0.173342004
0.090913303 0.219547004 0.172625005
0.090333402 0.218006000 0.171572000
0.090989500 0.217226997 0.170702994
0.097688302 0.218310997 0.169679999
0.111330003 0.221102998 0.168215007
0.128847003 0.225666001 0.166461006
0.150195003 0.231234998 0.165606007
0.171831995 0.238270000 0.161333993
0.198443994 0.246387005 0.155534998
0.238116995 0.258197993 0.150378004
0.283650011 0.264851004 0.146257997
0.328222007 0.268940002 0.143084005
0.365332007 0.269199997 0.141329005
0.397664994 0.269107997 0.141222000
0.427695006 0.268040001 0.141558006
0.454611987 0.267322987 0.143313006
0.481422007 0.267475009 0.145327002
0.506798029 0.268025011 0.147982001
0.532067001 0.268528014 0.150912002
0.557304978 0.269840986 0.153933004
0.582498014 0.270633996 0.157275006
0.607964993 0.272114009 0.160739005
0.633508980 0.273259014 0.163973004
0.659219980 0.274693012 0.167346001
0.684916019 0.276295006 0.171434999
0.710139990 0.278706014 0.175906003
0.732447982 0.280842006 0.180925995
0.747814000 0.283679992 0.186388999
0.754405975 0.284610987 0.188739002
0.754375994 0.284168988 0.188693002
0.754329979 0.283955008 0.188464001
0.104463004 0.246937007 0.192615002
0.104128003 0.246021003 0.191835999
0.103380002 0.245075002 0.191119000
0.102876000 0.243946001 0.190294996
0.102770001 0.242878005 0.189440995
0.108750999 0.243366003 0.188448995
0.120164998 0.245701000 0.187350005
0.136858001 0.249134004 0.185672000
0.157397002 0.254245996 0.183734000
0.177553996 0.259357989 0.179644004
0.199343994 0.264973015 0.174761996
0.231693000 0.274769008 0.168275997
0.271153003 0.283039987 0.162676007
0.316700995 0.290349007 0.157411993
0.358648002 0.292804986 0.154359996
0.395666003 0.294362009 0.152407005
0.427435994 0.294667006 0.151796997
0.454993993 0.293935001 0.152483001
0.481696993 0.293857992 0.153779998
0.506859004 0.293660015 0.155794993
0.531944990 0.293873012 0.158114001
0.556923985 0.294102013 0.160615996
0.582086027 0.294681996 0.163378000
0.607294023 0.295125008 0.166354001
0.632821977 0.295902997 0.169345006
0.658411980 0.297414005 0.172656000
0.684062004 0.298038989 0.176410004
0.709345996 0.299870014 0.180757999
0.732676983 0.301838994 0.185458004
0.748241007 0.304706991 0.191257000
0.756358981 0.305469990 0.193911999
0.756313026 0.305240989 0.193698004
0.756282985 0.304814011 0.193652004
0.115938000 0.272480011 0.211733997
0.115662999 0.271611005 0.211138994
0.115373001 0.270740986 0.210529000
0.114869997 0.269977987 0.209857002
0.114687003 0.268451989 0.208698004
0.119707003 0.268970996 0.208057001
0.129457995 0.270588011 0.207202002
0.146044001 0.273030013 0.204210997
0.166400000 0.277301997 0.201038003
0.186587006 0.281513989 0.197528005
0.207506999 0.286091000 0.194965005
0.229541004 0.292392999 0.187976003
0.259647995 0.299825013 0.181033000
0.302159011 0.309392005 0.174669996
0.347844988 0.314640999 0.169512004
0.391485006 0.318394989 0.165742993
0.425498009 0.320179999 0.163348004
0.454780012 0.320302010 0.162768006
0.481696993 0.320026994 0.163073003
0.507041991 0.319889992 0.164599001
0.532173991 0.319554001 0.166292995
0.557045996 0.319279999 0.168367997
0.582207978 0.319402009 0.170687005
0.607155979 0.319447994 0.173022002
0.632273018 0.320073009 0.175692007
0.657832026 0.320867002 0.179049000
0.683497012 0.321781993 0.182666004
0.708751023 0.322804987 0.186602995
0.733103991 0.324604988 0.190935999
0.748547018 0.326893985 0.196399003
0.758449972 0.328130007 0.199786007
0.758388996 0.327688009 0.199557006
0.758373022 0.327259988 0.199496001
0.123796001 0.297749013 0.230593994
0.123536997 0.296864003 0.230014995
0.123292997 0.295949012 0.229236007
0.123033002 0.295064002 0.228641003
0.122804999 0.293965012 0.227787003
0.126680002 0.293965012 0.227115005
0.135637000 0.295094013 0.225681007
0.152467996 0.297490001 0.222994998
0.172426999 0.301030010 0.219867006
0.193820000 0.305074006 0.216968000
0.215228006 0.309269994 0.214022994
0.235767007 0.313847989 0.208712995
0.260150999 0.318989992 0.201572001
0.295109004 0.327091992 0.193011001
0.336582989 0.334188014 0.186862007
0.381597996 0.339650989 0.181246996
0.418615997 0.343465000 0.177676007
0.452064008 0.345082998 0.175249994
0.480720013 0.346150994 0.174197003
0.506828010 0.345647007 0.174456000
0.532203972 0.345281005 0.175326005
0.557152987 0.344457000 0.176761001
0.582071006 0.344471991 0.178545997
0.607263029 0.344060004 0.180423006
0.632273018 0.344319999 0.183246002
0.657464981 0.344915003 0.186235994
0.683116019 0.345449001 0.189440995
0.708446026 0.346516997 0.193270996
0.733592987 0.347508997 0.197345003
0.749553978 0.349813014 0.202579007
0.760998011 0.351323992 0.206316993
0.760951996 0.350683004 0.206210002
0.760845006 0.349813014 0.205890000
0.131426007 0.322620988 0.248737007
0.131319001 0.321889013 0.248034999
0.130968004 0.320652992 0.247333005
0.130877003 0.319738001 0.246571004
0.130510002 0.319050997 0.246081993
0.134264007 0.319050997 0.245304003
0.141923994 0.319875002 0.244143993
0.158938006 0.322086990 0.242069006
0.179294005 0.325352997 0.239245996
0.201052994 0.328664005 0.235889003
0.224124998 0.332432985 0.232409999
0.245364994 0.336216986 0.228092000
0.267643005 0.339390993 0.223453000
0.293094993 0.345129013 0.214466006
0.325718999 0.351736009 0.206682995
0.367040992 0.360174000 0.198946998
0.408681989 0.364980996 0.193316996
0.447409987 0.368719012 0.189563006
0.478325009 0.371358991 0.186739996
0.506187975 0.372152001 0.185763001
0.532158017 0.371832013 0.185367003
0.557290018 0.370916009 0.186313003
0.582512975 0.369940013 0.187533006
0.607613981 0.369664997 0.189548001
0.632791996 0.369390011 0.191973999
0.658091009 0.369771987 0.194812000
0.683619022 0.370108008 0.197833002
0.708949029 0.370793998 0.201434001
0.734142005 0.371618003 0.205234006
0.751019001 0.373555988 0.209827006
0.764141023 0.375142992 0.213962004
0.764079988 0.374716014 0.213703007
0.764003992 0.373845994 0.213565007
0.139925003 0.346471012 0.266133010
0.139437005 0.346166015 0.265765995
0.139300004 0.345144004 0.265125990
0.139085993 0.344671011 0.264683008
0.138659000 0.343602985 0.263889998
0.141817003 0.343542010 0.263294011
0.148302004 0.343694001 0.262302995
0.165286005 0.345952988 0.260791987
0.185396999 0.348652989 0.258778006
0.208483994 0.351080000 0.254779994
0.233706996 0.354436994 0.250705987
0.257450014 0.358175009 0.246859998
0.279361993 0.361395001 0.243579999
0.300693989 0.365956992 0.237201005
0.326878995 0.371374011 0.229541004
0.360554993 0.378652990 0.219485998
0.399863005 0.385306001 0.212345004
0.439475000 0.390448004 0.207308993
0.472160012 0.394811988 0.203159004
0.503151000 0.397085994 0.200380996
0.531150997 0.397971004 0.198183998
0.557366014 0.397848010 0.198108003
0.582939982 0.396872014 0.198443994
0.608316004 0.395864993 0.199786007
0.633677006 0.395514011 0.201892003
0.658824027 0.395163000 0.204059005
0.684489012 0.395285010 0.207049996
0.709590018 0.395543993 0.210024998
0.734858990 0.396398991 0.213413000
0.752772987 0.398169011 0.217868000
0.767391026 0.399801999 0.222048998
0.767253995 0.398947001 0.221682996
0.767207980 0.398519993 0.221591994
0.146807000 0.370611012 0.284245014
0.146685004 0.369893998 0.283542991
0.146303996 0.369177014 0.282871991
0.146151006 0.368382990 0.282474995
0.146059006 0.367482990 0.281697005
0.148729995 0.367224008 0.281192988
0.154008999 0.367314994 0.280490994
0.170291007 0.369650006 0.279698014
0.190631002 0.371434987 0.277393997
0.215105996 0.373387992 0.273503006
0.242252007 0.376455009 0.269261003
0.267459989 0.380255014 0.265919000
0.290073991 0.384404987 0.263202995
0.310200989 0.388312012 0.258502990
0.332630992 0.391943008 0.251850009
0.359059989 0.397222996 0.242083997
0.391775012 0.404013008 0.234180003
0.427648991 0.411428988 0.226749003
0.463797987 0.416846007 0.220981002
0.498604000 0.420569003 0.216830999
0.529151976 0.423193991 0.213045999
0.557075977 0.424048007 0.211504996
0.583779991 0.424079001 0.210696995
0.609261990 0.422659993 0.211337000
0.634791017 0.422019005 0.212940007
0.660197020 0.421591997 0.215045005
0.685863018 0.421377987 0.217533007
0.711161971 0.421362996 0.220356002
0.736446023 0.422140986 0.223407000
0.755261004 0.423040986 0.227084994
0.770169020 0.424674004 0.230945006
0.771389008 0.423835009 0.230884001
0.771144986 0.423406988 0.230808005
0.152604997 0.394262999 0.301670998
0.152438000 0.393590987 0.301167011
0.152270004 0.392935008 0.300664008
0.152070999 0.392325014 0.300327986
0.151933998 0.391608000 0.299656987
0.154054999 0.390982002 0.299122989
0.158189997 0.391409010 0.298725992
0.173265994 0.393256009 0.298177004
0.193758994 0.394735992 0.295643985
0.218997002 0.396353006 0.292180002
0.247822002 0.398672014 0.288289011
0.274006009 0.402045012 0.284900993
0.299870014 0.406423986 0.281711996
0.322834998 0.410178006 0.277974010
0.344381005 0.413993001 0.274311006
0.366079003 0.417852998 0.266575009
0.391882002 0.423330992 0.258152008
0.421561003 0.430487990 0.248325005
0.456992000 0.437002987 0.240634993
0.492347986 0.442312986 0.235873997
0.524345994 0.446525007 0.231494993
0.554726005 0.448843986 0.228350997
0.582696021 0.449743986 0.225466996
0.609766006 0.449759990 0.225054994
0.635873973 0.449286997 0.225498006
0.661601007 0.448325008 0.226627007
0.687312007 0.447807014 0.228779003
0.712931991 0.447257012 0.230945006
0.737972021 0.447744995 0.233477995
0.757824004 0.448599994 0.236576006
0.772792995 0.449820995 0.240054995
0.775372028 0.449225992 0.240299001
0.775279999 0.448585004 0.240145996
0.157885000 0.417807013 0.318897992
0.157732993 0.416785002 0.318287998
0.157548994 0.416296989 0.317829996
0.157381997 0.415609986 0.317326993
0.157229006 0.414770991 0.316776991
0.159044996 0.414496005 0.316395998
0.162890002 0.414557010 0.315999001
0.176973999 0.416114002 0.315465003
0.197558999 0.417165995 0.313313007
0.223468006 0.418707997 0.310535997
0.252505988 0.420859009 0.307316989
0.280034006 0.423606008 0.303654999
0.309177995 0.427587986 0.300007999
0.334524006 0.431968004 0.297336996
0.356817007 0.436210006 0.295978993
0.375937015 0.439642996 0.290776014
0.396963000 0.443839014 0.282673001
0.421041995 0.449561000 0.272022992
0.451727986 0.456595987 0.263462007
0.483696014 0.463416010 0.256352007
0.517265975 0.468528003 0.250140995
0.550239980 0.472404003 0.245899007
0.580681980 0.474997997 0.241442993
0.609521985 0.476051003 0.239642993
0.636865973 0.476020008 0.238697007
0.663080990 0.475638986 0.239368007
0.688868999 0.474662006 0.240588993
0.714488029 0.474036992 0.242115006
0.739467025 0.473807991 0.244221002
0.760388017 0.474173993 0.246754006
0.775326014 0.475562990 0.250019014
0.779659986 0.475455999 0.250995994
0.779461026 0.473944992 0.250445992
0.163073003 0.440818012 0.335804999
0.162904993 0.440145999 0.335301995
