luts/travel_12.cube
TITLE "33x33x33 Adobe/IRIDAS cube 3D LUT exported with GrossGrade v0.2.2 (beta) 64 bit"
DOMAIN_MIN 0 0 0
DOMAIN_MAX 1 1 1
LUT_3D_SIZE 5
0.032349098 0.007003890 0.027771400
0.175356999 0.026367599 0.040527999
0.460426003 0.061951600 0.065644301
0.648828983 0.138979003 0.070679799
0.783474982 0.218722999 0.074921802
0.047043599 0.158601999 0.060563099
0.163988993 0.179461002 0.050156400
0.393285990 0.221911997 0.059327099
0.631600976 0.285602987 0.069993101
0.787792981 0.348226011 0.090379201
0.048004899 0.315479994 0.102463998
0.161364004 0.339650989 0.055268198
0.474265993 0.385091990 0.050888799
0.648020029 0.434484988 0.070405103
0.786404014 0.501182973 0.135133997
0.055466499 0.509299994 0.174884006
0.176455006 0.549157023 0.063401200
0.477317005 0.566003025 0.061921101
0.658273995 0.619988978 0.084962197
0.787120998 0.642771006 0.197191998
0.090791203 0.680583000 0.243320003
0.209415004 0.722728014 0.244404003
0.485908002 0.780438006 0.156985000
0.646234989 0.788891017 0.198596001
0.781125009 0.810651004 0.260533005
0.003356980 0.000000000 0.113649003
0.092912197 0.000000000 0.116732001
0.460197002 0.000000000 0.137880996
0.668528020 0.000000000 0.091020100
0.807294011 0.216601998 0.199145004
0.047226701 0.179019004 0.167224005
0.168429002 0.201358005 0.179049000
0.476370990 0.227375001 0.165788993
0.675502002 0.303151011 0.169084996
0.798229992 0.383612007 0.280979991
0.046891000 0.327077001 0.221653000
0.124346003 0.385336012 0.199038997
0.507561028 0.420874000 0.126039997
0.677622974 0.477317005 0.183992997
0.802625000 0.536309004 0.337545007
0.059159201 0.521323979 0.278782010
0.139605001 0.552376986 0.278019011
0.478370011 0.629755020 0.143007994
0.666895986 0.639810979 0.256610990
0.796567023 0.672357976 0.355612010
0.098710597 0.697001994 0.357793987
0.197054997 0.738261998 0.407415986
0.473441988 0.796033025 0.330785006
0.641732991 0.806209981 0.321873993
0.798825026 0.836286008 0.411336988
0.038941000 0.006805520 0.307545990
0.153505996 0.011444300 0.291615009
0.315297008 0.000000000 0.253773004
0.654748976 0.139421999 0.315328002
0.799771011 0.235919997 0.395529002
0.047775999 0.229099005 0.306553990
0.141405001 0.217380002 0.397498012
0.466789007 0.273442000 0.352178007
0.693462014 0.352986991 0.410329998
0.818050981 0.419485986 0.459753990
0.048020098 0.361791015 0.359441996
0.119707003 0.404837012 0.397725999
0.480293006 0.478293985 0.436987996
0.699213982 0.542275012 0.498833001
0.838147998 0.574868023 0.521354973
0.067994200 0.552269995 0.426566005
0.158144996 0.598412991 0.439016998
0.442420006 0.663995981 0.488548011
0.693262994 0.700556993 0.492240995
0.837231994 0.729519010 0.556816995
0.118349001 0.731333971 0.501197994
0.215823993 0.771847010 0.544853985
0.459174007 0.825788021 0.579782009
0.679911017 0.859632015 0.515724003
0.831265986 0.873869002 0.600977004
0.014831800 0.000000000 0.461311013
0.149553999 0.000000000 0.437949002
0.369542986 0.000000000 0.441778988
0.660731018 0.180803999 0.494376987
0.805051029 0.251621008 0.577126980
0.049530800 0.284198999 0.464515001
0.165057003 0.236010998 0.604516983
0.462226003 0.250308990 0.566124976
0.677760005 0.368811011 0.571801007
0.828427970 0.436621994 0.606287003
0.056092199 0.437949002 0.513085008
0.135729000 0.472876996 0.566368997
0.488624007 0.534401000 0.641138017
0.711452007 0.555824995 0.640253007
0.859220028 0.610880017 0.678156972
0.085252203 0.592767000 0.581613004
0.175890997 0.634088993 0.609049022
0.438360989 0.708141029 0.678476989
0.719295025 0.749203026 0.698238015
0.865445971 0.778683007 0.750149012
0.141192004 0.763316989 0.669336975
0.245959997 0.808713019 0.690729976
0.485908002 0.873533010 0.737223983
0.716746986 0.899106979 0.746258020
0.867200971 0.915540993 0.777615011
0.046631601 0.048447400 0.686748028
0.186496004 0.000000000 0.613474011
0.497321993 0.131669998 0.669275999
0.700298011 0.211504996 0.681146979
0.820905030 0.247943997 0.718059003
0.057099301 0.345616996 0.670343995
0.204806998 0.315770000 0.786435008
0.527642012 0.299885988 0.755611002
0.709926009 0.379889011 0.734324992
0.839109004 0.446052015 0.776866972
0.073105998 0.503166020 0.697229981
0.185763001 0.544259012 0.747524023
0.520606995 0.540291011 0.851971984
0.717478991 0.579415977 0.803646982
0.852353990 0.634104013 0.816982985
0.117432997 0.653406978 0.756129980
0.226824999 0.695338011 0.784649014
0.473075002 0.759808004 0.844326973
0.736644983 0.793331981 0.861692011
0.880765975 0.813992977 0.885451019
0.209353998 0.813672006 0.825039983
0.310842007 0.850247979 0.850857973
0.500633001 0.901808023 0.915464997
0.732142985 0.926115990 0.929488003
0.895063996 0.943328023 0.944015026
