luts/travel_06.cube
TITLE "33x33x33 Adobe/IRIDAS cube 3D LUT exported with GrossGrade v0.2.2 (beta) 64 bit"
DOMAIN_MIN 0 0 0
DOMAIN_MAX 1 1 1
LUT_3D_SIZE 5
0.033295199 0.025116401 0.024033001
0.182146996 0.060944501 0.034073401
0.420661002 0.136842996 0.039703999
0.766032994 0.200687006 0.044312201
0.838375986 0.212558001 0.043610301
0.129244000 0.166720003 0.149095997
0.211536005 0.166125000 0.051346600
0.419211000 0.199786007 0.036224902
0.751582980 0.249638006 0.035523001
0.843275011 0.266223997 0.038529001
0.246356994 0.361425012 0.348470002
0.328527004 0.342824012 0.236865997
0.479591012 0.350133985 0.093995601
0.732722998 0.402655005 0.105683997
0.867474973 0.424001992 0.144944996
0.343937993 0.537499011 0.525536001
0.414328009 0.524773002 0.452475995
0.565270007 0.546136022 0.337300986
0.776120007 0.590660989 0.318668991
0.916136026 0.671976984 0.414130002
0.455298990 0.681025028 0.676249027
0.528572023 0.687647998 0.655802011
0.688380003 0.705027997 0.542473018
0.814266980 0.775662005 0.578637004
0.932586014 0.872327983 0.755306005
0.040573701 0.035080500 0.064896598
0.189776003 0.061875299 0.135591999
0.409949005 0.121218003 0.116090998
0.749844015 0.203997999 0.137819007
0.835523009 0.225727007 0.142472997
0.121064998 0.176973999 0.207477003
0.185870007 0.181353003 0.174640000
0.403097987 0.228565007 0.169909000
0.722606003 0.278126001 0.167772993
0.840481997 0.287968010 0.161532000
0.249789998 0.368185014 0.379842997
0.294438004 0.359533012 0.358282000
0.506523013 0.389486998 0.255955011
0.753597021 0.427908987 0.249317005
0.873288989 0.454551011 0.276295006
0.350010991 0.544533014 0.563881993
0.392432004 0.536674976 0.532723010
0.553718984 0.557228982 0.415609986
0.770274997 0.629480004 0.425909996
0.904996991 0.716441989 0.525322020
0.464973003 0.686640978 0.707759023
0.522255003 0.695872009 0.688562989
0.655909002 0.726345003 0.644221008
0.805356026 0.784938991 0.635583997
0.932052016 0.891095996 0.806774974
0.095429897 0.090684399 0.204685003
0.210773006 0.163699001 0.304096997
0.424825996 0.154971004 0.328420013
0.733515978 0.155108005 0.264117986
0.846952021 0.186022997 0.250050008
0.145707995 0.199542001 0.336674988
0.187289000 0.206820995 0.287175000
0.409215987 0.230838001 0.329122007
0.715251029 0.269017011 0.293155998
0.845762014 0.298923999 0.298741013
0.256107002 0.380757987 0.470146000
0.290959001 0.369955003 0.436850995
0.411872000 0.405158013 0.397284001
0.714610994 0.460242987 0.410757989
0.855741024 0.510291994 0.447867990
0.359654993 0.561470985 0.627115011
0.394690007 0.548561990 0.593178988
0.507453978 0.584115028 0.574029028
0.739178002 0.653146982 0.543145001
0.899046004 0.788357019 0.689249992
0.473518014 0.698161006 0.758037984
0.536109984 0.705226004 0.732173979
0.633295000 0.742824018 0.735072970
0.802730978 0.801937997 0.710582018
0.927610993 0.903455973 0.849789977
0.164645001 0.163424000 0.360388011
0.250797004 0.216784999 0.435279012
0.421133995 0.263644993 0.524268985
0.756222010 0.206836000 0.442236990
0.872999012 0.187014997 0.396459997
0.193178996 0.238757998 0.473426014
0.229282007 0.248660997 0.405523986
0.391882002 0.302693009 0.490851998
0.720211029 0.279866010 0.444312006
0.866071999 0.286945999 0.415594995
0.239139006 0.388251007 0.607918978
0.276692003 0.382802993 0.556877971
0.407797009 0.421088010 0.518868029
0.678781986 0.434165001 0.506218016
0.851819992 0.470771015 0.500617981
0.364477009 0.576883018 0.708384991
0.397451997 0.564767003 0.666818976
0.521996021 0.596246004 0.631434023
0.683085024 0.652125001 0.633782983
0.868574023 0.733684003 0.702158988
0.486274987 0.715496004 0.806393981
0.544900000 0.719509006 0.781688988
0.643732011 0.751293004 0.776883006
0.796123981 0.818997979 0.788846016
0.915723979 0.903944016 0.872312009
0.197725996 0.199557006 0.459540993
0.271153003 0.244282007 0.532189012
0.419485986 0.304996997 0.593438983
0.745738983 0.261218995 0.605417013
0.885022998 0.246234998 0.544915020
0.221042007 0.265522003 0.575829983
0.266849995 0.276143014 0.550027013
0.400548995 0.327459008 0.576837003
0.698755980 0.330769986 0.620462000
0.875715017 0.326801986 0.547645986
0.244984001 0.399969012 0.695856988
0.289860010 0.392935008 0.655328989
0.425848991 0.431418002 0.619623005
0.661172986 0.466284990 0.657557011
0.865262985 0.480140001 0.599527001
0.357854992 0.583275974 0.791669011
0.388570994 0.574120998 0.750195026
0.512351990 0.606561005 0.715830982
0.682260990 0.666773021 0.715067983
0.855924010 0.705303013 0.728954017
0.492042005 0.726985991 0.862820983
0.557350993 0.731655002 0.830747008
0.658396006 0.762600005 0.816419005
0.793026984 0.827862978 0.835766971
0.896376014 0.898801982 0.892606974
