luts/travel_08.cube
TITLE "33x33x33 Adobe/IRIDAS cube 3D LUT exported with GrossGrade v0.2.2 (beta) 64 bit"
DOMAIN_MIN 0 0 0
DOMAIN_MAX 1 1 1
LUT_3D_SIZE 33
0.003509580 0.002014190 0.000411994
0.012634500 0.003662170 0.000946059
0.024536500 0.005325400 0.001297020
0.037964400 0.007034410 0.001632720
0.053452399 0.009109640 0.002059970
0.070710301 0.011703700 0.002594030
0.091157399 0.014816500 0.003387500
0.114335999 0.017547900 0.003341730
0.140597001 0.020187700 0.002685590
0.168750003 0.022995301 0.002502480
0.198734000 0.026169199 0.002548260
0.229510993 0.028549600 0.002700850
0.260609001 0.030624900 0.002868700
0.291844010 0.033157900 0.003006030
0.322881013 0.035568800 0.003143360
0.353978992 0.037476201 0.003234910
0.385015994 0.040116001 0.003295950
0.415868998 0.043564498 0.003372240
0.447439998 0.043946002 0.003479060
0.478354990 0.046295900 0.003524830
0.509223998 0.048325300 0.003631650
0.540017009 0.049271401 0.003723200
0.570428014 0.049698599 0.003830010
0.600793004 0.050858300 0.003967350
0.631021976 0.052689400 0.004135200
0.661036015 0.054428902 0.004348820
0.690684021 0.055863298 0.004638740
0.719645977 0.056244802 0.005142290
0.748165011 0.057068702 0.005859460
0.775920987 0.057953801 0.006485080
0.802945018 0.059617002 0.007217520
0.829159975 0.060913999 0.008010990
0.854596972 0.062287301 0.008819720
0.010894900 0.013748400 0.003845270
0.019562099 0.016037200 0.004379340
0.030579099 0.018219300 0.004409860
0.043930698 0.019974099 0.004287790
0.059922200 0.022064500 0.004364080
0.078385599 0.024795899 0.004669260
0.099381998 0.027954500 0.005233840
0.123475999 0.030441700 0.004409860
0.150103003 0.033234101 0.003585870
0.178545997 0.036362201 0.003219650
0.208208993 0.039261501 0.003234910
0.238757998 0.041748699 0.003326470
0.269351989 0.044312201 0.003402760
0.300359011 0.047394499 0.003524830
0.331243008 0.050217401 0.003601130
0.362387002 0.052033301 0.003631650
0.393361986 0.054169498 0.003677420
0.424032986 0.056946699 0.003738460
0.455359995 0.057282399 0.003875790
0.486075997 0.059464399 0.003875790
0.516411006 0.062027901 0.003891050
0.546715021 0.063981101 0.003952090
0.576776028 0.065461203 0.004043640
0.607110977 0.066300496 0.004196230
0.637537003 0.067734800 0.004394600
0.667185009 0.070176199 0.004638740
0.696268976 0.071854703 0.004928660
0.725184977 0.071854703 0.005508510
0.753688991 0.070344098 0.006225680
0.781108975 0.073182300 0.006912340
0.807857990 0.075501598 0.007629510
0.833905995 0.077500597 0.008453500
0.858960986 0.079606302 0.009292740
0.016968001 0.026337100 0.006866560
0.026962699 0.028488601 0.007309070
0.037247300 0.031143701 0.007370110
0.050598901 0.033356201 0.007156480
0.067093901 0.035675600 0.006973370
0.086244002 0.038330700 0.006851300
0.108248003 0.041626599 0.006576640
0.132723004 0.044281699 0.005447470
0.159564003 0.047562402 0.004379340
0.188051999 0.051087201 0.003952090
0.217593998 0.054245800 0.003936830
0.247913003 0.057068702 0.003967350
0.278629988 0.060029000 0.003997860
0.309163004 0.062821403 0.004043640
0.339834005 0.065476499 0.004089420
0.370793998 0.067475401 0.004058900
0.401694000 0.069169097 0.004089420
0.432348996 0.071000203 0.004104680
0.463293999 0.072221003 0.004196230
0.493782014 0.074418202 0.004211490
0.523980021 0.077317499 0.004226750
0.553689003 0.080598198 0.004287790
0.583612025 0.083344802 0.004364080
0.614068985 0.084123001 0.004531930
0.644250989 0.085771002 0.004745560
0.673487008 0.088807501 0.004974440
0.702311993 0.091264203 0.005401690
0.730861008 0.092027202 0.005981540
0.759243011 0.090974301 0.006668190
0.786602974 0.093934499 0.007415880
0.812940001 0.097154200 0.008178840
0.838499010 0.100160003 0.009018080
0.863431990 0.102953002 0.009903100
0.021561000 0.040405899 0.010086200
0.031387798 0.042633701 0.010208300
0.041809700 0.045517702 0.010238800
0.054520499 0.048325300 0.010040400
0.071519002 0.051102500 0.009582670
0.092606999 0.054138999 0.009033340
0.116304003 0.057160299 0.008026250
0.142184004 0.059647501 0.006652930
0.169467002 0.062821403 0.005279620
0.198108003 0.066346198 0.004730300
0.227619007 0.069520101 0.004638740
0.257800996 0.072373502 0.004654000
0.288318992 0.075440601 0.004623480
0.318654001 0.078431398 0.004623480
0.349049985 0.081513703 0.004577710
0.379613996 0.084535003 0.004562450
0.410192996 0.086930603 0.004531930
0.440757006 0.089112699 0.004547190
0.471442997 0.091355801 0.004562450
0.501976013 0.093919300 0.004577710
0.531791985 0.096711703 0.004592970
0.561439991 0.099458300 0.004623480
0.591103971 0.101442002 0.004715040
0.621302009 0.102234997 0.004882890
0.650919020 0.104707003 0.005111770
0.680049002 0.108140998 0.005355920
0.708689988 0.110184997 0.005889980
0.736599028 0.112474002 0.006530860
0.764308989 0.114304997 0.007171740
0.791958988 0.115006998 0.007919430
0.818005979 0.118943997 0.008758680
0.843275011 0.122727998 0.009628440
0.867780983 0.126313999 0.010498200
0.025742000 0.055802200 0.013473700
0.035599299 0.058243699 0.013397400
0.046158500 0.060944501 0.013183800
0.058945600 0.063889503 0.012832800
0.076081499 0.066819303 0.012192000
0.098359697 0.070130497 0.011322200
0.123994999 0.073487498 0.009948880
0.151537001 0.076661304 0.008148320
0.179873005 0.080003098 0.006485080
0.208300993 0.083482102 0.005691620
0.237827003 0.087159500 0.005447470
0.267886996 0.090516500 0.005340660
0.298207015 0.093659900 0.005249100
0.328465998 0.096604899 0.005142290
0.358815998 0.099778697 0.005066000
0.389059007 0.102907002 0.004989700
0.419256985 0.105516002 0.004974440
0.449423999 0.108064003 0.004943920
0.479957014 0.110307001 0.004959180
0.510627985 0.111910000 0.004928660
0.540063024 0.115068004 0.004943920
0.569420993 0.117830001 0.005004960
0.599099994 0.119966000 0.005142290
0.629099011 0.121827997 0.005310140
0.658182979 0.125367999 0.005508510
0.686884999 0.128801003 0.005767910
0.715174973 0.131182000 0.006378270
0.742793977 0.134356007 0.007003890
0.770245016 0.137270004 0.007690550
0.797330022 0.138766006 0.008453500
0.822919011 0.143252000 0.009369040
0.848462999 0.145494998 0.010284600
0.872801006 0.148958996 0.011169600
0.029343100 0.072694004 0.017120600
0.038971499 0.075227000 0.016861200
0.049622301 0.077775203 0.016418699
0.063034996 0.080506600 0.015777800
0.080170900 0.083436303 0.014908100
0.102845997 0.086930603 0.013778900
0.130236000 0.090913303 0.012161400
0.160067007 0.094804302 0.009887850
0.189669997 0.098420702 0.007873660
0.219286993 0.102372997 0.006744490
0.248692006 0.106020004 0.006256200
0.278447002 0.109696999 0.006088350
0.308445990 0.113160998 0.005920500
0.338490993 0.116121002 0.005752650
0.368826002 0.119326003 0.005615320
0.398947001 0.122560002 0.005508510
0.428779006 0.125367999 0.005432210
0.458824009 0.128389001 0.005371180
0.489006013 0.130982995 0.005340660
0.519280016 0.132783994 0.005325400
0.548408985 0.135958001 0.005355920
0.577889979 0.138582006 0.005386430
0.607446015 0.140795007 0.005539030
0.636927009 0.143052995 0.005722130
0.665812016 0.146548003 0.005951020
0.694224000 0.149629995 0.006332490
0.721980989 0.152728006 0.006988630
0.749310017 0.156420007 0.007660030
0.776287019 0.159655005 0.008361940
0.802869022 0.162860006 0.009155410
0.828015983 0.167636007 0.009994660
0.853604972 0.169116005 0.010925500
0.877988994 0.172229007 0.011856300
0.031769302 0.091111600 0.021149000
0.041214600 0.093751401 0.020706501
0.052246898 0.096482798 0.020050401
0.066117302 0.098970003 0.019134801
0.084306099 0.101853997 0.018051401
0.107102998 0.105241001 0.016723899
0.135698006 0.109376997 0.014847000
0.167055994 0.113573000 0.012161400
0.198443994 0.118105002 0.009308000
0.229084000 0.122667000 0.007812620
0.259342015 0.126847997 0.007171740
0.289097011 0.130860999 0.006851300
0.318807006 0.134203002 0.006607160
0.348760009 0.137422994 0.006393530
0.378881991 0.140642002 0.006195160
0.408926994 0.143664002 0.006057830
0.438742995 0.146516994 0.005951020
0.468726993 0.149446994 0.005813690
0.498542994 0.152361006 0.005767910
0.528236985 0.154817998 0.005767910
0.557259977 0.157809004 0.005767910
0.586678982 0.160235003 0.005828950
0.615823984 0.163271993 0.005981540
0.644800007 0.166354001 0.006195160
0.673335016 0.169725999 0.006454570
0.701349974 0.172854006 0.006942860
0.729045987 0.176348999 0.007553220
0.755917013 0.180345997 0.008239870
0.782391012 0.184161007 0.008987560
0.808468997 0.187243000 0.009842070
0.833738029 0.191226006 0.010620300
0.859082997 0.193087995 0.011566300
0.883085012 0.197100997 0.012481900
0.033859801 0.110765003 0.025543600
0.043305099 0.113831997 0.025009500
0.054535698 0.116746999 0.024200801
0.068741903 0.119493000 0.023132700
0.088212401 0.122164004 0.021713600
0.112108000 0.125230998 0.019989301
0.140947998 0.128953993 0.017822500
0.172777995 0.133074000 0.014877500
0.205920994 0.138338000 0.011566300
0.237994999 0.143647999 0.008911270
0.269154012 0.148882002 0.008056760
0.299259990 0.153230995 0.007660030
0.329075992 0.157229006 0.007339590
0.359030008 0.160693005 0.007034410
0.388967991 0.164019004 0.006836040
0.418830007 0.167071000 0.006668190
0.448691994 0.169771999 0.006546120
0.478583992 0.172685996 0.006378270
0.508202016 0.175509006 0.006256200
0.537483990 0.178119004 0.006225680
0.566551983 0.181033000 0.006240940
0.595941007 0.183825001 0.006301980
0.624337971 0.187548995 0.006469830
0.652750015 0.190768003 0.006652930
0.681116998 0.193941996 0.007034410
0.708887994 0.197253004 0.007583730
0.736155987 0.200763002 0.008255130
0.762920976 0.204302996 0.008957050
0.788846016 0.208407998 0.009658960
0.814266980 0.212176993 0.010513500
0.839429021 0.215777993 0.011337500
0.864499986 0.218401998 0.012344500
0.888333976 0.221576005 0.013229600
0.035523001 0.132006004 0.030060301
0.045182001 0.135270998 0.029572001
0.056671999 0.138459995 0.028763300
0.071030699 0.141543001 0.027618799
0.091294698 0.144182995 0.025940301
0.117113002 0.147020996 0.023819299
0.146348998 0.150087997 0.021133700
0.178819999 0.153658003 0.017746201
0.212299004 0.158923000 0.014053600
0.245579004 0.164828002 0.010498200
0.277927995 0.171145007 0.009033340
0.308766007 0.176364005 0.008484020
0.338903010 0.181200996 0.008102540
0.369222999 0.185412005 0.007782100
0.398977995 0.188982993 0.007507440
0.428656012 0.192157000 0.007293810
0.458411992 0.195178002 0.007125960
0.488211989 0.198214993 0.006958110
0.517509997 0.200916007 0.006836040
0.546379983 0.203738004 0.006775010
0.575540006 0.206897005 0.006820780
0.604485989 0.209521994 0.006881820
0.632836998 0.213442996 0.007049670
0.660944998 0.216189995 0.007248040
0.688991010 0.219135001 0.007675290
0.716395974 0.222431004 0.008270390
0.743191004 0.226199999 0.008926530
0.769695997 0.229679003 0.009643700
0.795589983 0.232837006 0.010421900
0.820752025 0.237124994 0.011230600
0.845288992 0.240970001 0.012085100
0.869856000 0.243992001 0.013077000
0.893751025 0.246891007 0.013931500
0.037430398 0.154513001 0.034973700
0.047302999 0.157946005 0.034454901
0.059357598 0.161470994 0.033615600
0.074113101 0.164614007 0.032379601
0.094667003 0.167498007 0.030701200
0.121354997 0.170199007 0.028244400
0.152438000 0.172976002 0.024979001
0.185381994 0.175998002 0.021118499
0.218952000 0.180574998 0.016815400
0.252521992 0.186679006 0.012680200
0.285526991 0.193561003 0.010315100
0.317418009 0.199846998 0.009353780
0.348179996 0.205645993 0.008926530
0.378713995 0.210544005 0.008560310
0.408666998 0.214892998 0.008255130
0.438253999 0.218372002 0.008026250
0.467902988 0.221728995 0.007797360
0.497474998 0.225161999 0.007629510
0.526619017 0.227908999 0.007507440
0.555337012 0.230884001 0.007446400
0.584160984 0.233997002 0.007461660
0.612847984 0.236895993 0.007537960
0.641138017 0.240054995 0.007675290
0.669153988 0.242817000 0.007949950
0.696924984 0.245670006 0.008468760
0.723949015 0.248814002 0.009033340
0.750301003 0.252368987 0.009704740
0.776471019 0.255694985 0.010452400
0.802151978 0.258625001 0.011184900
0.827008009 0.262775987 0.011978300
0.851315975 0.266696990 0.012863400
0.875470996 0.269733995 0.013748400
0.899183989 0.272388995 0.014633400
0.040634800 0.177676007 0.039902300
0.050614201 0.181262001 0.039444599
0.062790900 0.184878007 0.038559500
0.077988900 0.188418001 0.037369300
0.098802201 0.191577002 0.035706099
0.126115993 0.194613993 0.033050999
0.158281997 0.197375000 0.029480400
0.192706004 0.200121999 0.025101099
0.226841003 0.203814998 0.020065600
0.260226995 0.209506005 0.015289500
0.292575985 0.216129005 0.012054600
0.324986994 0.223345995 0.010528700
0.356786013 0.230059996 0.009857330
0.387564003 0.235981002 0.009414820
0.417578012 0.241137996 0.009079120
0.447517008 0.245730996 0.008834970
0.477256000 0.249409005 0.008590830
0.506492972 0.252658993 0.008392460
0.535575986 0.255710989 0.008270390
0.564293981 0.258747011 0.008178840
0.592737019 0.261662006 0.008163580
0.621118009 0.264530003 0.008209350
0.649226010 0.267246991 0.008316170
0.677150011 0.269885987 0.008743420
0.704416990 0.272724986 0.009262230
0.731167018 0.275730997 0.009826810
0.757610023 0.279042006 0.010498200
0.783321977 0.282216012 0.011245900
0.808529973 0.285450995 0.011978300
0.833142996 0.289128006 0.012741300
0.857527018 0.292470008 0.013595800
0.881483018 0.295444995 0.014450300
0.904905975 0.298070014 0.015320100
0.044129100 0.201815993 0.044937801
0.054459400 0.205905005 0.044617400
0.066864997 0.209475994 0.043839201
0.082368203 0.213291004 0.042694699
0.103699997 0.216830999 0.040909398
0.131411001 0.220278993 0.038315400
0.164340004 0.223300993 0.034378599
0.200152993 0.225727007 0.029587200
0.235644996 0.228854999 0.024124499
0.269093007 0.233783007 0.018539701
0.301243991 0.240054995 0.014374000
0.332783997 0.247196004 0.012207200
0.364888996 0.254642993 0.011093300
0.396138996 0.261523992 0.010482900
0.426306993 0.267596990 0.010116700
0.456413001 0.272953004 0.009796290
0.485908002 0.277211010 0.009506370
0.515129030 0.281192988 0.009323260
0.544014990 0.284276009 0.009170670
0.572869003 0.287265986 0.009033340
0.601068020 0.290196002 0.008941790
0.629190981 0.292744011 0.008941790
0.656992018 0.295383990 0.009124900
0.684749007 0.297948003 0.009597920
0.711848974 0.300633013 0.010086200
0.738308012 0.303456008 0.010620300
0.764446020 0.306217998 0.011230600
0.790112019 0.309269994 0.011978300
0.814908028 0.312474012 0.012710800
0.839338005 0.315739989 0.013458500
0.863812983 0.318502009 0.014313000
0.887647986 0.321401000 0.015167500
0.910673976 0.324299991 0.015991500
0.048661001 0.227450997 0.050034299
0.059250802 0.231356993 0.049668100
0.072114103 0.235369995 0.048950899
0.088334501 0.239460006 0.047882799
0.109621003 0.243275002 0.046265401
0.137880996 0.246768996 0.043518700
0.170976996 0.250461996 0.039581899
0.207674995 0.253071010 0.034470100
0.243915007 0.255192012 0.028946400
0.278537989 0.259357989 0.023117401
0.311040014 0.265141010 0.017593700
0.342442989 0.272022992 0.014358700
0.372671008 0.279408008 0.012726000
0.404181004 0.286884993 0.011825700
0.435126007 0.293567985 0.011291700
0.465034008 0.299519002 0.010940700
0.494423002 0.305027992 0.010620300
0.523171008 0.309345990 0.010360900
0.552040994 0.313297987 0.010177800
0.580667019 0.316532999 0.009948880
0.608927011 0.319371015 0.009857330
0.636911988 0.321904004 0.009811550
0.664546013 0.324497998 0.010071000
0.691843987 0.327107996 0.010513500
0.718729973 0.329519004 0.010956000
0.744961023 0.332067013 0.011444300
0.770870984 0.334614992 0.012054600
0.796398997 0.337224007 0.012726000
0.821179986 0.340153992 0.013489000
0.845471978 0.343313009 0.014236700
0.869458973 0.345892012 0.014999600
0.893415987 0.348408997 0.015869400
0.916121006 0.351262987 0.016678100
0.054154299 0.254063010 0.054581501
0.065232299 0.258136988 0.054383200
0.078904398 0.262257010 0.053955901
0.096284397 0.266467988 0.052964099
0.118166000 0.270435989 0.051316101
0.146608993 0.274327010 0.048813600
0.179521993 0.278355002 0.044922601
0.215914994 0.281392008 0.039978601
0.252429992 0.283405989 0.034164999
0.287616998 0.286534011 0.028320700
0.321538001 0.291813999 0.022476500
0.353002012 0.297856003 0.017746201
0.382528007 0.304874986 0.014953800
0.411581993 0.312611997 0.013595800
0.443336010 0.319431990 0.012771800
0.473670989 0.326023996 0.012237700
0.502770007 0.332020998 0.011871500
0.531319022 0.337101996 0.011551100
0.559884012 0.341955006 0.011291700
0.588051975 0.345663011 0.011001800
0.616083026 0.348942995 0.010788100
0.643747985 0.352055997 0.010788100
0.671244025 0.354528010 0.011078100
0.698314011 0.356909007 0.011444300
0.725230992 0.359075010 0.011902000
0.751217008 0.361746013 0.012375100
0.776883006 0.363911986 0.012939700
0.802395999 0.366293013 0.013626300
0.827283025 0.368703991 0.014313000
0.851499021 0.371313006 0.015014900
0.875181019 0.374121010 0.015747299
0.898772001 0.376836985 0.016617101
0.921370029 0.379552990 0.017410500
0.061509099 0.281376004 0.059235498
0.073136501 0.285663992 0.058991399
0.087830901 0.289905995 0.058579400
0.106233001 0.294102013 0.057526499
0.129122004 0.298207015 0.055741198
0.157564998 0.302219987 0.053452399
0.189822003 0.306385994 0.050446302
0.225360006 0.309940994 0.045822799
0.261830002 0.312290996 0.040054899
0.297367990 0.315084010 0.033951301
0.331640005 0.319463015 0.027984999
0.364187002 0.324925989 0.022537600
0.394400001 0.331243008 0.018570200
0.422598988 0.338337988 0.016311901
0.451285988 0.345723987 0.014892800
0.481788009 0.352360994 0.013839900
0.511054993 0.358754992 0.013397400
0.539574027 0.364813000 0.012970200
0.567483008 0.369863003 0.012604000
0.595360994 0.374547988 0.012314000
0.622995019 0.378286004 0.012054600
0.650461972 0.381720006 0.012008900
0.677501023 0.384633988 0.012115700
0.704356015 0.386954010 0.012420800
0.731227994 0.389380008 0.012817600
0.757137001 0.391469985 0.013260100
0.782727003 0.393774003 0.013824700
0.807995975 0.396077991 0.014435000
0.832974970 0.398108006 0.015106400
0.857327998 0.400472999 0.015762599
0.881102026 0.402974993 0.016510300
0.904173017 0.405570000 0.017349500
0.926513016 0.408270001 0.018097199
0.070954397 0.309421986 0.064133704
0.083253197 0.313679993 0.064164199
0.098924197 0.317815006 0.064087898
0.118547000 0.322210014 0.063553803
0.142168000 0.326406002 0.062272102
0.170047000 0.330495000 0.060059499
0.201067999 0.334966004 0.056717802
0.235827997 0.339024991 0.052201100
0.272464991 0.341466010 0.046280600
0.307897002 0.343923002 0.040238000
0.342305988 0.348196000 0.034378599
0.375234991 0.352955997 0.028229199
0.405997008 0.358723998 0.023498900
0.434989005 0.364980996 0.020279201
0.462134987 0.371939003 0.018097199
0.490485996 0.379004002 0.016647600
0.519065976 0.385565013 0.015625199
0.547188997 0.391820997 0.014984400
0.575097024 0.397635013 0.014496100
0.602441013 0.402518004 0.014099300
0.629769981 0.406989008 0.013778900
0.656947017 0.410879999 0.013550000
0.683786988 0.414130002 0.013412700
0.710307002 0.416938007 0.013458500
0.736904025 0.419515997 0.013733100
0.762982011 0.421698004 0.014145100
0.788524985 0.423880011 0.014648700
0.813474000 0.426200002 0.015228500
0.838177979 0.428167999 0.015899900
0.862546980 0.430227995 0.016540799
0.886243999 0.432502002 0.017196899
0.909467995 0.434821010 0.017990399
0.931684971 0.437278003 0.018768599
0.082261398 0.337666988 0.069703199
0.095811397 0.341984987 0.070313603
0.112733997 0.346379995 0.070710301
0.133500993 0.350789994 0.070695102
0.157335997 0.355062008 0.069779500
0.184267998 0.359456986 0.068009503
0.214099005 0.363958001 0.064698301
0.247439995 0.368245989 0.059693299
0.283710986 0.371266991 0.053208198
0.318958998 0.373403996 0.046891000
0.353399009 0.376791000 0.040863700
0.386312991 0.381659001 0.035110999
0.417486995 0.386891991 0.029358400
0.446586013 0.392583996 0.025238400
0.474234998 0.398795009 0.022323901
0.500572026 0.405553997 0.020340299
0.527687013 0.412238002 0.018783901
0.554925025 0.418646991 0.017715700
0.582283974 0.424735010 0.017013799
0.609537005 0.430151999 0.016449200
0.636469007 0.434958011 0.015960900
0.663187981 0.439323008 0.015564200
0.689754009 0.443107009 0.015259000
0.716181993 0.446525007 0.015106400
0.742367029 0.449577004 0.015030100
0.768306971 0.451819986 0.015060700
0.793744028 0.454154015 0.015472600
0.818723023 0.456427991 0.015991500
0.843351007 0.458380997 0.016617101
0.867689013 0.460319012 0.017242700
0.891493022 0.462195992 0.017929399
0.914762974 0.464500010 0.018631300
0.936613977 0.466499001 0.019378999
0.095353603 0.366293013 0.076585002
0.110521004 0.370489001 0.077683702
0.128710002 0.374913990 0.078568697
0.150149003 0.379155993 0.078843400
0.174105003 0.383917004 0.078431398
0.200167999 0.388388008 0.076676600
0.228854999 0.392720997 0.073380597
0.260791987 0.397101015 0.068024702
0.295506001 0.400548995 0.061142899
0.330570996 0.403295994 0.054245800
0.364721000 0.406363010 0.047867600
0.397406012 0.410712004 0.042023301
0.428153008 0.415717006 0.036514800
0.457632989 0.420951009 0.031357300
0.485466003 0.426459014 0.027496800
0.511970997 0.432455987 0.024826400
0.537330985 0.438834012 0.022827500
0.563363016 0.445365012 0.021240599
0.589715004 0.451712996 0.020111401
0.616219997 0.457450002 0.019272100
0.642877996 0.462837011 0.018585499
0.669322014 0.467460006 0.018036200
0.695644021 0.471915990 0.017639400
0.721751988 0.475807011 0.017334200
0.747844994 0.479178995 0.017090101
0.773571014 0.481819004 0.016861200
0.798916996 0.484519988 0.016845999
0.823666990 0.486458004 0.016952800
0.848249018 0.488655001 0.017379999
0.872618020 0.490393996 0.018005600
0.896498024 0.492332011 0.018631300
0.919798970 0.494347006 0.019256899
0.941558003 0.496116996 0.020019799
0.110032998 0.394903004 0.084641799
0.126741007 0.399022996 0.085984603
0.146227002 0.403418005 0.087083198
0.168017000 0.407842994 0.087556303
0.191455007 0.412328988 0.087205298
0.216480002 0.416922003 0.085587896
0.243961006 0.421377987 0.082368203
0.274342000 0.425695986 0.077210598
0.307790011 0.429587007 0.069962598
0.342061013 0.432455987 0.062455200
0.375937015 0.435721010 0.055634402
0.408499002 0.439933002 0.049515501
0.439033002 0.444739014 0.043869700
0.467947990 0.449622005 0.038574800
0.495658994 0.454627007 0.033951301
0.522468984 0.460135996 0.030334899
0.547921002 0.465629011 0.027649300
0.572717011 0.471946001 0.025604600
0.597802997 0.478293985 0.023971900
0.623162985 0.484488994 0.022812201
0.648997009 0.490227014 0.021789899
0.675104976 0.495308012 0.020965900
0.701213002 0.500052989 0.020324999
0.727230012 0.504279971 0.019882500
0.753123999 0.508125007 0.019455301
0.778560996 0.511390984 0.019104300
0.803677022 0.514275014 0.018936399
0.828366995 0.516746998 0.018829601
0.852810979 0.519065976 0.018768599
0.877089024 0.520911992 0.018921200
0.901152015 0.522637010 0.019333201
0.924453020 0.524330020 0.019882500
0.946044028 0.526192009 0.020538600
0.126146004 0.423330992 0.093202099
0.144335002 0.427419990 0.094743297
0.164537996 0.431800008 0.095887698
0.186130002 0.436026990 0.096330203
0.209353998 0.440710992 0.095948704
0.233569995 0.445212007 0.094346501
0.259678006 0.449561000 0.091126896
0.288502008 0.453970999 0.086106703
0.320057988 0.458182991 0.079285897
0.353413999 0.461418003 0.071442701
0.386830986 0.464713991 0.064118400
0.419454992 0.469000995 0.057755399
0.449728996 0.473625004 0.052018002
0.478217989 0.478233010 0.046494201
0.505608022 0.483040005 0.041397698
0.531974971 0.488029003 0.037033599
0.557488024 0.493187010 0.033600401
0.582544029 0.498833001 0.030899500
0.606698990 0.504966974 0.028717499
0.630823016 0.510994017 0.027039001
0.655481994 0.517372012 0.025787700
0.680674016 0.523002982 0.024658600
0.706538022 0.528176010 0.023727801
0.732418001 0.532325983 0.022934301
0.758159995 0.536736012 0.022339201
0.783412993 0.540351987 0.021789899
0.808315992 0.543374002 0.021347400
0.832883000 0.546212018 0.021179499
0.857267022 0.549126029 0.020965900
0.881407022 0.551338971 0.020752300
0.905378997 0.553017020 0.020660700
0.928573012 0.554543018 0.020614900
0.950071990 0.556434989 0.021042200
0.143739998 0.451530010 0.102296002
0.162691996 0.455466986 0.103745997
