luts/travel_03.cube
TITLE "33x33x33 Adobe/IRIDAS cube 3D LUT exported with GrossGrade v0.2.2 (beta) 64 bit"
DOMAIN_MIN 0 0 0
DOMAIN_MAX 1 1 1
LUT_3D_SIZE 33
0.001724270 0.000732433 0.000534066
0.020218199 0.000854505 0.000030518
0.033081599 0.001693750 0.000167849
0.048569500 0.003463800 0.000442512
0.064271003 0.005264360 0.000900282
0.080735497 0.007049670 0.001480130
0.099244699 0.009079120 0.002761880
0.119005002 0.011200100 0.003830010
0.140414000 0.014114600 0.005172810
0.163316995 0.016845999 0.006439310
0.187990993 0.019912999 0.007949950
0.214159995 0.022873299 0.009277490
0.241504997 0.025589401 0.010574500
0.270191014 0.028183401 0.011947800
0.299915999 0.030487500 0.013107500
0.329854012 0.032486498 0.014328200
0.360098004 0.034622699 0.016113499
0.390112013 0.037262499 0.018692300
0.420630008 0.039841302 0.021683101
0.451254994 0.042526901 0.025375800
0.482077986 0.045090400 0.029190499
0.513085008 0.047974400 0.033173099
0.544228017 0.050537899 0.037384599
0.575493991 0.053223498 0.041962299
0.607003987 0.056671999 0.046860501
0.638513982 0.060547799 0.052002698
0.670176029 0.065247603 0.057434998
0.701853991 0.069611698 0.063080803
0.733546972 0.074372500 0.068955503
0.765269995 0.079026498 0.074845500
0.796993971 0.084046699 0.080796503
0.828823984 0.089448400 0.086762801
0.860090017 0.094331302 0.092698596
0.001663230 0.013382200 0.000198367
0.015396400 0.014969100 0.000350958
0.031616699 0.017517401 0.000671397
0.048264299 0.019912999 0.001129170
0.065888502 0.022400200 0.001724270
0.084489197 0.025040099 0.002319370
0.104509003 0.027756199 0.002960250
0.125917003 0.030365501 0.004043640
0.148561999 0.033295199 0.005127030
0.172502995 0.036286000 0.006591900
0.197558999 0.038803700 0.007736320
0.223986998 0.041321401 0.009109640
0.251911014 0.043884899 0.010254100
0.280339003 0.046219599 0.011596900
0.309666991 0.048569500 0.012741300
0.339498013 0.050248001 0.014129900
0.369542986 0.051789101 0.015213200
0.400045991 0.053314999 0.016464500
0.430853993 0.054245800 0.017761501
0.461555004 0.055420801 0.019729899
0.492287010 0.057877500 0.023224199
0.523048997 0.060288399 0.027176300
0.554100990 0.063401200 0.032166000
0.585198998 0.066544600 0.037460901
0.616342008 0.070176199 0.043152500
0.647607982 0.074128300 0.048706800
0.678828001 0.078522898 0.054383200
0.710277021 0.083268501 0.060440999
0.741756022 0.088166602 0.066498801
0.773220003 0.092744298 0.072678700
0.804654002 0.097825602 0.078721300
0.836148977 0.102922000 0.084779099
0.867262006 0.107988000 0.090898000
0.002655070 0.028839599 0.000534066
0.017120600 0.031174200 0.000900282
0.033096801 0.033554599 0.001373310
0.050110601 0.036423299 0.001983670
0.068635099 0.039581899 0.002563520
0.088471800 0.042725299 0.003189140
0.109849997 0.046143301 0.003891050
0.132554993 0.049149301 0.004592970
0.156222001 0.052262101 0.005310140
0.180925995 0.055222400 0.006393530
0.207111001 0.057953801 0.007568470
0.234301999 0.060776699 0.008865490
0.262134999 0.063096099 0.010132000
0.290821999 0.065476499 0.011215400
0.320012003 0.067795798 0.012420800
0.349492997 0.069794796 0.013778900
0.379308999 0.071686901 0.014923300
0.409628004 0.073258601 0.016342400
0.440223008 0.074830197 0.017731000
0.470802009 0.076279797 0.019226400
0.501761973 0.077424303 0.020782800
0.533059001 0.078416102 0.022552799
0.564339995 0.079774201 0.025711499
0.595467985 0.081971496 0.030289199
0.626627028 0.084473900 0.035568800
0.657679021 0.088593900 0.042221699
0.688685000 0.092958003 0.048798401
0.719814003 0.097688302 0.055481799
0.750941992 0.102646999 0.062134702
0.781993985 0.107239999 0.068573996
0.813091993 0.112032004 0.074937098
0.844326973 0.117159002 0.081361100
0.875059009 0.122164004 0.087739401
0.004974440 0.044144399 0.001205460
0.019226400 0.046479002 0.001617460
0.035492498 0.049790200 0.002243080
0.052460499 0.052918300 0.002914470
0.071244404 0.056504201 0.003372240
0.092149198 0.060334198 0.004028380
0.114839002 0.064362600 0.004715040
0.138979003 0.068253599 0.005371180
0.164065003 0.071747899 0.006073090
0.190143004 0.075120203 0.006759750
0.217135996 0.078294002 0.007705810
0.244738996 0.081345797 0.008896010
0.272953004 0.083894096 0.009948880
0.301625013 0.086320303 0.011169600
0.330693990 0.088746503 0.012314000
0.360020995 0.090989500 0.013733100
0.389746010 0.093263097 0.015045400
0.419791013 0.095262103 0.016495001
0.449882001 0.097337298 0.017898800
0.480246991 0.099488802 0.019424699
0.511054993 0.101426996 0.021149000
0.542366982 0.103364997 0.023209000
0.573526025 0.104891002 0.025314700
0.604852021 0.105898000 0.027527301
0.636286020 0.106721997 0.030106099
0.667720020 0.108125001 0.034195501
0.699289978 0.109438002 0.038788401
0.730204999 0.113008000 0.046219599
0.761151016 0.117601000 0.054001700
0.791958988 0.122544996 0.061249699
0.822628975 0.127290994 0.068406202
0.853452027 0.132174000 0.075547397
0.883786976 0.136965007 0.082414001
0.007766840 0.059815399 0.001937900
0.021988301 0.061921101 0.002380410
0.038468000 0.066453002 0.003051800
0.055588599 0.069626898 0.003662170
0.074051999 0.073060200 0.004242010
0.095094196 0.077302203 0.004837110
0.119172998 0.082444496 0.005401690
0.144656003 0.087327398 0.006073090
0.171510994 0.091874599 0.006775010
0.199038997 0.096070804 0.007446400
0.227008000 0.099763498 0.008148320
0.255466998 0.103226997 0.009124900
0.284123003 0.106233001 0.010299800
0.313053995 0.108948998 0.011398500
0.342123002 0.111574002 0.012756500
0.371237010 0.114014998 0.014145100
0.400763005 0.116579004 0.015564200
0.430395991 0.119126998 0.016922301
0.460182011 0.121614002 0.018371901
0.490516990 0.124284998 0.020172400
0.521202028 0.126833007 0.022003500
0.552087009 0.129273996 0.024033001
0.582849026 0.131791994 0.026276000
0.613825023 0.134066001 0.028854800
0.645060003 0.135927007 0.031555701
0.676599979 0.137437999 0.034622699
0.708109975 0.138383999 0.037735600
0.739712000 0.138979003 0.040848400
0.771054029 0.139651000 0.044785202
0.802441001 0.140123993 0.049012002
0.833187997 0.143160000 0.056641500
0.863600016 0.147906005 0.065308601
0.893522978 0.152575001 0.073365398
0.011261200 0.076478198 0.002746620
0.025162101 0.078248300 0.003189140
0.040940002 0.082749702 0.003799500
0.058701500 0.086823799 0.004440380
0.077332698 0.090714902 0.005050740
0.098191798 0.095231600 0.005691620
0.122377001 0.100496002 0.006256200
0.149309993 0.106600001 0.006866560
0.177950993 0.112673000 0.007446400
0.206851006 0.117844999 0.008117800
0.236361995 0.122575998 0.008773940
0.265781999 0.126818001 0.009674220
0.294941992 0.130219996 0.010666100
0.324193001 0.133349001 0.011978300
0.353323013 0.136262998 0.013305900
0.382649988 0.139162004 0.014770700
0.411917001 0.141863003 0.016159300
0.441428006 0.144610003 0.017563101
0.471320987 0.147600994 0.019302700
0.501471996 0.150469005 0.021210000
0.531777024 0.153490007 0.023346299
0.562097013 0.156512007 0.025360500
0.592537999 0.159349993 0.027832501
0.623315990 0.162065998 0.030548600
0.654291987 0.164599001 0.033325698
0.685419977 0.166734993 0.036423299
0.716579020 0.168779999 0.039352998
0.747738004 0.170488998 0.042420100
0.779141009 0.171831995 0.045441400
0.810437024 0.172334999 0.048416901
0.841749012 0.172229007 0.051529702
0.873212993 0.171114996 0.054642599
0.903806984 0.170230001 0.058564100
0.015228500 0.094117597 0.003662170
0.028778501 0.095429897 0.003997860
0.043320399 0.098512203 0.004501410
0.061402299 0.104479000 0.005203330
0.080918603 0.109040998 0.005828950
0.101442002 0.113587998 0.006485080
0.125551000 0.119447999 0.007095450
0.153093994 0.126389995 0.007736320
0.182909995 0.133623004 0.008270390
0.213550001 0.140383005 0.008758680
0.244221002 0.146165997 0.009384300
0.274783999 0.151292995 0.010345600
0.304845005 0.155642003 0.011490000
0.334630013 0.159303993 0.012848100
0.364156991 0.162691996 0.014023000
0.393545002 0.165880993 0.015503200
0.423087001 0.168810993 0.017135900
0.452766001 0.171709999 0.018814400
0.482612014 0.174868003 0.020645499
0.512382984 0.178133994 0.022552799
0.542244971 0.181231007 0.024795899
0.572274029 0.184404999 0.027115300
0.602487028 0.187610000 0.029495699
0.632929027 0.190585002 0.032425400
0.663523018 0.193407997 0.035294101
0.694194019 0.196078002 0.038178101
0.724895000 0.198596001 0.041168801
0.755824983 0.200930998 0.044007000
0.786740005 0.202792004 0.047074098
0.817578018 0.204471007 0.050171699
0.848523974 0.205402002 0.053101402
0.879423022 0.205859005 0.056092199
0.909712017 0.205920994 0.059128702
0.019165300 0.112291001 0.004577710
0.032440700 0.114046000 0.004882890
0.046326399 0.116213001 0.005264360
0.063355498 0.121431001 0.005828950
0.083756797 0.127581000 0.006546120
0.105455004 0.132875994 0.007232780
0.128999993 0.138917997 0.007995730
0.156497002 0.146516994 0.008804460
0.186908007 0.154604003 0.009308000
0.218875006 0.162707001 0.009628440
0.250903994 0.170092002 0.010132000
0.282550991 0.176424995 0.011078100
0.313558012 0.181765005 0.012298800
0.343998998 0.186342999 0.013809400
0.374105006 0.190203995 0.015198000
0.403905988 0.193758994 0.016723899
0.433539003 0.197024003 0.018310800
0.463232994 0.200152993 0.020172400
0.492882013 0.203326002 0.022003500
0.522530019 0.206499994 0.024078701
0.552330971 0.209704995 0.026337100
0.582147002 0.212908998 0.028778501
0.612222016 0.216083005 0.031616699
0.642328978 0.219272003 0.034348100
0.672526002 0.222461000 0.037201501
0.702739000 0.225375995 0.040024400
0.733120024 0.228259996 0.042877901
0.763652980 0.230762005 0.045807600
0.794263005 0.232943997 0.048737299
0.824581981 0.235003993 0.051712800
0.855009019 0.236499995 0.054581501
0.885451019 0.237736002 0.057419699
0.915434003 0.238453001 0.060440999
0.023071600 0.131456003 0.005447470
0.036224902 0.133272007 0.005722130
0.050248001 0.135438994 0.006057830
0.066407301 0.139405996 0.006561380
0.085999802 0.146181002 0.007293810
0.109483004 0.153124005 0.008194090
0.133227006 0.159227997 0.009063860
0.160159007 0.166903004 0.009948880
0.190585002 0.175769001 0.010513500
0.223177999 0.184970006 0.010803400
0.256336004 0.193758994 0.011200100
0.289020985 0.201418996 0.012298800
0.320897013 0.208148003 0.013321100
0.352284998 0.213763997 0.014847000
0.382910013 0.218493998 0.016266100
0.413076997 0.222568005 0.017914100
0.442954004 0.226154000 0.019745201
0.472557008 0.229479998 0.021561000
0.502083004 0.232609004 0.023666700
0.531777024 0.235873997 0.025680900
0.561592996 0.239048004 0.028152900
0.591409028 0.242191002 0.030533301
0.621331990 0.245318994 0.033432499
0.651086986 0.248356000 0.036224902
0.681101978 0.251529992 0.038956299
0.711100996 0.254611999 0.041794501
0.741131008 0.257373989 0.044663198
0.771191001 0.259983003 0.047516599
0.801204979 0.262409002 0.050308999
0.831128001 0.264622003 0.053208198
0.861111999 0.266528994 0.055924300
0.891264021 0.267978996 0.058793001
0.921141028 0.269017011 0.061860099
0.027130499 0.151338995 0.006164640
0.040466901 0.153079003 0.006454570
0.054520499 0.155154005 0.006912340
0.069748998 0.157915995 0.007354850
0.089372098 0.165286005 0.008133060
0.112641998 0.173326999 0.009109640
0.138170004 0.180803999 0.010132000
0.164523005 0.188143998 0.011062800
0.194415003 0.197146997 0.011841000
0.226886004 0.207126006 0.012314000
0.260623991 0.216983005 0.012756500
0.294286013 0.226046994 0.013687300
0.326970011 0.234103993 0.014618100
0.358846009 0.241000995 0.015960900
0.389806986 0.246693000 0.017502099
0.420203000 0.251376987 0.019119600
0.450293988 0.255466998 0.021057500
0.480017990 0.259007007 0.022995301
0.509957016 0.262531012 0.025131600
0.539788008 0.265843004 0.027664600
0.569665015 0.268940002 0.030014500
0.599420011 0.272006989 0.032608502
0.629190981 0.274982989 0.035126299
0.658976018 0.278064996 0.037842400
0.688884020 0.280873001 0.040756799
0.718563020 0.283757001 0.043473002
0.748225987 0.286426991 0.046082199
0.777890027 0.288899004 0.048859399
0.807552993 0.291417003 0.051728100
0.837293029 0.293614000 0.054551002
0.866972029 0.295567006 0.057297599
0.897077978 0.297138989 0.060318898
0.926711023 0.298404992 0.063355498
0.032104999 0.172396004 0.007171740
0.045487098 0.174060002 0.007476920
0.058991399 0.175952002 0.007782100
0.074174099 0.178470001 0.008270390
0.092667997 0.184253007 0.009002820
0.116136000 0.193927005 0.010101500
0.143281996 0.203005999 0.011322200
0.170062006 0.210681006 0.012390300
0.199054003 0.219272003 0.013412700
0.231083006 0.229479998 0.014099300
0.264775008 0.240070000 0.014587600
0.298680007 0.250247985 0.015396400
0.331838012 0.259373009 0.016617101
0.364095986 0.267399013 0.017853100
0.395345986 0.274219990 0.019195801
0.425940007 0.279895991 0.020645499
0.456167996 0.284657001 0.022430800
0.486366004 0.288852990 0.024689101
0.516304016 0.292484999 0.026871100
0.546212018 0.295949012 0.029160000
0.576027989 0.299046010 0.031723499
0.605782986 0.301946014 0.034286998
0.635492980 0.304890990 0.036881100
0.665140986 0.307606995 0.039551400
0.694788992 0.310398996 0.042130198
0.724285007 0.312977999 0.044815701
0.754009008 0.315389007 0.047486100
0.783612013 0.317754000 0.050232701
0.813320994 0.320073009 0.053070899
0.842939019 0.322194010 0.055893801
0.872663021 0.324117005 0.058793001
0.902616978 0.325780004 0.061829600
0.931990981 0.327122986 0.064622000
0.037903398 0.194156006 0.008194090
0.050919399 0.195865005 0.008484020
0.064667702 0.198016003 0.008834970
0.079438500 0.200320005 0.009292740
0.097398303 0.205097005 0.010040400
0.120989002 0.215243995 0.011276400
0.148699000 0.225771993 0.012665000
0.176715001 0.234393999 0.014068800
0.205097005 0.242633998 0.015198000
0.236164004 0.252337992 0.016052499
0.269383013 0.263325006 0.016784901
0.302937001 0.274204999 0.017868301
0.336187005 0.284321010 0.018982200
0.368535995 0.293262988 0.020157199
0.400031000 0.301106006 0.021194801
0.430671006 0.307698011 0.022827500
0.460929006 0.313344002 0.024338100
0.491019994 0.318058997 0.026306599
0.520942986 0.322147995 0.028198700
0.550835013 0.325856000 0.030548600
0.580651999 0.329167992 0.033142600
0.610376000 0.331959993 0.035706099
0.640084982 0.334737003 0.038239099
0.669749022 0.337300986 0.040894199
0.699504018 0.339848995 0.043518700
0.729197979 0.342229009 0.046143301
0.758907020 0.344549000 0.048737299
0.788510025 0.346745998 0.051422901
0.818250000 0.348836988 0.054184798
0.848004997 0.350865990 0.057160299
0.877759993 0.352589995 0.060074799
0.907514989 0.354223013 0.062958702
0.936918974 0.355596006 0.065812200
0.044129100 0.217135996 0.009353780
0.056992400 0.218860000 0.009689480
0.070878200 0.220873997 0.010101500
0.085862502 0.223423004 0.010605000
0.103364997 0.227755994 0.011368000
0.127427995 0.238315001 0.012710800
0.154985994 0.249317005 0.014297700
0.184604004 0.259357989 0.016037200
0.212879002 0.267399013 0.017395301
0.242892995 0.276538998 0.018631300
0.274783999 0.286945999 0.019623101
0.307729006 0.297917008 0.020721801
0.340413988 0.308506995 0.021973001
0.372624993 0.318273008 0.023086900
0.404058993 0.326925009 0.024246600
0.434623003 0.334401011 0.025497800
0.464637011 0.340855986 0.026962699
0.494545013 0.346379995 0.028396999
0.524392009 0.351094991 0.030106099
0.554069996 0.355107993 0.032089699
0.583931983 0.358572006 0.034363300
0.613763988 0.361654013 0.036911599
0.643564999 0.364446014 0.039536100
0.673335016 0.366948992 0.042114899
0.703166008 0.369374990 0.044739500
0.733012974 0.371603012 0.047425002
0.762844026 0.373663008 0.050034299
0.792614996 0.375768989 0.052719899
0.822507024 0.377783000 0.055558100
0.852338016 0.379628986 0.058335200
0.882048011 0.381200999 0.061188702
0.911894023 0.382681012 0.064026900
0.941206992 0.384009004 0.066803999
0.051422901 0.241260007 0.010894900
0.064164199 0.243075997 0.011261200
0.078156702 0.245121002 0.011688400
0.093354702 0.247531995 0.012222500
0.110719003 0.251652002 0.012970200
0.134752005 0.262364000 0.014450300
0.162997007 0.274342000 0.016205100
0.193469003 0.284976989 0.018295599
0.222277999 0.293507010 0.020080900
0.251255006 0.301854014 0.021622000
0.281848997 0.311376005 0.022903800
0.313297987 0.321781993 0.023865100
0.345220000 0.332356989 0.025253700
0.376715004 0.342579991 0.026810100
0.407629997 0.351873010 0.028046099
0.437797010 0.360006005 0.029022699
0.467566997 0.367085993 0.030075500
0.497002006 0.373326987 0.031265698
0.526664972 0.378758997 0.032822199
0.556358993 0.383275986 0.034348100
0.586130023 0.387259007 0.036270700
0.615945995 0.390677005 0.038437501
0.645883977 0.393637002 0.040634800
0.675806999 0.396322995 0.043137301
0.705775976 0.398687989 0.045838099
0.735821009 0.400900006 0.048462700
0.765910983 0.402945012 0.051270299
0.795940995 0.404944003 0.053955901
0.825986028 0.406729013 0.056778800
0.855879009 0.408484012 0.059540700
0.885694981 0.409949005 0.062333100
0.915464997 0.411276013 0.065064497
0.944746971 0.412450999 0.067765303
0.060120501 0.266467988 0.012787100
0.073121198 0.268299013 0.013153300
0.086793303 0.270343989 0.013534800
0.102159001 0.272846997 0.014160400
0.120287001 0.277530998 0.015075900
0.144593999 0.288212001 0.016754400
0.173143998 0.300664008 0.018860200
0.204059005 0.311818004 0.021149000
0.233646005 0.320760012 0.023254801
0.261768997 0.328373998 0.025024800
0.290607989 0.336766988 0.026596500
0.320378006 0.346166015 0.027878201
0.350881010 0.356328994 0.029449901
0.381430000 0.366506010 0.030899500
0.411291987 0.375860006 0.032211799
0.440847993 0.384512007 0.033295199
0.470007986 0.392019987 0.034058101
0.499152988 0.398900986 0.034973700
0.528252006 0.404929012 0.036026601
0.557671010 0.410239011 0.037430398
0.587365985 0.414770991 0.038986798
0.617227018 0.418799013 0.040573701
0.647211015 0.422232002 0.042435300
0.677272022 0.425161988 0.044510599
0.707561016 0.427787006 0.046799399
0.737834990 0.430121005 0.049622301
0.768139005 0.432150990 0.052292701
0.798352003 0.434073001 0.055085100
0.828625977 0.435889006 0.057923201
0.858595014 0.437429994 0.060502000
0.888333976 0.438834012 0.063157097
0.917829990 0.440131009 0.065400198
0.946151018 0.441505015 0.066895597
0.069688000 0.292622000 0.016632300
0.082566597 0.294301003 0.016845999
0.096787997 0.296483010 0.017288500
0.112168998 0.298954993 0.017639400
0.131440997 0.305180013 0.018844901
0.156634003 0.316242993 0.020996399
0.184970006 0.328022987 0.023346299
0.215534002 0.339024991 0.025772501
0.246188998 0.348836988 0.028107099
0.273777008 0.355917007 0.029587200
0.301274002 0.363393992 0.031189401
0.329396993 0.371679008 0.032730602
0.357960999 0.380667001 0.034363300
0.386830986 0.389990002 0.035553500
0.415717006 0.399251997 0.036881100
0.443915009 0.407858014 0.037949201
0.472312987 0.415930003 0.038757902
0.500755012 0.423148006 0.039444599
0.529442012 0.429603010 0.040070198
0.558296978 0.435508013 0.040817901
0.587655008 0.440847993 0.041977599
0.617411017 0.445457011 0.043060999
0.647440016 0.449530989 0.044358000
0.677744985 0.453085989 0.045990702
0.708141029 0.456138015 0.047913302
0.738659024 0.458732009 0.050324298
0.769131005 0.461005986 0.052811500
0.799557984 0.462942988 0.055466499
0.829922974 0.464805007 0.058152098
0.859845996 0.466360986 0.060563099
0.889418006 0.467842013 0.062684096
0.918379009 0.469199985 0.064194702
0.946669996 0.470497012 0.065415397
0.080293000 0.319112003 0.021805100
0.093492001 0.320989013 0.022064500
0.107667997 0.323110014 0.022613900
0.123796001 0.326406002 0.023254801
0.144076005 0.333593011 0.024887500
0.169435993 0.344457000 0.027130499
0.198154002 0.356435001 0.029800899
0.228350997 0.367024988 0.032379601
0.259784997 0.377539009 0.034851599
0.287097991 0.384328991 0.036194399
0.313419998 0.390859991 0.037445601
0.340016991 0.398016006 0.038666401
0.366766006 0.405707002 0.039871801
0.393667996 0.413962007 0.041031498
0.420722008 0.422385007 0.042069100
0.447791010 0.430732012 0.043137301
0.474967986 0.438697010 0.043991800
0.502510011 0.446128011 0.044525798
0.530342996 0.453132004 0.044937801
0.558785021 0.459601998 0.045075200
0.587655008 0.465507001 0.045456599
0.617151022 0.470863014 0.046234801
0.647104979 0.475699991 0.047058798
0.677424014 0.479835004 0.048310101
0.708002985 0.483527988 0.049713898
0.738720000 0.486656010 0.051316101
0.769389987 0.489264995 0.053360801
0.800091982 0.491600007 0.055741198
0.830365002 0.493492007 0.057892699
0.860212028 0.495276988 0.059662800
0.889464021 0.496773005 0.061051302
0.918440998 0.498176992 0.062317800
0.946943998 0.499473989 0.063553803
0.091721997 0.346013993 0.028503900
0.105272003 0.347874999 0.028854800
0.119599998 0.350149006 0.029312599
0.137316003 0.355612010 0.030685900
0.158801004 0.363409013 0.032654300
0.184404999 0.373953015 0.035217799
0.213213995 0.385580003 0.038345899
0.243167996 0.395956010 0.041077301
0.273838013 0.405921012 0.043488201
0.301517993 0.413367003 0.044785202
0.326680005 0.418906003 0.045502398
0.351797014 0.424993992 0.046204299
0.376821995 0.431463987 0.046738401
0.401906997 0.438376009 0.047394499
0.427175999 0.445731014 0.048172701
0.452461004 0.453254014 0.048722100
0.478401005 0.460974991 0.049454499
0.504737973 0.468528003 0.050110601
0.531684995 0.475699991 0.050492100
0.559274018 0.482459992 0.050461601
0.587655008 0.488898993 0.050385300
0.616724014 0.494881004 0.050308999
0.646341980 0.500404000 0.050659999
0.676616013 0.505439997 0.051255099
0.707210004 0.509728014 0.052155301
0.738003016 0.513526976 0.053238701
0.768948019 0.516884029 0.054459400
0.799602985 0.519554019 0.055787001
0.829937994 0.521705985 0.056946699
0.859739006 0.523705006 0.058197901
0.889249980 0.525520980 0.059449200
0.918563008 0.526986003 0.060685098
0.947310984 0.528358996 0.061737999
0.104463004 0.373053014 0.037003100
0.117753997 0.374974996 0.037430398
0.133729994 0.378865987 0.038513798
0.153338000 0.386069000 0.040573701
0.175601006 0.394690007 0.043060999
0.201129004 0.404424995 0.045838099
0.229236007 0.414831996 0.049027201
0.258289009 0.424338013 0.051728100
0.288197011 0.433997005 0.054169498
0.316442013 0.442039013 0.055558100
0.340627015 0.447088987 0.055481799
0.364232987 0.452017993 0.055588599
0.387778014 0.457419991 0.055268198
0.411184996 0.463156998 0.055069800
0.434653014 0.469473988 0.055039302
0.458380997 0.476004988 0.055130798
0.482704014 0.482872009 0.055329200
0.507758975 0.490180999 0.055787001
0.533455014 0.497307003 0.056046400
0.560113013 0.504372001 0.056137901
0.587686002 0.511130989 0.055756502
0.616190016 0.517647028 0.055344500
0.645457029 0.523827016 0.054993499
0.675319016 0.529519022 0.054886699
0.705790997 0.534676015 0.055054601
0.736644983 0.539330006 0.055481799
0.767452002 0.543174982 0.055710699
0.798229992 0.546563029 0.055893801
0.828885019 0.549386024 0.056275301
0.859158993 0.551689982 0.057114501
0.889051974 0.553764999 0.058060601
0.918654025 0.555580974 0.059037201
0.947631001 0.557092011 0.059998501
0.117890999 0.400305003 0.046677299
0.133058995 0.404027998 0.048035402
0.150515005 0.409720004 0.050019100
0.170367002 0.416494995 0.052384201
0.192949995 0.424551994 0.055085100
0.218356997 0.434073001 0.058304701
0.245579004 0.443580002 0.061295498
0.273364991 0.452125013 0.063889503
0.301914990 0.460821986 0.066041000
0.330632001 0.469749004 0.067643203
0.354528010 0.474967986 0.067475401
0.377005011 0.479332000 0.066651396
0.399114996 0.483664989 0.065659598
0.421072990 0.488350004 0.064209998
0.443015009 0.493416011 0.063141800
0.465232015 0.499000996 0.062561996
0.488074988 0.505104005 0.062012699
0.511619985 0.511588991 0.061966900
0.536126018 0.518486023 0.061921101
0.561563015 0.525551021 0.062058400
0.588144004 0.532661974 0.061890598
0.615823984 0.539421976 0.061219200
0.644510984 0.546014011 0.060349401
0.674022019 0.552316010 0.059494901
0.704189003 0.558327973 0.058777802
0.734751999 0.563683987 0.057953801
0.765498996 0.568322003 0.057236601
0.796474993 0.572457016 0.056748301
0.827404976 0.576089025 0.056412600
0.858121991 0.578988016 0.056366801
0.888486981 0.581597984 0.056702498
0.918425024 0.583809972 0.057084002
0.947539985 0.585686982 0.057602800
0.134950995 0.430395991 0.058594599
0.150820002 0.435065001 0.060593601
