luts/travel_05.cube
TITLE "33x33x33 Adobe/IRIDAS cube 3D LUT exported with GrossGrade v0.2.2 (beta) 64 bit"
DOMAIN_MIN 0 0 0
DOMAIN_MAX 1 1 1
LUT_3D_SIZE 5
0.016998500 0.020080900 0.026276000
0.192844003 0.087983496 0.072312497
0.448233992 0.122881003 0.106279001
0.655633986 0.166292995 0.145647004
0.749186993 0.193698004 0.169741005
0.058808301 0.149171993 0.121996000
0.152178004 0.179613993 0.114733003
0.425635010 0.191363007 0.118578002
0.637690008 0.211627007 0.151842996
0.750850976 0.229603007 0.177065998
0.139925003 0.346471012 0.266133010
0.185396999 0.348652989 0.258778006
0.399863005 0.385306001 0.212345004
0.633677006 0.395514011 0.201892003
0.767207980 0.398519993 0.221591994
0.196323007 0.530098021 0.396169990
0.225466996 0.528145015 0.393178999
0.457037985 0.554207981 0.387914985
0.622277975 0.592401028 0.329259008
0.797024012 0.602930009 0.308842987
0.314671993 0.679255009 0.482367992
0.332509011 0.680658996 0.483574003
0.521004021 0.702830970 0.507423997
0.688273013 0.756954014 0.509666979
0.810315013 0.786175013 0.432714999
0.019974099 0.086244002 0.148424998
0.163470000 0.104218997 0.185046002
0.468771994 0.133699998 0.203326002
0.672160029 0.168550998 0.205509007
0.759365022 0.194033995 0.215075999
0.035874002 0.156771004 0.168399006
0.148852006 0.172396004 0.161699995
0.451025993 0.196536005 0.183429003
0.655984998 0.217105001 0.198900998
0.759289026 0.231266007 0.212893993
0.121218003 0.348394006 0.282002002
0.163531005 0.353994012 0.276585013
0.400472999 0.387136996 0.226123005
0.640969992 0.394262999 0.220768005
0.768993974 0.396566987 0.236727998
0.181459993 0.531090021 0.401861995
0.208423004 0.530694008 0.399587989
0.449317008 0.553718984 0.393178999
0.622065008 0.592508018 0.334614992
0.797742009 0.601282001 0.313726008
0.305943012 0.680765986 0.485327989
0.322849989 0.681726992 0.485679001
0.511619985 0.702098012 0.507942021
0.685007989 0.756358981 0.513343990
0.810528994 0.786831021 0.434318006
0.025711499 0.167818993 0.284581006
0.044068102 0.176852003 0.317494005
0.318028986 0.174303994 0.335256010
0.631586015 0.218326002 0.405584991
0.779141009 0.229191005 0.422248006
0.023956699 0.215457007 0.310658008
0.024902700 0.234852001 0.371450007
0.334538996 0.217806995 0.346670002
0.643778026 0.256152987 0.402395993
0.782176971 0.257481009 0.409812003
0.021057500 0.354009002 0.372839004
0.032745901 0.355702996 0.375066996
0.394811988 0.422109991 0.414068997
0.674983025 0.430655003 0.422522008
0.793698013 0.422506988 0.417777002
0.015381100 0.529808998 0.464332014
0.021072701 0.528786004 0.457937986
0.376150012 0.585550010 0.481056005
0.638177991 0.620492995 0.452766001
0.810451984 0.615899980 0.434195012
0.104326002 0.680658996 0.527137995
0.135575995 0.684520006 0.525856018
0.455588996 0.729045987 0.553155005
0.696941018 0.775860012 0.581520975
0.823651016 0.803403020 0.506127000
0.023910901 0.245350003 0.417777002
0.024750100 0.238986999 0.426413000
0.201083004 0.256855011 0.468544006
0.439139009 0.242129996 0.462242007
0.576242030 0.278934985 0.507697999
0.019836700 0.288884014 0.449393004
0.020431800 0.301548988 0.496773005
0.181765005 0.300740004 0.488914013
0.454169989 0.275256991 0.474738985
0.614313006 0.310597003 0.522103012
0.012954900 0.429037988 0.557641029
0.012954900 0.433890015 0.573357999
0.155428007 0.471686989 0.670038998
0.553475022 0.459495008 0.566322982
0.732020974 0.476599991 0.593912005
0.057099301 0.586785972 0.599222004
0.062561996 0.585824013 0.598428011
0.228716999 0.612893999 0.619042993
0.656870008 0.679683030 0.670359015
0.821407974 0.680751026 0.678964972
0.014404500 0.709605992 0.625573993
0.014023000 0.708369970 0.621271014
0.176332995 0.737392008 0.638270020
0.649698973 0.800976992 0.689508975
0.837185979 0.828611016 0.656596005
0.022095099 0.290836990 0.503516972
0.023376800 0.279408008 0.502052009
0.116548002 0.300206006 0.530510008
0.386983991 0.281376004 0.556298018
0.495032996 0.280110002 0.539559007
0.018097199 0.339421988 0.547662020
0.019684101 0.343618006 0.579033971
0.057145000 0.337682009 0.575600982
0.385504007 0.318958998 0.581414998
0.512596011 0.308216989 0.557183027
0.012802300 0.474678010 0.675898015
0.013977300 0.479240000 0.689234972
0.153796002 0.510825992 0.758693993
0.417533010 0.491371006 0.705272019
0.623086989 0.474341989 0.657130003
0.072861798 0.633112013 0.754498005
0.079407997 0.633158028 0.757183015
0.269017011 0.658900023 0.790295005
0.602975011 0.694194019 0.835659981
0.777172983 0.702358007 0.784969985
0.190889999 0.760524988 0.778225005
0.193927005 0.761273026 0.779217005
0.326986015 0.778042018 0.794948995
0.584618986 0.808667004 0.829281986
0.846372008 0.861387014 0.869306982
