luts/travel_01.cube
TITLE "33x33x33 Adobe/IRIDAS cube 3D LUT exported with GrossGrade v0.2.2 (beta) 64 bit"
DOMAIN_MIN 0 0 0
DOMAIN_MAX 1 1 1
LUT_3D_SIZE 5
0.024063500 0.026657499 0.031952400
0.157031000 0.031204700 0.026474399
0.426932007 0.026596500 0.024979001
0.707912028 0.043930698 0.040405899
0.919448018 0.066697203 0.057587501
0.071381703 0.174944997 0.129731998
0.225620002 0.167864993 0.083985701
0.443122000 0.216784999 0.037201501
0.735514998 0.265796989 0.052582599
0.937438011 0.282963008 0.062439900
0.139314994 0.448767990 0.161776006
0.167895004 0.459082991 0.151354000
0.402395993 0.534111977 0.168200001
0.733837008 0.548362970 0.055588599
0.935774982 0.547249973 0.056626201
0.202487007 0.661310971 0.232380003
0.217501998 0.663020015 0.208544999
0.365774006 0.714884996 0.201739997
0.692622006 0.775997996 0.193927005
0.945037007 0.762188017 0.102280997
0.245045006 0.809109986 0.275792003
0.255528003 0.809827030 0.248080999
0.399390012 0.857434988 0.251758993
0.641779006 0.939680994 0.218921006
0.913268030 0.944227993 0.220356002
0.019409500 0.047196198 0.153658003
0.172243997 0.027710401 0.201389000
0.439170003 0.035812899 0.206439003
0.704783976 0.058380999 0.231662005
0.911345005 0.079819903 0.253849000
0.041840199 0.215930000 0.318639010
0.170427993 0.216097996 0.250492007
0.437124997 0.257786006 0.229862005
0.706965983 0.316823006 0.252476007
0.920867026 0.338048011 0.268238008
0.129305005 0.478278995 0.292744011
0.273059994 0.473975986 0.423011005
0.501182973 0.508033991 0.330235988
0.749966025 0.541787028 0.255923986
0.939375997 0.561363995 0.263415992
0.200717002 0.678111017 0.346349001
0.338658988 0.675943971 0.420706004
0.436071992 0.711376011 0.366154999
0.712702990 0.770932019 0.342274994
0.948180020 0.761516988 0.280185997
0.248843998 0.821286023 0.375799000
0.353735000 0.827252984 0.396750003
0.458747000 0.865019023 0.363027006
0.667979002 0.937574983 0.371587992
0.915449977 0.947097003 0.365942001
0.042282701 0.084962197 0.424842000
0.204439998 0.062470399 0.428137988
0.478949994 0.051056702 0.478446990
0.728098989 0.079713099 0.510369003
0.925321996 0.105881996 0.539361000
0.034805801 0.273425996 0.579003990
0.171739995 0.303104997 0.470221996
0.493492007 0.288868994 0.508872986
0.731379986 0.338185996 0.530570984
0.929350972 0.361059010 0.534676015
0.095628299 0.569176972 0.613992989
0.251865000 0.573006988 0.656718016
0.509499013 0.552910984 0.557946026
0.739817977 0.572061002 0.562798977
0.938552022 0.584816992 0.574395001
0.177676007 0.748821020 0.549142003
0.320699006 0.736995995 0.582527995
0.538246989 0.725504994 0.581215978
0.737559974 0.776196003 0.601342976
0.949186981 0.777417004 0.585779011
0.240665004 0.879712999 0.560952008
0.371037990 0.874692976 0.579842985
0.570747972 0.865369976 0.593240023
0.707713008 0.915067971 0.616724014
0.927016020 0.960159004 0.624612987
0.091798298 0.146882996 0.718699992
0.260594010 0.135942996 0.646112978
0.524178028 0.103638999 0.717601001
0.751797020 0.123308003 0.759334981
0.940581024 0.155534998 0.788875997
0.047653899 0.351323992 0.828687012
0.218218997 0.398703009 0.655543029
0.529213011 0.356191009 0.713419974
0.750514984 0.375752985 0.767803013
0.939818025 0.392385989 0.785732985
0.051850200 0.601418972 0.952086985
0.234318003 0.606667995 0.909209013
0.564050019 0.611002028 0.803188980
0.755962014 0.598123014 0.779964983
0.940290987 0.607584000 0.795453012
0.157885000 0.811748981 0.825573981
0.310903013 0.808193982 0.829464972
0.550713003 0.810909986 0.816982985
0.774105012 0.792523026 0.810268998
0.955474019 0.792614996 0.809688985
0.238224000 0.937758029 0.761379004
0.386725008 0.927610993 0.758159995
0.580071986 0.913146019 0.770488977
0.787778020 0.935500026 0.815456986
0.951888025 0.977081001 0.839658022
0.125017002 0.192218006 0.918928981
0.288837999 0.211490005 0.854825974
0.550804973 0.185518995 0.883726001
0.771313012 0.184709996 0.949721992
0.951614022 0.195987001 0.955474019
0.085954100 0.403860986 0.957107008
0.281803995 0.461097002 0.899762988
0.542747974 0.446539998 0.902891994
0.761089981 0.416815013 0.948333025
0.949020028 0.426580995 0.964354992
0.060425699 0.621896982 0.965866029
0.289508998 0.633524001 0.969466984
0.584389985 0.659159005 0.976364017
0.770488977 0.625895023 0.940459013
0.958328009 0.630976021 0.974089980
0.113664001 0.830242991 0.974807024
0.306508005 0.838010013 0.978088021
0.575204015 0.857083976 0.984161019
0.803966999 0.831387997 0.987700999
0.967604995 0.813580990 0.986708999
0.194841996 0.969649971 0.980742991
0.375021011 0.978591979 0.984314024
0.581506014 0.988617003 0.988556027
0.791302025 0.993561029 0.993561029
0.972930014 0.981018007 0.993439019
