luts/travel_03.cube
TITLE "33x33x33 Adobe/IRIDAS cube 3D LUT exported with GrossGrade v0.2.2 (beta) 64 bit"
DOMAIN_MIN 0 0 0
DOMAIN_MAX 1 1 1
LUT_3D_SIZE 5
0.001724270 0.000732433 0.000534066
0.140414000 0.014114600 0.005172810
0.360098004 0.034622699 0.016113499
0.607003987 0.056671999 0.046860501
0.860090017 0.094331302 0.092698596
0.023071600 0.131456003 0.005447470
0.190585002 0.175769001 0.010513500
0.442954004 0.226154000 0.019745201
0.681101978 0.251529992 0.038956299
0.921141028 0.269017011 0.061860099
0.080293000 0.319112003 0.021805100
0.259784997 0.377539009 0.034851599
0.474967986 0.438697010 0.043991800
0.708002985 0.483527988 0.049713898
0.946943998 0.499473989 0.063553803
0.209064007 0.548515975 0.113222003
0.365209013 0.587899983 0.132112995
0.526085019 0.620828986 0.108202003
0.697597027 0.660609007 0.086305000
0.944823027 0.722316027 0.053635500
0.264515013 0.752910972 0.190738007
0.394064009 0.773297012 0.188602000
0.551277995 0.815167010 0.153750002
0.735454023 0.868192971 0.142122999
0.955688000 0.931777000 0.113237001
0.005554280 0.037338801 0.108644001
0.123536997 0.041336700 0.145677999
0.323063999 0.017853100 0.124392003
0.557045996 0.019607799 0.147737995
0.816860974 0.038864698 0.192294002
0.002227820 0.183383003 0.169679999
0.147951007 0.202243000 0.181383997
0.453375995 0.204852000 0.165011004
0.681650996 0.191545993 0.153445005
0.916670978 0.194582999 0.182909995
0.027161101 0.354405999 0.172594994
0.168718994 0.375494003 0.159930006
0.484337002 0.455177009 0.177676007
0.725733995 0.481804013 0.166369006
0.959608972 0.490303010 0.186434999
0.095567301 0.526557982 0.181826994
0.254795015 0.555061996 0.188479006
0.509606004 0.628382027 0.204394996
0.698619008 0.665063977 0.156771004
0.952620983 0.722697973 0.167758003
0.184435993 0.748347998 0.273487002
0.340826005 0.772792995 0.284381986
0.530448973 0.817380011 0.281636000
0.732998013 0.874418020 0.250232995
0.957976997 0.936172009 0.253513008
0.011032300 0.089662001 0.259326994
0.071869999 0.108492002 0.306737006
0.289784014 0.059098199 0.304356009
0.497871011 0.034744799 0.297230005
0.748118997 0.038574800 0.368566006
0.008178840 0.230792999 0.335271001
0.078095697 0.253116995 0.371953994
0.402258009 0.252505988 0.410254002
0.613198996 0.181140006 0.377371013
0.855023980 0.231708005 0.445959985
0.025146900 0.420874000 0.398519993
0.108675003 0.433494002 0.408484012
0.470115006 0.520882010 0.494300991
0.749386013 0.500205994 0.489937007
0.942321002 0.495247006 0.471794009
0.092454404 0.589852989 0.436042011
0.223925993 0.617609024 0.453422010
0.492255986 0.680460989 0.496619999
0.723262012 0.702602029 0.459219992
0.967528999 0.726786971 0.423422992
0.129045993 0.770183980 0.459693015
0.280521989 0.792172015 0.464987993
0.490227014 0.832257986 0.469886005
0.723568022 0.886624992 0.446159005
0.958679020 0.941649020 0.438208997
0.013077000 0.142701998 0.405034989
0.074403003 0.170305997 0.448431998
0.176226005 0.171130002 0.474296004
0.491324991 0.098710597 0.464073002
0.676432014 0.104172997 0.498894006
0.013199100 0.275577992 0.469107985
0.076142497 0.300374001 0.500786006
0.208026007 0.340597004 0.546486974
0.611002028 0.322926998 0.577095985
0.787976027 0.336751014 0.602213025
0.030517999 0.453772992 0.534278989
0.099488802 0.465903997 0.552559972
0.320562005 0.517205000 0.608071983
0.663294017 0.581719995 0.668268979
0.852872014 0.554283977 0.673395991
0.085481003 0.624872029 0.588449001
0.149904996 0.631006002 0.594141006
0.352804005 0.671365976 0.632166028
0.676966012 0.729930997 0.690455019
0.933943987 0.738780975 0.704936028
0.098634303 0.800136983 0.633906007
0.228870004 0.816830993 0.642724991
0.460882992 0.853528976 0.670466006
0.707056999 0.897368014 0.682002008
0.960997999 0.944610000 0.693567991
0.020370800 0.206455007 0.545708001
0.084245101 0.230593994 0.577904999
0.162661001 0.267567009 0.624872029
0.540580988 0.312077999 0.719585001
0.724285007 0.261813998 0.680812001
0.024368700 0.329564005 0.592217982
0.088181898 0.347874999 0.615152001
0.176226005 0.384954989 0.658578992
0.536736012 0.454901993 0.738048017
0.771526992 0.458045006 0.743053019
0.049897000 0.486685991 0.658320010
0.113695003 0.496924996 0.675319016
0.259205014 0.534829021 0.720072985
0.535697997 0.592263997 0.759350002
0.791927993 0.628961980 0.792599022
0.083558403 0.651437998 0.711116016
0.146241993 0.658502996 0.723704994
0.312413007 0.690546989 0.766094029
0.590875030 0.724407017 0.802365005
0.842710018 0.759761989 0.842374027
0.106858999 0.848416984 0.809292972
0.197329998 0.854673028 0.815137029
0.311100990 0.874661982 0.833950996
0.636744022 0.903394997 0.866177976
0.941008985 0.934279025 0.911727011
