luts/travel_11.cube
TITLE "33x33x33 Adobe/IRIDAS cube 3D LUT exported with GrossGrade v0.2.2 (beta) 64 bit"
DOMAIN_MIN 0 0 0
DOMAIN_MAX 1 1 1
LUT_3D_SIZE 33
0.018585499 0.000000000 0.015350600
0.020614900 0.000000000 0.016296601
0.027512001 0.000000000 0.016968001
0.034882098 0.000000000 0.017746201
0.042389601 0.000000000 0.018112499
0.055085100 0.000000000 0.019653600
0.069077604 0.000000000 0.021454200
0.083253197 0.000000000 0.023254801
0.097398303 0.000000000 0.024902700
0.113130003 0.000000000 0.029068399
0.129228994 0.000000000 0.033402000
0.145524994 0.000000000 0.037750799
0.161868006 0.000000000 0.042328499
0.179003999 0.000000000 0.044663198
0.196413994 0.000000000 0.046417899
0.213747993 0.000000000 0.048081201
0.231220007 0.000000000 0.049912300
0.248692006 0.000000000 0.050888799
0.266346008 0.000000000 0.051773898
0.283969998 0.000000000 0.052689400
0.301548988 0.000000000 0.053437099
0.318715006 0.000000000 0.054016899
0.335958004 0.000000000 0.054612000
0.353170007 0.001037610 0.055146102
0.370382011 0.003570610 0.055893801
0.387151986 0.004180970 0.057099301
0.404181004 0.006973370 0.058320001
0.421117991 0.008651870 0.059525400
0.438636005 0.011276400 0.061509099
0.456351995 0.012588700 0.064118400
0.474204987 0.014969100 0.066697203
0.492072999 0.017456301 0.069306500
0.510093987 0.020035099 0.071519002
0.024765400 0.000000000 0.021149000
0.027573099 0.000000000 0.024200801
0.033127300 0.000000000 0.026031900
0.040360101 0.000000000 0.027679900
0.049515501 0.000000000 0.028976901
0.062516198 0.000946059 0.030701200
0.075654201 0.003311210 0.032364398
0.089143202 0.007598990 0.034454901
0.102891997 0.010177800 0.036362201
0.118669003 0.013702600 0.039734501
0.134629995 0.017288500 0.043122001
0.150790006 0.020904901 0.046555299
0.167117000 0.024521200 0.049439199
0.184450999 0.027634099 0.051102500
0.201830998 0.030777400 0.052704699
0.219210997 0.033936098 0.054261100
0.236744002 0.038025498 0.055603899
0.254215002 0.039780300 0.056137901
0.271901011 0.043778099 0.056778800
0.289433002 0.045517702 0.057190798
0.306874007 0.048172701 0.057572301
0.323918998 0.051682301 0.057847001
0.341253012 0.054200001 0.058106400
0.358464986 0.056656700 0.058274198
0.375463009 0.059464399 0.058915101
0.392432004 0.062500998 0.059861101
0.409552008 0.065552801 0.060776699
0.426611990 0.068619803 0.061692201
0.444343001 0.071290202 0.063919999
0.462134987 0.073823102 0.066330999
0.480002999 0.077576898 0.068787701
0.497902006 0.079117998 0.071229100
0.516090989 0.083085403 0.073350102
0.030426500 0.008529790 0.031708200
0.035935000 0.012085100 0.035980798
0.041504499 0.022598600 0.040085401
0.048279501 0.033737700 0.043152500
0.059586499 0.041672401 0.045380302
0.071503803 0.048371099 0.047257200
0.083527900 0.052109599 0.048538901
0.095750399 0.056824598 0.050171699
0.109696999 0.059617002 0.051300801
0.125398993 0.063202903 0.052689400
0.141329005 0.066376701 0.054093201
0.157443002 0.069825299 0.055542801
0.174272999 0.072663501 0.056824598
0.191669002 0.075303301 0.058075801
0.209110007 0.077958301 0.059388101
0.226520002 0.080491297 0.060608801
0.244038001 0.082719199 0.061066601
0.261601001 0.084687598 0.061203901
0.279377013 0.086930603 0.061356500
0.297078013 0.089005902 0.061539602
0.314321011 0.090577602 0.061509099
0.331548005 0.092057697 0.061448101
0.348744988 0.093675099 0.061386999
0.366003007 0.095155299 0.061326001
0.382986009 0.097337298 0.061997399
0.399892986 0.099427797 0.062714599
0.416967988 0.101549000 0.063401200
0.434318006 0.103487000 0.064469397
0.452125013 0.105149999 0.066712402
0.469855994 0.106919996 0.068940297
0.487830997 0.108430997 0.071244404
0.505806029 0.110184997 0.073411196
0.524040997 0.112032004 0.075562701
0.036041800 0.050736200 0.043686599
0.043244101 0.056107402 0.048767801
0.049698599 0.060563099 0.052552100
0.059113499 0.066163100 0.055298701
0.070130497 0.071763203 0.057679102
0.080750696 0.074433498 0.058197901
0.091645703 0.076813899 0.058777802
0.104036003 0.078996003 0.059327099
0.119661003 0.081437401 0.059800100
0.135804996 0.083680503 0.060364701
0.152009994 0.085908301 0.061005600
0.168536007 0.088059798 0.061737999
0.185321003 0.090623297 0.062531501
0.202364996 0.093232602 0.063446999
0.219409004 0.095796101 0.064408302
0.236744002 0.098329097 0.065018699
0.254397988 0.100252002 0.065033898
0.271824002 0.102265999 0.064927101
0.289647013 0.104341000 0.064942397
0.307271004 0.106156997 0.064850800
0.324360996 0.107621998 0.064606696
0.341497004 0.109026000 0.064347297
0.358525991 0.110459998 0.064087898
0.375524998 0.112062000 0.064286299
0.392369986 0.114076003 0.064835601
0.409368992 0.115938000 0.065415397
0.426474005 0.118151002 0.066010498
0.443915009 0.119768001 0.067597501
0.461737990 0.121400997 0.069642201
0.479393005 0.123109996 0.071625903
0.497168988 0.124711998 0.073609501
0.515403986 0.126344994 0.075760998
0.533668995 0.128068998 0.077897303
0.040238000 0.069901600 0.048722100
0.048188001 0.074555598 0.053727001
0.056839898 0.080186203 0.058503099
0.067734800 0.087388404 0.063309699
0.077973597 0.092317097 0.065491699
0.088761702 0.096711703 0.066529296
0.099168397 0.098619103 0.066529296
0.116227999 0.100679003 0.066361502
0.133515999 0.102372997 0.066315703
0.150698006 0.103899002 0.066285200
0.167987004 0.105364002 0.066437803
0.184709996 0.107850999 0.066910803
0.201572001 0.110459998 0.067444898
0.218478993 0.113068998 0.068070501
0.235507995 0.115541004 0.068619803
0.252995014 0.117432997 0.068436697
0.270512015 0.119295001 0.068299398
0.287845999 0.121064998 0.068177298
0.304966986 0.122819997 0.068055198
0.321904004 0.124040999 0.067628004
0.338719994 0.125246003 0.067276999
0.355428010 0.126405999 0.066910803
0.371832013 0.127626002 0.066727698
0.388173997 0.129365996 0.067139700
0.404989988 0.131074995 0.067582197
0.421896994 0.133028001 0.068024702
0.439047992 0.134783000 0.068985999
0.456396997 0.136384994 0.070695102
0.473883986 0.137925997 0.072419301
0.491432011 0.139574006 0.074128300
0.509132981 0.141069993 0.076035701
0.527306020 0.142596006 0.078095697
0.545708001 0.144121006 0.080186203
0.044434302 0.088441297 0.053559199
0.052567299 0.093019001 0.058197901
0.062424701 0.099595599 0.063538603
0.072846599 0.107118003 0.068787701
0.084016196 0.113085002 0.071229100
0.094377004 0.117250003 0.071961500
0.112412997 0.120150000 0.071198598
0.131806999 0.121781997 0.070405103
0.150835007 0.122819997 0.069718502
0.169710994 0.124009997 0.069230199
0.187197998 0.126252994 0.069108099
0.204471007 0.128664002 0.069184400
0.221682996 0.130815998 0.069382802
0.239322007 0.133135006 0.069413297
0.256839991 0.134904996 0.069108099
0.274556011 0.136705995 0.068909697
0.291951001 0.138445005 0.068757199
0.308887988 0.139879003 0.068558797
0.325367987 0.141009003 0.068131499
0.342045993 0.142184004 0.067780599
0.358617991 0.143359005 0.067475401
0.374487013 0.144396007 0.067490697
0.390524000 0.145982996 0.067933202
0.406423986 0.147645995 0.068360403
0.422782004 0.149386004 0.068802901
0.439505994 0.150958002 0.069611698
0.456290990 0.152467996 0.071107000
0.473259002 0.153993994 0.072617702
0.490471005 0.155656993 0.074128300
0.507591009 0.157014996 0.075852603
0.525200009 0.158281997 0.077836297
0.542869985 0.159564003 0.079819903
0.561058998 0.160922006 0.081788398
0.048447400 0.107102998 0.058228400
0.056794100 0.112062000 0.062760398
0.066498801 0.119020000 0.068070501
0.076264597 0.126833007 0.072465099
0.087144300 0.135316998 0.075059101
0.102234997 0.140826002 0.074830197
0.126772001 0.144593999 0.073243298
0.149232998 0.145434007 0.071595304
0.170153007 0.146181002 0.070161000
0.190935999 0.147874996 0.068787701
0.211016998 0.149049997 0.067734800
0.229938000 0.150011003 0.067155004
0.248111993 0.151492000 0.066544600
0.265781999 0.153184995 0.065934204
0.283452004 0.154925004 0.065400198
0.300633013 0.156512007 0.065110199
0.317205012 0.157763004 0.064835601
0.333608001 0.159090996 0.064576201
0.349492997 0.160113007 0.064545698
0.365590990 0.161424994 0.064393103
0.381491005 0.162874997 0.064789802
0.396901995 0.164308995 0.065369703
0.412436008 0.165866002 0.065964803
0.428016007 0.167178005 0.066575103
0.444114000 0.168810993 0.067658499
0.460548013 0.170245007 0.069123402
0.477012008 0.171755999 0.070527203
0.493537992 0.173311993 0.071885303
0.510613024 0.174548000 0.073655300
0.528038025 0.175784007 0.075577900
0.545463979 0.177095994 0.077515803
0.562707007 0.178316996 0.079423197
0.580697000 0.179796994 0.080964401
0.051529702 0.126055002 0.062378898
0.059464399 0.131136000 0.066559903
0.068345197 0.140337005 0.071885303
0.078080401 0.148866996 0.075684696
0.088288702 0.157855004 0.077454798
0.110353000 0.164508000 0.074814998
0.139100999 0.168124005 0.072144702
0.168154001 0.169496998 0.068802901
0.192858994 0.170001000 0.066269897
0.217029005 0.170168996 0.063874297
0.239886999 0.170108005 0.062058400
0.258610010 0.171664000 0.060959801
0.276555002 0.173280999 0.060044300
0.294346988 0.174746007 0.059281301
0.311848998 0.176424995 0.058716699
0.328480989 0.177661002 0.058548901
0.344884008 0.178942993 0.058457300
0.361104995 0.180345997 0.058487799
0.376715004 0.181597993 0.058945600
0.391927987 0.182680994 0.059754301
0.407523006 0.183947995 0.060532499
0.422904015 0.185305998 0.061295498
0.438102007 0.186572000 0.062272102
0.453543991 0.187716007 0.063691199
0.469428986 0.188982993 0.065140799
0.485237002 0.190340996 0.066559903
0.501166999 0.191683993 0.068024702
0.517844975 0.192706004 0.070008397
0.534630001 0.193636999 0.071976803
0.551582992 0.194796994 0.073899403
0.568642974 0.196002007 0.075791597
0.586099029 0.197436005 0.077286899
0.603891015 0.199022993 0.078751802
0.053498100 0.144990996 0.065857902
0.061524399 0.151354000 0.070161000
0.069321699 0.162051007 0.075730503
0.078751802 0.171939000 0.078095697
0.088914298 0.181826994 0.077775203
0.116396002 0.188036993 0.073411196
0.148669004 0.190631002 0.069367498
0.181642994 0.192736998 0.064789802
0.212299004 0.193744004 0.061219200
0.240145996 0.193378001 0.058335200
0.263493001 0.194933996 0.055878501
0.284947008 0.196016997 0.054123800
0.304387003 0.197146997 0.052933499
0.321981013 0.198245004 0.052506302
0.339085996 0.199526995 0.052246898
0.356160998 0.200946003 0.052079000
0.372685999 0.202121004 0.052185901
0.388861001 0.203281000 0.052903000
0.404760987 0.204485998 0.053620201
0.420233011 0.205631003 0.054398399
0.435598999 0.206760004 0.055191901
0.451011002 0.207706004 0.056473602
0.466376990 0.208682001 0.057785898
0.481727004 0.209735006 0.059189700
0.497139007 0.210849002 0.060578302
0.512825012 0.211596996 0.062531501
0.529075980 0.212253004 0.064591400
0.545311987 0.213045999 0.066636100
0.561653972 0.213870004 0.068665601
0.578514993 0.215060994 0.070389897
0.595696986 0.216631994 0.071961500
0.612711012 0.217975006 0.073624797
0.630198002 0.219485998 0.075135402
0.055329200 0.164416000 0.069367498
0.063172303 0.172091007 0.073731601
0.069596402 0.184253007 0.079331703
0.078782298 0.194475994 0.079331703
0.090074003 0.204256997 0.075928897
0.120820999 0.210620001 0.070435598
0.154696003 0.213596001 0.066239402
0.191195995 0.215777993 0.061707500
0.224857002 0.216906995 0.058380999
0.254519999 0.218250006 0.055832800
0.280858010 0.219226003 0.053513400
0.304859996 0.219622999 0.051483899
0.324865013 0.220584005 0.050248001
0.343663990 0.221744001 0.049576599
0.362096995 0.223102003 0.048950899
0.379842997 0.224414006 0.048981499
0.397680998 0.225757003 0.049607102
0.415351003 0.227207005 0.050141100
0.432134986 0.228153005 0.050721001
0.448767990 0.229205996 0.051590800
0.464819998 0.229938000 0.052719899
0.480796993 0.230639994 0.054032199
0.496773005 0.231509998 0.055359699
0.512642026 0.232059002 0.056977201
0.528481007 0.232531995 0.058777802
0.544426978 0.233005002 0.060654599
0.560326993 0.233646005 0.062439900
0.576409996 0.234347999 0.064011604
0.593255997 0.235736996 0.065354399
0.609688997 0.236713007 0.066743001
0.626612008 0.238040999 0.068100996
0.643976986 0.239566997 0.069367498
0.661279976 0.240665004 0.070588201
0.056855101 0.184024006 0.072861798
0.063965797 0.192355007 0.077103801
0.069016598 0.204013005 0.081635803
0.078416102 0.215717003 0.079545297
0.090974301 0.226215005 0.073624797
0.123308003 0.232501999 0.067902602
0.159303993 0.236270994 0.063446999
0.198351994 0.238285005 0.059479699
0.234318003 0.239490002 0.056687299
0.267078996 0.241733000 0.054245800
0.295720011 0.242663994 0.052506302
0.320484996 0.243655995 0.051270299
0.341482013 0.245196998 0.050507400
0.360936999 0.246051997 0.049942799
0.379750997 0.247196004 0.049790200
0.398840010 0.248585001 0.050827801
0.417533010 0.250050008 0.051773898
0.436331987 0.251545012 0.052704699
0.454185009 0.252384007 0.053543899
0.471473008 0.253071010 0.054398399
0.488655001 0.253726989 0.055176601
0.505577028 0.254489988 0.056000602
0.522454023 0.255055010 0.056977201
0.539254010 0.255603999 0.058045302
0.556176007 0.256229013 0.059174500
0.572824001 0.256718010 0.060288399
0.589501977 0.257495999 0.061158199
0.606347978 0.258396000 0.062012699
0.623102009 0.259357989 0.062867202
0.639841020 0.260349005 0.063919999
0.657099009 0.261325985 0.064896598
0.674463987 0.262317985 0.065918997
0.691767991 0.263294011 0.067032903
0.057206102 0.202884004 0.076081499
0.063660599 0.211444005 0.079957299
0.068467200 0.223545000 0.083115898
0.077225901 0.236727998 0.079606302
0.091310002 0.247501001 0.071671598
0.123644002 0.254170001 0.065690100
0.162324995 0.258258998 0.060318898
0.204089001 0.260502011 0.057724901
0.242557004 0.263081014 0.056168500
0.276158005 0.266148001 0.054963000
0.306064993 0.268115997 0.054215301
0.331014007 0.270130008 0.053040400
0.353978992 0.271243989 0.051834900
0.375158012 0.271198988 0.050629400
0.395529002 0.272769988 0.051560201
0.415365994 0.274356991 0.052552100
0.434852004 0.275685012 0.053528599
0.453711987 0.276692003 0.054551002
0.471901000 0.277667999 0.055664901
0.489937007 0.278508008 0.056717802
0.507744014 0.279193997 0.057724901
0.525017023 0.279392987 0.058731999
0.542213976 0.279621989 0.059693299
0.559762001 0.280339003 0.060715601
0.577340007 0.280979991 0.061768498
0.594887972 0.281621009 0.062531501
0.612451017 0.282306999 0.063294403
0.629876971 0.283253014 0.064057402
0.647242010 0.284092009 0.064820297
0.664682984 0.284992993 0.065461203
0.682138979 0.285649002 0.066178396
0.699458003 0.286289990 0.066834502
0.716669977 0.286931008 0.067490697
0.057160299 0.221331999 0.079194300
0.062989198 0.230716005 0.082337700
0.067750096 0.243487999 0.084199302
0.075440601 0.257633001 0.079911500
0.091065802 0.269322008 0.070588201
0.122483999 0.275424987 0.063462302
0.163027003 0.279500008 0.057724901
0.208011001 0.282795012 0.057221301
0.248463005 0.286381006 0.057206102
0.282918006 0.289981991 0.056992400
0.313358992 0.292912006 0.056443099
0.340016991 0.294483989 0.054490000
0.364964992 0.294910997 0.052536801
0.388646990 0.296407014 0.051987499
0.410497993 0.298420995 0.053025100
0.431295991 0.300175011 0.054001700
0.451346993 0.301349998 0.054932501
0.470344007 0.302433997 0.056336299
0.489219010 0.303838015 0.057648599
0.507758975 0.304982007 0.058960900
0.525933027 0.305745006 0.060105301
0.543465018 0.305943012 0.061005600
0.561012983 0.306232989 0.061982099
0.578408003 0.306569010 0.062958702
0.595925987 0.307027012 0.063736901
0.613550007 0.307758987 0.064469397
0.631143987 0.308506995 0.065217100
0.648446977 0.308995008 0.065964803
0.665903986 0.309148014 0.066529296
0.683299005 0.309605986 0.067109197
0.700572014 0.309590012 0.067704298
0.717876017 0.309621006 0.068360403
0.735485017 0.309940994 0.068848699
0.056885600 0.239642993 0.081788398
0.061905898 0.249271005 0.084367096
0.066285200 0.262425005 0.085221604
0.072632901 0.278050005 0.080964401
0.090272397 0.290517002 0.069855802
0.120043002 0.296665996 0.061524399
0.159243003 0.300419986 0.056671999
0.209415004 0.304935992 0.057724901
0.252292991 0.309132993 0.058365799
0.287404001 0.313268006 0.057785898
0.318684995 0.316792995 0.056305800
0.347112000 0.319265008 0.054612000
0.373907000 0.321034998 0.053238701
0.399268001 0.324315012 0.053665999
0.422950000 0.326481998 0.054245800
0.444617003 0.327275991 0.054703601
0.465110004 0.328144997 0.055939600
0.484901011 0.329365999 0.057465501
0.504417002 0.330419004 0.059021901
0.523612976 0.331456006 0.060502000
0.542168021 0.332174003 0.061661702
0.560342014 0.332569987 0.062745102
0.578316987 0.332967013 0.063798003
0.596108973 0.333348989 0.064759299
0.613717973 0.333851993 0.065461203
0.631312013 0.334217995 0.066224203
0.648814023 0.334829003 0.066956602
0.666132987 0.334966004 0.067566901
0.683390975 0.334706992 0.068055198
0.700632989 0.334829003 0.068558797
0.717326999 0.333943993 0.069108099
0.734600008 0.333608001 0.069565900
0.751735985 0.333164990 0.069993101
0.056000602 0.257907987 0.084183998
0.060578302 0.267856985 0.086106703
0.065064497 0.281437010 0.086274497
0.071412198 0.298267990 0.081727304
0.089478903 0.310918003 0.069352299
0.116548002 0.317128003 0.060273100
0.152087003 0.321141005 0.055817500
0.206180006 0.325444013 0.057709601
0.252110004 0.330495000 0.057984300
0.288929999 0.336109996 0.056382101
0.322468996 0.340734005 0.055130798
0.352757990 0.344457000 0.054795101
0.380376995 0.347416997 0.054795101
0.407384992 0.350636989 0.054886699
0.432776004 0.352833986 0.054764599
0.456184000 0.353581995 0.054779898
0.476936013 0.354635000 0.056382101
0.497307003 0.355641991 0.057892699
0.517372012 0.356465995 0.059418600
0.536979973 0.357259005 0.060868200
0.555962026 0.358052999 0.062256798
0.574761987 0.358648002 0.063553803
0.593331993 0.359091014 0.064881399
0.611185014 0.359564006 0.065674797
0.628977001 0.359991014 0.066498801
0.646479011 0.360127985 0.067276999
0.663859010 0.360280991 0.068024702
0.681315005 0.360249996 0.068543501
0.698741019 0.359959990 0.069031797
0.715983987 0.359517992 0.069581099
0.733027995 0.358586997 0.070099898
0.750240028 0.357748002 0.070557699
0.767207980 0.356786013 0.071000203
0.054840900 0.276387006 0.086305000
0.059296601 0.286305010 0.087769903
0.064225197 0.300069004 0.087220602
0.071610600 0.317555994 0.082291901
0.087495200 0.329809010 0.069794796
0.112337001 0.336888999 0.059937399
0.143831998 0.341482013 0.055069800
0.200397000 0.345510006 0.057557002
0.249469995 0.351002991 0.057755399
0.288089991 0.357656002 0.055100299
0.323507011 0.363301992 0.054383200
0.355993003 0.368474990 0.055420801
0.385594994 0.372289985 0.056122702
0.413565010 0.375142992 0.055573400
0.440391004 0.377126992 0.055069800
0.465171009 0.379171014 0.055542801
0.487282008 0.380560011 0.056992400
0.508521974 0.381291986 0.058380999
0.529259026 0.381673992 0.059739102
0.549171984 0.382436991 0.061295498
0.568750024 0.383168995 0.062790900
0.588373005 0.383978009 0.064393103
0.607370019 0.384755999 0.065705404
0.625497997 0.385367006 0.066636100
0.643427014 0.385672003 0.067505904
0.660867989 0.385549992 0.068421498
0.678187013 0.385428011 0.068909697
0.695644021 0.385167986 0.069367498
0.713114977 0.384833008 0.069886297
0.730494976 0.384252995 0.070405103
0.747874975 0.383062005 0.070878200
0.764813006 0.381810993 0.071290202
0.781642973 0.380376995 0.071763203
0.053513400 0.294865012 0.088273399
0.058258899 0.304432988 0.089326300
0.063675903 0.318471014 0.088700697
0.071686901 0.336109996 0.083253197
0.084611297 0.347889990 0.071107000
0.107729003 0.356236994 0.060166299
0.133318007 0.361669004 0.054291598
0.192904994 0.365240008 0.057190798
0.244999006 0.370656997 0.057923201
0.286183000 0.378012002 0.054947700
0.324422002 0.385031015 0.054566301
0.359030008 0.391577005 0.055619098
0.390264988 0.397024006 0.056015901
0.418722987 0.399756014 0.056000602
0.446081996 0.401923001 0.056061599
0.471504003 0.404439986 0.056870401
0.495705009 0.406699002 0.057907999
0.517983019 0.407523006 0.058838800
0.538978994 0.407979995 0.059830599
0.559243023 0.408452988 0.060944501
0.579171002 0.408820003 0.062058400
0.598932028 0.408926994 0.063218102
0.618097007 0.409552008 0.064362600
0.637139976 0.410178006 0.065430701
0.655740976 0.410360992 0.066605598
0.674005985 0.410239011 0.067673802
0.691661000 0.409781009 0.068528302
0.709285021 0.409354001 0.069352299
0.726710975 0.408850014 0.070161000
0.744457006 0.408163995 0.070756100
0.761807024 0.406897008 0.071381703
0.778729022 0.405539006 0.071976803
0.795544028 0.404027998 0.072510898
0.051804401 0.313252002 0.090318203
0.057343401 0.322133005 0.091203198
0.063584298 0.336201996 0.090211302
0.071351200 0.353475004 0.084489197
0.081055902 0.365316004 0.073365398
0.102876000 0.374852985 0.061493900
0.126864001 0.380757987 0.054642599
0.184329003 0.384297997 0.057221301
0.239048004 0.389425009 0.059296601
0.283192009 0.397237986 0.056183700
0.323796004 0.405416995 0.055054601
0.359212995 0.413473994 0.055634402
0.392675996 0.420248985 0.056015901
0.422933996 0.423911005 0.056519400
0.450919002 0.426093012 0.057145000
0.476509005 0.428687006 0.057831701
0.501731992 0.431098014 0.058365799
0.525596976 0.432516992 0.058808301
0.547433019 0.433463007 0.059403401
0.568399012 0.433706999 0.060059499
0.588707983 0.433340997 0.060776699
0.608850002 0.433371007 0.061722700
0.628794014 0.433798999 0.062973998
0.648630023 0.434379011 0.064133704
0.667841971 0.434347987 0.065354399
0.686519027 0.434011996 0.066636100
0.704387009 0.433173001 0.067872100
0.722163975 0.432395011 0.068955503
0.739910007 0.431661993 0.069932103
0.757610023 0.430990994 0.070389897
0.774716020 0.429724991 0.070878200
0.791698992 0.428259999 0.071457997
0.808224976 0.427008003 0.071854703
0.049927499 0.331472009 0.092317097
0.056549899 0.339482993 0.093034297
0.063599601 0.353062987 0.091905102
0.070817098 0.369848013 0.086228698
0.078477196 0.382604986 0.076462999
0.098573297 0.391974002 0.063828498
0.121599004 0.398259997 0.056046400
0.173326999 0.402624995 0.057099301
0.230442002 0.407126009 0.060883500
0.277561992 0.415502995 0.057541799
0.320668012 0.424338013 0.055603899
0.357136995 0.433982015 0.055756502
0.391974002 0.441733003 0.056076899
0.424627990 0.446783990 0.057267100
0.453085989 0.450340003 0.058274198
0.479743987 0.453619987 0.059021901
0.505867004 0.456122994 0.059708599
0.531121016 0.458090991 0.060349401
0.554314017 0.459693015 0.060807198
0.576623023 0.460272998 0.061158199
0.597925007 0.460029006 0.061463300
0.618539989 0.459800005 0.062134702
0.638804018 0.459585994 0.062882401
0.658824027 0.459037006 0.063706398
0.678492010 0.458288997 0.064728796
0.697458982 0.457480997 0.066025801
0.716121018 0.456138015 0.067429602
0.734295011 0.454825997 0.068818197
0.752315998 0.454093009 0.069535397
0.769878983 0.453375995 0.069916800
0.786953986 0.452262014 0.070313603
0.803722978 0.450782001 0.070817098
0.819944024 0.450064987 0.070832402
0.047989599 0.350225002 0.094163403
0.055909101 0.356480986 0.094758503
0.063569099 0.368887007 0.093766697
0.070939198 0.385320991 0.088731200
0.079316400 0.400992006 0.079865701
0.093888797 0.408452988 0.067307502
0.115877002 0.415060997 0.057984300
0.159807995 0.420370996 0.056671999
0.219470993 0.424520999 0.061921101
0.269627005 0.432639003 0.059113499
0.315342993 0.441794008 0.056885600
0.353413999 0.451606005 0.056885600
0.389791995 0.460409999 0.056809299
0.423712999 0.467947990 0.058197901
0.452933997 0.474844992 0.059372898
0.481543988 0.478446990 0.060349401
0.508979976 0.481085986 0.061280198
0.535347998 0.483161986 0.062104199
0.559960008 0.485695004 0.062409401
0.583673000 0.486609995 0.062500998
0.606287003 0.487022012 0.062623002
0.627573013 0.486595005 0.062867202
0.647943974 0.485114992 0.063172303
0.668115973 0.483664989 0.063538603
0.687494993 0.482475013 0.064438798
0.706507981 0.481056005 0.065537497
0.725063026 0.479499996 0.066666700
0.743130028 0.478004009 0.067719497
0.761363983 0.477028012 0.068573996
0.779201984 0.475654006 0.069367498
0.796703994 0.474510014 0.069947399
0.813672006 0.473289013 0.070344098
0.829953015 0.472723991 0.070237301
0.047638699 0.369069993 0.096055500
0.055664901 0.374684989 0.096620098
