luts/travel_04.cube
TITLE "33x33x33 Adobe/IRIDAS cube 3D LUT exported with GrossGrade v0.2.2 (beta) 64 bit"
DOMAIN_MIN 0 0 0
DOMAIN_MAX 1 1 1
LUT_3D_SIZE 5
0.008316170 0.019119600 0.025635200
0.162524000 0.032440700 0.033814002
0.435202986 0.054627299 0.038696900
0.646784008 0.084077202 0.052994601
0.787930012 0.110918000 0.068436697
0.024719600 0.183855996 0.092027202
0.185092002 0.199878007 0.062653497
0.459906995 0.203876004 0.046494201
0.658990979 0.226763994 0.059235498
0.800594985 0.247150004 0.078736603
0.043442398 0.425161988 0.205905005
0.148028001 0.423361987 0.162553996
0.487495005 0.440268993 0.109940998
0.690486014 0.450064987 0.115327999
0.823255002 0.454398006 0.127687007
0.107346997 0.631083012 0.289157987
0.236072004 0.616631985 0.275348991
0.449622005 0.634913027 0.233158007
0.698634028 0.659265995 0.200152993
0.847257018 0.664210021 0.205173001
0.187655002 0.772122025 0.322225004
0.329595000 0.762462974 0.317968011
0.481467992 0.783841014 0.311894000
0.680490971 0.822003007 0.303685009
0.848661005 0.841871023 0.279973000
0.021133700 0.071320698 0.195712000
0.172839001 0.064942397 0.235247999
0.457145005 0.059311800 0.202029005
0.668528020 0.071076497 0.194827005
0.811779976 0.088853300 0.198809996
0.024124499 0.222231999 0.234150007
0.171145007 0.237094998 0.228687003
0.480751008 0.215868995 0.193652004
0.681116998 0.228611007 0.193483993
0.821012020 0.243884996 0.200870007
0.023498900 0.447317988 0.318134993
0.148500994 0.460105002 0.305698991
0.486458004 0.462653995 0.236576006
0.701747000 0.463721991 0.233660996
0.835919976 0.463553995 0.238574997
0.077454798 0.647562027 0.377629995
0.212084994 0.650552988 0.371297985
0.456413001 0.656000972 0.340429008
0.705150008 0.676172972 0.298725992
0.857693970 0.676218987 0.305440009
0.145052001 0.792752028 0.404195994
0.296651006 0.787045002 0.400243998
0.483177006 0.804561973 0.399008006
0.687861025 0.842419982 0.394217014
0.860548019 0.860913992 0.364858001
0.028488601 0.175555006 0.419851989
0.111176997 0.167680994 0.429693997
0.448875010 0.125001997 0.467642993
0.677989006 0.127931997 0.453772992
0.836866021 0.133058995 0.443717003
0.019729899 0.293309003 0.459051996
0.109376997 0.304051012 0.478386015
0.473075002 0.248080999 0.489966989
0.697871029 0.244083002 0.457480997
0.848752975 0.243533999 0.436453998
0.023010600 0.495308012 0.502372980
0.137208998 0.507744014 0.508705020
0.490150005 0.522132993 0.489082009
0.734706998 0.502570987 0.473746985
0.864820004 0.493019015 0.455756009
0.051987499 0.699320972 0.532723010
0.168367997 0.706309974 0.530541003
0.462927997 0.718639016 0.528236985
0.726467013 0.724178016 0.500343025
0.882382989 0.715084016 0.483496994
0.102601998 0.843976021 0.544335008
0.239857003 0.845075011 0.542900980
0.471426994 0.855252981 0.557244003
0.712230027 0.881712019 0.559045017
0.887311995 0.904295027 0.505577028
0.030960601 0.271304995 0.637507021
0.101761997 0.262073994 0.635919988
0.346212000 0.226946995 0.714075983
0.666666985 0.204944000 0.696543992
0.849331975 0.214068994 0.689830005
0.022827500 0.371374011 0.678752005
0.098588496 0.377600014 0.694072008
0.365179002 0.334264010 0.723933995
0.678140998 0.296741992 0.705989003
0.869596004 0.307927012 0.689096987
0.021240599 0.550103009 0.749934971
0.125689000 0.558113992 0.760967016
0.433966994 0.564920008 0.782818019
0.731455982 0.528419971 0.758282006
0.883939981 0.519203007 0.715770006
0.054886699 0.736324012 0.742564976
0.167696998 0.741649985 0.744868994
0.442434996 0.757732987 0.757061005
0.732692003 0.783658028 0.758816004
0.900801003 0.762844026 0.739939988
0.075059101 0.887113988 0.741771996
0.187671006 0.895108998 0.741863012
0.417165995 0.902907014 0.753764987
0.699717999 0.923339009 0.780803978
0.912717998 0.936842978 0.756313026
0.045532901 0.311482012 0.781948984
0.120745003 0.305211008 0.781581998
0.306461990 0.289615989 0.820508003
0.632609010 0.260639012 0.871626019
0.833356023 0.268878996 0.869000971
0.037888199 0.405295014 0.831128001
0.120835997 0.410712004 0.851163983
0.322315991 0.382039994 0.851315975
0.631494999 0.350591004 0.895949006
0.848721981 0.356054008 0.887205005
0.029465200 0.570030987 0.910475016
0.124482997 0.576515973 0.927199006
0.373816013 0.580727994 0.938490987
0.661706984 0.549660981 0.941954970
0.890928984 0.541694999 0.938964009
0.051300801 0.755276024 0.929014981
0.148745000 0.760510027 0.943542004
0.401861995 0.771969020 0.959380984
0.690973997 0.794750988 0.967453003
0.907712996 0.779477000 0.965651989
0.066453002 0.902357996 0.927092016
0.162904993 0.912061989 0.938201010
0.389638990 0.920104027 0.957122028
0.668268979 0.939985991 0.978576005
0.917982996 0.948943019 0.987914979
