luts/travel_06.cube
TITLE "33x33x33 Adobe/IRIDAS cube 3D LUT exported with GrossGrade v0.2.2 (beta) 64 bit"
DOMAIN_MIN 0 0 0
DOMAIN_MAX 1 1 1
LUT_3D_SIZE 33
0.033295199 0.025116401 0.024033001
0.042023301 0.026550701 0.024536500
0.053803299 0.028854800 0.025970900
0.068818197 0.031753998 0.027115300
0.086167701 0.035156801 0.028641200
0.106721997 0.039322499 0.029877201
0.129656002 0.044739500 0.031433601
0.155062005 0.051834900 0.032806899
0.182146996 0.060944501 0.034073401
0.215305001 0.072144702 0.035110999
0.253055990 0.085511602 0.036530100
0.289447993 0.098115496 0.037918702
0.322225004 0.108675003 0.038605299
0.349691004 0.117174000 0.039032601
0.372395992 0.124071002 0.039398801
0.395880014 0.130373001 0.039429300
0.420661002 0.136842996 0.039703999
0.453346014 0.143893003 0.040176999
0.499596000 0.153184995 0.041001000
0.546348989 0.162127003 0.041535102
0.590066016 0.170564994 0.042358998
0.635156989 0.178927004 0.043045700
0.680414975 0.186785996 0.043686599
0.724559009 0.194095001 0.044159599
0.766032994 0.200687006 0.044312201
0.793026984 0.205310002 0.044052798
0.803997993 0.207935005 0.043488201
0.813825011 0.210070997 0.043030400
0.820249021 0.210590005 0.043244101
0.826062024 0.211078003 0.043198299
0.831861019 0.211779997 0.043396700
0.836301029 0.212359995 0.043579798
0.838375986 0.212558001 0.043610301
0.036347002 0.028824300 0.026260801
0.045670301 0.029968699 0.026581200
0.059403401 0.032929000 0.027573099
0.076722398 0.036850501 0.028870100
0.093339399 0.040512700 0.029510900
0.114152998 0.045746502 0.030396000
0.136049002 0.051957000 0.031280998
0.161089003 0.059617002 0.032059200
0.187197998 0.068085797 0.033050999
0.220065996 0.079301096 0.033859801
0.256442994 0.091355801 0.034851599
0.290836990 0.102541000 0.035843398
0.322499007 0.112504996 0.036575899
0.349081010 0.120653003 0.037048899
0.371053994 0.126925007 0.037201501
0.394735992 0.133454993 0.037399899
0.419135004 0.139817998 0.037720300
0.450401008 0.146623999 0.037994999
0.496421993 0.155748993 0.038803700
0.543785989 0.164583996 0.039536100
0.587792993 0.173219994 0.040375400
0.632867992 0.181597993 0.041001000
0.678187013 0.189502001 0.041535102
0.722148001 0.196734995 0.041763902
0.763439000 0.203402996 0.041992798
0.792599022 0.208560005 0.042038601
0.803601027 0.211048007 0.041565601
0.814037979 0.213534996 0.041077301
0.820110977 0.213930994 0.041077301
0.826107979 0.214526996 0.041321401
0.831861019 0.215121999 0.041580800
0.836346984 0.215488002 0.041657101
0.838346004 0.215563998 0.041702900
0.043106701 0.037643999 0.030014500
0.050705701 0.038864698 0.029373599
0.061737999 0.041870799 0.030045001
0.081376404 0.049378201 0.031006301
0.100877002 0.052704699 0.031006301
0.121431001 0.056580499 0.031220000
0.143481001 0.062623002 0.031677701
0.166917995 0.069169097 0.031876098
0.191561997 0.076951303 0.032135502
0.224246994 0.086976402 0.032822199
0.257770985 0.097337298 0.033463001
0.290500998 0.107392997 0.034073401
0.321262985 0.116898999 0.034454901
0.347600996 0.124605000 0.034866899
0.369801998 0.130906999 0.035004199
0.393361986 0.137345999 0.035080500
0.417257994 0.143267006 0.035156801
0.448599994 0.150149003 0.035675600
0.493584007 0.159090996 0.036331698
0.541450977 0.168124005 0.037201501
0.585503995 0.176790997 0.038056001
0.630075991 0.185060993 0.038681600
0.675288022 0.192889005 0.039246202
0.719738007 0.200197995 0.039703999
0.761425018 0.206989005 0.039932899
0.792294025 0.212070003 0.039856602
0.803188980 0.214817002 0.039520901
0.814054012 0.217440993 0.038925800
0.820416987 0.218067005 0.039108898
0.826184988 0.218509004 0.039261501
0.831815004 0.218921006 0.039475098
0.836515009 0.219393998 0.039749801
0.838575006 0.219547004 0.039795499
0.053528599 0.052841999 0.036881100
0.060883500 0.054261100 0.035614599
0.071000203 0.055359699 0.035080500
0.083070099 0.060059499 0.034058101
0.104936004 0.069718502 0.034088701
0.126176998 0.072190396 0.033035800
0.147936001 0.075684696 0.032547500
0.171968997 0.081040703 0.032379601
0.195865005 0.087220602 0.032028701
0.225741997 0.095094196 0.031952400
0.257739991 0.104234003 0.032120202
0.289815009 0.113831997 0.032684799
0.319020003 0.122254997 0.033112101
0.345541000 0.129763007 0.033310398
0.368597001 0.136095002 0.033279900
0.391896993 0.142198995 0.033356201
0.416556001 0.148302004 0.033493601
0.446830004 0.154833004 0.033615600
0.491371006 0.163424000 0.034393799
0.539436996 0.172289997 0.034927901
0.583337009 0.180879995 0.035583999
0.628091991 0.189211994 0.036255401
0.673319995 0.197116002 0.036881100
0.717661977 0.204364002 0.037460901
0.759274006 0.211108997 0.037796602
0.792141974 0.216480002 0.037857600
0.802990973 0.219164997 0.037369300
0.813992977 0.221957996 0.036972601
0.820661008 0.222644001 0.036987901
0.826489985 0.223148003 0.037338801
0.832150996 0.223651007 0.037628699
0.836851001 0.223940998 0.037796602
0.838895023 0.223971993 0.037827101
0.069260702 0.071320698 0.047455601
0.073563702 0.072983898 0.046005901
0.081345797 0.074967600 0.042603198
0.092164502 0.076050997 0.041107800
0.108736001 0.081116997 0.038010199
0.130799994 0.089433096 0.036026601
0.152009994 0.095582500 0.035294101
0.173938006 0.097825602 0.033905499
0.196550995 0.100984000 0.033035800
0.226321995 0.105943002 0.032257602
0.257649004 0.113649003 0.031937100
0.288167000 0.121691003 0.031998198
0.318639010 0.129823998 0.032272801
0.344884008 0.136721000 0.032410201
0.368368000 0.142885000 0.032501701
0.391759992 0.148745000 0.032410201
0.415625006 0.154437006 0.032471199
0.445731014 0.160815001 0.032486498
0.489371985 0.168855995 0.033066299
0.537788987 0.177782997 0.033432499
0.581566989 0.186235994 0.033768199
0.626595974 0.194429994 0.034226000
0.671411991 0.202029005 0.034286998
0.715556979 0.209277004 0.034760099
0.757000029 0.215854004 0.035080500
0.792096019 0.221485004 0.035217799
0.803174019 0.224337995 0.035187300
0.813825011 0.227054000 0.034561701
0.821317017 0.228199005 0.034821101
0.826856017 0.228488997 0.034958400
0.832364023 0.228900999 0.035263602
0.837324023 0.229342997 0.035629801
0.839444995 0.229479998 0.035736602
0.085252203 0.094483897 0.070939198
0.091844097 0.094453298 0.059937399
0.096482798 0.096208103 0.056946699
0.104264997 0.098481700 0.052765701
0.115892000 0.100435004 0.047287699
0.136079997 0.104020998 0.040527999
0.157046005 0.110353000 0.038239099
0.176241994 0.117250003 0.037338801
0.197436005 0.119249001 0.035782401
0.225329995 0.121599004 0.034180202
0.256260008 0.125810996 0.033463001
0.287526011 0.132066995 0.032898501
0.318699986 0.139497995 0.032700099
0.345205009 0.145891994 0.032577999
0.369024009 0.151658997 0.032562800
0.392125994 0.157076001 0.032379601
0.416097999 0.162402004 0.032440700
0.445639998 0.168521002 0.032440700
0.488456994 0.176332995 0.032471199
0.536155999 0.184863001 0.032776400
0.580087006 0.193178996 0.032990001
0.624399006 0.201098993 0.033279900
0.669703007 0.208666995 0.033386700
0.713787019 0.215563998 0.033341002
0.755535007 0.222019002 0.033234101
0.792554021 0.227954999 0.034073401
0.803357005 0.231097996 0.034424402
0.813992977 0.234240994 0.034683801
0.821880996 0.235813007 0.035065200
0.827619016 0.236224994 0.035156801
0.832867980 0.236361995 0.035095800
0.837841988 0.236667007 0.035187300
0.839825988 0.236636996 0.035187300
0.098222300 0.120943002 0.097413599
0.107744001 0.118928999 0.088807501
0.115525998 0.118424997 0.074250400
0.119768001 0.119524002 0.069504797
0.127367005 0.120989002 0.062348399
0.139680997 0.122942001 0.052597798
0.162097007 0.125246003 0.043671299
0.182009995 0.130159006 0.041397698
0.201143995 0.136079997 0.039139401
0.225116000 0.140718997 0.038666401
0.255573004 0.142915994 0.036408000
0.286381006 0.146548003 0.034790602
0.317844987 0.150973007 0.034027599
0.345631987 0.157168001 0.033661399
0.370092005 0.162478000 0.033218902
0.393438995 0.167620003 0.032929000
0.417212009 0.172640994 0.032791600
0.445991009 0.178179994 0.032547500
0.487816006 0.185733005 0.032730602
0.535377979 0.193652004 0.032761101
0.578819990 0.201587006 0.032898501
0.623407006 0.209323004 0.032913700
0.667720020 0.216388002 0.033020500
0.712199986 0.223086998 0.032959498
0.753947973 0.229725003 0.033875000
0.792904973 0.236270994 0.034882098
0.803753972 0.239368007 0.035187300
0.814388990 0.242512003 0.035538301
0.822812021 0.244601995 0.035858698
0.828229010 0.244784996 0.035935000
0.833477974 0.244984001 0.035935000
0.838452995 0.245242998 0.036026601
0.840466976 0.245167002 0.036057100
0.114748001 0.143847004 0.125230998
0.119905002 0.143373996 0.114427000
0.132203996 0.140397996 0.097932398
0.137179002 0.139712006 0.086930603
0.141938999 0.140505001 0.081437401
0.150561005 0.142152995 0.070939198
0.164523005 0.144121006 0.058701500
0.187030002 0.145753995 0.047333501
0.206256002 0.149660006 0.045227699
0.228992000 0.156329006 0.041489299
0.254931986 0.162904993 0.041474000
0.285771012 0.164842993 0.038620599
0.316868991 0.168109000 0.036697902
0.345250994 0.171771005 0.035553500
0.370718002 0.175448000 0.034988899
0.394262999 0.179933995 0.034546401
0.418386996 0.184450999 0.033920798
0.447562009 0.190020993 0.033630900
0.488380015 0.196596995 0.033310398
0.535622001 0.204135001 0.033112101
0.578805029 0.211429000 0.033020500
0.622873008 0.218539998 0.033050999
0.667398989 0.225283995 0.033066299
0.711040020 0.232089996 0.033661399
0.752131999 0.238743007 0.034592200
0.790584981 0.245105997 0.035599299
0.804867983 0.248646006 0.036179099
0.815320015 0.252032995 0.036453798
0.824231029 0.254611999 0.036926799
0.829557002 0.254687995 0.036926799
0.834713995 0.254871011 0.037079401
0.839749992 0.255070001 0.037186202
0.841504991 0.254963011 0.037186202
0.129244000 0.166720003 0.149095997
0.134370998 0.165774003 0.138688996
0.144518003 0.163332999 0.126664996
0.155122995 0.160281003 0.103944004
0.158678994 0.160203993 0.097367801
0.164645001 0.161364004 0.090821698
0.174303994 0.163806006 0.079880998
0.188982993 0.165804997 0.065735899
0.211536005 0.166125000 0.051346600
0.232975006 0.170184001 0.047913302
0.258426994 0.177340001 0.043869700
0.285465986 0.185824007 0.044876799
0.316487014 0.187610000 0.041382499
0.345220000 0.190326005 0.039307199
0.371098995 0.193423003 0.038056001
0.394185990 0.196536005 0.037003100
0.419211000 0.199786007 0.036224902
0.447210997 0.203510001 0.035523001
0.487708986 0.209154993 0.034973700
0.535790026 0.216129005 0.034286998
0.580254972 0.223269999 0.033814002
0.624018013 0.230076000 0.033615600
0.667398989 0.236484006 0.033432499
0.711130977 0.243350998 0.034561701
0.751582980 0.249638006 0.035523001
0.789745986 0.255923986 0.036697902
0.806806028 0.259739012 0.037323602
0.817121029 0.263020009 0.037735600
0.826352000 0.266086996 0.038162801
0.831510007 0.266056001 0.038300101
0.836651981 0.266193986 0.038376398
0.841596007 0.266330987 0.038544301
0.843275011 0.266223997 0.038529001
0.144610003 0.190860003 0.173677996
0.150941998 0.189669997 0.165224999
0.155947000 0.188296005 0.150774002
0.170321003 0.183734000 0.133181006
0.177019998 0.181475997 0.115327999
0.181459993 0.181628004 0.107957996
0.188876003 0.183703005 0.101334997
0.198795006 0.186542004 0.090440199
0.214511007 0.189181000 0.075135402
0.238024995 0.188677996 0.056351598
0.263233006 0.193224996 0.051529702
0.290271997 0.200976998 0.046997800
0.317295998 0.211413994 0.048859399
0.346089989 0.213351995 0.045624498
0.372000009 0.215151995 0.043015201
0.394919008 0.217334002 0.041367199
0.419973999 0.219821006 0.040024400
0.447562009 0.222979993 0.038788401
0.486151993 0.226612002 0.037781298
0.534981012 0.231326997 0.036545400
0.578819990 0.236667007 0.035477199
0.623117030 0.243153006 0.034973700
0.667567015 0.249363005 0.034546401
0.711650014 0.256076992 0.035523001
0.752193987 0.262210995 0.036667399
0.789242029 0.267780989 0.037766099
0.809598029 0.272053003 0.038605299
0.819516003 0.275256991 0.038971499
0.829496026 0.278919995 0.039627701
0.834240973 0.278721005 0.039597198
0.839033008 0.278858989 0.039780300
0.843961000 0.278995991 0.039856602
0.845547974 0.278995991 0.039917599
0.156618997 0.217318997 0.203631997
0.164400995 0.216097996 0.196262002
0.171588004 0.214603007 0.185275003
0.182283998 0.211733997 0.168001994
0.196154997 0.205997005 0.140809998
0.200960994 0.204836994 0.129381001
0.206760004 0.206423998 0.122087002
0.214922994 0.209338993 0.114977002
0.224703997 0.212145999 0.103380002
0.240603998 0.215274006 0.087159500
0.268878996 0.213245004 0.060212102
0.295368999 0.217638999 0.054825701
0.323186010 0.225146994 0.050141100
0.350744009 0.234546006 0.050812501
0.373953015 0.239582002 0.051499199
0.397130996 0.240848005 0.048691500
0.422201991 0.242526993 0.046341699
0.448875010 0.244525999 0.044449501
0.484871000 0.247348994 0.042313300
0.533363998 0.251361996 0.040817901
0.577813029 0.255299002 0.039261501
0.621529996 0.259480000 0.037827101
0.666208982 0.263889998 0.037109900
0.709819019 0.269383013 0.036743701
0.750500023 0.275256991 0.037918702
0.787944973 0.281010002 0.039154600
0.812924027 0.285495996 0.039917599
0.823194027 0.289189011 0.040604301
0.833020985 0.292775005 0.041031498
0.838299990 0.293262988 0.041092500
0.842741013 0.293247998 0.041077301
0.847348988 0.293538004 0.041245099
0.849255979 0.293217003 0.041107800
0.167315006 0.243809000 0.233860001
0.175372005 0.243015006 0.228000000
0.184421003 0.240848005 0.219318002
0.194567993 0.238757998 0.201052994
0.209277004 0.234210998 0.181459993
0.221439004 0.229587004 0.152254999
0.225955993 0.229770005 0.144518003
0.232226998 0.232363999 0.138338000
0.240711004 0.235186994 0.129305005
0.250598997 0.237598002 0.116792999
0.270877987 0.240191996 0.094544902
0.301914990 0.237613007 0.063324898
0.329183012 0.242129996 0.058548901
0.357167989 0.248447001 0.054016899
0.382360995 0.255726010 0.052643601
0.402579010 0.261691988 0.054322101
0.424535990 0.266377002 0.055619098
0.450980008 0.267796010 0.052781001
0.485419989 0.269856006 0.049759701
0.532218993 0.272435009 0.046692599
0.576730013 0.275792003 0.044602100
0.620356023 0.279103011 0.042664200
0.664102972 0.283084989 0.041474000
0.707485020 0.287357986 0.040970501
0.748179972 0.291707009 0.040695801
0.785595000 0.296162009 0.040726300
0.816448987 0.300617993 0.041336700
0.826687992 0.304554999 0.042160701
0.835995972 0.308735996 0.043564498
0.842114985 0.310032994 0.044266399
0.846830010 0.310108989 0.044617400
0.851819992 0.310337991 0.045365099
0.853543997 0.310261995 0.045624498
0.184588000 0.268833011 0.258487999
0.185580000 0.267780989 0.256915987
0.196291998 0.266270012 0.248997003
0.210207999 0.264102995 0.235049993
0.219730005 0.262286991 0.213245004
0.237797007 0.255665004 0.188127995
0.245701000 0.253161997 0.166720003
0.251011014 0.254703999 0.160707995
0.257481009 0.257770985 0.154650003
0.266346008 0.260470986 0.143450007
0.279819995 0.263370991 0.126023993
0.304021001 0.264485002 0.099473603
0.336187005 0.261615992 0.066834502
0.365179002 0.265689999 0.062378898
0.390753001 0.271014988 0.058976099
0.413825005 0.276463002 0.055863298
0.436744004 0.281987011 0.055527601
0.458090991 0.287175000 0.057084002
0.486167997 0.293384999 0.059998501
0.532067001 0.295323014 0.055588599
0.575951993 0.297612011 0.051987499
0.619424999 0.300801009 0.049683399
0.662469983 0.304143012 0.048035402
0.705179989 0.307927012 0.046784200
0.745280981 0.311985999 0.046555299
0.782100976 0.316197008 0.046585798
0.815473020 0.320668012 0.047226701
0.829128981 0.324651003 0.048416901
0.838375986 0.328907996 0.050003801
0.844648004 0.330601990 0.050965101
0.849301994 0.330877006 0.051529702
0.854246020 0.331014007 0.052353699
0.856077015 0.331075013 0.052643601
0.201892003 0.294025987 0.282855988
0.203005999 0.293049991 0.281284988
0.207202002 0.291768014 0.277774990
0.222385004 0.289891005 0.266407013
0.234867007 0.287663013 0.247531995
0.249927998 0.282460004 0.224491000
0.265354007 0.276416987 0.188906997
0.270007998 0.277592003 0.182528004
0.275837004 0.280063987 0.176607996
0.282689005 0.283436000 0.169924006
0.293996006 0.285694987 0.154284000
0.310871989 0.288212001 0.131532997
0.338582009 0.287555993 0.101990998
0.373068005 0.284976989 0.070237301
0.400380999 0.288533002 0.066117302
0.424216002 0.292804986 0.066132598
0.448446989 0.297352999 0.060853001
0.473091006 0.302708000 0.058655702
0.498282999 0.307835996 0.058991399
0.534783006 0.316594005 0.063538603
0.575874984 0.321049988 0.062333100
0.618479013 0.323139995 0.058793001
0.660838008 0.326040000 0.056382101
0.703059018 0.329304993 0.054993499
0.742228985 0.332906008 0.054078002
0.778331995 0.336888999 0.054245800
0.811154008 0.340871006 0.054825701
0.831921995 0.345144004 0.056122702
0.841015995 0.349629998 0.057999499
0.847715020 0.351918995 0.059388101
0.852155030 0.352010012 0.059891701
0.856916010 0.352331012 0.062561996
0.858655989 0.352223992 0.063614897
0.217776999 0.317158997 0.305501014
0.219059005 0.316395998 0.304264992
0.220873997 0.315389007 0.302570999
0.232212007 0.314182997 0.294499010
0.248585001 0.311223000 0.278035015
0.259402990 0.308872998 0.252613008
0.278751999 0.302814990 0.228946000
0.289005995 0.300098985 0.204256997
0.294025987 0.301777989 0.198520005
0.300648987 0.304295003 0.191257000
0.309574991 0.307682991 0.182391003
0.323338985 0.309331000 0.161241993
0.343755007 0.311619997 0.133394003
0.376150012 0.309087008 0.102219999
0.409323007 0.307164013 0.074494503
0.435110986 0.310155004 0.070221998
0.459098011 0.313953996 0.070862897
0.483604014 0.317784011 0.067811102
0.510780990 0.322910994 0.064026900
0.546150982 0.329809010 0.063080803
0.580545008 0.338459998 0.066666700
0.617623985 0.346349001 0.070420399
0.659236014 0.348562002 0.067261800
0.700374007 0.351491988 0.064972900
0.739024997 0.354894012 0.064240500
0.774501979 0.358662993 0.063843697
0.807003975 0.362675995 0.064255700
0.835049987 0.367406994 0.068833403
0.843854010 0.371603012 0.075150698
0.850874007 0.374624014 0.080064103
0.855283022 0.375036001 0.082719199
0.860014021 0.375723004 0.086945899
0.861769021 0.375844985 0.088502303
0.232531995 0.339787990 0.327688009
0.233585000 0.339024991 0.326436013
0.235018998 0.337971985 0.324528992
0.239642993 0.336308986 0.320623010
0.258412004 0.333882987 0.305379003
0.272190005 0.331548005 0.282460004
0.289386988 0.327169001 0.260883987
0.304706991 0.322620988 0.231220007
0.311390996 0.322331995 0.218280002
0.317905992 0.324636012 0.211779997
0.326191992 0.327749014 0.202547997
0.337942004 0.330709010 0.189105004
0.354115993 0.332264990 0.165286005
0.380223989 0.333454996 0.137193993
0.413657010 0.329777986 0.103716001
0.444999009 0.328449994 0.079911500
0.469947010 0.330846012 0.074921802
0.494423002 0.334264010 0.074387699
0.519738019 0.338247001 0.075684696
0.553933024 0.343876988 0.069413297
0.591089010 0.352376997 0.068268903
0.625360012 0.361027986 0.071473300
0.659296989 0.370534986 0.077393800
0.697444022 0.374913990 0.077851497
0.736048996 0.378179997 0.079621598
0.770901024 0.381536990 0.082871698
0.803264976 0.385991991 0.087159500
0.832624018 0.390127003 0.092057697
0.846509993 0.394659013 0.099061601
0.854017019 0.398229986 0.105958998
0.858166993 0.398398012 0.108415000
0.862684011 0.399069011 0.113954000
0.864468992 0.399221987 0.116075002
0.246356994 0.361425012 0.348470002
0.247409999 0.360601008 0.347279996
0.248797998 0.359472007 0.345373005
0.251071990 0.358282000 0.343235999
0.265994996 0.356175989 0.332006007
0.284123003 0.353581995 0.311634988
0.297246009 0.351446003 0.285587996
0.316013992 0.345921993 0.265141010
0.328527004 0.342824012 0.236865997
0.334538996 0.344686002 0.230059996
0.342671990 0.347523987 0.221819997
0.353139997 0.351415008 0.213413000
0.368185014 0.353276998 0.193164006
0.387793005 0.355123013 0.167467996
0.416830987 0.354405999 0.142168000
0.449348003 0.351323992 0.114977002
0.479591012 0.350133985 0.093995601
0.504661977 0.352346003 0.087647803
0.529244006 0.355383009 0.085786201
0.559059978 0.360159010 0.089066900
0.596032977 0.367009997 0.083085403
0.633143008 0.375997990 0.084946997
0.667185009 0.384938985 0.090012997
0.699840009 0.394751012 0.098359697
0.732722998 0.402655005 0.105683997
0.767987013 0.406210005 0.109010004
0.799161017 0.409583002 0.113724999
0.828823984 0.413993001 0.120150000
0.849195004 0.418401986 0.127610996
0.856930971 0.422477007 0.135775000
0.861478984 0.422766000 0.138079002
0.865765989 0.423774004 0.142869994
0.867474973 0.424001992 0.144944996
0.258717000 0.381581992 0.368429005
0.259936988 0.381033003 0.367543995
0.261341006 0.380026013 0.365651995
0.263233006 0.378820002 0.363438994
0.271809012 0.377157003 0.356938988
0.293018997 0.374945015 0.337864995
0.306232989 0.373097986 0.310337991
0.325459987 0.368490010 0.292560995
0.340719014 0.364888996 0.267673999
0.351063997 0.364019006 0.248096004
0.359380007 0.366598010 0.239886999
0.369192004 0.370153010 0.230471998
0.382818013 0.373236001 0.217547998
0.400427014 0.375310987 0.195987001
0.423238993 0.377157003 0.171191007
0.453070998 0.375874996 0.150744006
0.483772010 0.373129010 0.130052999
0.513572991 0.371923000 0.112458996
0.537652016 0.374029011 0.107012004
0.564827979 0.377416998 0.106020004
0.600336015 0.383855999 0.110628001
0.636484027 0.391027987 0.106844001
0.672114015 0.400076002 0.110657997
0.706691027 0.410070986 0.118196003
0.737178981 0.419532001 0.127138004
0.765681982 0.429679006 0.136933997
0.796581984 0.434653014 0.142686993
0.825802982 0.438971996 0.148774996
0.852262020 0.443625987 0.155076995
0.860197008 0.448478013 0.162828997
0.864651978 0.448951006 0.166232005
0.868741989 0.450125992 0.170855001
0.870541990 0.450491995 0.173068002
0.270222008 0.401663005 0.388128012
0.271183014 0.401053011 0.386954010
0.272816002 0.399877995 0.384970009
0.274616987 0.398717999 0.382955998
0.278400987 0.397147000 0.380041003
0.299335986 0.395193011 0.362798989
0.317829996 0.392598987 0.337774009
0.332204014 0.390433013 0.315373003
0.350591004 0.386617988 0.296391010
0.367437005 0.382833987 0.264530003
0.375676990 0.385320991 0.256733000
0.385778993 0.388814986 0.248111993
0.397955000 0.392569005 0.238682002
0.414449990 0.394933999 0.220310003
0.433539003 0.396506011 0.198275998
0.458976001 0.397879004 0.179065004
0.487159997 0.396735013 0.162370995
0.517143011 0.394506991 0.145356998
0.545540988 0.393682986 0.133135006
0.570428014 0.396277010 0.129945993
0.604730010 0.401068002 0.131365001
0.639948010 0.407979995 0.134981006
0.675059021 0.415717006 0.135073006
0.709957004 0.425695986 0.140351996
0.743571997 0.436987996 0.149309993
0.772243977 0.447456002 0.158006996
0.798123002 0.458166987 0.167696998
0.823895991 0.466513991 0.175981998
0.850202024 0.471626014 0.183092996
0.863080978 0.476951003 0.191409007
0.868161976 0.478522986 0.195804000
0.872114003 0.479896009 0.200930998
0.873960018 0.480506986 0.203571007
0.280842006 0.420890003 0.407171994
0.282002002 0.420325011 0.406118989
0.283695996 0.419333011 0.404287994
0.285663992 0.418128014 0.402350008
0.288823009 0.416709006 0.399221987
0.303638995 0.414831996 0.387609988
0.326207012 0.412070006 0.363485008
0.336461008 0.412512004 0.335103005
0.359396011 0.407308996 0.320515990
0.381399006 0.402029008 0.283787012
0.391501009 0.403784007 0.272754997
0.401816010 0.407155991 0.264530003
0.413244992 0.411383003 0.257434994
0.429129004 0.414130002 0.242908001
0.447149992 0.416312009 0.224186003
0.466834992 0.418051004 0.204913005
0.493095011 0.419378996 0.191545993
0.520424008 0.418386996 0.177461997
0.548775017 0.417059988 0.165041998
0.576973975 0.417044014 0.155885994
0.610071003 0.421041995 0.154284000
0.644770026 0.427222013 0.158494994
0.679744005 0.435232997 0.162570000
0.714061022 0.444296986 0.165071994
0.747188985 0.455222011 0.171359003
0.778347015 0.467597008 0.180941001
0.805539012 0.479561001 0.191089004
0.829114020 0.490851998 0.201617002
0.851194024 0.502586007 0.213168994
0.867460012 0.511299014 0.223636001
0.872830987 0.514182985 0.229342997
0.876492977 0.515312016 0.233906001
0.878309011 0.516242981 0.236851007
0.291813999 0.440513015 0.426748991
0.292804986 0.439902008 0.425711006
