luts/travel_09.cube
TITLE "33x33x33 Adobe/IRIDAS cube 3D LUT exported with GrossGrade v0.2.2 (beta) 64 bit"
DOMAIN_MIN 0 0 0
DOMAIN_MAX 1 1 1
LUT_3D_SIZE 5
0.000000000 0.000000000 0.000000000
0.159838006 0.006363010 0.000000000
0.406484991 0.000045777 0.000000000
0.668085992 0.000000000 0.000000000
0.921431005 0.000000000 0.000000000
0.038712099 0.143144995 0.027878201
0.240542993 0.123171002 0.000701915
0.452461004 0.164217994 0.000000000
0.695658982 0.171114996 0.000000000
0.936477005 0.186496004 0.000000000
0.003768980 0.394841999 0.003692680
0.249531001 0.381323010 0.000000000
0.491874993 0.402426004 0.000000000
0.716991007 0.450506985 0.000000000
0.951323986 0.458090991 0.000000000
0.020553900 0.646966994 0.000000000
0.284671992 0.640924990 0.000000000
0.504249990 0.619135022 0.000000000
0.709345996 0.663538992 0.000000000
0.948149979 0.708751023 0.000000000
0.160510004 0.842724979 0.006927600
0.351231992 0.838163018 0.004531930
0.545480013 0.833981991 0.000000000
0.721035004 0.825589001 0.000000000
0.918578029 0.879072011 0.000000000
0.007904170 0.024063500 0.065842703
0.156130001 0.022217100 0.096269198
0.392859012 0.000076295 0.108171001
0.655924022 0.000000000 0.139116004
0.910490990 0.000000000 0.157458007
0.000518807 0.174594000 0.171664000
0.178531006 0.177798003 0.171893001
0.438360989 0.171068996 0.157839000
0.688929975 0.169024006 0.155734003
0.930404007 0.180682003 0.157671005
0.000000000 0.405234009 0.217089996
0.175340995 0.407462001 0.178850994
0.473594010 0.409063995 0.119035996
0.713756025 0.449912012 0.150545999
0.946563005 0.457313001 0.155779004
0.000000000 0.645075023 0.215701997
0.226824999 0.647135019 0.194553003
0.487845987 0.626276016 0.125292003
0.699962020 0.661935985 0.046692599
0.945510030 0.708476007 0.134707004
0.129809007 0.841169000 0.257037997
0.316320002 0.840161979 0.252658993
0.529946029 0.835142016 0.224460006
0.705913007 0.823513985 0.163988993
0.906767011 0.877058029 0.095674098
0.046326399 0.071610600 0.169375002
0.127885997 0.075913601 0.225787997
0.375295997 0.062668800 0.192264006
0.612833023 0.000000000 0.285634011
0.874525011 0.000000000 0.383993000
0.000030518 0.208194003 0.275577992
0.099107303 0.219806001 0.298833013
0.415746987 0.197253004 0.273151994
0.645075023 0.169146001 0.343755007
0.894316018 0.183809996 0.412039012
0.000000000 0.429006994 0.422872990
0.135362998 0.434165001 0.431952000
0.448386014 0.446067005 0.440863997
0.689754009 0.444799989 0.434592009
0.927169025 0.457298011 0.445930004
0.000000000 0.648630023 0.476218998
0.183566004 0.650934994 0.473639995
0.441352010 0.649820983 0.441778988
0.668085992 0.650004029 0.403753996
0.936415970 0.706767023 0.446464002
0.110201001 0.833187997 0.491279006
0.268665999 0.834379017 0.483649999
0.482199997 0.837963998 0.462074012
0.684732974 0.825742006 0.419515997
0.881743014 0.870665014 0.420477986
0.080918603 0.126055002 0.287892014
0.144915000 0.135545999 0.330022007
0.324894994 0.091035299 0.455282986
0.585961998 0.109376997 0.345082998
0.810253978 0.017517401 0.489845008
0.044464801 0.249560997 0.377142012
0.144381002 0.262852013 0.395514011
0.316762000 0.274509996 0.471610993
0.610925019 0.236331999 0.422538012
0.824536979 0.212130994 0.536004007
0.000000000 0.460532993 0.539741993
0.111147001 0.470526993 0.560051978
0.378592014 0.489035994 0.593988001
0.648127019 0.467505991 0.554498017
0.860364974 0.454582006 0.631662011
0.036041800 0.659265995 0.647013009
0.211733997 0.660440981 0.653437018
0.425177008 0.663294017 0.667703986
0.656443000 0.656565011 0.658137023
0.890165985 0.691767991 0.689952016
0.156480998 0.831556022 0.682124019
0.274051994 0.829190016 0.683023989
0.455909014 0.829403996 0.682596982
0.663461983 0.829663992 0.666742980
0.846571028 0.850950003 0.671702027
0.124269001 0.185030997 0.407752007
0.181979001 0.196062997 0.436560988
0.294559985 0.207019001 0.502341986
0.621378005 0.034622699 0.702785015
0.757655978 0.214739993 0.554314017
0.126925007 0.299351007 0.480765998
0.193256006 0.314321011 0.495918006
0.300693989 0.337361991 0.544044971
0.621683002 0.269901991 0.725277007
0.767391026 0.325383008 0.604623020
0.000000000 0.496634990 0.628823996
0.102982998 0.508796990 0.648111999
0.321613997 0.522926986 0.681010008
0.603905976 0.518135011 0.741939008
0.785260022 0.508690000 0.697718978
0.136659995 0.680765986 0.761837006
0.267659009 0.682398975 0.773433983
0.467002004 0.682367980 0.803768992
0.616144001 0.697794974 0.785260022
0.794643998 0.679759026 0.768795013
0.246387005 0.839520991 0.827908993
0.337132990 0.838375986 0.834286988
0.473686010 0.837781012 0.844923019
0.654002011 0.839277029 0.856413007
0.802365005 0.828199029 0.860333979
