luts/voyage.cube
TITLE "Generated by Resolve"
LUT_3D_SIZE 5
0.0269932 0.0269932 0.0269932
0.0821546 0.0269932 0.0269932
0.287938 0.0332494 0.0269932
0.566857 0.0289006 0.0269932
0.830671 0.0519722 0.0269932
0.0775006 0.164904 0.0571908
0.148455 0.169894 0.0720684
0.361349 0.192996 0.0691844
0.646433 0.195239 0.0269932
0.898695 0.206256 0.0269932
0.108003 0.361822 0.0493172
0.188724 0.369909 0.0736553
0.427359 0.400992 0.101228
0.732601 0.430625 0.098024
0.979583 0.46685 0.0968795
0.159106 0.63679 0.049897
0.158968 0.636316 0.049836
0.462013 0.656092 0.110109
0.805508 0.696651 0.123369
1 0.74049 0.150622
0.258091 0.855726 0.123232
0.258091 0.855726 0.123232
0.563424 0.865415 0.182605
0.943648 0.893797 0.192584
1 0.929641 0.214694
0.0269932 0.0269932 0.130129
0.0785992 0.0269932 0.140719
0.298192 0.036759 0.110491
0.536553 0.0459602 0.0793927
0.774227 0.0761425 0.0781872
0.0468452 0.181537 0.190204
0.115633 0.187198 0.196429
0.346838 0.2038 0.194263
0.642893 0.207324 0.158556
0.886809 0.21857 0.147601
0.069749 0.393133 0.151751
0.146456 0.398383 0.174304
0.420768 0.419028 0.232898
0.729061 0.452827 0.224857
0.972839 0.48629 0.215396
0.142397 0.656016 0.103349
0.140627 0.656367 0.107424
0.439445 0.670161 0.186969
0.800122 0.709972 0.206088
0.999283 0.75433 0.226474
0.258091 0.855726 0.123232
0.258091 0.855726 0.123232
0.562554 0.865415 0.182589
0.942458 0.894972 0.21062
1 0.932967 0.258656
0.0269932 0.0339971 0.307469
0.0320592 0.0347448 0.315847
0.375418 0.0269932 0.327016
0.636347 0.0269932 0.249104
0.826658 0.0711986 0.246082
0.0269932 0.17229 0.335302
0.0496071 0.175586 0.343984
0.400656 0.186603 0.39498
0.668971 0.213306 0.340093
0.87361 0.237995 0.343313
0.0269932 0.432212 0.411521
0.0568399 0.436362 0.415335
0.373892 0.461204 0.440497
0.717876 0.478614 0.420645
0.956146 0.514855 0.429603
0.0470741 0.72285 0.345937
0.0459144 0.722347 0.348013
0.35137 0.714275 0.381979
0.773129 0.736294 0.450187
0.986267 0.790677 0.485115
0.139406 0.909941 0.396536
0.137377 0.910918 0.401129
0.459541 0.89781 0.447776
0.884016 0.899702 0.515816
1 0.952377 0.582071
0.0269932 0.0516518 0.543801
0.0269932 0.0518196 0.547906
0.287907 0.0269932 0.595315
0.753811 0.0269932 0.568948
0.997009 0.0269932 0.542702
0.0269932 0.0752575 0.548699
0.0269932 0.0760052 0.552148
0.284321 0.0601968 0.605737
0.774594 0.0528878 0.598886
0.999588 0.0851453 0.57763
0.0269932 0.399908 0.614237
0.0269932 0.399283 0.613382
0.218799 0.382071 0.60943
0.786145 0.421271 0.706752
0.999924 0.47953 0.701991
0.0269932 0.753277 0.736339
0.0269932 0.753445 0.736156
0.216388 0.773175 0.757488
0.730617 0.775998 0.765728
0.946212 0.810437 0.777737
0.0569467 0.959869 0.799695
0.0569467 0.959915 0.800381
0.333913 0.969741 0.808835
0.805325 0.941939 0.797208
0.996811 0.98088 0.857176
0.0269932 0.0613718 0.626596
0.0269932 0.0614786 0.627894
0.255985 0.0383307 0.688045
0.793973 0.0269932 0.701381
1 0.0269932 0.691371
0.0269932 0.0613718 0.626596
0.0269932 0.0613718 0.626596
0.242939 0.0398871 0.686366
0.79559 0.0269932 0.701228
1 0.0269932 0.691371
0.0269932 0.415396 0.686519
0.0269932 0.415351 0.686503
0.180468 0.40499 0.694102
0.782422 0.414801 0.808011
1 0.462486 0.824887
0.0269932 0.771771 0.837629
0.0269932 0.772 0.83772
0.217914 0.789624 0.856611
0.697597 0.771054 0.831022
0.967453 0.812863 0.882719
0.0613107 0.967498 0.917708
0.0613107 0.967498 0.917708
0.225116 0.982162 0.933928
0.744183 0.972656 0.927031
0.996948 0.997681 0.958907
