luts/voyage.cube
TITLE "Generated by Resolve"
LUT_3D_SIZE 9
0.0269932 0.0269932 0.0269932
0.0269932 0.0269932 0.0269932
0.0821546 0.0269932 0.0269932
0.168902 0.0318761 0.0269932
0.287938 0.0332494 0.0269932
0.420432 0.0314488 0.0269932
0.566857 0.0289006 0.0269932
0.711147 0.0338293 0.0269932
0.830671 0.0519722 0.0269932
0.042237 0.0790875 0.0337224
0.0396124 0.0732891 0.0318456
0.100725 0.0826734 0.0412451
0.194537 0.0941787 0.0386816
0.314946 0.0970626 0.0269932
0.449577 0.0950637 0.0269932
0.596689 0.0870069 0.0269932
0.737972 0.0787671 0.0269932
0.84596 0.0730907 0.0269932
0.0775006 0.164904 0.0571908
0.0767071 0.162341 0.0567941
0.148455 0.169894 0.0720684
0.238087 0.185367 0.0798657
0.361349 0.192996 0.0691844
0.500603 0.195773 0.0487068
0.646433 0.195239 0.0269932
0.788205 0.198596 0.0269932
0.898695 0.206256 0.0269932
0.0971695 0.258762 0.0596017
0.0969711 0.257374 0.0596933
0.176623 0.266529 0.0822156
0.282139 0.281224 0.0960555
0.395529 0.29453 0.0969253
0.541436 0.305928 0.0881819
0.694377 0.309957 0.0679789
0.841062 0.316884 0.0534676
0.949248 0.331014 0.0539254
0.108003 0.361822 0.0493172
0.107897 0.360769 0.049424
0.188724 0.369909 0.0736553
0.299886 0.383688 0.0940414
0.427359 0.400992 0.101228
0.570153 0.415625 0.10396
0.732601 0.430625 0.098024
0.877211 0.446799 0.0924392
0.979583 0.46685 0.0968795
0.127367 0.49305 0.0432288
0.12726 0.49247 0.0432288
0.176394 0.49691 0.0578775
0.299672 0.5093 0.0885176
0.458625 0.517281 0.0986038
0.595605 0.541161 0.104967
0.762783 0.558251 0.110903
0.902937 0.582422 0.118685
0.99588 0.606897 0.127123
0.159106 0.63679 0.049897
0.159045 0.636576 0.0498665
0.158968 0.636316 0.049836
0.297063 0.650507 0.0896162
0.462013 0.656092 0.110109
0.660319 0.667399 0.11812
0.805508 0.696651 0.123369
0.932586 0.7178 0.137881
1 0.74049 0.150622
0.217365 0.772534 0.0917983
0.21735 0.772473 0.091783
0.217273 0.772351 0.0917372
0.304173 0.78024 0.11725
0.494469 0.785565 0.150759
0.73022 0.789776 0.156268
0.879637 0.817472 0.161883
0.980636 0.837964 0.173587
1 0.855909 0.188113
0.258091 0.855726 0.123232
0.258091 0.855726 0.123232
0.258091 0.855726 0.123232
0.338201 0.862287 0.146242
0.563424 0.865415 0.182605
0.807721 0.868971 0.186496
0.943648 0.893797 0.192584
1 0.914153 0.201785
1 0.929641 0.214694
0.0269932 0.0269932 0.0496223
0.0269932 0.0269932 0.0461433
0.0852369 0.0269932 0.0479591
0.160204 0.0357671 0.0476997
0.271199 0.0394446 0.0372168
0.40354 0.0383612 0.0274205
0.551232 0.0356909 0.0269932
0.6972 0.040238 0.0269932
0.819013 0.0573434 0.0269932
0.0287938 0.0782025 0.0680095
0.0281376 0.073991 0.0647135
0.0941176 0.0803388 0.0725872
0.189929 0.0922408 0.0709544
0.31429 0.0950179 0.0554208
0.452262 0.0936751 0.0374456
0.59765 0.0878004 0.0269932
0.73547 0.0815137 0.0269932
0.837644 0.0776684 0.0269932
0.0676432 0.171893 0.0832837
0.0662394 0.169314 0.0839704
0.140383 0.17499 0.107485
0.234485 0.189136 0.116594
0.359075 0.196048 0.10428
0.498985 0.200122 0.0821393
0.645075 0.200748 0.0514992
0.789334 0.202686 0.037232
0.901473 0.208682 0.0341192
0.0895857 0.266728 0.0832227
0.0886549 0.265675 0.0852522
0.168673 0.274342 0.115206
0.277852 0.287221 0.136706
0.392828 0.30013 0.137865
0.540063 0.311452 0.128206
0.693767 0.314809 0.106233
0.839582 0.321706 0.0887007
0.946502 0.335607 0.0848402
0.101015 0.369085 0.0704814
0.100206 0.368551 0.0726177
0.177646 0.377478 0.102022
0.290959 0.390997 0.133837
0.425254 0.406363 0.142596
0.567605 0.421958 0.144747
0.73167 0.437461 0.136278
0.876356 0.452903 0.125658
0.978408 0.472297 0.125002
0.125795 0.49752 0.0490578
0.124941 0.497322 0.0511177
0.166384 0.501411 0.0677195
0.293309 0.513848 0.106569
0.45211 0.521202 0.120653
0.594476 0.544976 0.127016
0.762921 0.562646 0.129625
0.903029 0.586419 0.131579
0.99617 0.610315 0.134401
0.160189 0.640436 0.0504311
0.160128 0.640208 0.0504005
0.160021 0.639872 0.0503548
0.294865 0.653437 0.0893416
0.462028 0.658793 0.110567
0.662577 0.669871 0.118578
0.807553 0.699184 0.123812
0.933547 0.720241 0.138308
1 0.742809 0.15108
0.218448 0.774685 0.092668
0.218418 0.774624 0.0926375
0.218326 0.774441 0.0925612
0.301244 0.781842 0.116899
0.495232 0.787259 0.151431
0.73286 0.791287 0.156909
0.881483 0.818921 0.162432
0.981567 0.839246 0.17409
1 0.857114 0.188586
0.258091 0.855726 0.123232
0.258091 0.855726 0.123232
0.258091 0.855726 0.123232
0.33576 0.862089 0.145541
0.563149 0.865415 0.182605
0.808804 0.869032 0.186542
0.944076 0.893919 0.192599
1 0.914229 0.201831
1 0.929625 0.214679
0.0269932 0.0269932 0.130129
0.0269932 0.0269932 0.126589
0.0785992 0.0269932 0.140719
0.20499 0.0271611 0.134417
0.298192 0.036759 0.110491
0.408927 0.0427405 0.0952468
0.536553 0.0459602 0.0793927
0.664927 0.0559091 0.0715496
0.774227 0.0761425 0.0781872
0.0269932 0.0804608 0.144183
0.0269932 0.0775311 0.14139
0.0829328 0.0831464 0.156024
0.215396 0.088716 0.160143
0.310613 0.100649 0.142718
0.43061 0.105516 0.129732
0.561639 0.104295 0.111788
0.689479 0.100557 0.0969406
0.788006 0.0980087 0.0917372
0.0468452 0.181537 0.190204
0.0467384 0.179965 0.188846
0.115633 0.187198 0.196429
0.229755 0.196277 0.203693
0.346838 0.2038 0.194263
0.492149 0.207431 0.178592
0.642893 0.207324 0.158556
0.7823 0.210178 0.146441
0.886809 0.21857 0.147601
0.0522774 0.290303 0.182635
0.0520027 0.288762 0.182971
0.134966 0.294789 0.19472
0.26099 0.301869 0.226978
0.385138 0.310918 0.22652
0.534401 0.319936 0.211582
0.689616 0.325414 0.187518
0.8318 0.333669 0.170642
0.93875 0.347341 0.171481
0.069749 0.393133 0.151751
0.0690623 0.392172 0.153246
0.146456 0.398383 0.174304
0.273106 0.409628 0.21619
0.420768 0.419028 0.232898
0.56141 0.435996 0.234043
0.729061 0.452827 0.224857
0.87245 0.467094 0.214633
0.972839 0.48629 0.215396
0.0966964 0.51841 0.125597
0.0960708 0.518105 0.126848
0.128206 0.520195 0.137774
0.26537 0.52961 0.181186
0.425177 0.532769 0.207706
0.586313 0.555306 0.218509
0.756863 0.577523 0.225177
0.897597 0.60354 0.229526
0.993011 0.627695 0.234363
0.142397 0.656016 0.103349
0.141772 0.656168 0.104799
0.140627 0.656367 0.107424
0.268498 0.668482 0.151247
0.439445 0.670161 0.186969
0.648264 0.678965 0.199603
0.800122 0.709972 0.206088
0.925765 0.731624 0.217044
0.999283 0.75433 0.226474
0.218219 0.778988 0.0992142
0.217517 0.779248 0.100969
0.216327 0.779599 0.103868
0.290135 0.78677 0.131197
0.488426 0.792355 0.177356
0.726879 0.795926 0.191653
0.879515 0.823499 0.202365
0.977462 0.844343 0.214908
1 0.862425 0.230365
0.258091 0.855726 0.123232
0.258091 0.855726 0.123232
0.258091 0.855726 0.123232
0.331395 0.861708 0.144305
0.562554 0.865415 0.182589
0.809796 0.869261 0.188693
0.942458 0.894972 0.21062
1 0.916594 0.234546
1 0.932967 0.258656
0.0269932 0.0291905 0.214847
0.0269932 0.0290379 0.211704
0.0519112 0.03122 0.224948
0.208362 0.0269932 0.239628
0.35729 0.0269932 0.209598
0.460151 0.0317235 0.175402
0.568933 0.0417945 0.154742
0.688258 0.0555276 0.148425
0.789242 0.0775921 0.157244
0.0269932 0.0787976 0.223987
0.0269932 0.0773022 0.221759
0.0587778 0.0822003 0.235889
0.213825 0.0852979 0.260105
0.367391 0.0879835 0.236378
0.469703 0.101534 0.207736
0.586282 0.106386 0.18938
0.705943 0.106096 0.177371
0.800412 0.10631 0.174914
0.0277256 0.180972 0.259831
0.0277104 0.180026 0.258534
0.0882887 0.186999 0.265675
0.221698 0.19585 0.291524
0.380545 0.199634 0.279911
0.492409 0.214511 0.263966
0.625101 0.221424 0.252506
0.751934 0.228305 0.246693
0.849653 0.238788 0.251423
0.042298 0.297002 0.297124
0.0424048 0.295918 0.296193
0.109102 0.304646 0.305776
0.235721 0.31751 0.319814
0.376242 0.320577 0.314763
0.526757 0.327962 0.300694
0.688518 0.334661 0.286748
0.828199 0.343236 0.281147
0.93135 0.357488 0.287892
0.0325322 0.421241 0.26981
0.032639 0.420432 0.269444
0.0906996 0.425727 0.275257
0.239048 0.435721 0.295308
0.408652 0.436683 0.326848
0.554116 0.45156 0.325597
0.726665 0.468086 0.315007
0.867826 0.482399 0.305669
0.966232 0.501534 0.308766
0.0579385 0.547646 0.218235
0.0573739 0.547036 0.219226
0.0719921 0.547066 0.223438
0.228489 0.552712 0.256168
0.404822 0.552087 0.298573
0.581567 0.568872 0.316396
0.751736 0.595117 0.325368
0.8934 0.623224 0.331655
0.988006 0.646708 0.33814
0.104891 0.68397 0.199191
0.104234 0.683909 0.200366
0.103243 0.683925 0.202228
0.224979 0.6916 0.235904
0.405768 0.687831 0.278767
0.618601 0.689921 0.302342
0.788434 0.723262 0.318715
0.91284 0.747295 0.334447
0.996597 0.771527 0.347433
0.172335 0.806073 0.220615
0.17171 0.806256 0.221912
0.170779 0.806516 0.223758
0.233692 0.810361 0.243503
0.44715 0.810025 0.296529
0.684443 0.806287 0.321874
0.863996 0.832166 0.341924
0.957855 0.85655 0.357809
1 0.875914 0.375525
0.212802 0.876875 0.236851
0.212207 0.87715 0.238224
0.211261 0.877577 0.240375
0.279988 0.881788 0.262226
0.517632 0.878691 0.316686
0.757504 0.877531 0.33872
0.920974 0.900206 0.365469
0.995804 0.92578 0.391119
1 0.943694 0.415045
0.0269932 0.0339971 0.307469
0.0269932 0.033814 0.304555
0.0320592 0.0347448 0.315847
0.178347 0.0286107 0.336538
0.375418 0.0269932 0.327016
0.527214 0.0269932 0.285618
0.636347 0.0269932 0.249104
0.736996 0.0466773 0.23743
0.826658 0.0711986 0.246082
0.0269932 0.0730297 0.313024
0.0269932 0.0726329 0.310979
0.0334783 0.0751812 0.322637
0.175631 0.0759594 0.347005
0.384024 0.075349 0.351232
0.53843 0.0803388 0.314534
0.646204 0.093492 0.281117
0.74934 0.099855 0.266667
0.835874 0.101991 0.265476
0.0269932 0.17229 0.335302
0.0269932 0.171588 0.333959
0.0496071 0.175586 0.343984
0.181155 0.182803 0.369574
0.400656 0.186603 0.39498
0.557839 0.195254 0.362722
0.668971 0.213306 0.340093
0.782361 0.225711 0.336309
0.87361 0.237995 0.343313
0.0269932 0.290349 0.38201
0.0269932 0.289387 0.381018
0.0768292 0.29575 0.383734
0.193744 0.306691 0.391943
0.390539 0.311803 0.422934
0.547311 0.325338 0.399435
0.679072 0.343893 0.392935
0.802396 0.358328 0.395727
0.894957 0.375311 0.40679
0.0269932 0.432212 0.411521
0.0269932 0.431876 0.41091
0.0568399 0.436362 0.415335
0.196612 0.455909 0.43563
0.373892 0.461204 0.440497
0.542535 0.463783 0.432074
0.717876 0.478614 0.420645
0.859358 0.496941 0.422171
0.956146 0.514855 0.429603
0.0269932 0.581888 0.382879
0.0269932 0.581567 0.382376
0.0269932 0.580987 0.381735
0.158007 0.591348 0.390265
0.363439 0.584833 0.402045
0.571313 0.588983 0.440986
0.744167 0.615641 0.449226
0.887816 0.644663 0.457221
0.979477 0.665904 0.463706
0.0470741 0.72285 0.345937
0.0466621 0.722622 0.346624
0.0459144 0.722347 0.348013
0.148775 0.726192 0.360723
0.35137 0.714275 0.381979
0.580102 0.705043 0.425177
0.773129 0.736294 0.450187
0.896101 0.763592 0.469612
0.986267 0.790677 0.485115
0.108904 0.840406 0.366934
0.108186 0.840528 0.368368
0.107073 0.840726 0.370596
0.147631 0.842145 0.378973
0.392401 0.832639 0.41207
0.634424 0.812848 0.450095
0.841459 0.834913 0.481743
0.932799 0.865324 0.504814
0.999832 0.887007 0.526741
0.139406 0.909941 0.396536
0.138598 0.910338 0.398367
0.137377 0.910918 0.401129
0.199985 0.912734 0.412619
0.459541 0.89781 0.447776
0.696086 0.881132 0.48426
0.884016 0.899702 0.515816
0.966873 0.930663 0.552117
1 0.952377 0.582071
0.0269932 0.0418402 0.426886
0.0269932 0.0416266 0.423972
0.0269932 0.0422065 0.432547
0.131182 0.0360266 0.45098
0.349126 0.0269932 0.463752
0.556863 0.0269932 0.435035
0.717403 0.0269932 0.393774
0.830549 0.0269932 0.371313
0.909438 0.0484932 0.371435
0.0269932 0.041825 0.426596
0.0269932 0.0416571 0.424308
0.0269932 0.0427253 0.43328
0.127245 0.0417029 0.453742
0.347799 0.0347448 0.471229
0.563424 0.030457 0.448783
0.726009 0.0319677 0.409308
0.837049 0.0431983 0.38352
0.912779 0.0480964 0.375998
0.0269932 0.149645 0.446403
0.0269932 0.149233 0.44477
0.0269932 0.150591 0.452125
0.127596 0.150729 0.470726
0.34432 0.144717 0.501915
0.58912 0.154131 0.502358
0.755596 0.163119 0.467689
0.863081 0.182071 0.45095
0.939513 0.200107 0.452598
0.0269932 0.267979 0.46775
0.0269932 0.267414 0.466758
0.0269932 0.268147 0.468574
0.123949 0.268544 0.480186
0.31722 0.267933 0.511009
0.591089 0.289067 0.544915
0.761532 0.306691 0.514427
0.862531 0.334173 0.507683
0.940352 0.358648 0.517525
0.0269932 0.424155 0.533822
0.0269932 0.423972 0.533318
0.0271153 0.424659 0.533181
0.147082 0.43682 0.538415
0.304417 0.433356 0.527962
0.553094 0.447501 0.573266
0.727291 0.472419 0.551278
0.84123 0.501335 0.561639
0.925414 0.523781 0.576455
0.0269932 0.589883 0.566217
0.0269932 0.589776 0.56585
0.0269932 0.589593 0.565255
0.117678 0.604456 0.580758
0.300496 0.612772 0.590417
0.527901 0.618418 0.596628
0.728267 0.625422 0.589609
0.865019 0.650248 0.597192
0.958831 0.674281 0.611673
0.0269932 0.751919 0.571191
0.0269932 0.751919 0.570993
0.0269932 0.751873 0.570718
0.0384833 0.75552 0.573999
0.255741 0.764263 0.579171
0.533242 0.743114 0.571771
0.761471 0.755398 0.618036
0.876844 0.781857 0.634516
0.972686 0.811078 0.653101
0.0436561 0.87599 0.600244
0.0435035 0.875929 0.601038
0.0432288 0.875715 0.602258
0.0427253 0.875196 0.604425
0.298558 0.877882 0.604822
0.57763 0.839002 0.596078
0.804349 0.84918 0.647211
0.90811 0.877379 0.675883
0.989731 0.900023 0.697536
0.0681926 0.948363 0.633799
0.0679484 0.948531 0.635325
0.0675975 0.94876 0.637644
0.101152 0.951537 0.642756
0.37792 0.941222 0.6309
0.636988 0.901701 0.630869
0.827604 0.911254 0.676493
0.946319 0.940154 0.715938
1 0.965728 0.746258
0.0269932 0.0516518 0.543801
0.0269932 0.0514992 0.542382
0.0269932 0.0518196 0.547906
0.0796063 0.0488899 0.57174
0.287907 0.0269932 0.595315
0.543496 0.0269932 0.600519
0.753811 0.0269932 0.568948
0.901823 0.0269932 0.547509
0.997009 0.0269932 0.542702
0.0269932 0.0516823 0.544106
0.0269932 0.0515602 0.542962
0.0269932 0.0518959 0.548135
0.0764477 0.0492866 0.572763
0.286687 0.0269932 0.597269
0.544686 0.0269932 0.603418
0.757137 0.0269932 0.571725
0.904051 0.0269932 0.550652
0.99736 0.0269932 0.545983
0.0269932 0.0752575 0.548699
0.0269932 0.0751354 0.54786
0.0269932 0.0760052 0.552148
0.0737163 0.0768292 0.57789
0.284321 0.0601968 0.605737
0.550027 0.0493782 0.622919
0.774594 0.0528878 0.598886
0.920119 0.0661479 0.581064
0.999588 0.0851453 0.57763
0.0269932 0.231891 0.576059
0.0269932 0.231632 0.575525
0.0269932 0.232013 0.576471
0.0772259 0.23621 0.599069
0.263722 0.22385 0.622995
0.54757 0.225055 0.672786
0.807157 0.243061 0.672053
0.949294 0.265919 0.660014
1 0.293568 0.660014
0.0269932 0.399908 0.614237
0.0269932 0.399634 0.613901
0.0269932 0.399283 0.613382
0.0654459 0.403586 0.615732
0.218799 0.382071 0.60943
0.46009 0.378454 0.651652
0.786145 0.421271 0.706752
0.925429 0.449042 0.699245
0.999924 0.47953 0.701991
0.0269932 0.579858 0.694697
0.0269932 0.579797 0.69456
0.0269932 0.579675 0.694316
0.0737163 0.589029 0.702007
0.247211 0.590234 0.697139
0.448249 0.572045 0.670008
0.751019 0.602426 0.736202
0.877028 0.63386 0.730404
0.946456 0.667247 0.742199
0.0269932 0.753277 0.736339
0.0269932 0.753384 0.736294
0.0269932 0.753445 0.736156
0.0269932 0.753521 0.735927
0.216388 0.773175 0.757488
0.481346 0.767971 0.755489
0.730617 0.775998 0.765728
0.856901 0.788647 0.768231
0.946212 0.810437 0.777737
0.0348211 0.88217 0.776318
0.0348363 0.882231 0.776318
0.0348363 0.882216 0.776211
0.0347753 0.882002 0.775937
0.234821 0.897704 0.792218
0.51368 0.881666 0.772854
0.773068 0.878691 0.779217
0.898146 0.892378 0.808011
0.975677 0.912795 0.82179
0.0569467 0.959869 0.799695
0.0569467 0.959884 0.799985
0.0569467 0.959915 0.800381
0.0569467 0.959945 0.800961
0.333913 0.969741 0.808835
0.591546 0.944488 0.776715
0.805325 0.941939 0.797208
0.933318 0.958709 0.83238
0.996811 0.98088 0.857176
0.0269932 0.0593423 0.609552
0.0269932 0.0592813 0.609018
0.0269932 0.059556 0.611749
0.0530098 0.0585489 0.639323
0.26125 0.035523 0.666865
0.529259 0.0269932 0.687541
0.773358 0.0269932 0.670329
0.929992 0.0269932 0.655039
1 0.0269932 0.64976
0.0269932 0.0593729 0.609705
0.0269932 0.0593118 0.609247
0.0269932 0.0594949 0.6112
0.0496223 0.0588693 0.639323
0.257969 0.0359808 0.66717
0.528618 0.0269932 0.688472
0.775753 0.0269932 0.671229
0.931273 0.0269932 0.656153
1 0.0269932 0.650843
0.0269932 0.0593729 0.609751
0.0269932 0.0593271 0.609415
0.0269932 0.0593576 0.60972
0.0442817 0.0593118 0.638941
0.253895 0.0365454 0.667445
0.529076 0.0269932 0.689555
0.780957 0.0269932 0.672023
0.933852 0.0269932 0.65742
1 0.0269932 0.651987
0.0269932 0.220462 0.638895
0.0269932 0.220371 0.638651
0.0269932 0.220386 0.638254
0.0489357 0.225528 0.662608
0.240116 0.212634 0.689097
0.523308 0.20087 0.737804
0.819257 0.208911 0.753887
0.975128 0.229206 0.748043
1 0.258503 0.748089
0.0269932 0.39736 0.665003
0.0269932 0.397192 0.664836
0.0269932 0.396933 0.664546
0.0308537 0.401266 0.670939
0.194186 0.385061 0.67454
0.431708 0.364492 0.704524
0.785214 0.402579 0.783444
0.950103 0.431189 0.788174
1 0.461723 0.788434
0.0269932 0.586328 0.75108
0.0269932 0.586343 0.751034
0.0269932 0.586404 0.750973
0.0295415 0.591363 0.753902
0.207721 0.593256 0.744442
0.40264 0.551492 0.702068
0.711406 0.582788 0.786206
0.904799 0.622705 0.81593
0.990188 0.654749 0.817517
0.0269932 0.760037 0.80972
0.0269932 0.760098 0.809735
0.0269932 0.760174 0.80972
0.0269932 0.760082 0.809552
0.208087 0.778408 0.829282
0.474388 0.764477 0.816892
0.705043 0.768002 0.814023
0.87361 0.785657 0.846128
0.94432 0.812375 0.847944
0.0381628 0.886275 0.856992
0.0381781 0.886336 0.857038
0.0381781 0.88632 0.856992
0.038117 0.886137 0.856809
0.221439 0.902174 0.874846
0.501427 0.888457 0.864164
0.742626 0.897261 0.874876
0.886412 0.905333 0.885252
0.969024 0.919753 0.893828
0.059678 0.965286 0.884016
0.059678 0.965286 0.884031
0.059678 0.965286 0.884016
0.059678 0.96527 0.883925
0.283131 0.979446 0.89955
0.554376 0.962951 0.883024
0.770825 0.968246 0.884092
0.921355 0.976577 0.906691
0.995865 0.991699 0.927047
0.0269932 0.0613718 0.626596
0.0269932 0.0613718 0.626596
0.0269932 0.0614786 0.627894
0.0443122 0.0613718 0.658167
0.255985 0.0383307 0.688045
0.533928 0.0269932 0.713298
0.793973 0.0269932 0.701381
0.948089 0.0269932 0.693111
1 0.0269932 0.691371
0.0269932 0.0613718 0.626596
0.0269932 0.0613718 0.626596
0.0269932 0.0613718 0.626596
0.0406806 0.0616312 0.657404
0.251575 0.0388647 0.68748
0.531594 0.0269932 0.713252
0.79411 0.0269932 0.701366
0.947768 0.0269932 0.693111
1 0.0269932 0.691371
0.0269932 0.0613718 0.626596
0.0269932 0.0613718 0.626596
0.0269932 0.0613718 0.626596
0.0353704 0.0619821 0.65565
0.242939 0.0398871 0.686366
0.528176 0.0269932 0.713191
0.79559 0.0269932 0.701228
0.948043 0.0269932 0.693111
1 0.0269932 0.691371
0.0269932 0.233066 0.656901
0.0269932 0.232746 0.65687
0.0269932 0.232288 0.65684
0.0353399 0.236881 0.679438
0.227375 0.223529 0.707057
0.521859 0.206714 0.759136
0.83122 0.209201 0.781491
0.98584 0.222782 0.780087
1 0.24303 0.781842
0.0269932 0.415396 0.686519
0.0269932 0.415366 0.686503
0.0269932 0.415351 0.686503
0.0269932 0.419379 0.691386
0.180468 0.40499 0.694102
0.423789 0.379767 0.720638
0.782422 0.414801 0.808011
0.952895 0.441093 0.821805
1 0.462486 0.824887
0.0269932 0.605661 0.77557
0.0269932 0.605829 0.775647
0.0269932 0.605951 0.775708
0.0269932 0.608316 0.777188
0.199863 0.614542 0.771984
0.398978 0.566186 0.721386
0.690135 0.589715 0.797177
0.902251 0.634546 0.84863
0.997909 0.656794 0.853697
0.0269932 0.771771 0.837629
0.0269932 0.771908 0.83769
0.0269932 0.772 0.83772
0.0269932 0.771969 0.837705
0.217914 0.789624 0.856611
0.48101 0.771542 0.838193
0.697597 0.771054 0.831022
0.869261 0.793545 0.878187
0.967453 0.812863 0.882719
0.0420386 0.896788 0.890059
0.0420691 0.896895 0.890105
0.0420844 0.896941 0.89012
0.0420386 0.896803 0.890059
0.24416 0.912688 0.908339
0.520684 0.897642 0.896696
0.748745 0.906767 0.908553
0.886564 0.91873 0.921874
0.968353 0.930663 0.929335
0.0613107 0.967498 0.917708
0.0613107 0.967498 0.917708
0.0613107 0.967498 0.917708
0.0613107 0.967498 0.917708
0.225116 0.982162 0.933928
0.510414 0.968429 0.922484
0.744183 0.972656 0.927031
0.907332 0.985611 0.938201
0.996948 0.997681 0.958907
