luts/voyage.cube
TITLE "Generated by Resolve"
LUT_3D_SIZE 33
0.0269932 0.0269932 0.0269932
0.0269932 0.0269932 0.0269932
0.0269932 0.0269932 0.0269932
0.0269932 0.0269932 0.0269932
0.0269932 0.0269932 0.0269932
0.0274662 0.0269932 0.0269932
0.0389105 0.0269932 0.0269932
0.0621958 0.0269932 0.0269932
0.0821546 0.0269932 0.0269932
0.10016 0.0269932 0.0269932
0.119951 0.0282139 0.0269932
0.142702 0.0304265 0.0269932
0.168902 0.0318761 0.0269932
0.197299 0.0326238 0.0269932
0.226658 0.0330053 0.0269932
0.25684 0.0332036 0.0269932
0.287938 0.0332494 0.0269932
0.319799 0.0330205 0.0269932
0.352499 0.032639 0.0269932
0.386191 0.0320745 0.0269932
0.420432 0.0314488 0.0269932
0.45623 0.0305943 0.0269932
0.492897 0.0297704 0.0269932
0.529534 0.02916 0.0269932
0.566857 0.0289006 0.0269932
0.603159 0.0290074 0.0269932
0.639933 0.0295262 0.0269932
0.677058 0.03093 0.0269932
0.711147 0.0338293 0.0269932
0.742611 0.0377508 0.0269932
0.772549 0.0423438 0.0269932
0.801923 0.0472725 0.0269932
0.830671 0.0519722 0.0269932
0.0269932 0.0269932 0.0269932
0.0269932 0.0269932 0.0269932
0.0269932 0.0269932 0.0269932
0.0269932 0.0269932 0.0269932
0.0269932 0.0269932 0.0269932
0.0272526 0.0269932 0.0269932
0.0369879 0.0269932 0.0269932
0.0594034 0.0269932 0.0269932
0.0793927 0.0269932 0.0269932
0.0985428 0.0269932 0.0269932
0.119051 0.0281071 0.0269932
0.142382 0.0304112 0.0269932
0.168933 0.0318761 0.0269932
0.197559 0.0326238 0.0269932
0.227192 0.0330053 0.0269932
0.257969 0.0339818 0.0269932
0.289891 0.035462 0.0269932
0.322606 0.0364691 0.0269932
0.356039 0.0370336 0.0269932
0.390249 0.0370489 0.0269932
0.424994 0.0365606 0.0269932
0.460838 0.0352789 0.0269932
0.497047 0.0335546 0.0269932
0.533349 0.0314183 0.0269932
0.569619 0.0289006 0.0269932
0.605692 0.0290227 0.0269932
0.642603 0.029572 0.0269932
0.679423 0.0310979 0.0269932
0.713252 0.0340429 0.0269932
0.744411 0.0380255 0.0269932
0.774166 0.0426032 0.0269932
0.803372 0.0475166 0.0269932
0.831891 0.0521859 0.0269932
0.0269932 0.0346838 0.0269932
0.0269932 0.0339971 0.0269932
0.0269932 0.0334478 0.0269932
0.0269932 0.0330205 0.0269932
0.0269932 0.0327153 0.0269932
0.0271458 0.0328527 0.0269932
0.0412451 0.0352636 0.0269932
0.0627909 0.0380713 0.0269932
0.0836042 0.0411383 0.0269932
0.104143 0.0442664 0.0269932
0.125673 0.0474403 0.0269932
0.149477 0.0509499 0.0269932
0.176196 0.0535286 0.0269932
0.205341 0.0552987 0.0269932
0.235767 0.0565652 0.0269932
0.266957 0.0574197 0.0269932
0.298955 0.057908 0.0269932
0.331899 0.0580148 0.0269932
0.365682 0.0577249 0.0269932
0.399969 0.0568399 0.0269932
0.434714 0.0553292 0.0269932
0.470619 0.0532235 0.0269932
0.506676 0.0510414 0.0269932
0.543313 0.0486305 0.0269932
0.579751 0.0461128 0.0269932
0.614618 0.0438697 0.0269932
0.650248 0.0412757 0.0269932
0.6851 0.0386511 0.0269932
0.716289 0.0366064 0.0269932
0.746014 0.0382696 0.0269932
0.775616 0.0428321 0.0269932
0.804669 0.0477302 0.0269932
0.83299 0.0523537 0.0269932
0.0326543 0.0556649 0.0280461
0.0321508 0.0540322 0.0279545
0.031693 0.0525978 0.027863
0.031342 0.0514382 0.0278019
0.0310369 0.0504768 0.0277409
0.0309758 0.0501717 0.0277409
0.0514229 0.053254 0.0301823
0.0708782 0.0573892 0.0315404
0.0914015 0.0615702 0.0325017
0.112276 0.0654459 0.0328222
0.134371 0.0689555 0.0327916
0.158434 0.0719615 0.0321508
0.184939 0.0740215 0.0305638
0.213748 0.0752575 0.0281224
0.24361 0.0761425 0.0271458
0.274311 0.0766766 0.0269932
0.305882 0.0767834 0.0269932
0.338521 0.0764782 0.0269932
0.372244 0.0758373 0.0269932
0.406622 0.0747692 0.0269932
0.441703 0.0732586 0.0269932
0.47805 0.0712139 0.0269932
0.514336 0.0690623 0.0269932
0.551553 0.066743 0.0269932
0.588418 0.0643168 0.0269932
0.623926 0.06215 0.0269932
0.66038 0.0596475 0.0269932
0.695766 0.0572061 0.0269932
0.727199 0.0553597 0.0269932
0.755337 0.0539101 0.0269932
0.781842 0.0524758 0.0269932
0.807416 0.0508736 0.0269932
0.833997 0.0525216 0.0269932
0.042237 0.0790875 0.0337224
0.0413519 0.0771344 0.0330968
0.0406958 0.0756847 0.0326238
0.0401465 0.074464 0.0322271
0.0396124 0.0732891 0.0318456
0.0403143 0.0726787 0.0318761
0.0626841 0.0747997 0.0365759
0.0812848 0.0784009 0.0389563
0.100725 0.0826734 0.0412451
0.12134 0.0864118 0.0419623
0.143725 0.0896925 0.0418708
0.168002 0.0923476 0.0408942
0.194537 0.0941787 0.0386816
0.223316 0.0952163 0.035172
0.253239 0.0960098 0.0314488
0.283696 0.0966201 0.0289616
0.314946 0.0970626 0.0269932
0.347143 0.0972305 0.0269932
0.380331 0.0970169 0.0269932
0.41445 0.0963302 0.0269932
0.449577 0.0950637 0.0269932
0.485969 0.0933089 0.0269932
0.522316 0.091371 0.0269932
0.559808 0.0891432 0.0269932
0.596689 0.0870069 0.0269932
0.632868 0.0850538 0.0269932
0.669627 0.0827802 0.0269932
0.705638 0.0805066 0.0269932
0.737972 0.0787671 0.0269932
0.767132 0.0775464 0.0269932
0.79472 0.0762188 0.0269932
0.821073 0.0746624 0.0269932
0.84596 0.0730907 0.0269932
0.0514992 0.0998856 0.0403296
0.0508431 0.0983749 0.0398566
0.0503243 0.0972 0.0394903
0.0498665 0.0961776 0.0391699
0.049424 0.0951858 0.0388495
0.051667 0.0946822 0.039292
0.0729229 0.0966659 0.0444038
0.0941482 0.0993057 0.0471351
0.112078 0.104234 0.0497139
0.132418 0.108125 0.0518959
0.154513 0.111727 0.0523537
0.178622 0.114672 0.0516213
0.205158 0.116732 0.0496681
0.234058 0.118013 0.0464485
0.264195 0.118975 0.0425269
0.29514 0.119722 0.0380865
0.326741 0.120256 0.0332189
0.359045 0.120699 0.0292821
0.391943 0.120943 0.0276036
0.42533 0.120943 0.0269932
0.460258 0.120363 0.0269932
0.496132 0.119234 0.0269932
0.532219 0.117952 0.0269932
0.569757 0.116335 0.0269932
0.606348 0.114885 0.0269932
0.642863 0.113313 0.0269932
0.680217 0.111437 0.0269932
0.716548 0.109499 0.0269932
0.749111 0.107774 0.0269932
0.778622 0.106569 0.0269932
0.806546 0.105135 0.0269932
0.833448 0.103578 0.0269932
0.859358 0.102052 0.0269932
0.0605631 0.120867 0.0466011
0.0600748 0.119692 0.0462654
0.059678 0.118746 0.0460059
0.0593423 0.117922 0.0457771
0.0590066 0.117098 0.0455482
0.0619211 0.116762 0.0462501
0.0820935 0.118517 0.0514229
0.103716 0.121157 0.0548257
0.12639 0.125109 0.0579232
0.144396 0.130083 0.0603799
0.16614 0.133806 0.0621347
0.189593 0.136965 0.0620279
0.21593 0.139391 0.0604562
0.245014 0.141039 0.0576791
0.275319 0.142245 0.054139
0.306416 0.143236 0.0500954
0.338369 0.14403 0.0455329
0.371237 0.144671 0.0405127
0.4047 0.145159 0.0348363
0.438407 0.145388 0.0299992
0.473564 0.145235 0.0277409
0.508858 0.144762 0.0269932
0.544808 0.144167 0.0269932
0.58175 0.143328 0.0269932
0.617685 0.142535 0.0269932
0.654108 0.141619 0.0269932
0.691707 0.140444 0.0269932
0.728389 0.139391 0.0269932
0.760998 0.138933 0.0269932
0.790692 0.138811 0.0269932
0.81886 0.138491 0.0269932
0.846067 0.137911 0.0269932
0.872572 0.137255 0.0269932
0.0693217 0.142535 0.0523384
0.0689708 0.141604 0.0521248
0.0686809 0.14081 0.0519417
0.0684367 0.140124 0.0517891
0.0681773 0.139452 0.0516365
0.0704967 0.139147 0.0522164
0.0902724 0.140826 0.0575875
0.112902 0.143603 0.0621653
0.138201 0.147158 0.0654307
0.158328 0.151965 0.0683299
0.178164 0.156466 0.0707103
0.201129 0.159731 0.071809
0.227039 0.162341 0.0708629
0.255924 0.16437 0.0685283
0.286336 0.166003 0.0654765
0.317754 0.167422 0.0619516
0.350072 0.168566 0.057847
0.383246 0.169406 0.0532235
0.41706 0.169986 0.0480507
0.45156 0.170275 0.042237
0.487465 0.170184 0.0353704
0.522988 0.169909 0.029099
0.559365 0.169436 0.0271305
0.59617 0.168963 0.0269932
0.631449 0.16878 0.0269932
0.667704 0.168551 0.0269932
0.705058 0.168292 0.0269932
0.741436 0.1682 0.0269932
0.773739 0.168933 0.0269932
0.803418 0.170031 0.0269932
0.831647 0.171145 0.0269932
0.859037 0.172091 0.0269932
0.885664 0.172854 0.0269932
0.0775006 0.164904 0.0571908
0.0772869 0.164157 0.057084
0.0770886 0.163485 0.0569924
0.0769055 0.162905 0.0569162
0.0767071 0.162341 0.0567941
0.0770428 0.161913 0.0568399
0.0976883 0.163638 0.0626688
0.121447 0.166323 0.0680858
0.148455 0.169894 0.0720684
0.172381 0.17409 0.0754864
0.190723 0.179263 0.0778821
0.212375 0.182818 0.0797589
0.238087 0.185367 0.0798657
0.266789 0.18761 0.078294
0.297215 0.189761 0.0759289
0.328771 0.191546 0.0728618
0.361349 0.192996 0.0691844
0.394858 0.194156 0.0649577
0.428885 0.195087 0.0601968
0.464027 0.195636 0.0548104
0.500603 0.195773 0.0487068
0.536599 0.195529 0.0420386
0.573861 0.195163 0.0346838
0.610727 0.19501 0.0284428
0.646433 0.195239 0.0269932
0.683009 0.195666 0.0269932
0.720378 0.196139 0.0269932
0.756497 0.196872 0.0269932
0.788205 0.198596 0.0269932
0.817548 0.200626 0.0269932
0.845335 0.202716 0.0269932
0.87245 0.204639 0.0269932
0.898695 0.206256 0.0269932
0.0841382 0.187304 0.0601205
0.0839551 0.186679 0.0600443
0.0837873 0.18613 0.059968
0.08365 0.185657 0.0599069
0.0835126 0.185199 0.0598459
0.0833753 0.184741 0.0597848
0.103807 0.186481 0.0657206
0.129137 0.189273 0.0720836
0.157198 0.193194 0.0771344
0.184054 0.196765 0.0807202
0.205051 0.201328 0.083772
0.223087 0.206332 0.0853285
0.248264 0.209125 0.0865949
0.276722 0.211322 0.0860304
0.306996 0.213718 0.0844587
0.338689 0.216098 0.0821546
0.371542 0.218204 0.0791333
0.405341 0.219928 0.0755322
0.439673 0.221454 0.0714733
0.475685 0.222477 0.0665904
0.512276 0.222965 0.060914
0.548898 0.22295 0.0546731
0.586831 0.22269 0.0478523
0.62385 0.222644 0.0412604
0.660548 0.222858 0.035462
0.698039 0.223362 0.0301213
0.735866 0.224048 0.0269932
0.771771 0.225238 0.0269932
0.803464 0.227481 0.0269932
0.832609 0.230106 0.0269932
0.860014 0.232959 0.0269932
0.886625 0.235599 0.0269932
0.912261 0.238025 0.0269932
0.0892958 0.210529 0.0610819
0.089189 0.21004 0.0610666
0.0890974 0.209628 0.0610513
0.0890211 0.209262 0.0610361
0.0889448 0.208881 0.0610208
0.0888533 0.208484 0.0610056
0.108629 0.2103 0.0669413
0.135851 0.213352 0.0742657
0.164584 0.217472 0.0803998
0.191455 0.22121 0.084184
0.216541 0.224811 0.0874952
0.236835 0.229618 0.0898909
0.25771 0.234089 0.0907149
0.285435 0.236378 0.0911879
0.315389 0.238651 0.0905776
0.347143 0.241215 0.089189
0.380407 0.2439 0.087129
0.414572 0.246342 0.0843366
0.449332 0.248386 0.0809339
0.486 0.249836 0.0765393
0.522591 0.250706 0.071458
0.55996 0.250965 0.0655222
0.598199 0.250965 0.059144
0.635142 0.251102 0.0531472
0.672648 0.251423 0.0472267
0.711254 0.25185 0.0413214
0.749706 0.252583 0.0359655
0.785794 0.254017 0.0327764
0.817731 0.256504 0.0313726
0.846922 0.25951 0.0307927
0.874464 0.262715 0.030457
0.900908 0.265858 0.0298466
0.926116 0.268803 0.0292668
0.0936141 0.234638 0.0608072
0.0935378 0.234226 0.0608225
0.0934768 0.23386 0.0608225
0.0934157 0.233509 0.0608377
0.0933547 0.233143 0.0608377
0.0932784 0.232731 0.060853
0.11313 0.234653 0.0669413
0.141924 0.237842 0.0749828
0.171069 0.242008 0.082002
0.197223 0.245884 0.0863508
0.223667 0.249393 0.0896925
0.248554 0.253101 0.0926375
0.269871 0.257832 0.0939345
0.293889 0.261631 0.0942245
0.323262 0.263874 0.0945602
0.354742 0.266285 0.0940261
0.388235 0.269123 0.0928511
0.422751 0.272145 0.0910811
0.458412 0.274861 0.0884871
0.495491 0.276982 0.0848554
0.53225 0.278416 0.0804456
0.570321 0.279103 0.0750286
0.608576 0.2795 0.0691997
0.645609 0.280003 0.0636454
0.683665 0.280552 0.0580453
0.72285 0.281163 0.0525216
0.76173 0.282002 0.0474098
0.797986 0.283604 0.0436866
0.830152 0.286259 0.0416724
0.859449 0.289479 0.0409094
0.887251 0.292973 0.0407263
0.913756 0.29633 0.0405737
0.938766 0.299504 0.0403601
0.0971695 0.258762 0.0596017
0.0971237 0.258412 0.0596323
0.0970626 0.258076 0.0596475
0.0970169 0.25774 0.0596628
0.0969711 0.257374 0.0596933
0.09691 0.256977 0.0597086
0.117769 0.259052 0.0661936
0.147509 0.262394 0.0746929
0.176623 0.266529 0.0822156
0.202487 0.270558 0.0873884
0.228672 0.274205 0.0909438
0.256474 0.277363 0.0939345
0.282139 0.281224 0.0960555
0.304738 0.286046 0.0965438
0.331197 0.289464 0.0969711
0.362219 0.291783 0.0972915
0.395529 0.29453 0.0969253
0.429923 0.297642 0.095964
0.466667 0.300908 0.094316
0.503899 0.303777 0.0917678
0.541436 0.305928 0.0881819
0.58024 0.30724 0.0834211
0.618067 0.308171 0.0783246
0.65568 0.309056 0.0731823
0.694377 0.309957 0.0679789
0.733959 0.310811 0.0626993
0.772808 0.312032 0.0580606
0.808942 0.31397 0.0548562
0.841062 0.316884 0.0534676
0.870298 0.320378 0.0532998
0.898085 0.324056 0.0535134
0.924575 0.327626 0.0537881
0.949248 0.331014 0.0539254
0.10013 0.283177 0.0576028
0.100084 0.282841 0.0576333
0.100053 0.282521 0.0576638
0.100023 0.2822 0.0576944
0.0999771 0.281849 0.0577249
0.0999313 0.281483 0.0577554
0.122148 0.283772 0.0647135
0.152132 0.287205 0.0734569
0.181323 0.291371 0.0814069
0.207095 0.295415 0.0872358
0.232868 0.299168 0.09131
0.26128 0.302342 0.0943008
0.291417 0.305318 0.096849
0.317128 0.309758 0.0981918
0.340795 0.314687 0.098558
0.369757 0.317876 0.0991684
0.40267 0.320439 0.0996262
0.436942 0.323384 0.0993515
0.474144 0.326818 0.0985275
0.511437 0.330236 0.0970474
0.550057 0.333181 0.0944991
0.589502 0.335332 0.0906691
0.627176 0.336965 0.0864118
0.6654 0.338384 0.0818189
0.704738 0.339635 0.0769055
0.74464 0.340932 0.0721141
0.783459 0.342596 0.0679484
0.819318 0.34493 0.0651408
0.850965 0.348257 0.0641947
0.880018 0.352102 0.064271
0.907591 0.356023 0.0647898
0.933852 0.359823 0.0653086
0.957885 0.363485 0.0657206
0.102708 0.308202 0.0549935
0.102678 0.307897 0.055024
0.102647 0.307576 0.0550546
0.102617 0.307271 0.0551003
0.102586 0.30695 0.0551308
0.102556 0.306584 0.0551766
0.125551 0.309056 0.0624094
0.155612 0.312535 0.0713054
0.184939 0.31667 0.0795911
0.210788 0.320653 0.0859541
0.236408 0.324453 0.0906691
0.264408 0.32781 0.0939651
0.296544 0.330495 0.0964523
0.328023 0.333806 0.0986954
0.352651 0.339147 0.0996567
0.378332 0.34406 0.100099
0.409583 0.347097 0.100923
0.444007 0.349828 0.101396
0.480568 0.353079 0.101274
0.518166 0.35671 0.100618
0.557809 0.360281 0.0991226
0.597345 0.363317 0.0965896
0.63566 0.365835 0.0932937
0.674586 0.367895 0.0892958
0.714733 0.369711 0.0849317
0.754742 0.371603 0.0807507
0.793637 0.373693 0.0770428
0.829206 0.376486 0.0746624
0.860319 0.380255 0.0741741
0.889189 0.384436 0.0745251
0.916426 0.388632 0.075227
0.942275 0.392737 0.0759442
0.965728 0.396689 0.0765698
0.105196 0.334264 0.0520943
0.105165 0.333959 0.0521248
0.105135 0.333654 0.0521706
0.105104 0.333394 0.0522011
0.105074 0.333089 0.0522316
0.105058 0.332769 0.0522621
0.12755 0.335195 0.0593423
0.157748 0.338628 0.0683299
0.187396 0.342718 0.0769055
0.213504 0.346624 0.083711
0.239124 0.350393 0.0890516
0.266651 0.353826 0.0928817
0.298863 0.356649 0.0953994
0.33434 0.359228 0.0977493
0.364706 0.363531 0.0999008
0.389349 0.369543 0.100633
0.416983 0.374273 0.101167
0.450904 0.37734 0.10219
0.486351 0.380316 0.10277
0.524285 0.383795 0.10277
0.564553 0.387594 0.102144
0.603861 0.391211 0.100801
0.643198 0.394476 0.0985733
0.683223 0.397406 0.0955673
0.724071 0.399985 0.0919966
0.764218 0.402548 0.0884718
0.803189 0.405142 0.0852827
0.838148 0.408545 0.0835584
0.869062 0.412787 0.0834821
0.897749 0.417395 0.0841382
0.924727 0.422004 0.0851301
0.950042 0.42649 0.0860761
0.973022 0.430823 0.0869001
0.108003 0.361822 0.0493172
0.107973 0.361547 0.0493477
0.107942 0.361273 0.0493782
0.107927 0.361013 0.0493935
0.107897 0.360769 0.049424
0.107866 0.360479 0.0494392
0.128298 0.362615 0.0558175
0.158541 0.365942 0.0648508
0.188724 0.369909 0.0736553
0.215228 0.373693 0.080827
0.241001 0.377356 0.0866865
0.268254 0.380758 0.0911727
0.299886 0.383688 0.0940414
0.33669 0.38613 0.0961471
0.372732 0.389288 0.0987716
0.401923 0.394629 0.10071
0.427359 0.400992 0.101228
0.457694 0.405646 0.102007
0.492363 0.408743 0.103212
0.530343 0.411978 0.103899
0.570153 0.415625 0.10396
0.609415 0.419425 0.103441
0.649775 0.423331 0.102327
0.691096 0.427039 0.100404
0.732601 0.430625 0.098024
0.77319 0.434104 0.0954299
0.812131 0.437537 0.0929122
0.846448 0.44184 0.0920119
0.877211 0.446799 0.0924392
0.905638 0.451957 0.0934157
0.932204 0.457115 0.094667
0.956847 0.462104 0.0958572
0.979583 0.46685 0.0968795
0.111788 0.391867 0.0471809
0.111757 0.391638 0.0471962
0.111727 0.391409 0.0471962
0.111696 0.391211 0.0472114
0.111666 0.390982 0.0472267
0.111635 0.390738 0.0472419
0.127489 0.392218 0.0520943
0.157504 0.395254 0.0609751
0.188464 0.398962 0.0699626
0.215717 0.402609 0.0774853
0.241733 0.406134 0.0838331
0.268925 0.409384 0.0889296
0.299901 0.412253 0.0924392
0.336416 0.414755 0.0945449
0.375448 0.417441 0.0968948
0.411215 0.421332 0.0996567
0.440253 0.427558 0.101274
0.466621 0.434073 0.101778
0.49865 0.438865 0.102739
0.5364 0.442206 0.104112
0.574853 0.445594 0.10486
0.614328 0.449409 0.105089
0.655406 0.453513 0.104784
0.697902 0.457893 0.10399
0.740169 0.462379 0.102861
0.781277 0.466789 0.101442
0.820264 0.471138 0.0999924
0.854063 0.476234 0.0998703
0.884535 0.481804 0.100725
0.912551 0.487343 0.101991
0.938766 0.492882 0.103426
0.962646 0.498131 0.104829
0.985412 0.503197 0.106065
0.116548 0.424582 0.0455787
0.116518 0.424399 0.0455787
0.116487 0.424216 0.045594
0.116472 0.424079 0.045594
0.116442 0.423911 0.0456092
0.116426 0.423728 0.0456092
0.124193 0.424399 0.0480049
0.153887 0.427298 0.0568093
0.186297 0.430808 0.0661479
0.214801 0.434287 0.074052
0.241535 0.437568 0.0808118
0.268589 0.440681 0.0864881
0.298833 0.443351 0.0907454
0.334722 0.445609 0.0932021
0.37409 0.448051 0.0951553
0.415122 0.45095 0.0977493
0.450568 0.455512 0.100465
0.479179 0.462211 0.101915
0.507912 0.469062 0.102495
0.542367 0.47393 0.103609
0.579889 0.477317 0.104921
0.619455 0.480858 0.105821
0.661128 0.484962 0.106325
0.704356 0.489494 0.106416
0.747158 0.494392 0.106279
0.7888 0.499489 0.106035
0.82742 0.504723 0.105806
0.860914 0.510506 0.106508
0.891005 0.516564 0.107897
0.918639 0.52256 0.109545
0.944396 0.528298 0.111223
0.967498 0.533639 0.112779
0.990326 0.538796 0.114092
0.121782 0.458915 0.0441596
0.121767 0.458747 0.0441596
0.121736 0.458595 0.0441749
0.121721 0.458457 0.0441749
0.121691 0.45832 0.0441901
0.121675 0.458167 0.0441901
0.121645 0.45803 0.0441901
0.147997 0.46067 0.0521706
0.181949 0.464134 0.0620279
0.212848 0.46772 0.0707866
0.240894 0.471 0.0781415
0.26862 0.47396 0.0844129
0.298589 0.476478 0.0894484
0.333608 0.478416 0.0927138
0.372702 0.480598 0.0946059
0.415183 0.482902 0.0964981
0.455802 0.48603 0.0991531
0.491539 0.491173 0.101808
0.521324 0.498497 0.102983
0.550866 0.505119 0.103487
0.58613 0.509758 0.104616
0.625956 0.513207 0.106188
0.668223 0.516945 0.107424
0.711589 0.521279 0.108171
0.754604 0.526101 0.108782
0.796307 0.531319 0.109331
0.834379 0.53698 0.110155
0.867475 0.543145 0.111681
0.897093 0.549599 0.113741
0.924163 0.555886 0.11577
0.949142 0.561929 0.117754
0.971618 0.567544 0.119463
0.994278 0.573083 0.120974
0.127367 0.49305 0.0432288
0.127337 0.492912 0.0432288
0.127321 0.49276 0.0432288
0.127291 0.492622 0.0432288
0.12726 0.49247 0.0432288
0.127245 0.492317 0.0432288
0.127214 0.492149 0.0432288
0.142046 0.493584 0.0477913
0.176394 0.49691 0.0578775
0.210636 0.500603 0.0677806
0.24036 0.503929 0.0758679
0.269139 0.506874 0.0827649
0.299672 0.5093 0.0885176
0.33434 0.511131 0.0926528
0.373632 0.512963 0.0951247
0.414725 0.514977 0.0965438
0.458625 0.517281 0.0986038
0.500847 0.521004 0.101595
0.535256 0.527077 0.103807
0.563928 0.5346 0.104433
0.595605 0.541161 0.104967
0.634043 0.545785 0.106416
0.676661 0.549386 0.108263
0.719951 0.553521 0.109697
0.762783 0.558251 0.110903
0.804044 0.56347 0.112184
0.841489 0.569268 0.113771
0.874067 0.575753 0.116091
0.902937 0.582422 0.118685
0.929488 0.588937 0.121172
0.953414 0.595148 0.12343
0.975494 0.601053 0.125368
0.99588 0.606897 0.127123
0.133593 0.527337 0.0430304
0.133562 0.527214 0.0430304
0.133547 0.527092 0.0430304
0.133516 0.52697 0.0430304
0.133501 0.526848 0.0430304
0.133471 0.526711 0.0430304
0.13344 0.526574 0.0430304
0.134936 0.526604 0.0434882
0.169421 0.530007 0.0538186
0.206897 0.533837 0.0646525
0.238911 0.537438 0.0737011
0.269032 0.540581 0.0813916
0.299809 0.543099 0.0878157
0.335805 0.5449 0.0929427
0.3738 0.546456 0.0961471
0.41471 0.548272 0.0978714
0.4598 0.550286 0.0993515
0.506249 0.552956 0.101762
0.546715 0.557244 0.104662
0.579309 0.564172 0.106264
0.609201 0.572106 0.106584
0.644678 0.578668 0.107393
0.686183 0.583154 0.109224
0.729366 0.58706 0.11136
0.771878 0.591669 0.113146
0.812375 0.596796 0.114992
0.849134 0.602655 0.117281
0.881025 0.609125 0.12015
0.909163 0.615808 0.123278
0.935012 0.622431 0.126223
0.957778 0.628641 0.128725
0.979751 0.634745 0.130953
0.996674 0.640833 0.132937
0.140719 0.562936 0.0437018
0.140688 0.562844 0.0437018
0.140673 0.562737 0.0437018
0.140642 0.562646 0.0437018
0.140627 0.56257 0.0436866
0.140612 0.562478 0.0436866
0.140581 0.562356 0.0436866
0.140566 0.562234 0.0436866
0.159716 0.564187 0.049546
0.199725 0.568124 0.061265
0.23592 0.572137 0.0717174
0.267445 0.575586 0.0802472
0.300114 0.578408 0.0877546
0.334936 0.58024 0.0935683
0.3738 0.581567 0.0976883
0.415244 0.583124 0.100114
0.460578 0.58497 0.101457
0.507332 0.58706 0.103136
0.553017 0.590204 0.105791
0.593179 0.595407 0.108461
0.626383 0.603326 0.109651
0.65919 0.611551 0.109941
0.697643 0.61767 0.111086
0.739696 0.622141 0.113359
0.781903 0.626413 0.115801
0.821714 0.631388 0.118151
0.857664 0.637095 0.121019
0.888579 0.643412 0.124346
0.915999 0.649912 0.127825
0.940902 0.656291 0.13109
0.962798 0.662318 0.133822
0.984787 0.668452 0.136385
0.997955 0.674617 0.138735
0.149187 0.599741 0.0458839
0.149157 0.599649 0.0458686
0.149142 0.599588 0.0458686
0.149126 0.599527 0.0458686
0.149111 0.599466 0.0458534
0.149096 0.59939 0.0458534
0.149081 0.599298 0.0458534
0.14905 0.599207 0.0458381
0.149035 0.599115 0.0458381
0.188571 0.603067 0.0576944
0.230213 0.607477 0.0698711
0.265949 0.611414 0.0799268
0.29836 0.614511 0.0880751
0.333639 0.616678 0.0949722
0.373968 0.617746 0.100008
0.416739 0.618921 0.103334
0.460594 0.620508 0.104997
0.507729 0.622324 0.106172
0.556954 0.624613 0.108186
0.603693 0.628458 0.111086
0.6439 0.635081 0.11339
0.677317 0.643824 0.114046
0.71252 0.651499 0.114656
0.751888 0.657252 0.116365
0.79295 0.661738 0.119051
0.832288 0.666392 0.121965
0.867338 0.671809 0.125185
0.8972 0.677821 0.128893
0.923842 0.684016 0.132631
0.947387 0.690059 0.136034
0.968872 0.695918 0.139071
0.990738 0.7019 0.142
0.998978 0.707805 0.144579
0.159106 0.63679 0.049897
0.159091 0.636728 0.049897
0.159075 0.636683 0.0498817
0.15906 0.636637 0.0498817
0.159045 0.636576 0.0498665
0.15903 0.63653 0.0498665
0.159014 0.636454 0.0498512
0.158984 0.636378 0.049836
0.158968 0.636316 0.049836
0.175814 0.638041 0.0549783
0.222873 0.64268 0.0688792
0.261997 0.647028 0.0802625
0.297063 0.650507 0.0896162
0.333181 0.652995 0.0975357
0.374731 0.654093 0.103731
0.417807 0.654902 0.10779
0.462013 0.656092 0.110109
0.509346 0.657649 0.111192
0.560876 0.659434 0.112551
0.613184 0.662257 0.115099
0.660319 0.667399 0.11812
0.697475 0.675486 0.119524
0.730526 0.68426 0.119875
0.766857 0.691264 0.121019
0.805508 0.696651 0.123369
0.843946 0.701228 0.126497
0.878126 0.706203 0.130007
0.906935 0.71191 0.133944
0.932586 0.7178 0.137881
0.954833 0.723415 0.14139
0.976287 0.729091 0.144717
0.993851 0.734798 0.147829
1 0.74049 0.150622
0.171252 0.673198 0.0568399
0.171237 0.673152 0.0568246
0.171206 0.673106 0.0568246
0.171206 0.673075 0.0568093
0.171191 0.673045 0.0568093
0.17116 0.672984 0.0567941
0.171145 0.672938 0.0567788
0.17113 0.672892 0.0567636
0.171115 0.672831 0.0567483
0.171099 0.672816 0.0567483
0.210773 0.676738 0.0687114
0.258137 0.681605 0.0826581
0.296712 0.685618 0.093492
0.33492 0.688472 0.102541
0.37612 0.689693 0.10956
0.420218 0.690181 0.114488
0.465461 0.691005 0.117449
0.513756 0.692226 0.118822
0.566827 0.693797 0.119753
0.623392 0.695979 0.121736
0.675944 0.69984 0.124758
0.7178 0.706798 0.126864
0.751385 0.715679 0.127443
0.785016 0.723812 0.128176
0.82092 0.730037 0.130007
0.857298 0.735042 0.132753
0.890364 0.739849 0.136461
0.918425 0.74519 0.140658
0.942733 0.750607 0.14464
0.964172 0.755886 0.148241
0.985611 0.761288 0.151781
0.997635 0.766705 0.155108
1 0.772183 0.158221
0.185916 0.708125 0.0672465
0.185916 0.708095 0.0672313
0.185901 0.708064 0.0672313
0.185885 0.708034 0.067216
