luts/wander.cube
TITLE "Generated by Resolve"
LUT_3D_SIZE 5
0.0275273 0.0270237 0.0251469
0.074876 0.026566 0.0246738
0.252445 0.0310063 0.0227817
0.488319 0.0278477 0.0204623
0.76289 0.0329442 0.0175784
0.0632029 0.147829 0.0619821
0.13547 0.165774 0.0740673
0.321584 0.188479 0.0771344
0.569619 0.195346 0.0469368
0.846555 0.198749 0.0188602
0.0763104 0.332006 0.10721
0.177218 0.349905 0.126741
0.378027 0.372381 0.136019
0.633524 0.400641 0.137942
0.928252 0.423621 0.118746
0.0935378 0.566827 0.115648
0.176196 0.578912 0.12987
0.371481 0.596567 0.145861
0.688945 0.628504 0.141878
0.976867 0.673533 0.15462
0.187716 0.842176 0.186862
0.200305 0.845106 0.187137
0.478233 0.85127 0.231724
0.864195 0.859083 0.196948
1 0.909316 0.170504
0.0277562 0.0272679 0.103212
0.0551003 0.0270848 0.13164
0.281102 0.0249027 0.150271
0.470787 0.0369116 0.117189
0.717037 0.0532845 0.101244
0.0366827 0.159518 0.18497
0.113771 0.178393 0.200565
0.316548 0.187961 0.221836
0.533791 0.205707 0.204273
0.797223 0.213092 0.187213
0.0335546 0.354147 0.239155
0.151934 0.376455 0.253452
0.350134 0.392813 0.268971
0.621561 0.415198 0.260212
0.916762 0.437903 0.237064
0.0464485 0.592386 0.216358
0.152453 0.602548 0.230213
0.34818 0.610773 0.254826
0.675807 0.639567 0.262394
0.96492 0.693996 0.284367
0.131502 0.869245 0.302113
0.186786 0.872694 0.310765
0.466346 0.865064 0.348882
0.831632 0.867262 0.344213
1 0.923873 0.331975
0.0276036 0.0529488 0.227848
0.0461433 0.0609598 0.256062
0.269627 0.0494545 0.30901
0.559197 0.0288701 0.288151
0.791043 0.0360723 0.249119
0.0251621 0.175692 0.281712
0.0871595 0.189868 0.305119
0.283696 0.197055 0.358114
0.602884 0.186511 0.360952
0.838026 0.20415 0.33753
0.0384833 0.371786 0.381598
0.146548 0.394598 0.401801
0.321218 0.416114 0.418097
0.594095 0.423941 0.429389
0.872267 0.459541 0.439582
0.0158999 0.633539 0.429313
0.113848 0.651514 0.443351
0.31754 0.658335 0.444144
0.65388 0.66746 0.467353
0.950973 0.72871 0.494331
0.0408637 0.919142 0.568185
0.1608 0.92813 0.575021
0.437125 0.90222 0.552956
0.774289 0.882231 0.581598
1 0.938674 0.572198
0.027512 0.0798505 0.386175
0.0314641 0.0821088 0.414618
0.217258 0.0623331 0.464134
0.560555 0.0235447 0.49955
0.920974 0.0196078 0.487037
0.0254826 0.181888 0.428153
0.0442359 0.1879 0.453269
0.22266 0.180117 0.495628
0.593881 0.161593 0.566323
0.96025 0.115587 0.549218
0.0216678 0.373709 0.51252
0.0660105 0.38349 0.519646
0.219959 0.376715 0.525307
0.5691 0.389288 0.608759
0.977111 0.409003 0.643519
0.0161135 0.654536 0.644617
0.104097 0.673961 0.66212
0.310872 0.685161 0.671763
0.633082 0.701442 0.681727
0.908324 0.735927 0.711757
0.151308 0.953277 0.775448
0.276585 0.955978 0.77818
0.516808 0.940398 0.761318
0.796704 0.938598 0.761059
0.998291 0.970321 0.791714
0.0285191 0.0610361 0.583047
0.0285344 0.0625772 0.599817
0.16463 0.049424 0.635615
0.539147 0.0239567 0.675319
0.951949 0.0198215 0.657877
0.0279545 0.0887465 0.594797
0.0277409 0.10222 0.613703
0.179034 0.111223 0.651011
0.570352 0.101656 0.706172
0.984802 0.107927 0.699718
0.0223087 0.361303 0.637675
0.0220798 0.373404 0.64773
0.190219 0.373159 0.658808
0.556466 0.370123 0.711833
0.983932 0.444083 0.772869
0.0157015 0.691142 0.761791
0.103609 0.709789 0.774334
0.334203 0.70959 0.763027
0.626703 0.702083 0.741726
0.939895 0.766842 0.815747
0.491402 0.975448 0.863539
0.588449 0.970169 0.858854
0.749004 0.975647 0.863828
0.896742 0.985748 0.870756
1 0.996536 0.890547
