luts/wander.cube
TITLE "Generated by Resolve"
LUT_3D_SIZE 9
0.0275273 0.0270237 0.0251469
0.0275273 0.0270237 0.0251469
0.074876 0.026566 0.0246738
0.150927 0.0295262 0.0238346
0.252445 0.0310063 0.0227817
0.365515 0.0295567 0.0216678
0.488319 0.0278477 0.0204623
0.621408 0.02533 0.0191653
0.76289 0.0329442 0.0175784
0.0349737 0.0630961 0.0257115
0.0365454 0.0675669 0.0276799
0.095613 0.081239 0.0362707
0.178958 0.0935531 0.0363622
0.282567 0.0989548 0.0291295
0.398215 0.102281 0.021973
0.526223 0.101518 0.0184939
0.665064 0.0979934 0.0171664
0.802029 0.0915236 0.0159304
0.0632029 0.147829 0.0619821
0.0651408 0.153079 0.063035
0.13547 0.165774 0.0740673
0.216632 0.180835 0.0821088
0.321584 0.188479 0.0771344
0.440894 0.193301 0.0656138
0.569619 0.195346 0.0469368
0.70782 0.195926 0.0233616
0.846555 0.198749 0.0188602
0.0772106 0.237659 0.0883803
0.0855879 0.242329 0.089601
0.163149 0.255207 0.103838
0.252628 0.268391 0.109346
0.347433 0.280171 0.11281
0.470497 0.28983 0.109667
0.607431 0.295247 0.0977035
0.755138 0.296391 0.07953
0.892012 0.304982 0.0692149
0.0763104 0.332006 0.10721
0.104921 0.337682 0.112398
0.177218 0.349905 0.126741
0.257862 0.362661 0.132692
0.378027 0.372381 0.136019
0.487572 0.386847 0.139315
0.633524 0.400641 0.137942
0.792004 0.409537 0.124422
0.928252 0.423621 0.118746
0.0782635 0.441077 0.112139
0.107897 0.44596 0.117006
0.177325 0.456046 0.130358
0.254322 0.467765 0.138582
0.371008 0.475486 0.14107
0.511986 0.490089 0.144549
0.650141 0.508644 0.148653
0.822538 0.527428 0.147951
0.955795 0.550195 0.14905
0.0935378 0.566827 0.115648
0.100694 0.569924 0.115175
0.176196 0.578912 0.12987
0.258183 0.590341 0.141985
0.371481 0.596567 0.145861
0.531289 0.603784 0.141009
0.688945 0.628504 0.141878
0.855131 0.648096 0.14641
0.976867 0.673533 0.15462
0.131273 0.708125 0.129625
0.133074 0.710018 0.128481
0.160388 0.714397 0.132143
0.271244 0.725795 0.15494
0.392981 0.730587 0.164889
0.560525 0.733043 0.155261
0.770459 0.746975 0.142306
0.90985 0.775525 0.137682
1 0.796506 0.150439
0.187716 0.842176 0.186862
0.188815 0.843198 0.186236
0.200305 0.845106 0.187137
0.331533 0.853712 0.215991
0.478233 0.85127 0.231724
0.658015 0.849226 0.223896
0.864195 0.859083 0.196948
0.981628 0.887083 0.169116
1 0.909316 0.170504
0.0276036 0.0271 0.0492409
0.0276036 0.0271153 0.0530404
0.0740368 0.0267185 0.0747082
0.1608 0.0272679 0.0788739
0.240192 0.0362249 0.0711223
0.339727 0.0391852 0.0628367
0.452308 0.0399329 0.0518502
0.578073 0.0406653 0.0394751
0.714748 0.0500038 0.0340581
0.0268101 0.0687114 0.0814679
0.0269474 0.0725872 0.0866407
0.0830549 0.0840467 0.102129
0.174975 0.0922408 0.110277
0.263813 0.101335 0.106111
0.372442 0.106401 0.0987106
0.495384 0.107927 0.0866102
0.628107 0.105592 0.071107
0.756741 0.101564 0.0599832
0.0422522 0.154864 0.131823
0.0481575 0.15993 0.137026
0.117662 0.172992 0.148913
0.204395 0.18529 0.155032
0.31078 0.191028 0.145342
0.432532 0.19527 0.132433
0.566644 0.197009 0.117845
0.709697 0.195727 0.100725
0.84387 0.199115 0.0958419
0.0488899 0.248142 0.159609
0.0669871 0.253971 0.162585
0.147478 0.266117 0.171221
0.233585 0.277974 0.182162
0.337713 0.286091 0.184436
0.461723 0.293812 0.175891
0.600198 0.299351 0.160891
0.7467 0.302205 0.137163
0.883772 0.310735 0.128252
0.0519265 0.343648 0.16318
0.0926833 0.350149 0.167865
0.167895 0.361105 0.180789
0.246952 0.373449 0.193088
0.366812 0.380987 0.198627
0.481102 0.393866 0.200137
0.628855 0.408377 0.195697
0.788495 0.41619 0.179782
0.92369 0.429877 0.173404
0.0581216 0.451453 0.155886
0.098436 0.456489 0.161608
0.169696 0.46566 0.175204
0.246708 0.476555 0.187549
0.358907 0.483742 0.194232
0.506081 0.495796 0.197757
0.644862 0.515358 0.201801
0.819806 0.536202 0.201678
0.952956 0.558373 0.202823
0.0755016 0.576318 0.153811
0.0918135 0.579782 0.155993
0.169024 0.58761 0.170565
0.249531 0.597482 0.184451
0.360235 0.602365 0.192096
0.512795 0.609033 0.190921
0.683268 0.63357 0.194705
0.849546 0.65568 0.201923
0.971405 0.682307 0.211994
0.113542 0.717693 0.168658
0.114916 0.719585 0.168338
0.155505 0.724346 0.175814
0.263981 0.734203 0.19852
0.384833 0.737163 0.21297
0.546563 0.737987 0.212268
0.760937 0.751354 0.203891
0.901305 0.782269 0.203174
1 0.804028 0.21825
0.166018 0.852415 0.232273
0.166827 0.853452 0.232151
0.195285 0.855848 0.236927
0.32462 0.862089 0.262852
0.473213 0.856901 0.280934
0.648447 0.85275 0.280278
0.851453 0.863188 0.261616
0.971679 0.892348 0.241474
1 0.916121 0.24445
0.0277562 0.0272679 0.103212
0.0277714 0.0272831 0.109087
0.0551003 0.0270848 0.13164
0.161975 0.0261082 0.157504
0.281102 0.0249027 0.150271
0.372381 0.0307622 0.131548
0.470787 0.0369116 0.117189
0.58854 0.0407721 0.104784
0.717037 0.0532845 0.101244
0.0267948 0.0772259 0.133013
0.0269474 0.081178 0.138247
0.0742962 0.0916762 0.158297
0.175158 0.0937972 0.187152
0.29836 0.0903944 0.180606
0.388373 0.100999 0.164248
0.495323 0.10782 0.153384
0.617166 0.109071 0.140459
0.740841 0.107591 0.131197
0.0366827 0.159518 0.18497
0.0451972 0.164614 0.189929
0.113771 0.178393 0.200565
0.19089 0.189425 0.220508
0.316548 0.187961 0.221836
0.414603 0.198672 0.212238
0.533791 0.205707 0.204273
0.667048 0.208118 0.192126
0.797223 0.213092 0.187213
0.0440375 0.251926 0.226505
0.0716564 0.259037 0.232883
0.143252 0.273167 0.246006
0.217716 0.285969 0.257099
0.32665 0.290852 0.255009
0.451545 0.296147 0.239658
0.595361 0.301396 0.227161
0.747829 0.304067 0.212253
0.881834 0.313191 0.211093
0.0335546 0.354147 0.239155
0.0850996 0.363897 0.245579
0.151934 0.376455 0.253452
0.233845 0.387076 0.259678
0.350134 0.392813 0.268971
0.472999 0.402411 0.268742
0.621561 0.415198 0.260212
0.783841 0.423651 0.243549
0.916762 0.437903 0.237064
0.0339666 0.46743 0.226062
0.0857862 0.473457 0.23003
0.154147 0.482033 0.237903
0.237201 0.4907 0.2495
0.348486 0.497032 0.26183
0.496391 0.50547 0.265766
0.638972 0.524788 0.269734
0.817243 0.547646 0.269596
0.949248 0.568414 0.27039
0.0464485 0.592386 0.216358
0.0758221 0.59617 0.219654
0.152453 0.602548 0.230213
0.236683 0.609094 0.243091
0.34818 0.610773 0.254826
0.491356 0.615854 0.257908
0.675807 0.639567 0.262394
0.842618 0.66566 0.272816
0.96492 0.693996 0.284367
0.0826734 0.734081 0.233463
0.0836652 0.736019 0.233768
0.142321 0.740627 0.243519
0.249607 0.747646 0.263157
0.374075 0.746395 0.279149
0.532128 0.743755 0.28571
0.745464 0.756573 0.277714
0.891295 0.790265 0.280049
1 0.813107 0.296361
0.131502 0.869245 0.302113
0.13196 0.870329 0.302556
0.186786 0.872694 0.310765
0.313359 0.875288 0.3308
0.466346 0.865064 0.348882
0.636851 0.856764 0.357519
0.831632 0.867262 0.344213
0.959289 0.897551 0.327825
1 0.923873 0.331975
0.0278019 0.0339208 0.163577
0.0277867 0.0357519 0.169162
0.0492256 0.0406806 0.191623
0.146914 0.039292 0.221073
0.283574 0.0309453 0.231891
0.413138 0.0266728 0.215564
0.515923 0.0262303 0.190936
0.619333 0.0329442 0.171923
0.741268 0.0491493 0.168414
0.026688 0.0904555 0.189197
0.0265965 0.0951858 0.194995
0.0690318 0.105013 0.215656
0.156527 0.109911 0.243519
0.29781 0.101152 0.262913
0.430243 0.0949722 0.247517
0.53077 0.103212 0.225574
0.641596 0.108675 0.209537
0.761944 0.107195 0.200137
0.0256504 0.168276 0.23035
0.0347143 0.173114 0.235294
0.101961 0.185122 0.25008
0.178393 0.195483 0.272145
0.314382 0.191424 0.300191
0.451148 0.188769 0.28777
0.554711 0.201251 0.271748
0.678767 0.20798 0.261402
0.802777 0.214923 0.259358
0.0381476 0.257023 0.281041
0.0738384 0.264851 0.287861
0.140032 0.278538 0.298756
0.210758 0.291157 0.308034
0.313649 0.295674 0.324849
0.451728 0.295659 0.32108
0.571344 0.307927 0.314336
0.711955 0.316762 0.308446
0.838819 0.32813 0.311208
0.0382391 0.363043 0.313252
0.0890669 0.373602 0.32253
0.150225 0.387411 0.334371
0.225422 0.400641 0.345266
0.330694 0.408484 0.350164
0.459785 0.411322 0.350942
0.608209 0.42031 0.335668
0.777157 0.431281 0.3234
0.911421 0.44564 0.323766
0.0281987 0.484596 0.321202
0.0773327 0.492973 0.326848
0.138048 0.503777 0.333928
0.219272 0.512932 0.338735
0.33901 0.516091 0.343893
0.476402 0.521981 0.356298
0.631144 0.536904 0.358755
0.812726 0.560052 0.357351
0.942031 0.579812 0.358144
0.0159609 0.614466 0.315251
0.0572671 0.619806 0.318547
0.128847 0.626703 0.323476
0.212177 0.630976 0.327688
0.335866 0.628138 0.335637
0.477104 0.631678 0.351675
0.667781 0.649332 0.354086
0.833432 0.67892 0.365957
0.957488 0.709895 0.379126
0.0401312 0.758404 0.332815
0.0406958 0.760403 0.333837
0.121736 0.765393 0.340932
0.223774 0.769558 0.351019
0.358358 0.761135 0.360082
0.51754 0.751553 0.37499
0.715953 0.761532 0.372045
0.876448 0.79881 0.378058
0.986893 0.823697 0.396933
0.0809339 0.895415 0.416571
0.0810407 0.896574 0.417685
0.168673 0.899123 0.423285
0.292058 0.897032 0.430533
0.45388 0.87808 0.437507
0.621256 0.862715 0.453346
0.797162 0.869368 0.452018
0.940597 0.900664 0.439292
1 0.931624 0.441459
0.0276036 0.0529488 0.227848
0.0275578 0.0557717 0.234363
0.0461433 0.0609598 0.256062
0.133135 0.0611734 0.283299
0.269627 0.0494545 0.30901
0.420981 0.0363165 0.308797
0.559197 0.0288701 0.288151
0.678859 0.0259403 0.259922
0.791043 0.0360723 0.249119
0.0265202 0.107042 0.24976
0.0264591 0.110826 0.256352
0.062974 0.118853 0.276905
0.142748 0.123766 0.30164
0.275837 0.116991 0.332845
0.43595 0.105974 0.340124
0.577401 0.0966049 0.320958
0.695949 0.0972763 0.294575
0.806989 0.0948043 0.279988
0.0251621 0.175692 0.281712
0.0261082 0.180407 0.288396
0.0871595 0.189868 0.305119
0.162081 0.19826 0.326802
0.283696 0.197055 0.358114
0.455146 0.191272 0.377066
0.602884 0.186511 0.360952
0.722591 0.195148 0.340993
0.838026 0.20415 0.33753
0.023621 0.261769 0.329641
0.0585794 0.269444 0.334722
0.116793 0.280644 0.343282
0.185946 0.29073 0.355169
0.290242 0.296559 0.37763
0.459358 0.294011 0.408408
0.610422 0.294514 0.396124
0.738186 0.309865 0.38616
0.859037 0.324208 0.391196
0.0384833 0.371786 0.381598
0.0879988 0.381735 0.390448
0.146548 0.394598 0.401801
0.220844 0.407156 0.412238
0.321218 0.416114 0.418097
0.441917 0.419684 0.432776
0.594095 0.423941 0.429389
0.747677 0.440955 0.430076
0.872267 0.459541 0.439582
0.0278935 0.49688 0.412665
0.0764477 0.505684 0.420569
0.134432 0.517327 0.430961
0.213901 0.528878 0.440848
0.325811 0.537713 0.447257
0.460685 0.542901 0.45124
0.619028 0.547936 0.458457
0.79881 0.565774 0.451255
0.927871 0.589532 0.458473
0.0158999 0.633539 0.429313
0.0476692 0.641581 0.435721
0.113848 0.651514 0.443351
0.195285 0.658473 0.447272
0.31754 0.658335 0.444144
0.471489 0.658061 0.453437
0.65388 0.66746 0.467353
0.823697 0.695674 0.47808
0.950973 0.72871 0.494331
0.0128634 0.78265 0.47042
0.0204013 0.785306 0.473259
0.101823 0.794263 0.480507
0.194903 0.799893 0.484443
0.332845 0.788388 0.474556
0.507332 0.772625 0.479667
0.691966 0.777417 0.501411
0.858763 0.80882 0.499443
0.969177 0.835935 0.521324
0.0408637 0.919142 0.568185
0.0626535 0.92163 0.570596
0.1608 0.92813 0.575021
0.277928 0.925216 0.570352
0.437125 0.90222 0.552956
0.610452 0.879255 0.557733
0.774289 0.882231 0.581598
0.916396 0.903441 0.574243
1 0.938674 0.572198
0.0273899 0.0729686 0.298741
0.0273594 0.0754101 0.306447
0.0404364 0.0791333 0.326986
0.11841 0.0786297 0.35111
0.244862 0.0664378 0.380758
0.409796 0.0488441 0.400687
0.571572 0.0279698 0.392493
0.729519 0.0218662 0.367285
0.867277 0.0197452 0.35613
0.0264134 0.121752 0.317449
0.0263828 0.124544 0.325582
0.0519722 0.12961 0.344518
0.126619 0.131579 0.366873
0.247044 0.124331 0.397024
0.418647 0.113344 0.426032
0.588937 0.0966201 0.42327
0.750256 0.0750134 0.40029
0.881575 0.055848 0.380346
0.0252232 0.181674 0.343633
0.0251774 0.185306 0.351873
0.0675975 0.191516 0.367803
0.13991 0.196307 0.387518
0.253178 0.19379 0.415808
0.428931 0.190021 0.454826
0.613397 0.181399 0.462058
0.781765 0.169451 0.445289
0.910979 0.168841 0.435966
0.0235904 0.264408 0.381842
0.0314946 0.269474 0.386969
0.0846418 0.276493 0.396231
0.152987 0.282826 0.41001
0.258427 0.286168 0.432975
0.418112 0.286976 0.474693
0.62324 0.28716 0.498497
0.800504 0.283833 0.487694
0.925017 0.297047 0.488609
0.0260166 0.377676 0.446036
0.0663157 0.385 0.451164
0.11841 0.394476 0.457847
0.184649 0.40235 0.46215
0.277974 0.405478 0.465064
0.405325 0.411078 0.490944
0.615747 0.414374 0.532052
0.794934 0.420249 0.525063
0.91162 0.442832 0.535119
0.0250706 0.504601 0.503151
0.0722667 0.512718 0.511086
0.129854 0.522911 0.521065
0.208042 0.532631 0.5308
0.318791 0.540337 0.538262
0.444297 0.548409 0.543832
0.608454 0.551522 0.564126
0.77908 0.564584 0.56611
0.897917 0.592508 0.585061
0.0160067 0.644999 0.545403
0.0431983 0.654093 0.554376
0.109468 0.665141 0.565286
0.193866 0.674388 0.574685
0.311849 0.679026 0.579782
0.461601 0.687434 0.587777
0.64242 0.692454 0.596872
0.80853 0.706264 0.60592
0.92961 0.732067 0.618235
0.0129854 0.795834 0.603464
0.0256657 0.800931 0.609018
0.106203 0.811353 0.619623
0.199786 0.818616 0.627085
0.336324 0.814343 0.622095
0.503471 0.808377 0.61355
0.694759 0.807767 0.629206
0.848493 0.824765 0.638712
0.954269 0.851362 0.655055
0.0500038 0.932586 0.693629
0.120577 0.939406 0.699931
0.195956 0.945083 0.705013
0.311513 0.941497 0.699641
0.452873 0.927413 0.682307
0.617548 0.910887 0.667308
0.780591 0.911803 0.691005
0.899901 0.924788 0.706065
0.999115 0.953445 0.701198
0.027512 0.0798505 0.386175
0.027512 0.0809339 0.395438
0.0314641 0.0821088 0.414618
0.100252 0.0782788 0.436759
0.217258 0.0623331 0.464134
0.380224 0.037644 0.492714
0.560555 0.0235447 0.49955
0.7476 0.0213321 0.489342
0.920974 0.0196078 0.487037
0.0266117 0.124575 0.403616
0.0266117 0.126223 0.413199
0.0359503 0.12871 0.430854
0.105577 0.127092 0.451225
0.218326 0.11545 0.478096
0.382116 0.0974136 0.512032
0.573526 0.0725261 0.528176
0.763546 0.0341344 0.511543
0.927459 0.0195621 0.493599
0.0254826 0.181888 0.428153
0.025452 0.18436 0.437903
0.0442359 0.1879 0.453269
0.11426 0.18819 0.471275
0.22266 0.180117 0.495628
0.384939 0.170214 0.534051
0.593881 0.161593 0.566323
0.797803 0.140124 0.560372
0.96025 0.115587 0.549218
0.0238651 0.262028 0.458778
0.0238193 0.265293 0.465934
0.0503243 0.269551 0.476814
0.116442 0.270817 0.489723
0.217151 0.265919 0.507179
0.364187 0.262226 0.542275
0.592477 0.269398 0.595193
0.820874 0.265049 0.604303
0.985626 0.259815 0.606363
0.0216678 0.373709 0.51252
0.0236667 0.378546 0.515633
0.0660105 0.38349 0.519646
0.12697 0.38349 0.521721
0.219959 0.376715 0.525307
0.351629 0.377111 0.549554
0.5691 0.389288 0.608759
0.821759 0.401862 0.636515
0.977111 0.409003 0.643519
0.0191348 0.503563 0.586648
0.0430915 0.510964 0.592035
0.101183 0.519829 0.598093
0.17142 0.525185 0.599466
0.265568 0.520638 0.588708
0.382239 0.517906 0.584848
0.564385 0.531029 0.624949
0.815213 0.551278 0.666514
0.948287 0.570733 0.676585
0.0161135 0.654536 0.644617
0.0311589 0.662226 0.651545
0.104097 0.673961 0.66212
0.190585 0.683375 0.670542
0.310872 0.685161 0.671763
0.464652 0.690791 0.676005
0.633082 0.701442 0.681727
0.805737 0.710933 0.698741
0.908324 0.735927 0.711757
0.0130617 0.806592 0.698985
0.0447395 0.813413 0.705684
0.124163 0.823514 0.715602
0.22681 0.829007 0.721218
0.369619 0.82504 0.718166
0.534325 0.826169 0.719066
0.705257 0.834333 0.724254
0.844541 0.84097 0.740688
0.946868 0.863233 0.750576
0.151308 0.953277 0.775448
0.200046 0.956634 0.77879
0.276585 0.955978 0.77818
0.388281 0.949905 0.772015
0.516808 0.940398 0.761318
0.660975 0.937728 0.755123
0.796704 0.938598 0.761059
0.90724 0.948623 0.787228
0.998291 0.970321 0.791714
0.0284733 0.0502327 0.49366
0.0284733 0.0509041 0.500542
0.0285039 0.0522927 0.518105
0.0683146 0.0505684 0.53753
0.185702 0.0384375 0.559518
0.346136 0.0255741 0.5841
0.541878 0.0236973 0.599756
0.75375 0.0215763 0.592782
0.940551 0.0197147 0.583993
0.0279545 0.075761 0.504204
0.0279545 0.0768139 0.511299
0.0279698 0.0785077 0.527916
0.0720531 0.0766308 0.546273
0.18938 0.0631571 0.567391
0.350607 0.0422675 0.592264
0.550546 0.0256962 0.607187
0.762203 0.0215 0.594736
0.945495 0.0196689 0.586236
0.0263981 0.152407 0.526696
0.0263676 0.15491 0.534173
0.0263371 0.15903 0.549142
0.084535 0.160525 0.565728
0.197665 0.152834 0.585824
0.356619 0.140459 0.614313
0.570764 0.12961 0.644663
0.799161 0.117113 0.643549
0.973754 0.098909 0.629053
0.0244602 0.247044 0.54902
0.0243992 0.250858 0.555749
0.0251316 0.256916 0.568032
0.0914321 0.260578 0.580957
0.198856 0.256138 0.595621
0.347295 0.249317 0.621149
0.572625 0.252003 0.666072
0.825483 0.2598 0.684718
0.999878 0.260136 0.683726
0.0220493 0.364797 0.578134
0.021973 0.369467 0.581979
0.0280613 0.375845 0.588388
0.0960555 0.378637 0.593668
0.196628 0.370672 0.596643
0.327184 0.361639 0.608652
0.544656 0.371023 0.658305
0.823117 0.4047 0.706874
0.98735 0.417853 0.714092
0.0192111 0.508736 0.644465
0.0190738 0.515419 0.64741
0.06804 0.524407 0.650553
0.139254 0.529168 0.648493
0.23122 0.518318 0.631586
0.351553 0.505333 0.622293
0.542779 0.519417 0.661097
0.813062 0.562448 0.728435
0.959091 0.584024 0.740276
0.0159609 0.671244 0.708644
0.0260471 0.678233 0.713909
0.10161 0.690089 0.723064
0.189105 0.698741 0.728725
0.314443 0.697215 0.723751
0.463203 0.694591 0.714748
0.621164 0.70074 0.712261
0.809674 0.723903 0.756313
0.93228 0.744366 0.766949
0.0211032 0.823697 0.761425
0.0834363 0.831922 0.769314
0.156817 0.840345 0.777356
0.268894 0.841962 0.779309
0.411032 0.837034 0.775311
0.571557 0.838788 0.777447
0.729046 0.850095 0.788067
0.845808 0.861234 0.797284
0.938827 0.876326 0.809079
0.272602 0.969848 0.833585
0.32401 0.967712 0.831846
0.396292 0.963668 0.828382
0.494224 0.956939 0.822293
0.611154 0.954284 0.819379
0.727413 0.959289 0.822248
0.833997 0.964782 0.825818
0.926925 0.972229 0.84184
1 0.986542 0.858717
0.0285191 0.0610361 0.583047
0.0285191 0.0611887 0.584176
0.0285344 0.0625772 0.599817
0.0443122 0.0618753 0.617304
0.16463 0.049424 0.635615
0.330175 0.0293431 0.657542
0.539147 0.0239567 0.675319
0.767605 0.0216831 0.670756
0.951949 0.0198215 0.657877
0.0285191 0.0614481 0.586191
0.0285191 0.0616312 0.587777
0.0285344 0.0630045 0.603342
0.0461585 0.0620737 0.620539
0.169924 0.0490578 0.638758
0.338048 0.0286259 0.660594
0.548638 0.0238651 0.677562
0.776928 0.0215915 0.671244
0.956039 0.019791 0.657786
0.0279545 0.0887465 0.594797
0.027863 0.0936294 0.597726
0.0277409 0.10222 0.613703
0.0547341 0.111162 0.631388
0.179034 0.111223 0.651011
0.347784 0.106126 0.677104
0.570352 0.101656 0.706172
0.811658 0.101595 0.708812
0.984802 0.107927 0.699718
0.0251469 0.225391 0.62179
0.0250706 0.229572 0.624826
0.0249332 0.237995 0.63859
0.074342 0.245563 0.652873
0.192691 0.243778 0.667735
0.351705 0.23859 0.689799
0.586435 0.240375 0.728862
0.840986 0.256214 0.74905
1 0.276188 0.748943
0.0223087 0.361303 0.637675
0.0222324 0.36553 0.639841
0.0220798 0.373404 0.64773
0.0783551 0.378897 0.654734
0.190219 0.373159 0.658808
0.333318 0.365118 0.669673
0.556466 0.370123 0.711833
0.830106 0.411139 0.763287
0.983932 0.444083 0.772869
0.0191043 0.520653 0.692302
0.0189975 0.525536 0.694148
0.0412909 0.53521 0.696529
0.117617 0.540017 0.693751
0.21976 0.528161 0.677195
0.350423 0.506416 0.662684
0.544549 0.517159 0.697032
0.807782 0.570977 0.77229
0.954284 0.612772 0.792447
0.0157015 0.691142 0.761791
0.0255589 0.69836 0.766644
0.103609 0.709789 0.774334
0.201343 0.716228 0.776211
0.334203 0.70959 0.763027
0.47245 0.696483 0.739147
0.626703 0.702083 0.741726
0.797589 0.732479 0.788952
0.939895 0.766842 0.815747
0.0995193 0.850813 0.821653
0.150652 0.856596 0.826795
0.224491 0.859754 0.829435
0.340215 0.856519 0.826017
0.474205 0.85008 0.819272
0.62266 0.853391 0.820996
0.757107 0.864805 0.828519
0.857664 0.878401 0.835904
0.95668 0.89604 0.851148
0.491402 0.975448 0.863539
0.531411 0.972686 0.86099
0.588449 0.970169 0.858854
0.666346 0.97116 0.859892
0.749004 0.975647 0.863828
0.831586 0.981186 0.867887
0.896742 0.985748 0.870756
0.957916 0.989853 0.878904
1 0.996536 0.890547
