luts/wander.cube
TITLE "Generated by Resolve"
LUT_3D_SIZE 33
0.0275273 0.0270237 0.0251469
0.0275273 0.0270237 0.0251469
0.0275273 0.0270237 0.0251469
0.0275273 0.0270237 0.0251469
0.0275273 0.0270237 0.0251469
0.0275273 0.0270237 0.0251469
0.0343633 0.0269627 0.0250706
0.0555734 0.0267491 0.0248569
0.074876 0.026566 0.0246738
0.0919051 0.0263981 0.024506
0.10985 0.026215 0.0243229
0.129274 0.0278477 0.024094
0.150927 0.0295262 0.0238346
0.174685 0.0304875 0.0235752
0.199802 0.0309148 0.0233158
0.225803 0.0310521 0.0230564
0.252445 0.0310063 0.0227817
0.279927 0.0308385 0.0225071
0.307988 0.0304875 0.0222324
0.33669 0.029984 0.0219577
0.365515 0.0295567 0.0216678
0.395117 0.0290379 0.0213779
0.425193 0.0284581 0.021088
0.45658 0.0281987 0.0207828
0.488319 0.0278477 0.0204623
0.521019 0.0270237 0.0201572
0.553765 0.0261387 0.0198367
0.586877 0.0253147 0.0195163
0.621408 0.02533 0.0191653
0.657618 0.0256199 0.0187991
0.69485 0.0266575 0.0184024
0.729778 0.0292058 0.0179904
0.76289 0.0329442 0.0175784
0.0275273 0.0270237 0.0251469
0.0275273 0.0270237 0.0251469
0.0275273 0.0270237 0.0251469
0.0275273 0.0270237 0.0251469
0.0275273 0.0270237 0.0251469
0.0275273 0.0270237 0.0251469
0.0334325 0.026978 0.0250858
0.0537881 0.0267643 0.0248875
0.0727855 0.0265812 0.0246891
0.0909438 0.0263981 0.024506
0.109819 0.0269474 0.0243076
0.130541 0.0302434 0.024033
0.153155 0.0336614 0.0237278
0.177691 0.0364691 0.0234226
0.203784 0.0387732 0.0231022
0.230655 0.0406958 0.022797
0.258137 0.0423438 0.0224765
0.286473 0.0437476 0.0221561
0.315435 0.044831 0.0218509
0.3449 0.0456245 0.0215305
0.374914 0.0460517 0.0212253
0.405615 0.0460365 0.0209049
0.436683 0.0456397 0.0205997
0.468269 0.0449683 0.0202945
0.50045 0.0441749 0.0199893
0.533822 0.043183 0.0196689
0.567224 0.0422217 0.0193637
0.600855 0.0411688 0.0190433
0.634974 0.0400244 0.0187228
0.669886 0.0385901 0.0184024
0.704662 0.0370947 0.0180819
0.736431 0.0359655 0.0177768
0.76556 0.0350347 0.0175021
0.0274357 0.0315251 0.0250401
0.0274205 0.0319066 0.0250401
0.0274052 0.0324559 0.0250248
0.0274052 0.0330053 0.0250095
0.0273899 0.0336919 0.0249943
0.0273594 0.0347295 0.024979
0.0409857 0.0373083 0.0247807
0.0599222 0.0402075 0.0245365
0.0794842 0.0433661 0.0242618
0.0989395 0.0467689 0.0240024
0.11873 0.0500343 0.0237278
0.139452 0.0532845 0.0234379
0.161715 0.056199 0.02327
0.185977 0.05832 0.0231327
0.211963 0.0598764 0.0226596
0.238911 0.0610971 0.0222782
0.266514 0.0619516 0.0219883
0.294652 0.0625925 0.0222629
0.323568 0.062974 0.0220035
0.353353 0.0632181 0.0211185
0.383902 0.0633097 0.0207523
0.414771 0.0631723 0.0204471
0.446067 0.0627451 0.0201419
0.477638 0.06215 0.0198367
0.510109 0.061387 0.0195163
0.543557 0.0605173 0.0192111
0.577157 0.059617 0.0188907
0.611002 0.0586252 0.018555
0.645487 0.057435 0.0182345
0.68127 0.055848 0.0179141
0.716793 0.054139 0.0175937
0.749462 0.052781 0.0172885
0.779202 0.051667 0.0170138
0.0290532 0.0434882 0.0250858
0.0293889 0.0445869 0.0251316
0.0297246 0.0457465 0.0251621
0.0300908 0.046952 0.0251926
0.0305333 0.0483864 0.0252384
0.0327153 0.0505531 0.0255894
0.0503243 0.054612 0.0275883
0.0677195 0.0582589 0.0287022
0.0867323 0.0620432 0.0297398
0.106371 0.0656138 0.0298619
0.126513 0.0688487 0.0298009
0.147662 0.0717479 0.0293584
0.170092 0.0741588 0.0282902
0.194293 0.0757763 0.0264439
0.220096 0.076936 0.024033
0.246677 0.0779736 0.0230564
0.273793 0.0789044 0.0225986
0.301427 0.0798047 0.0228733
0.330144 0.0804456 0.0220951
0.359808 0.080827 0.0206912
0.390249 0.0810254 0.0203098
0.421347 0.0809796 0.0200046
0.452934 0.0806287 0.0196841
0.484855 0.0801404 0.019379
0.517983 0.0793927 0.0190585
0.551705 0.0785382 0.0187381
0.58587 0.0776379 0.0184024
0.62031 0.0766918 0.0180819
0.655497 0.0755322 0.0177462
0.692088 0.0740368 0.0174105
0.72781 0.0723888 0.0170901
0.760342 0.0710155 0.0167849
0.790158 0.069749 0.0165103
0.0349737 0.0630961 0.0257115
0.0354162 0.0640879 0.0259861
0.0357824 0.0651713 0.0264744
0.0360723 0.0663005 0.0271611
0.0365454 0.0675669 0.0276799
0.0420844 0.0695964 0.0286259
0.0599222 0.0735332 0.0322576
0.0778363 0.0771191 0.0344091
0.095613 0.081239 0.0362707
0.114977 0.0848402 0.0373388
0.13518 0.0881666 0.0374914
0.156512 0.0911116 0.0370642
0.178958 0.0935531 0.0363622
0.203189 0.0953231 0.0351415
0.229023 0.0966354 0.0330968
0.25565 0.0977951 0.0304417
0.282567 0.0989548 0.0291295
0.31014 0.100008 0.0280766
0.338689 0.101106 0.0256504
0.367941 0.101869 0.0241245
0.398215 0.102281 0.021973
0.429068 0.10251 0.0203098
0.460685 0.102449 0.0191348
0.492821 0.102205 0.0188144
0.526223 0.101518 0.0184939
0.560235 0.100786 0.0181735
0.594629 0.0999771 0.0178378
0.629374 0.0990768 0.0175021
0.665064 0.0979934 0.0171664
0.701839 0.0961166 0.0168307
0.73817 0.0943008 0.0165103
0.771466 0.0927901 0.0162051
0.802029 0.0915236 0.0159304
0.0421912 0.0833906 0.0344396
0.0424506 0.0847486 0.0353857
0.0428168 0.0860609 0.0361334
0.0432593 0.0873274 0.0366979
0.0438392 0.0887312 0.0371405
0.0525978 0.0909285 0.0386969
0.0695048 0.0945296 0.0408331
0.0886549 0.0978561 0.0416876
0.107454 0.102068 0.0439002
0.125383 0.106233 0.046479
0.145174 0.109834 0.0480812
0.16614 0.113054 0.0486915
0.188373 0.115602 0.0484627
0.212696 0.117479 0.0473335
0.238697 0.118868 0.0454414
0.265553 0.120043 0.043061
0.292988 0.121126 0.0404212
0.320851 0.122087 0.0374151
0.349279 0.123064 0.0342107
0.378408 0.124025 0.0314794
0.408209 0.124941 0.0285801
0.438361 0.125643 0.0261692
0.469673 0.125933 0.0230869
0.501701 0.125841 0.020325
0.535058 0.125322 0.0178988
0.568994 0.124681 0.0175631
0.603601 0.12398 0.0172274
0.638575 0.123186 0.0168917
0.674723 0.122194 0.016556
0.712245 0.120806 0.0162051
0.749004 0.119402 0.0158541
0.782681 0.118486 0.0155337
0.813977 0.117769 0.0152438
0.049424 0.104707 0.0441138
0.049836 0.106126 0.0448615
0.0502937 0.107469 0.0454566
0.0507973 0.108751 0.0458991
0.0514076 0.110124 0.0462501
0.0621805 0.112367 0.0485389
0.0777752 0.115602 0.0508888
0.0964828 0.119142 0.0521553
0.118914 0.122759 0.0542
0.136599 0.127474 0.0566262
0.155612 0.131319 0.059205
0.175875 0.134615 0.0604562
0.197635 0.137362 0.0604715
0.221958 0.139498 0.059556
0.248203 0.14107 0.0578622
0.275288 0.142351 0.0556649
0.302846 0.143526 0.053193
0.331014 0.144549 0.0503243
0.359854 0.145525 0.0470436
0.389487 0.146502 0.0432898
0.419532 0.147417 0.0390936
0.449943 0.148135 0.0343938
0.480812 0.148669 0.0303197
0.512535 0.148791 0.0260319
0.545632 0.148516 0.02121
0.57908 0.148226 0.0188754
0.613413 0.147814 0.0169528
0.648371 0.147341 0.0162814
0.684672 0.146639 0.0159762
0.722545 0.145647 0.0157778
0.759518 0.144884 0.0154574
0.793179 0.144884 0.0149386
0.824826 0.145159 0.0145418
0.0565042 0.126207 0.0534066
0.0570077 0.127657 0.0539559
0.0575113 0.129015 0.0543832
0.0580453 0.130266 0.0547036
0.0586557 0.131624 0.054963
0.0701457 0.133959 0.0575723
0.085771 0.136995 0.0602884
0.104524 0.140551 0.0625162
0.127581 0.144274 0.0644236
0.149996 0.147997 0.066804
0.166278 0.152895 0.0691081
0.185885 0.156283 0.0714885
0.207202 0.15906 0.0722057
0.231281 0.161364 0.0715038
0.257465 0.163088 0.0699168
0.284627 0.164553 0.0678264
0.312474 0.165866 0.0654307
0.340978 0.167086 0.0627604
0.370199 0.168109 0.0597238
0.40029 0.1691 0.0563668
0.430594 0.16994 0.0525521
0.461479 0.170657 0.0482338
0.492561 0.171237 0.0434119
0.524437 0.171603 0.0378882
0.557183 0.171679 0.0317998
0.590433 0.171771 0.0256199
0.624201 0.171908 0.0199283
0.658991 0.171847 0.018143
0.695308 0.171618 0.0176852
0.733303 0.171069 0.0164492
0.770535 0.170779 0.0153048
0.804013 0.171359 0.0150301
0.835721 0.172122 0.0149538
0.0632029 0.147829 0.0619821
0.0636606 0.149233 0.0623636
0.0641337 0.150546 0.0626688
0.0645914 0.151766 0.0628672
0.0651408 0.153079 0.063035
0.0775464 0.15552 0.0660258
0.0937362 0.158419 0.0690929
0.112657 0.161913 0.0717784
0.13547 0.165774 0.0740673
0.159091 0.169467 0.0760204
0.179492 0.17348 0.0783856
0.196155 0.177935 0.0804608
0.216632 0.180835 0.0821088
0.24036 0.183078 0.0821698
0.266346 0.185061 0.0809339
0.293538 0.186831 0.0791791
0.321584 0.188479 0.0771344
0.350408 0.189929 0.0747845
0.379934 0.19118 0.0720684
0.410269 0.192325 0.0689403
0.440894 0.193301 0.0656138
0.472251 0.194064 0.0618753
0.504097 0.194659 0.0576028
0.536706 0.195071 0.0525673
0.569619 0.195346 0.0469368
0.603082 0.195468 0.0408484
0.636866 0.195651 0.0347601
0.671519 0.195834 0.0289006
0.70782 0.195926 0.0233616
0.745373 0.195926 0.019501
0.781918 0.196262 0.018677
0.815091 0.197452 0.0186618
0.846555 0.198749 0.0188602
0.0688792 0.169635 0.0700847
0.069276 0.171008 0.0702678
0.0696727 0.17229 0.0704051
0.0700542 0.17348 0.0704814
0.0704814 0.174716 0.0704967
0.0845197 0.177188 0.07364
0.101289 0.180133 0.0769665
0.120638 0.183551 0.0799573
0.143328 0.18761 0.0823835
0.166964 0.191485 0.084184
0.189319 0.195193 0.0862135
0.208225 0.199191 0.0883345
0.225864 0.203174 0.0899519
0.248722 0.20557 0.0909133
0.274327 0.207523 0.0906539
0.301442 0.209674 0.0895857
0.329549 0.211643 0.087953
0.358557 0.213397 0.0859236
0.388403 0.214908 0.0835126
0.418997 0.216251 0.0807202
0.449821 0.217441 0.077821
0.481544 0.218341 0.0743572
0.514015 0.218982 0.0704662
0.547448 0.219318 0.0659342
0.580835 0.219486 0.0608988
0.614771 0.219532 0.0553445
0.648966 0.219715 0.0495613
0.68394 0.220005 0.043595
0.720439 0.22034 0.0373693
0.757885 0.220706 0.0317693
0.793591 0.221668 0.0284886
0.826261 0.223453 0.027039
0.857435 0.225315 0.0260624
0.0730602 0.192264 0.0770886
0.0734264 0.193576 0.0772869
0.0737774 0.194766 0.0773938
0.0740978 0.19588 0.0773632
0.0755627 0.197131 0.0774701
0.0906844 0.199573 0.0805676
0.10808 0.202487 0.084062
0.128206 0.205951 0.0874189
0.150744 0.21001 0.0901045
0.173144 0.214038 0.0917678
0.196292 0.217456 0.0932021
0.218158 0.220798 0.0951858
0.236637 0.224811 0.0969253
0.256519 0.22826 0.0979477
0.281392 0.230335 0.0985733
0.308095 0.232258 0.0982986
0.336233 0.23447 0.0973831
0.365408 0.236561 0.0958419
0.39556 0.238437 0.093904
0.426429 0.240116 0.0915694
0.457755 0.241596 0.0890059
0.489738 0.242817 0.0860304
0.522728 0.243671 0.0824598
0.55671 0.244114 0.0783093
0.590677 0.244266 0.0738079
0.625193 0.244205 0.068925
0.660105 0.244297 0.0637675
0.695903 0.244526 0.0582895
0.732982 0.244923 0.0523384
0.770504 0.245563 0.0465095
0.806012 0.246906 0.0420539
0.838514 0.249088 0.0396429
0.869062 0.251606 0.0383917
0.0758221 0.214969 0.082887
0.0760662 0.216175 0.0829328
0.0763256 0.217273 0.0829023
0.076585 0.21828 0.082826
0.0805524 0.219623 0.0835431
0.0962997 0.222034 0.0868238
0.114626 0.224964 0.0906386
0.135317 0.228473 0.0942855
0.157488 0.232502 0.0972152
0.178759 0.236469 0.0989242
0.200565 0.240085 0.100114
0.224308 0.24303 0.101457
0.246601 0.246189 0.10338
0.265965 0.250156 0.104494
0.288151 0.253193 0.105241
0.314199 0.255161 0.105776
0.34197 0.25716 0.105592
0.371283 0.25948 0.104845
0.40177 0.261814 0.103517
0.432944 0.263935 0.101732
0.464485 0.265797 0.0996414
0.497032 0.267369 0.0970626
0.530617 0.268528 0.093904
0.564797 0.269306 0.0901961
0.599344 0.269596 0.085893
0.63418 0.269642 0.0813306
0.669718 0.269718 0.0765698
0.706432 0.269917 0.071519
0.744503 0.270268 0.0662394
0.782345 0.271031 0.0612192
0.817914 0.272618 0.0572213
0.850355 0.275135 0.0549325
0.880613 0.278096 0.0537575
0.0772106 0.237659 0.0883803
0.0774243 0.238758 0.088304
0.0776379 0.23978 0.0881819
0.0778668 0.240711 0.0880293
0.0855879 0.242329 0.089601
0.102068 0.244785 0.0930037
0.121019 0.247776 0.0970016
0.142123 0.251377 0.100969
0.163149 0.255207 0.103838
0.183642 0.258976 0.105592
0.204608 0.262608 0.106844
0.227329 0.265812 0.107942
0.252628 0.268391 0.109346
0.275975 0.271565 0.110933
0.296468 0.275471 0.111543
0.32018 0.278233 0.112291
0.347433 0.280171 0.11281
0.376501 0.282307 0.112749
0.407111 0.28481 0.11223
0.438499 0.287449 0.111269
0.470497 0.28983 0.109667
0.503639 0.291875 0.107607
0.537926 0.293462 0.104921
0.572351 0.294636 0.101686
0.607431 0.295247 0.0977035
0.642649 0.295537 0.093431
0.678798 0.29575 0.0889448
0.716411 0.295995 0.0842298
0.755138 0.296391 0.07953
0.793378 0.297246 0.0751507
0.829282 0.299001 0.071931
0.861662 0.301747 0.0701762
0.892012 0.304982 0.0692149
0.0775769 0.260639 0.0940719
0.0777752 0.261646 0.0938888
0.0779736 0.262592 0.0936904
0.0781872 0.263462 0.0934615
0.0910811 0.265446 0.0960861
0.107942 0.267933 0.0996262
0.127092 0.270878 0.103609
0.147753 0.274449 0.107561
0.167865 0.278141 0.11043
0.187716 0.281773 0.112139
0.208148 0.285328 0.113313
0.230091 0.288609 0.114443
0.254704 0.291447 0.115572
0.28246 0.293629 0.116823
0.30663 0.297017 0.118074
0.327428 0.301076 0.118608
0.352926 0.303624 0.119463
0.381582 0.305669 0.120058
0.411978 0.308019 0.120134
0.44332 0.310796 0.11986
0.475944 0.313741 0.119173
0.509697 0.316426 0.117754
0.544564 0.318639 0.115694
0.579583 0.320287 0.112886
0.615167 0.321294 0.109316
0.650858 0.32192 0.105364
0.687633 0.322408 0.101045
0.725933 0.322866 0.0964218
0.764904 0.323507 0.0919661
0.803464 0.324498 0.0879225
0.839445 0.326467 0.0851759
0.871611 0.329458 0.0839857
0.902281 0.33283 0.0834516
0.0772869 0.283955 0.0995956
0.0774548 0.284901 0.0993668
0.0776226 0.285771 0.0991226
0.0818189 0.286946 0.0998398
0.0963912 0.289021 0.102724
0.113237 0.291524 0.106279
0.132158 0.294499 0.11017
0.152346 0.297993 0.114076
0.171771 0.301534 0.116793
0.191104 0.305043 0.118547
0.211093 0.308446 0.119753
0.232364 0.311727 0.120851
0.256153 0.314687 0.121828
0.283742 0.317082 0.122683
0.314199 0.319066 0.123857
0.337087 0.32314 0.124926
0.359274 0.327184 0.125505
0.386481 0.329641 0.126467
0.416403 0.331823 0.127123
0.447349 0.334432 0.127337
0.480262 0.337469 0.127169
0.514748 0.340673 0.126543
0.549935 0.343679 0.125353
0.585977 0.34609 0.123201
0.622156 0.347723 0.12018
0.658457 0.348806 0.116564
0.69604 0.349615 0.112398
0.734936 0.350408 0.108003
0.774289 0.35137 0.103716
0.813077 0.352651 0.099855
0.8486 0.354971 0.0975052
0.880781 0.358206 0.0966506
0.911482 0.361776 0.0963149
0.0767987 0.307668 0.104097
0.0769665 0.308537 0.103838
0.0771496 0.309361 0.103548
0.0870069 0.310964 0.105394
0.101061 0.313054 0.108293
0.11783 0.315496 0.111696
0.136446 0.318471 0.115587
0.156146 0.321965 0.119585
0.174823 0.325444 0.122576
0.193652 0.328908 0.124529
0.213306 0.332204 0.125628
0.234226 0.335378 0.12668
0.257206 0.338338 0.127718
0.28397 0.340902 0.128405
0.315602 0.342763 0.128969
0.345708 0.345296 0.130358
0.368322 0.349966 0.131273
0.392081 0.35404 0.131868
0.420478 0.356451 0.132921
0.45124 0.358831 0.133654
0.484031 0.361746 0.133959
0.518914 0.365072 0.133913
0.554513 0.368597 0.133471
0.591455 0.371771 0.132143
0.628351 0.374258 0.12987
0.665522 0.376028 0.126711
0.70396 0.377386 0.122911
0.743603 0.378653 0.118929
0.783368 0.37998 0.114839
0.822385 0.381613 0.11107
0.857282 0.384375 0.109071
0.889433 0.38793 0.108354
0.919951 0.391806 0.108186
0.0763104 0.332006 0.10721
0.076463 0.33283 0.10692
0.0784466 0.333791 0.107027
0.0911116 0.335622 0.109499
0.104921 0.337682 0.112398
0.121553 0.340093 0.115831
0.139956 0.343069 0.119677
0.15906 0.346471 0.123644
0.177218 0.349905 0.126741
0.195499 0.353338 0.128923
0.214649 0.356634 0.130434
0.235218 0.359747 0.131624
0.257862 0.362661 0.132692
0.283742 0.365225 0.133349
0.314794 0.367208 0.133669
0.347829 0.369299 0.134463
0.378027 0.372381 0.136019
0.400366 0.377661 0.136706
0.425208 0.381689 0.137407
0.455009 0.384253 0.138506
0.487572 0.386847 0.139315
0.521874 0.38999 0.139864
0.558236 0.393591 0.139925
0.595789 0.397314 0.139406
0.633524 0.400641 0.137942
0.671839 0.403372 0.135454
0.711391 0.405585 0.132082
0.751781 0.407599 0.128267
0.792004 0.409537 0.124422
0.830991 0.411826 0.121019
0.865812 0.415183 0.119326
0.897932 0.419257 0.118746
0.928252 0.423621 0.118746
0.0759747 0.357259 0.109346
0.0761425 0.358038 0.109026
0.081651 0.359289 0.109926
0.0939803 0.361089 0.112383
0.107713 0.363073 0.11519
0.124056 0.365438 0.118502
0.142382 0.368399 0.122423
0.160739 0.37171 0.126284
0.178592 0.375097 0.129473
0.196521 0.3785 0.131945
0.21532 0.381765 0.133684
0.235508 0.384878 0.135012
0.257771 0.387762 0.136187
0.282902 0.390372 0.13724
0.312856 0.392554 0.137591
0.346242 0.39469 0.137728
0.381109 0.396933 0.138689
0.410163 0.400748 0.140276
0.432715 0.406439 0.140719
0.459281 0.410727 0.141421
0.490791 0.413581 0.142489
0.524407 0.416403 0.143313
0.560937 0.419806 0.143694
0.598733 0.423667 0.143709
0.637461 0.427634 0.143145
0.677226 0.43122 0.141573
0.718227 0.434409 0.139086
0.759411 0.437232 0.135927
0.800153 0.43975 0.132464
0.839109 0.442664 0.129702
0.873945 0.44654 0.128359
0.905928 0.450965 0.127977
0.936156 0.45568 0.128191
0.0760052 0.384375 0.110613
0.076173 0.385183 0.110262
0.0827497 0.386465 0.111345
0.094789 0.388235 0.113787
0.108324 0.390143 0.116411
0.124392 0.392416 0.119615
0.142489 0.3953 0.123445
0.160708 0.398505 0.127184
0.178454 0.401816 0.130419
0.196216 0.405142 0.133059
0.214817 0.408347 0.135027
0.234668 0.411383 0.136477
0.256458 0.414176 0.137682
0.28127 0.416648 0.138796
0.310643 0.418738 0.139483
0.342977 0.42089 0.139574
0.378744 0.42298 0.139788
0.413596 0.425544 0.1411
0.442283 0.430121 0.142519
0.466651 0.435981 0.142962
0.494484 0.440482 0.143664
0.527382 0.443534 0.144778
0.563638 0.44654 0.145663
0.60148 0.450202 0.146151
0.640986 0.454292 0.146212
0.682155 0.458488 0.145541
0.724544 0.462577 0.144106
0.766705 0.46627 0.141833
0.807996 0.469657 0.139178
0.846769 0.473289 0.137072
0.881575 0.477592 0.136141
0.913314 0.482338 0.13611
0.943389 0.487282 0.136522
0.0767224 0.412482 0.11133
0.0769207 0.41326 0.110979
0.0828717 0.414435 0.111818
0.0947738 0.416052 0.114168
0.107988 0.417838 0.116655
0.123705 0.419944 0.119783
0.14168 0.422614 0.123461
0.15996 0.42562 0.127138
0.177646 0.428733 0.130388
0.195438 0.431937 0.133181
0.213916 0.435111 0.135302
0.233555 0.438102 0.136889
0.254978 0.440894 0.13814
0.2795 0.443229 0.139208
0.308461 0.445151 0.140124
0.3402 0.447135 0.140475
0.373846 0.449241 0.140429
0.411582 0.451377 0.140871
0.44744 0.454459 0.142504
0.476417 0.459724 0.143816
0.501625 0.465797 0.144305
0.531853 0.470512 0.145159
0.567102 0.473686 0.14641
0.605051 0.476982 0.147463
0.645075 0.480919 0.148058
0.687388 0.485191 0.148074
0.730846 0.489754 0.14757
0.773846 0.494163 0.146181
0.815473 0.498512 0.144533
0.854154 0.503075 0.14316
0.888579 0.508095 0.142626
0.920027 0.513527 0.142931
0.949889 0.518914 0.143481
0.0782635 0.441077 0.112139
0.0784924 0.44184 0.111803
0.0832837 0.442863 0.112413
0.0950027 0.444312 0.114549
0.107897 0.44596 0.117006
0.1234 0.447852 0.119921
0.141253 0.450263 0.12343
0.159594 0.453056 0.127062
0.177325 0.456046 0.130358
0.195132 0.459083 0.133165
0.213596 0.462089 0.135454
0.233143 0.465034 0.137209
0.254322 0.467765 0.138582
0.278614 0.469993 0.139712
0.307134 0.471687 0.14052
0.337606 0.473457 0.14107
0.371008 0.475486 0.14107
0.408148 0.477684 0.140826
0.447578 0.480156 0.141619
0.48304 0.483986 0.14342
0.511986 0.490089 0.144549
0.539437 0.496696 0.145037
0.571893 0.501534 0.146059
0.609598 0.505013 0.147524
0.650141 0.508644 0.148653
0.693126 0.51281 0.149142
0.737102 0.517418 0.149142
0.780606 0.522377 0.148699
0.822538 0.527428 0.147951
0.861021 0.532723 0.147417
0.894942 0.538476 0.147616
0.926162 0.544427 0.148241
0.955795 0.550195 0.14905
0.0808728 0.471122 0.11313
0.0811322 0.471885 0.112764
0.0832227 0.47274 0.112779
0.0949111 0.474144 0.114855
0.1075 0.4757 0.117205
0.12285 0.477424 0.119966
0.140414 0.479606 0.123293
0.159182 0.4822 0.12694
0.177111 0.484962 0.130205
0.195132 0.487861 0.133104
0.213703 0.49073 0.135576
0.233188 0.493507 0.137423
0.254337 0.496178 0.138964
0.278447 0.498299 0.140169
0.306065 0.499794 0.140948
0.336141 0.501228 0.141543
0.369299 0.503059 0.141665
0.405493 0.505211 0.141131
0.445136 0.507485 0.140993
0.485237 0.510384 0.142214
0.521477 0.515175 0.144076
0.550668 0.522133 0.144991
0.579995 0.528969 0.14551
0.615641 0.533822 0.146731
0.656626 0.537377 0.148196
0.699916 0.541283 0.149187
0.744076 0.545785 0.149615
0.787625 0.55082 0.149813
0.829633 0.556207 0.149813
0.867842 0.562112 0.150118
0.900999 0.568414 0.150958
0.931945 0.574807 0.15201
0.960983 0.581033 0.153094
0.0842603 0.502083 0.113985
0.084535 0.5028 0.113634
0.0848249 0.503532 0.113207
0.0939956 0.504768 0.114809
0.106569 0.506264 0.117144
0.121904 0.507988 0.120027
0.13962 0.510063 0.1234
0.159014 0.51252 0.127138
0.1776 0.515175 0.130556
0.196033 0.517998 0.133654
0.214878 0.520806 0.136339
0.234516 0.523568 0.138445
0.255558 0.526162 0.140093
0.27924 0.528206 0.141268
0.30631 0.529671 0.142229
0.336614 0.530953 0.142824
0.369406 0.532433 0.142916
0.404974 0.534295 0.142351
0.442832 0.536477 0.141558
0.485557 0.538918 0.141619
0.527352 0.542489 0.143053
0.5626 0.548226 0.144579
0.592233 0.55584 0.145006
0.624796 0.562676 0.145449
0.664576 0.567315 0.14667
0.707958 0.570993 0.148089
0.751934 0.575326 0.148959
0.79527 0.580224 0.149569
0.837186 0.585611 0.150118
0.874403 0.591836 0.151156
0.907195 0.59852 0.15256
0.937697 0.605203 0.153979
0.965667 0.611765 0.155322
0.088365 0.533776 0.114855
0.0886702 0.534478 0.114458
0.0889906 0.535164 0.114015
0.0920272 0.536019 0.114168
0.104616 0.537484 0.116548
0.119829 0.539239 0.119387
0.137743 0.541253 0.122774
0.157931 0.543664 0.126711
0.177554 0.546395 0.130526
0.196689 0.549264 0.133959
0.215991 0.552132 0.136889
0.235981 0.554955 0.13933
0.256825 0.557565 0.141131
0.2804 0.559686 0.142626
0.3075 0.561227 0.143694
0.337819 0.562463 0.144305
0.370687 0.563775 0.144396
0.404959 0.565332 0.143938
0.442679 0.567285 0.142763
0.485222 0.569543 0.141695
0.530022 0.572244 0.141863
0.571679 0.576501 0.143252
0.606622 0.583322 0.144106
0.638239 0.591455 0.143954
0.674861 0.598001 0.144259
0.717144 0.602426 0.145571
0.760998 0.606394 0.146929
0.804074 0.611124 0.147936
0.845609 0.616464 0.148928
0.881758 0.62266 0.150469
0.914107 0.629282 0.152285
0.943938 0.636057 0.154101
0.970703 0.642649 0.155718
0.0935378 0.566827 0.115648
0.0938582 0.567514 0.115236
0.0942245 0.5682 0.114794
0.0945907 0.568856 0.114336
0.100694 0.569924 0.115175
0.115908 0.57174 0.11809
0.134035 0.573739 0.121538
0.15465 0.576135 0.125582
0.176196 0.578912 0.12987
0.196567 0.581888 0.1337
0.216342 0.584833 0.136934
0.236698 0.587716 0.139712
0.258183 0.590341 0.141985
0.281849 0.592569 0.143725
0.308736 0.594232 0.1449
0.339239 0.595438 0.145632
0.371481 0.596567 0.145861
0.406195 0.597833 0.145434
0.443915 0.599512 0.144121
0.485283 0.601602 0.142214
0.531289 0.603784 0.141009
0.578195 0.606943 0.141421
0.620371 0.612284 0.14258
0.654948 0.620371 0.142473
0.688945 0.628504 0.141878
0.728435 0.634409 0.14229
0.771511 0.638651 0.143832
0.81442 0.64303 0.145266
0.855131 0.648096 0.14641
0.89041 0.654078 0.148302
0.922042 0.660517 0.150408
0.950988 0.667063 0.152605
0.976867 0.673533 0.15462
0.100313 0.601328 0.116854
0.100679 0.601984 0.116457
0.101045 0.602625 0.11606
0.101427 0.603265 0.115618
0.101839 0.603952 0.115129
0.110597 0.605295 0.116503
0.128756 0.607355 0.120012
0.14995 0.609674 0.124117
0.173098 0.61239 0.128786
0.195178 0.615442 0.13315
0.216434 0.618433 0.137026
0.237675 0.621317 0.140322
0.259754 0.624002 0.142977
0.283589 0.626368 0.145052
0.310491 0.628138 0.146517
0.340475 0.629236 0.147433
0.373495 0.630121 0.147814
0.409018 0.631159 0.147387
0.446632 0.632517 0.146014
0.487541 0.634302 0.143694
0.533288 0.636347 0.141329
0.583368 0.638773 0.140261
0.632258 0.642756 0.140749
0.672923 0.649653 0.140688
0.706615 0.658427 0.139559
0.743008 0.665873 0.138964
0.783795 0.671351 0.139895
0.8262 0.675547 0.141482
0.865919 0.680308 0.14316
0.900404 0.685985 0.145357
0.93135 0.692226 0.147829
0.958892 0.698528 0.150332
0.984253 0.704692 0.15256
0.108553 0.636744 0.119036
0.108934 0.637369 0.118654
0.109316 0.63798 0.118257
0.109712 0.63859 0.117845
0.11014 0.639216 0.117372
0.110674 0.639948 0.116747
0.122164 0.64155 0.118669
0.143954 0.643885 0.122972
0.168536 0.646555 0.128008
0.193271 0.649531 0.133135
0.216266 0.652567 0.137575
0.238712 0.655528 0.14136
0.261692 0.658289 0.144533
